;FLAVOR:Marlin
;TIME:1599
;Filament used: 1.90108m
;Layer height: 0.3
;Generated with Cura_SteamEngine 3.5.1
M82 ;absolute extrusion mode
;---------------------------------------
; ; ; Jellybox Start Script Begin ; ; ;
;_______________________________________
; for slicer: CURA 3
; start gcode last modified Jan 16, 2019

;              Print Settings Summary
; (leave these alone: this is only a list of the slicing settings)
; (overwriting these values will NOT change your printer's behavior)
;             sliced for :  IMADE3D JellyBOX 2
;        nozzle diameter :  0.4
;      filament diameter :  1.75
;           layer height :  0.3
;       1st layer height :  0.3
;             line width :  0.4  
;  outer wall wipe dist. :  0.5
;      infill line width :  0.6
;         wall thickness :  0.8
;          top thickness :  0.8
;       bottom thickness :  0.8
;         infill density :  70
;         infill pattern :  cubic
;      print temperature :  230
;  1st layer print temp. :  235
; heated bed temperature :  65
;    1st layer bed temp. :  70
;      regular fan speed :  30
;          max fan speed :  50
;     retraction amount  :  1.7
;   retr. retract speed  :  40
;     retr. prime speed  :  10
;   build plate adhesion :  skirt
;                support ?  False
;             spiralized ?  False

G21               ;metric values
G90               ;absolute positioning
M82               ;set extruder to absolute mode
M107              ;start with the fan off
M117 Preparing    ;write Preparing
M190 S45          ;wait for the bed to reach 45C
M109 S180         ;wait for the extruder to reach 180C
G28               ;home all axes
M203 Z4           ;slow Z speed down for greater accuracy when probing
G29               ;auto bed leveling procedure
;M500              ;optionally save the mesh
M203 Z7           ;pick up z speed again for printing
G28 X             ;home x to get as far from the plate as possible
M420 S1           ;(re) enable bed leveling turned off by the G28
G0 Y0 F5000       ;position Y in front
G0 Z15 F3000      ;position Z
M190 S70              ;wait for the bed to reach desired temperature
M109 S235             ;wait for the extruder to reach desired temperature
M300 S440 P300    ;play a tone
// M0 Ready! Click to start ; optionally, stop and wait for user to continue
M420 S1           ;(re) enable bed leveling to make iron-sure
M117 Print starting   ;write Print starting
;================ ;PRINT:LINE start
G90               ;absolute positioning
G92 E0            ;reset the extruder position
M420 S1           ;(re) enable bed leveling to make iron-sure
G0 Z0             ;get Z down
M83               ;relative extrusion mode
M420 S1           ;(re) enable bed leveling to make iron-sure
G1 E22 F300       ;extrude __mm of feed stock
G1 E18 F250       ;extrude __mm of feed stock
G1 E10 F250       ;extrude __mm of feed stock
G4 S2             ;pause for ooze
M400              ;make sure all is finished
M420 S1           ;(re) enable bed leveling to make iron-sure
G0 F500 X3 Y0 Z0.6;get to the start of the LINE
G1 E2 F300        ;extrude __mm of feed stock
G1 F1000 X104 E10  ;print a thick LINE extruding __mm along the way
M82               ;absolute extrusion mode
G92 E0            ;reset the extruder position
;---------------------------------------------
; ; ; Jellybox Printer Start Script End ; ; ;
;_____________________________________________

M83 ;relative extrusion mode
G1 F2400 E-1.7
;LAYER_COUNT:79
;LAYER:0
M107
G0 F3600 X65.51 Y55.949 Z0.3
;TYPE:SKIRT
G1 F600 E1.7
G1 F1200 X66.037 Y55.35 E0.03781
G1 X66.535 Y54.856 E0.03325
G1 X67.451 Y54.062 E0.05745
G1 X68.08 Y53.595 E0.03713
G1 X69.139 Y52.926 E0.05937
G1 X69.741 Y52.599 E0.03247
G1 X71.224 Y51.916 E0.07738
G1 X71.862 Y51.671 E0.03239
G1 X74.163 Y50.959 E0.11416
G1 X74.76 Y50.813 E0.02913
G1 X77.876 Y50.24 E0.15016
G1 X78.338 Y50.176 E0.02211
G1 X82.268 Y49.813 E0.18706
G1 X82.575 Y49.794 E0.01458
G1 X85.429 Y49.7 E0.13534
G1 X85.614 Y49.697 E0.00877
G1 X89.339 Y49.707 E0.17655
G1 X89.508 Y49.71 E0.00801
G1 X94.903 Y49.9 E0.25586
G1 X95.057 Y49.908 E0.00731
G1 X103.177 Y50.435 E0.38566
G1 X103.275 Y50.442 E0.00466
G1 X115.496 Y51.469 E0.58126
G1 X116.134 Y51.563 E0.03056
G1 X116.756 Y51.735 E0.03059
G1 X117.351 Y51.982 E0.03053
G1 X117.911 Y52.302 E0.03057
G1 X118.427 Y52.688 E0.03054
G1 X118.892 Y53.135 E0.03057
G1 X119.297 Y53.636 E0.03053
G1 X119.638 Y54.183 E0.03055
G1 X119.908 Y54.768 E0.03054
G1 X120.104 Y55.383 E0.03059
G1 X120.222 Y56.016 E0.03052
G1 X120.261 Y56.66 E0.03058
G1 X120.241 Y57.104 E0.02107
G1 X120.049 Y59.302 E0.10457
G1 X119.987 Y59.769 E0.02233
G1 X119.21 Y64.088 E0.20799
G1 X118.515 Y69.443 E0.25593
G1 X118.128 Y74.752 E0.25229
G1 X118.072 Y81.972 E0.34221
G1 X118.053 Y82.378 E0.01926
G1 X117.694 Y86.551 E0.19851
G1 X117.599 Y87.188 E0.03052
G1 X117.426 Y87.809 E0.03055
G1 X117.306 Y88.122 E0.01589
G1 X116.193 Y90.766 E0.13596
G1 X114.318 Y95.827 E0.2558
G1 X112.745 Y100.94 E0.25354
G1 X111.439 Y106.233 E0.25839
G1 X110.929 Y108.762 E0.12228
G1 X110.003 Y114.116 E0.25752
G1 X109.854 Y114.743 E0.03054
G1 X109.628 Y115.347 E0.03057
G1 X109.33 Y115.918 E0.03053
G1 X108.963 Y116.448 E0.03055
G1 X108.533 Y116.929 E0.03058
G1 X108.047 Y117.352 E0.03054
G1 X107.513 Y117.713 E0.03055
G1 X106.938 Y118.004 E0.03054
G1 X106.331 Y118.222 E0.03057
G1 X105.702 Y118.363 E0.03055
G1 X105.06 Y118.426 E0.03057
G1 X104.433 Y118.41 E0.02973
G1 X95.812 Y117.668 E0.41011
G1 X95.174 Y117.573 E0.03057
G1 X94.553 Y117.4 E0.03055
G1 X93.959 Y117.151 E0.03053
G1 X93.399 Y116.831 E0.03057
G1 X92.884 Y116.444 E0.03053
G1 X92.42 Y115.996 E0.03057
G1 X92.015 Y115.494 E0.03057
G1 X91.676 Y114.946 E0.03054
G1 X91.407 Y114.36 E0.03056
G1 X91.277 Y113.98 E0.01904
G1 X90.118 Y110.116 E0.1912
G1 X88.333 Y105.039 E0.25507
G1 X86.267 Y100.081 E0.25457
G1 X83.932 Y95.265 E0.25367
G1 X81.329 Y90.587 E0.25373
G1 X78.45 Y86.038 E0.25515
G1 X75.333 Y81.682 E0.25387
G1 X71.973 Y77.508 E0.25396
G1 X68.368 Y73.511 E0.25511
G1 X65.591 Y70.708 E0.18701
G1 X65.166 Y70.222 E0.0306
G1 X64.956 Y69.929 E0.01709
G1 X64.339 Y69.002 E0.05278
G1 X64.016 Y68.444 E0.03056
G1 X63.722 Y67.726 E0.03677
G1 X63.353 Y66.589 E0.05666
G1 X63.192 Y65.965 E0.03054
G1 X63.121 Y65.463 E0.02403
G1 X62.973 Y63.863 E0.07616
G1 X62.954 Y63.219 E0.03054
G1 X62.984 Y62.796 E0.0201
G1 X63.182 Y61.055 E0.08305
G1 X63.295 Y60.421 E0.03052
G1 X63.42 Y59.986 E0.02145
G1 X63.78 Y58.915 E0.05355
G1 X64.023 Y58.318 E0.03055
G1 X64.237 Y57.918 E0.0215
G1 X64.942 Y56.73 E0.06547
G1 X65.355 Y56.163 E0.03325
G0 F1080 X65.51 Y55.949
G1 F2400 E-1.7
G1 F300 Z0.5
G0 F3600 X75.294 Y63.789 Z0.5
;TYPE:WALL-INNER
G1 F300 Z0.3
G1 F600 E1.71256
G1 F1200 X75.488 Y63.573 E0.01376
G1 X75.621 Y63.32 E0.01355
G1 X75.683 Y63.036 E0.01378
G1 X75.67 Y62.75 E0.01357
G1 X75.584 Y62.475 E0.01366
G1 X75.429 Y62.231 E0.0137
G1 X75.216 Y62.036 E0.01369
G1 X74.96 Y61.903 E0.01367
G1 X74.68 Y61.841 E0.01359
G1 X74.389 Y61.852 E0.0138
G1 X74.113 Y61.942 E0.01376
G1 X73.874 Y62.094 E0.01342
G1 X73.677 Y62.307 E0.01375
G1 X73.543 Y62.565 E0.01378
G1 X73.481 Y62.847 E0.01368
G1 X73.494 Y63.134 E0.01362
G1 X73.58 Y63.408 E0.01361
G1 X73.735 Y63.652 E0.0137
G1 X73.947 Y63.846 E0.01362
G1 X74.204 Y63.981 E0.01376
G1 X74.488 Y64.043 E0.01378
G1 X74.774 Y64.03 E0.01357
G1 X75.047 Y63.944 E0.01357
G1 X75.207 Y63.843 E0.00897
G0 F1080 X75.294 Y63.789
G1 F2400 E-1.7
G1 F300 Z0.5
G0 F3600 X75.403 Y63.816 Z0.5
G0 X80.366 Y64.944
G1 F300 Z0.3
G1 F600 E1.70488
G1 F1200 X80.715 Y64.856 E0.01706
G1 X81.499 Y64.572 E0.03952
G1 X82.028 Y64.393 E0.02647
G1 X82.844 Y64.14 E0.04049
G1 X83.568 Y63.942 E0.03557
G1 X84.484 Y63.731 E0.04455
G1 X85.279 Y63.588 E0.03828
G1 X86.106 Y63.479 E0.03954
G1 X86.948 Y63.415 E0.04002
G1 X87.825 Y63.395 E0.04158
G1 X88.732 Y63.43 E0.04302
G1 X89.631 Y63.52 E0.04282
G1 X90.551 Y63.672 E0.0442
G1 X91.456 Y63.889 E0.04411
G1 X92.369 Y64.179 E0.0454
G1 X92.922 Y64.395 E0.02814
G1 X93.446 Y64.63 E0.02722
G1 X94.328 Y65.091 E0.04717
G1 X95.012 Y65.513 E0.03809
G1 X95.68 Y65.985 E0.03877
G1 X96.332 Y66.512 E0.03973
G1 X96.923 Y67.056 E0.03807
G1 X97.495 Y67.653 E0.03919
G1 X97.981 Y68.227 E0.03565
G1 X98.436 Y68.826 E0.03565
G1 X98.587 Y69.006 E0.01114
G1 X98.784 Y69.183 E0.01255
G1 X99.004 Y69.327 E0.01246
G1 X99.242 Y69.441 E0.01251
G1 X99.491 Y69.518 E0.01235
G1 X99.751 Y69.562 E0.0125
G1 X100.017 Y69.565 E0.01261
G1 X100.286 Y69.53 E0.01286
G1 X100.619 Y69.43 E0.01648
G1 X100.873 Y69.302 E0.01348
G1 X101.099 Y69.14 E0.01318
G1 X101.297 Y68.949 E0.01304
G1 X101.473 Y68.72 E0.01369
G1 X101.647 Y68.375 E0.01831
G1 X101.715 Y68.15 E0.01114
G1 X101.756 Y67.9 E0.01201
G1 X102.441 Y60.05 E0.37347
G1 X102.44 Y59.745 E0.01446
G1 X102.379 Y59.417 E0.01581
G1 X102.263 Y59.116 E0.01529
G1 X102.143 Y58.902 E0.01163
G1 X101.951 Y58.655 E0.01483
G1 X101.693 Y58.425 E0.01638
G1 X101.397 Y58.247 E0.01637
G1 X101.073 Y58.127 E0.01638
G1 X100.757 Y58.073 E0.01519
G1 X98.602 Y57.926 E0.10238
G1 X96.498 Y57.797 E0.09991
G1 X94.447 Y57.687 E0.09735
G1 X93.027 Y57.619 E0.06738
G1 X91.071 Y57.547 E0.09277
G1 X89.548 Y57.509 E0.07221
G1 X88.068 Y57.489 E0.07015
G1 X86.634 Y57.488 E0.06797
G1 X85.25 Y57.507 E0.0656
G1 X83.918 Y57.547 E0.06316
G1 X82.639 Y57.608 E0.06069
G1 X81.419 Y57.691 E0.05796
G1 X80.238 Y57.797 E0.0562
G1 X79.978 Y57.846 E0.01254
G1 X79.712 Y57.938 E0.01334
G1 X79.462 Y58.072 E0.01344
G1 X79.233 Y58.243 E0.01355
G1 X78.996 Y58.489 E0.01619
G1 X78.842 Y58.721 E0.0132
G1 X78.746 Y58.909 E0.01
G1 X78.658 Y59.173 E0.01319
G1 X78.611 Y59.428 E0.01229
G1 X78.26 Y62.96 E0.16823
G1 X78.262 Y63.297 E0.01597
G1 X78.291 Y63.486 E0.00906
G1 X78.366 Y63.74 E0.01255
G1 X78.433 Y63.906 E0.00848
G1 X78.581 Y64.16 E0.01393
G1 X78.708 Y64.326 E0.00991
G1 X78.923 Y64.535 E0.01421
G1 X79.083 Y64.653 E0.00942
G1 X79.212 Y64.728 E0.00707
G1 X79.498 Y64.859 E0.01491
G1 X79.655 Y64.901 E0.0077
G1 X79.974 Y64.957 E0.01535
G1 X80.101 Y64.952 E0.00602
G0 F1080 X80.366 Y64.944
G1 F2400 E-1.7
G1 F300 Z0.5
G0 F3600 X80.431 Y65.032 Z0.5
G0 X106.835 Y85.005
G1 F300 Z0.3
G1 F600 E1.71256
G1 F1200 X106.818 Y85.204 E0.00947
G1 X104.444 Y112.409 E1.2943
G1 X104.427 Y112.608 E0.00947
G1 X104.228 Y112.591 E0.00611
G1 X96.899 Y111.951 E0.34868
G1 X99.169 Y85.938 E1.23759
G1 X99.257 Y84.35 E0.07538
G1 X99.304 Y82.757 E0.07553
G1 X99.303 Y81.14 E0.07664
G1 X99.241 Y79.518 E0.07693
G1 X99.184 Y78.705 E0.03863
G1 X99.1 Y77.852 E0.04062
G1 X98.988 Y76.958 E0.0427
G1 X98.885 Y76.307 E0.03124
G1 X98.655 Y75.131 E0.05679
G1 X98.48 Y74.403 E0.03549
G1 X98.311 Y73.809 E0.02927
G1 X97.939 Y72.691 E0.05584
G1 X97.686 Y72.055 E0.03244
G1 X97.402 Y71.433 E0.03241
G1 X97.09 Y70.823 E0.03247
G1 X96.741 Y70.23 E0.03261
G1 X96.454 Y69.79 E0.0249
G1 X96.042 Y69.23 E0.03295
G1 X95.598 Y68.702 E0.0327
G1 X95.234 Y68.318 E0.02508
G1 X94.677 Y67.803 E0.03595
G1 X94.078 Y67.329 E0.0362
G1 X93.439 Y66.902 E0.03643
G1 X92.761 Y66.526 E0.03674
G1 X92.06 Y66.207 E0.0365
G1 X91.34 Y65.945 E0.03631
G1 X90.608 Y65.736 E0.03608
G1 X90.026 Y65.608 E0.02824
G1 X89.353 Y65.499 E0.03231
G1 X88.974 Y65.455 E0.01808
G1 X88.566 Y65.421 E0.0194
G1 X88.128 Y65.4 E0.02078
G1 X87.659 Y65.395 E0.02223
G1 X87.158 Y65.407 E0.02375
G1 X86.63 Y65.442 E0.02508
G1 X86.195 Y65.48 E0.0207
G1 X85.587 Y65.562 E0.02908
G1 X84.497 Y65.769 E0.05258
G1 X83.384 Y66.059 E0.05451
G1 X82.47 Y66.346 E0.04541
G1 X81.47 Y66.697 E0.05023
G1 X79.622 Y67.393 E0.09359
G1 X78.255 Y67.865 E0.06854
G1 X77.378 Y68.106 E0.04311
G1 X77.17 Y68.154 E0.01012
G1 X76.298 Y68.314 E0.04202
G1 X75.776 Y68.372 E0.02489
G1 X75.383 Y68.398 E0.01867
G1 X74.851 Y68.408 E0.02522
G1 X74.295 Y68.386 E0.02637
G1 X73.809 Y68.342 E0.02313
G1 X73.279 Y68.265 E0.02538
G1 X72.817 Y68.174 E0.02232
G1 X72.46 Y68.089 E0.01739
G1 X72.033 Y67.966 E0.02106
G1 X71.637 Y67.829 E0.01986
G1 X71.26 Y67.675 E0.0193
G1 X70.854 Y67.48 E0.02135
G1 X70.518 Y67.292 E0.01825
G1 X70.105 Y67.004 E0.02386
G1 X69.738 Y66.668 E0.02358
G1 X69.429 Y66.277 E0.02362
G1 X69.215 Y65.899 E0.02059
G1 X69.011 Y65.382 E0.02634
G1 X68.874 Y64.844 E0.02631
G1 X68.794 Y64.359 E0.0233
G1 X68.747 Y63.814 E0.02593
G1 X68.737 Y63.533 E0.01333
G1 X68.743 Y63.102 E0.02043
G1 X68.761 Y62.801 E0.01429
G1 X68.814 Y62.344 E0.02181
G1 X68.898 Y61.899 E0.02146
G1 X68.982 Y61.553 E0.01688
G1 X69.126 Y61.118 E0.02172
G1 X69.25 Y60.81 E0.01574
G1 X69.448 Y60.411 E0.02111
G1 X69.691 Y60.013 E0.0221
G1 X69.881 Y59.745 E0.01557
G1 X70.176 Y59.389 E0.02191
G1 X70.41 Y59.144 E0.01606
G1 X70.765 Y58.817 E0.02288
G1 X71.129 Y58.527 E0.02206
G1 X71.421 Y58.317 E0.01705
G1 X72.015 Y57.945 E0.03322
G1 X72.656 Y57.607 E0.03435
G1 X73.315 Y57.311 E0.03424
G1 X74.02 Y57.04 E0.0358
G1 X74.709 Y56.811 E0.03441
G1 X75.432 Y56.604 E0.03564
G1 X76.141 Y56.428 E0.03462
G1 X76.9 Y56.265 E0.03679
G1 X78.033 Y56.064 E0.05454
G1 X79.215 Y55.897 E0.05658
G1 X79.567 Y55.855 E0.0168
G1 X80.844 Y55.723 E0.06085
G1 X82.188 Y55.619 E0.06389
G1 X83.594 Y55.547 E0.06673
G1 X85.079 Y55.503 E0.07041
G1 X87.085 Y55.481 E0.09508
G1 X88.936 Y55.497 E0.08773
G1 X90.049 Y55.518 E0.05276
G1 X91.674 Y55.567 E0.07705
G1 X94.488 Y55.685 E0.13349
G1 X97.172 Y55.833 E0.1274
G1 X99.835 Y56.006 E0.12648
G1 X102.418 Y56.192 E0.12274
G1 X104.892 Y56.388 E0.11762
G1 X110.565 Y56.864 E0.26982
G1 X110.65 Y56.871 E0.00404
G1 X110.883 Y56.891 E0.01108
G1 X111.203 Y56.918 E0.01522
G1 X111.547 Y56.947 E0.01636
G1 X111.89 Y56.976 E0.01631
G1 X112.211 Y57.003 E0.01527
G1 X112.439 Y57.023 E0.01085
G1 X112.482 Y57.026 E0.00204
G1 X114.223 Y57.174 E0.08281
G1 X114.422 Y57.19 E0.00946
G1 X114.405 Y57.389 E0.0061
G1 X114.298 Y58.6 E0.05762
G1 X113.998 Y58.767 E0.01627
G1 X113.665 Y58.968 E0.01844
G1 X113.502 Y59.065 E0.00899
G1 X113.459 Y59.094 E0.00246
G1 X113.385 Y59.144 E0.00423
G1 X113.385 Y59.065 E0.00058
G1 X113.385 Y58.986 E0.00115
G1 X113.354 Y58.799 E0.00658
G1 X113.331 Y58.66 E0.00668
G1 X113.259 Y58.422 E0.01179
G1 X113.116 Y58.118 E0.01592
G1 X112.918 Y57.835 E0.01637
G1 X112.677 Y57.593 E0.01619
G1 X112.443 Y57.422 E0.01374
G1 X112.408 Y57.397 E0.00198
G1 X112.188 Y57.282 E0.01034
G1 X111.873 Y57.167 E0.00952
G1 X111.533 Y57.104 E0.00714
G1 X111.187 Y57.102 E0.00722
G1 X110.861 Y57.155 E0.00891
G1 X110.622 Y57.224 E0.00923
G1 X110.544 Y57.26 E0.00384
G1 X110.311 Y57.368 E0.01217
G1 X110.025 Y57.566 E0.01649
G1 X109.777 Y57.812 E0.01656
G1 X109.583 Y58.082 E0.01576
G1 X109.465 Y58.302 E0.01183
G1 X109.348 Y58.624 E0.01624
G1 X109.288 Y58.972 E0.01674
G1 X109.29 Y59.318 E0.0164
G1 X109.348 Y59.65 E0.01597
G1 X109.424 Y59.888 E0.01184
G1 X109.569 Y60.193 E0.01601
G1 X109.773 Y60.478 E0.01661
G1 X110.021 Y60.721 E0.01646
G1 X110.296 Y60.913 E0.0159
G1 X110.52 Y61.025 E0.01187
G1 X110.747 Y61.104 E0.01139
G1 X110.834 Y61.134 E0.00436
G1 X110.974 Y61.158 E0.00673
G1 X110.919 Y61.215
G1 X110.744 Y61.394 E0.00884
G1 X110.683 Y61.463 E0.0038
G1 X110.506 Y61.664 E0.01269
G1 X109.918 Y62.397 E0.04454
G1 X109.382 Y63.166 E0.04443
G1 X109.185 Y63.475 E0.01737
G1 X108.721 Y64.287 E0.04433
G1 X108.557 Y64.61 E0.01717
G1 X108.308 Y65.131 E0.02737
G1 X108.159 Y65.465 E0.01733
G1 X107.824 Y66.336 E0.04423
G1 X107.707 Y66.687 E0.01754
G1 X107.49 Y67.426 E0.0365
G1 X107.384 Y67.847 E0.02058
G1 X107.219 Y68.642 E0.03848
G1 X107.177 Y68.893 E0.01206
G1 X107.072 Y69.712 E0.03913
G1 X107.046 Y69.985 E0.013
G1 X107.006 Y70.778 E0.03763
G1 X107.003 Y71.073 E0.01398
G1 X107.024 Y71.886 E0.03855
G1 X107.046 Y72.201 E0.01497
G1 X107.135 Y73.024 E0.03923
G1 X107.274 Y73.844 E0.03942
G1 X107.338 Y74.153 E0.01496
G1 X107.528 Y74.908 E0.0369
G1 X107.759 Y75.646 E0.03665
G1 X107.863 Y75.941 E0.01483
G1 X108.149 Y76.666 E0.03694
G1 X108.475 Y77.369 E0.03673
G1 X108.616 Y77.651 E0.01494
G1 X109.145 Y78.581 E0.05071
G1 X109.403 Y78.987 E0.0228
G1 X109.74 Y79.476 E0.02815
G1 X110.02 Y79.857 E0.02241
G1 X110.675 Y80.652 E0.04882
G1 X110.932 Y80.932 E0.01801
G1 X111.332 Y81.349 E0.02739
G1 X111.59 Y81.606 E0.01726
G1 X112.258 Y82.204 E0.04249
G1 X111.994 Y85.257 E0.14524
G1 X111.977 Y85.456 E0.00947
G1 X111.778 Y85.439 E0.00611
G1 X110.119 Y85.295 E0.07893
