; G-Code generated by Simplify3D(R) Version 4.0.0
; Jan 3, 2018 at 1:46:53 PM
; Settings Summary
;   processName,Process1
;   applyToModels,extruder 8mm-ed pink
;   profileName,PETG 0.3 he.20 bt50 (modified)
;   profileVersion,2017-02-27 16:30:54
;   baseProfile,Default (modified)
;   printMaterial,
;   printQuality,
;   printExtruders,
;   extruderName,Primary Extruder
;   extruderToolheadNumber,0
;   extruderDiameter,0.4
;   extruderAutoWidth,0
;   extruderWidth,0.46
;   extrusionMultiplier,1
;   extruderUseRetract,1
;   extruderRetractionDistance,1.4
;   extruderExtraRestartDistance,-0.1
;   extruderRetractionZLift,0.1
;   extruderRetractionSpeed,4200
;   extruderUseCoasting,1
;   extruderCoastingDistance,0.2
;   extruderUseWipe,1
;   extruderWipeDistance,0.2
;   primaryExtruder,0
;   layerHeight,0.3
;   topSolidLayers,3
;   bottomSolidLayers,2
;   perimeterOutlines,2
;   printPerimetersInsideOut,1
;   startPointOption,2
;   startPointOriginX,80
;   startPointOriginY,0
;   sequentialIslands,0
;   spiralVaseMode,0
;   firstLayerHeightPercentage,100
;   firstLayerWidthPercentage,120
;   firstLayerUnderspeed,0.35
;   useRaft,0
;   raftExtruder,0
;   raftTopLayers,3
;   raftBaseLayers,2
;   raftOffset,3
;   raftSeparationDistance,0.14
;   raftTopInfill,100
;   aboveRaftSpeedMultiplier,0.3
;   useSkirt,1
;   skirtExtruder,0
;   skirtLayers,1
;   skirtOutlines,2
;   skirtOffset,3
;   usePrimePillar,0
;   primePillarExtruder,999
;   primePillarWidth,12
;   primePillarLocation,7
;   primePillarSpeedMultiplier,1
;   useOozeShield,0
;   oozeShieldExtruder,999
;   oozeShieldOffset,2
;   oozeShieldOutlines,1
;   oozeShieldSidewallShape,1
;   oozeShieldSidewallAngle,30
;   oozeShieldSpeedMultiplier,1
;   infillExtruder,0
;   internalInfillPattern,Rectilinear
;   externalInfillPattern,Rectilinear
;   infillPercentage,25
;   outlineOverlapPercentage,30
;   infillExtrusionWidthPercentage,150
;   minInfillLength,2
;   infillLayerInterval,1
;   internalInfillAngles,45,-45
;   overlapInternalInfillAngles,0
;   externalInfillAngles,45,-45
;   generateSupport,1
;   supportExtruder,0
;   supportInfillPercentage,33
;   supportExtraInflation,0.5
;   supportBaseLayers,0
;   denseSupportExtruder,0
;   denseSupportLayers,0
;   denseSupportInfillPercentage,70
;   supportLayerInterval,1
;   supportHorizontalPartOffset,0.8
;   supportUpperSeparationLayers,1
;   supportLowerSeparationLayers,1
;   supportType,0
;   supportGridSpacing,1.5
;   maxOverhangAngle,55
;   supportAngles,15
;   temperatureName,Primary Extruder,bed
;   temperatureNumber,0,0
;   temperatureSetpointCount,2,2
;   temperatureSetpointLayers,1,2,1,2
;   temperatureSetpointTemperatures,240,235,65,60
;   temperatureStabilizeAtStartup,1,1
;   temperatureHeatedBed,0,1
;   temperatureRelayBetweenLayers,0,0
;   temperatureRelayBetweenLoops,0,0
;   fanLayers,1,4
;   fanSpeeds,0,20
;   blipFanToFullPower,1
;   adjustSpeedForCooling,0
;   minSpeedLayerTime,15
;   minCoolingSpeedSlowdown,65
;   increaseFanForCooling,1
;   minFanLayerTime,15
;   maxCoolingFanSpeed,60
;   increaseFanForBridging,1
;   bridgingFanSpeed,100
;   use5D,1
;   relativeEdistances,0
;   allowEaxisZeroing,1
;   independentExtruderAxes,0
;   includeM10123,0
;   stickySupport,1
;   applyToolheadOffsets,0
;   gcodeXoffset,0
;   gcodeYoffset,0
;   gcodeZoffset,0
;   overrideMachineDefinition,1
;   machineTypeOverride,0
;   strokeXoverride,170
;   strokeYoverride,160
;   strokeZoverride,145
;   originOffsetXoverride,0
;   originOffsetYoverride,0
;   originOffsetZoverride,0
;   homeXdirOverride,-1
;   homeYdirOverride,-1
;   homeZdirOverride,-1
;   flipXoverride,1
;   flipYoverride,-1
;   flipZoverride,1
;   toolheadOffsets,0,0|0,0|0,0|0,0|0,0|0,0
;   overrideFirmwareConfiguration,1
;   firmwareTypeOverride,RepRap (Marlin/Repetier/Sprinter)
;   GPXconfigOverride,r2
;   baudRateOverride,250000
;   overridePrinterModels,0
;   printerModelsOverride
;   startingGcode,;---------------------------------------,; ; ; Jellybox Start Script Begin ; ; ;,;_______________________________________,M117 Preparing        ; write Preparing,; M92 E140            ; optionally adjust E steps/mm,M207 S1.5 F600 Z0     ; optionally adjust retract settings,M208 S-0.00 F600      ; optionally adjust unretract = recover settings,M206 X10.0 Y0.0       ; set x homing offset for default bed leveling,G21                   ; metric values,G90                   ; absolute positioning,M107                  ; start with the fan off,M82                   ; set extruder to absolute mode,G28                   ; home all axes,M203 Z4               ; slow Z speed down for greater accuracy when probing,G29                   ; auto bed leveling procedure,M203 Z7               ; pick up z speed again for printing,G92 E0                ; reset the extruder position,G1 F1500 E15          ; extrude 15mm of feed stock,G92 E0                ; reset the extruder position again,M117 Print starting   ; write Print starting,;---------------------------------------------,; ; ; Jellybox Printer Start Script End ; ; ;,;_____________________________________________
;   layerChangeGcode,
;   retractionGcode,
;   toolChangeGcode,
;   endingGcode,; ---------------------------------,; ; ;  Jellybox End Script Begin ; ; ;,; _________________________________,M117 Finishing Up ; write Finishing Up,M107                  ; sfan off,M104 S0            ; extruder heater off,M140 S0            ; bed heater off (if you have it),G91                ; relative positioning,G1 E-1 F300        ; retract the filament a bit before lifting the nozzle to release some of the pressure,G1 Z+0.5 E-5 X-20 Y-20 F9000 ; move Z up a bit and retract filament even more,G90                ; absolute positioning,G28 X              ; home x so the head is out of the way,G1 Y100            ; move Y forward so the print is more accessible,M84                ; steppers off,M117 Print finished ; write Print finisheds,; ---------------------------------------,; ; ;  Jellybox End Script End ; ; ;,; _______________________________________
;   exportFileFormat,gcode
;   celebration,0
;   celebrationSong,Random Song
;   postProcessing,|{REPLACE "; layer" "M117 Layer"},|{REPLACE ", Z = " " "Z="}
;   defaultSpeed,2700
;   outlineUnderspeed,0.55
;   solidInfillUnderspeed,0.55
;   supportUnderspeed,0.9
;   rapidXYspeed,7200
;   rapidZspeed,420
;   minBridgingArea,50
;   bridgingExtraInflation,0.3
;   bridgingExtrusionMultiplier,1
;   bridgingSpeedMultiplier,1
;   useFixedBridgingAngle,0
;   fixedBridgingAngle,0
;   applyBridgingToPerimeters,0
;   filamentDiameters,1.75|1.75|1.75|1.75|1.75|1.75
;   filamentPricesPerKg,30|30|30|30|30|30
;   filamentDensities,1.38|1.38|1.38|1.38|1.38|1.38
;   useMinPrintHeight,0
;   minPrintHeight,30
;   useMaxPrintHeight,0
;   maxPrintHeight,40
;   useDiaphragm,0
;   diaphragmLayerInterval,20
;   robustSlicing,1
;   mergeAllIntoSolid,0
;   onlyRetractWhenCrossingOutline,1
;   retractBetweenLayers,1
;   useRetractionMinTravel,1
;   retractionMinTravel,1
;   retractWhileWiping,1
;   onlyWipeOutlines,1
;   avoidCrossingOutline,1
;   maxMovementDetourFactor,2.5
;   toolChangeRetractionDistance,1.3
;   toolChangeExtraRestartDistance,0
;   toolChangeRetractionSpeed,600
;   externalThinWallType,0
;   internalThinWallType,2
;   thinWallAllowedOverlapPercentage,15
;   singleExtrusionMinLength,1
;   singleExtrusionMinPrintingWidthPercentage,50
;   singleExtrusionMaxPrintingWidthPercentage,200
;   singleExtrusionEndpointExtension,0.2
;   horizontalSizeCompensation,0
G90
M82
M106 S255
G4 P500
M106 S0
M140 S65
M190 S65
M104 S240 T0
M109 S240 T0
;---------------------------------------
; ; ; Jellybox Start Script Begin ; ; ;
;_______________________________________
M117 Preparing        ; write Preparing
; M92 E140            ; optionally adjust E steps/mm
M207 S1.5 F600 Z0     ; optionally adjust retract settings
M208 S-0.00 F600      ; optionally adjust unretract = recover settings
M206 X10.0 Y0.0       ; set x homing offset for default bed leveling
G21                   ; metric values
G90                   ; absolute positioning
M107                  ; start with the fan off
M82                   ; set extruder to absolute mode
G28                   ; home all axes
M203 Z4               ; slow Z speed down for greater accuracy when probing
G29                   ; auto bed leveling procedure
M203 Z7               ; pick up z speed again for printing
G92 E0                ; reset the extruder position
G1 F1500 E15          ; extrude 15mm of feed stock
G92 E0                ; reset the extruder position again
M117 Print starting   ; write Print starting
;---------------------------------------------
; ; ; Jellybox Printer Start Script End ; ; ;
;_____________________________________________
G92 E0
G1 E-1.4000 F4200
G1 Z0.400 F420
; process Process1
M117 Layer 1 0.300
T0
; tool H0.300 W0.552
; skirt
G1 X50.945 Y59.601 F7200
G1 Z0.300 F420
G1 E-0.1000 F1260
G92 E0
G1 X52.087 Y58.664 E0.1017 F945
G1 X52.099 Y58.655 E0.1028
G1 X52.220 Y58.565 E0.1132
G1 X52.233 Y58.556 E0.1142
G1 X53.452 Y57.727 E0.2157
G1 X53.464 Y57.719 E0.2167
G1 X53.582 Y57.646 E0.2263
G1 X53.594 Y57.639 E0.2273
G1 X54.370 Y57.201 E0.2886
G1 X54.372 Y57.200 E0.2887
G1 X54.396 Y57.186 E0.2906
G1 X54.399 Y57.185 E0.2909
G1 X54.932 Y56.895 E0.3326
G1 X54.944 Y56.889 E0.3336
G1 X55.061 Y56.831 E0.3426
G1 X55.074 Y56.826 E0.3435
G1 X56.424 Y56.224 E0.4452
G1 X56.437 Y56.218 E0.4463
G1 X56.572 Y56.165 E0.4562
G1 X56.586 Y56.160 E0.4573
G1 X57.994 Y55.673 E0.5598
G1 X58.008 Y55.669 E0.5609
G1 X58.145 Y55.628 E0.5707
G1 X58.159 Y55.624 E0.5717
G1 X59.606 Y55.259 E0.6744
G1 X59.620 Y55.256 E0.6754
G1 X59.759 Y55.227 E0.6852
G1 X59.773 Y55.224 E0.6862
G1 X61.249 Y54.982 E0.7891
G1 X61.263 Y54.980 E0.7901
G1 X61.403 Y54.963 E0.7999
G1 X61.418 Y54.961 E0.8009
G1 X62.907 Y54.844 E0.9037
G1 X62.921 Y54.844 E0.9046
G1 X62.954 Y54.842 E0.9069
G1 X63.734 Y52.081 E1.1044
G1 X63.827 Y51.925 E1.1170
G1 X65.109 Y50.677 E1.2402
G1 X65.268 Y50.589 E1.2527
G1 X95.979 Y42.806 E3.4339
G1 X96.069 Y42.796 E3.4402
G1 X96.950 Y42.808 E3.5008
G1 X97.039 Y42.821 E3.5070
G1 X102.958 Y44.494 E3.9305
G1 X103.041 Y44.530 E3.9367
G1 X103.798 Y44.980 E3.9973
G1 X103.869 Y45.036 E4.0036
G1 X123.964 Y65.686 E5.9874
G1 X124.053 Y65.845 E5.9999
G1 X124.492 Y67.579 E6.1231
G1 X124.490 Y67.761 E6.1356
G1 X121.826 Y77.185 E6.8098
G1 X121.764 Y77.307 E6.8192
G1 X120.938 Y78.352 E6.9109
G1 X120.834 Y78.440 E6.9203
G1 X116.788 Y80.694 E7.2392
G1 X113.081 Y93.811 E8.1776
G1 X115.349 Y97.849 E8.4965
G1 X115.391 Y97.978 E8.5059
G1 X115.548 Y99.301 E8.5976
G1 X115.538 Y99.437 E8.6070
G1 X112.711 Y109.439 E9.3225
G1 X112.618 Y109.595 E9.3351
G1 X111.336 Y110.843 E9.4582
G1 X111.177 Y110.932 E9.4708
G1 X83.246 Y118.009 E11.4546
G1 X83.156 Y118.020 E11.4608
G1 X82.276 Y118.008 E11.5214
G1 X82.186 Y117.995 E11.5276
G1 X76.267 Y116.322 E11.9511
G1 X76.184 Y116.286 E11.9573
G1 X75.428 Y115.836 E12.0179
G1 X75.357 Y115.780 E12.0242
G1 X53.261 Y93.074 E14.2055
G1 X53.173 Y92.915 E14.2180
G1 X52.733 Y91.181 E14.3412
G1 X52.735 Y90.999 E14.3537
G1 X53.516 Y88.238 E14.5512
G1 X53.491 Y88.222 E14.5532
G1 X53.479 Y88.214 E14.5542
G1 X52.269 Y87.333 E14.6573
G1 X52.258 Y87.324 E14.6583
G1 X52.147 Y87.236 E14.6680
G1 X52.136 Y87.227 E14.6690
G1 X51.006 Y86.248 E14.7719
G1 X50.995 Y86.238 E14.7729
G1 X50.892 Y86.141 E14.7827
G1 X50.881 Y86.131 E14.7837
G1 X49.840 Y85.062 E14.8864
G1 X49.830 Y85.052 E14.8874
G1 X49.734 Y84.945 E14.8973
G1 X49.725 Y84.934 E14.8983
G1 X48.780 Y83.782 E15.0009
G1 X48.770 Y83.771 E15.0019
G1 X48.684 Y83.655 E15.0119
G1 X48.675 Y83.643 E15.0129
G1 X47.835 Y82.417 E15.1152
G1 X47.826 Y82.404 E15.1163
G1 X47.748 Y82.279 E15.1264
G1 X47.741 Y82.266 E15.1275
G1 X47.013 Y80.973 E15.2296
G1 X47.006 Y80.960 E15.2306
G1 X46.938 Y80.826 E15.2410
G1 X46.932 Y80.812 E15.2420
G1 X46.324 Y79.463 E15.3439
G1 X46.318 Y79.448 E15.3450
G1 X46.263 Y79.308 E15.3553
G1 X46.257 Y79.293 E15.3564
G1 X45.774 Y77.897 E15.4581
G1 X45.770 Y77.882 E15.4592
G1 X45.727 Y77.736 E15.4697
G1 X45.722 Y77.721 E15.4708
G1 X45.369 Y76.290 E15.5723
G1 X45.366 Y76.274 E15.5734
G1 X45.336 Y76.123 E15.5840
G1 X45.333 Y76.108 E15.5851
G1 X45.114 Y74.653 E15.6863
G1 X45.112 Y74.637 E15.6874
G1 X45.096 Y74.482 E15.6982
G1 X45.094 Y74.466 E15.6993
G1 X45.012 Y72.999 E15.8004
G1 X45.011 Y72.983 E15.8016
G1 X45.010 Y72.825 E15.8124
G1 X45.010 Y72.809 E15.8136
G1 X45.067 Y71.332 E15.9153
G1 X45.068 Y71.314 E15.9165
G1 X45.084 Y71.137 E15.9287
G1 X45.086 Y71.119 E15.9300
G1 X45.333 Y69.415 E16.0486
G1 X45.336 Y69.400 E16.0496
G1 X45.364 Y69.252 E16.0600
G1 X45.367 Y69.237 E16.0610
G1 X45.649 Y68.055 E16.1447
G1 X45.653 Y68.038 E16.1459
G1 X45.700 Y67.876 E16.1575
G1 X45.706 Y67.859 E16.1587
G1 X46.273 Y66.229 E16.2776
G1 X46.279 Y66.213 E16.2788
G1 X46.343 Y66.055 E16.2905
G1 X46.350 Y66.039 E16.2917
G1 X46.969 Y64.714 E16.3923
G1 X46.975 Y64.702 E16.3933
G1 X47.037 Y64.582 E16.4026
G1 X47.043 Y64.570 E16.4035
G1 X47.637 Y63.526 E16.4862
G1 X47.645 Y63.513 E16.4873
G1 X47.725 Y63.386 E16.4976
G1 X47.734 Y63.373 E16.4987
G1 X48.569 Y62.170 E16.5996
G1 X48.579 Y62.157 E16.6007
G1 X48.674 Y62.032 E16.6114
G1 X48.684 Y62.020 E16.6126
G1 X49.632 Y60.895 E16.7138
G1 X49.643 Y60.884 E16.7149
G1 X49.747 Y60.771 E16.7255
G1 X49.758 Y60.759 E16.7266
G1 X50.797 Y59.736 E16.8270
G1 X50.809 Y59.724 F945
G1 X50.820 Y59.714 F945
G1 X50.933 Y59.612 F945
G1 X50.945 Y59.601 F945
G1 X51.241 Y59.954 F7200
G92 E0
G1 X52.375 Y59.023 E0.1010 F945
G1 X52.379 Y59.020 E0.1013
G1 X52.491 Y58.936 E0.1110
G1 X52.496 Y58.933 E0.1114
G1 X53.707 Y58.110 E0.2122
G1 X53.711 Y58.107 E0.2125
G1 X53.821 Y58.039 E0.2214
G1 X53.825 Y58.037 E0.2217
G1 X54.595 Y57.602 E0.2826
G1 X54.618 Y57.589 E0.2844
G1 X55.148 Y57.302 E0.3258
G1 X55.152 Y57.300 E0.3261
G1 X55.261 Y57.246 E0.3345
G1 X55.265 Y57.244 E0.3348
G1 X56.606 Y56.646 E0.4359
G1 X56.611 Y56.644 E0.4363
G1 X56.736 Y56.595 E0.4456
G1 X56.741 Y56.593 E0.4459
G1 X58.140 Y56.110 E0.5478
G1 X58.144 Y56.108 E0.5481
G1 X58.272 Y56.070 E0.5573
G1 X58.277 Y56.069 E0.5576
G1 X59.714 Y55.706 E0.6597
G1 X59.719 Y55.705 E0.6600
G1 X59.848 Y55.678 E0.6691
G1 X59.853 Y55.677 E0.6694
G1 X61.319 Y55.437 E0.7717
G1 X61.323 Y55.436 E0.7720
G1 X61.454 Y55.420 E0.7811
G1 X61.459 Y55.420 E0.7814
G1 X62.938 Y55.303 E0.8836
G1 X62.943 Y55.303 E0.8839
G1 X63.067 Y55.298 E0.8925
G1 X63.071 Y55.298 E0.8928
G1 X63.303 Y55.298 E0.9087
G1 X64.160 Y52.265 E1.1258
G1 X64.191 Y52.213 E1.1299
G1 X65.387 Y51.049 E1.2448
G1 X65.440 Y51.020 E1.2489
G1 X96.063 Y43.260 E3.4240
G1 X96.093 Y43.256 E3.4261
G1 X96.913 Y43.267 E3.4825
G1 X96.943 Y43.272 E3.4846
G1 X102.804 Y44.928 E3.9039
G1 X102.832 Y44.940 E3.9060
G1 X103.537 Y45.360 E3.9625
G1 X103.560 Y45.379 E3.9646
G1 X123.592 Y65.964 E5.9421
G1 X123.622 Y66.017 E5.9463
G1 X124.031 Y67.634 E6.0611
G1 X124.030 Y67.694 E6.0653
G1 X121.396 Y77.017 E6.7323
G1 X121.375 Y77.057 E6.7354
G1 X120.605 Y78.031 E6.8209
G1 X120.571 Y78.060 E6.8240
G1 X116.397 Y80.385 E7.1529
G1 X112.587 Y93.869 E8.1176
G1 X114.926 Y98.034 E8.4465
G1 X114.940 Y98.078 E8.4496
G1 X115.086 Y99.311 E8.5351
G1 X115.083 Y99.356 E8.5382
G1 X112.285 Y109.255 E9.2465
G1 X112.254 Y109.307 E9.2507
G1 X111.058 Y110.471 E9.3655
G1 X111.005 Y110.501 E9.3697
G1 X83.162 Y117.556 E11.3473
G1 X83.132 Y117.560 E11.3494
G1 X82.312 Y117.548 E11.4058
G1 X82.282 Y117.544 E11.4079
G1 X76.421 Y115.888 E11.8272
G1 X76.394 Y115.876 E11.8293
G1 X75.689 Y115.456 E11.8857
G1 X75.666 Y115.437 E11.8878
G1 X53.633 Y92.796 E14.0629
G1 X53.604 Y92.743 E14.0670
G1 X53.194 Y91.126 E14.1819
G1 X53.195 Y91.066 E14.1861
G1 X54.052 Y88.031 E14.4031
G1 X53.862 Y87.916 E14.4184
G1 X53.858 Y87.914 E14.4188
G1 X53.750 Y87.842 E14.4277
G1 X53.746 Y87.839 E14.4280
G1 X52.544 Y86.964 E14.5304
G1 X52.540 Y86.961 E14.5308
G1 X52.437 Y86.879 E14.5398
G1 X52.434 Y86.876 E14.5401
G1 X51.310 Y85.904 E14.6424
G1 X51.307 Y85.900 E14.6427
G1 X51.211 Y85.810 E14.6518
G1 X51.207 Y85.806 E14.6522
G1 X50.172 Y84.745 E14.7542
G1 X50.169 Y84.741 E14.7546
