; G-Code generated by Simplify3D(R) Version 3.1.0
; Mar 22, 2017 at 6:44:43 PM
; Settings Summary
;   processName,Process1
;   applyToModels,right tall probe mount 1.2.1 pink
;   profileName,PETG 0.2 he.20 bt50 (modified)
;   profileVersion,2017-03-22 16:24:12
;   baseProfile,Default (modified)
;   printMaterial,
;   printQuality,
;   printExtruders,
;   extruderName,Primary Extruder
;   extruderToolheadNumber,0
;   extruderDiameter,0.4
;   extruderAutoWidth,0
;   extruderWidth,0.48
;   extrusionMultiplier,0.9
;   extruderUseRetract,1
;   extruderRetractionDistance,1.4
;   extruderExtraRestartDistance,-0.1
;   extruderRetractionZLift,0.1
;   extruderRetractionSpeed,2700
;   extruderUseCoasting,1
;   extruderCoastingDistance,0.2
;   extruderUseWipe,1
;   extruderWipeDistance,0.2
;   primaryExtruder,0
;   layerHeight,0.2
;   topSolidLayers,4
;   bottomSolidLayers,2
;   perimeterOutlines,2
;   printPerimetersInsideOut,1
;   startPointOption,2
;   startPointOriginX,85
;   startPointOriginY,0
;   startPointOriginZ,5
;   sequentialIslands,0
;   spiralVaseMode,0
;   firstLayerHeightPercentage,150
;   firstLayerWidthPercentage,100
;   firstLayerUnderspeed,0.3
;   useRaft,0
;   raftExtruder,0
;   raftLayers,3
;   raftOffset,3
;   raftSeparationDistance,0.14
;   raftInfill,85
;   disableRaftBaseLayers,0
;   useSkirt,1
;   skirtExtruder,0
;   skirtLayers,1
;   skirtOutlines,3
;   skirtOffset,3
;   usePrimePillar,0
;   primePillarExtruder,999
;   primePillarWidth,12
;   primePillarLocation,7
;   primePillarSpeedMultiplier,1
;   useOozeShield,0
;   oozeShieldExtruder,999
;   oozeShieldOffset,2
;   oozeShieldOutlines,1
;   oozeShieldSidewallShape,1
;   oozeShieldSidewallAngle,30
;   oozeShieldSpeedMultiplier,1
;   infillExtruder,0
;   internalInfillPattern,Rectilinear
;   externalInfillPattern,Rectilinear
;   infillPercentage,22
;   outlineOverlapPercentage,30
;   infillExtrusionWidthPercentage,125
;   minInfillLength,5
;   infillLayerInterval,1
;   infillAngles,45,-45
;   overlapInfillAngles,0
;   generateSupport,0
;   supportExtruder,0
;   supportInfillPercentage,20
;   supportExtraInflation,0.5
;   denseSupportLayers,0
;   denseSupportInfillPercentage,70
;   supportLayerInterval,1
;   supportHorizontalPartOffset,0.8
;   supportUpperSeparationLayers,1
;   supportLowerSeparationLayers,1
;   supportType,0
;   supportGridSpacing,1.5
;   maxOverhangAngle,55
;   supportAngles,0
;   temperatureName,Primary Extruder,bed
;   temperatureNumber,0,0
;   temperatureSetpointCount,2,2
;   temperatureSetpointLayers,1,2,1,2
;   temperatureSetpointTemperatures,240,235,65,60
;   temperatureStabilizeAtStartup,1,1
;   temperatureHeatedBed,0,1
;   temperatureRelayBetweenLayers,0,0
;   temperatureRelayBetweenLoops,0,0
;   fanLayers,1,4
;   fanSpeeds,0,20
;   blipFanToFullPower,1
;   adjustSpeedForCooling,0
;   minSpeedLayerTime,15
;   minCoolingSpeedSlowdown,65
;   increaseFanForCooling,1
;   minFanLayerTime,15
;   maxCoolingFanSpeed,60
;   increaseFanForBridging,1
;   bridgingFanSpeed,100
;   use5D,1
;   relativeEdistances,0
;   allowEaxisZeroing,1
;   independentExtruderAxes,0
;   includeM10123,0
;   stickySupport,1
;   applyToolheadOffsets,0
;   gcodeXoffset,0
;   gcodeYoffset,0
;   gcodeZoffset,0
;   overrideMachineDefinition,1
;   machineTypeOverride,0
;   strokeXoverride,170
;   strokeYoverride,160
;   strokeZoverride,145
;   originOffsetXoverride,0
;   originOffsetYoverride,0
;   originOffsetZoverride,0
;   homeXdirOverride,-1
;   homeYdirOverride,-1
;   homeZdirOverride,-1
;   flipXoverride,1
;   flipYoverride,-1
;   flipZoverride,1
;   toolheadOffsets,0,0|0,0|0,0|0,0|0,0|0,0
;   overrideFirmwareConfiguration,1
;   firmwareTypeOverride,RepRap (Marlin/Repetier/Sprinter)
;   GPXconfigOverride,r2
;   baudRateOverride,250000
;   overridePrinterModels,0
;   printerModelsOverride
;   startingGcode,;---------------------------------------,; ; ; Jellybox Start Script Begin ; ; ;,;_______________________________________,; M92 E140            ;optionally adjust steps per mm for your filament,M117 Preparing        ;write Preparing,M206 X10.0 Y0.0       ;set x homing offset for default bed leveling,G21                   ;metric values,G90                   ;absolute positioning,M107                  ;start with the fan off,M82                   ;set extruder to absolute mode,G28                   ;home all axes,M203 Z4               ;slow Z speed down for greater accuracy when probing,G29                   ;auto bed leveling procedure,M203 Z7               ;pick up z speed again for printing,G92 E0                ;reset the extruder position,G1 F1500 E15          ;extrude 15mm of feed stock,G92 E0                ;reset the extruder position again,M117 Print starting   ;write Print starting,;---------------------------------------------,; ; ; Jellybox Printer Start Script End ; ; ;,;_____________________________________________
;   layerChangeGcode,
;   retractionGcode,
;   toolChangeGcode,
;   endingGcode,; ---------------------------------,; ; ;  Jellybox End Script Begin ; ; ;,; _________________________________,M117 Finishing Up  ; write Finishing Up,M104 S0            ; extruder heater off,M140 S0            ; bed heater off (if you have it),G91                ; relative positioning,G1 E-1 F300        ; retract the filament a bit before lifting the nozzle to release some of the pressure,G1 Z+0.5 E-5 X-20 Y-20 F9000 ; move Z up a bit and retract filament even more,G90                ; absolute positioning,G28 X              ; home x so the head is out of the way,G1 Y100            ; move Y forward so the print is more accessible,M84                ; steppers off,M117 Print finished ; write Print finished,; ---------------------------------------,; ; ;  Jellybox End Script End ; ; ;,; _______________________________________
;   exportFileFormat,gcode
;   celebration,0
;   celebrationSong,Random Song
;   postProcessing,|{REPLACE "; layer" "M117 Layer"} ,{REPLACE ", Z = " " | Z="}
;   defaultSpeed,2700
;   outlineUnderspeed,0.55
;   solidInfillUnderspeed,0.55
;   supportUnderspeed,0.9
;   rapidXYspeed,7800
;   rapidZspeed,420
;   minBridgingArea,50
;   bridgingExtraInflation,0.2
;   bridgingExtrusionMultiplier,0.8
;   bridgingSpeedMultiplier,1.3
;   filamentDiameter,1.75
;   filamentPricePerKg,30
;   filamentDensity,1.38
;   useMinPrintHeight,0
;   minPrintHeight,0
;   useMaxPrintHeight,0
;   maxPrintHeight,1
;   useDiaphragm,0
;   diaphragmLayerInterval,20
;   robustSlicing,1
;   mergeAllIntoSolid,0
;   onlyRetractWhenCrossingOutline,0
;   retractBetweenLayers,1
;   useRetractionMinTravel,1
;   retractionMinTravel,1
;   retractWhileWiping,1
;   onlyWipeOutlines,0
;   avoidCrossingOutline,1
;   maxMovementDetourFactor,2.5
;   toolChangeRetractionDistance,1.3
;   toolChangeExtraRestartDistance,0
;   toolChangeRetractionSpeed,600
;   allowThinWallGapFill,1
;   thinWallAllowedOverlapPercentage,15
;   horizontalSizeCompensation,0
G90
M82
M106 S0
M140 S65
M190 S65
M104 S240 T0
M109 S240 T0
;---------------------------------------
; ; ; Jellybox Start Script Begin ; ; ;
;_______________________________________
; M92 E140            ;optionally adjust steps per mm for your filament
M117 Preparing        ;write Preparing
M206 X10.0 Y0.0       ;set x homing offset for default bed leveling
G21                   ;metric values
G90                   ;absolute positioning
M107                  ;start with the fan off
M82                   ;set extruder to absolute mode
G28                   ;home all axes
M203 Z4               ;slow Z speed down for greater accuracy when probing
G29                   ;auto bed leveling procedure
M203 Z7               ;pick up z speed again for printing
G92 E0                ;reset the extruder position
G1 F1500 E15          ;extrude 15mm of feed stock
G92 E0                ;reset the extruder position again
M117 Print starting   ;write Print starting
;---------------------------------------------
; ; ; Jellybox Printer Start Script End ; ; ;
;_____________________________________________
G92 E0
G1 E-1.4000 F2700
G1 Z0.400 F420
M117 Layer 1, Z = 0.3
T0
; tool H0.300 W0.480
; skirt
G1 X40.853 Y18.654 F7800
G1 Z0.300 F420
G1 E-0.1000 F810
G92 E0
G1 X41.070 Y18.320 E0.0215 F810
G1 X42.993 Y16.809 E0.1532
G1 X43.369 Y16.678 E0.1747
G1 X51.563 Y16.610 E0.6162
G1 X52.006 Y16.789 E0.6419
G1 X54.118 Y18.867 E0.8016
G1 X54.304 Y19.306 E0.8273
G1 X54.796 Y78.861 E4.0363
G1 X54.751 Y79.094 E4.0491
G1 X54.211 Y80.424 E4.1265
G1 X54.080 Y80.622 E4.1392
G1 X45.756 Y89.030 E4.7767
G1 X45.044 Y89.176 E4.8159
G1 X40.663 Y87.395 E5.0707
G1 X40.254 Y86.793 E5.1099
G1 X39.731 Y23.423 E8.5245
G1 X39.736 Y23.346 E8.5286
G1 X39.790 Y22.889 E8.5534
G1 X39.804 Y22.814 E8.5575
G1 X40.805 Y18.848 E8.7779
G1 X40.853 Y18.654 F810
G92 E0
G1 X41.070 Y18.320 E-0.3982 F2700
G1 X41.858 Y17.702 E-1.4000
G1 Z0.400 F420
G1 X41.430 Y18.649 F7800
G1 Z0.300 F420
G1 E-0.1000 F2700
G92 E0
G1 X43.227 Y17.236 E0.1232 F810
G1 X43.453 Y17.157 E0.1361
G1 X51.472 Y17.091 E0.5681
G1 X51.737 Y17.198 E0.5836
G1 X53.713 Y19.142 E0.7329
G1 X53.825 Y19.406 E0.7484
G1 X54.315 Y78.817 E3.9497
G1 X54.289 Y78.957 E3.9573
G1 X53.784 Y80.200 E4.0296
G1 X53.705 Y80.318 E4.0373
G1 X45.517 Y88.589 E4.6643
G1 X45.090 Y88.676 E4.6878
G1 X40.978 Y87.005 E4.9270
G1 X40.733 Y86.644 E4.9505
G1 X40.211 Y23.434 E8.3564
G1 X40.214 Y23.388 E8.3589
G1 X40.265 Y22.962 E8.3821
G1 X40.273 Y22.917 E8.3845
G1 X41.299 Y18.849 E8.6106
G1 X41.321 Y18.816 E8.6127
G1 X41.430 Y18.649 F810
G1 X42.530 Y17.784 F2700
G1 X43.461 Y17.663 F7800
G92 E0
G1 X43.537 Y17.636 E0.0043 F810
G1 X51.380 Y17.572 E0.4269
G1 X51.469 Y17.607 E0.4321
G1 X53.308 Y19.417 E0.5711
G1 X53.346 Y19.505 E0.5763
G1 X53.835 Y78.774 E3.7699
G1 X53.826 Y78.821 E3.7724
G1 X53.357 Y79.975 E3.8396
G1 X53.331 Y80.014 E3.8421
G1 X45.278 Y88.148 E4.4588
G1 X45.136 Y88.177 E4.4666
G1 X41.294 Y86.615 E4.6901
G1 X41.212 Y86.495 E4.6979
G1 X40.691 Y23.445 E8.0952
G1 X40.692 Y23.430 E8.0961
G1 X40.740 Y23.034 E8.1176
G1 X40.743 Y23.019 E8.1184
G1 X41.745 Y19.044 E8.3393
G1 X41.789 Y18.977 E8.3436
G1 X43.304 Y17.786 E8.4474
G1 X43.461 Y17.663 F810
G92 E0
G1 X43.537 Y17.636 E-0.0797 F2700
G1 X44.857 Y17.625 E-1.4000
G1 Z0.400 F420
; inner perimeter
G1 X45.189 Y21.583 F7800
G1 Z0.300 F420
G1 E-0.1000 F2700
G92 E0
G1 X49.402 Y21.548 E0.2270 F628
G1 X49.868 Y77.884 E3.2626
G1 X45.140 Y82.658 E3.6246
G1 X44.994 Y64.922 E4.5803
G1 X45.340 Y65.224 E4.6050
G1 X45.828 Y65.475 E4.6346
G1 X46.361 Y65.602 E4.6641
G1 X46.910 Y65.597 E4.6937
G1 X47.441 Y65.461 E4.7232
G1 X47.925 Y65.202 E4.7528
G1 X48.332 Y64.835 E4.7823
G1 X48.640 Y64.381 E4.8119
G1 X48.831 Y63.867 E4.8414
G1 X48.887 Y63.365 E4.8686
G1 X48.580 Y26.154 E6.8737
G1 X48.515 Y25.653 E6.9009
G1 X48.316 Y25.142 E6.9305
G1 X48.001 Y24.693 E6.9600
G1 X47.588 Y24.333 E6.9896
G1 X47.100 Y24.082 E7.0191
G1 X46.566 Y23.955 E7.0487
G1 X46.018 Y23.960 E7.0782
G1 X45.486 Y24.095 E7.1078
G1 X45.003 Y24.354 E7.1374
G1 X44.662 Y24.661 E7.1621
G1 X44.654 Y23.705 E7.2136
G1 X45.140 Y21.777 E7.3208
G1 X45.189 Y21.583 F628
G92 E0
G1 X46.589 Y21.571 E-1.4000 F2700
G1 Z0.400 F420
; outer perimeter
G1 X44.814 Y21.106 F7800
G1 Z0.300 F420
G1 E-0.1000 F2700
G92 E0
G1 X49.879 Y21.064 E0.2729 F446
G1 X50.349 Y78.080 E3.3451
G1 X44.670 Y83.816 E3.7800
G1 X44.173 Y23.647 E7.0221
G1 X44.765 Y21.300 E7.1525
G1 X44.814 Y21.106 F446
G92 E0
G1 X46.214 Y21.094 E-1.4000 F2700
G1 Z0.400 F420
; inner perimeter
; outer perimeter
G1 X46.080 Y24.439 F7800
G1 Z0.300 F420
G1 E-0.1000 F2700
G92 E0
G1 X45.661 Y24.546 E0.0233 F446
G1 X45.281 Y24.750 E0.0465
G1 X44.960 Y25.039 E0.0698
G1 X44.717 Y25.396 E0.0931
G1 X44.567 Y25.801 E0.1164
G1 X44.521 Y26.208 E0.1384
G1 X44.827 Y63.373 E2.1410
G1 X44.881 Y63.784 E2.1633
G1 X45.037 Y64.186 E2.1866
G1 X45.286 Y64.540 E2.2099
G1 X45.611 Y64.824 E2.2331
G1 X45.996 Y65.021 E2.2564
G1 X46.416 Y65.121 E2.2797
G1 X46.848 Y65.118 E2.3029
G1 X47.266 Y65.011 E2.3262
G1 X47.647 Y64.807 E2.3495
G1 X47.968 Y64.518 E2.3728
G1 X48.210 Y64.160 E2.3960
G1 X48.360 Y63.755 E2.4193
G1 X48.407 Y63.340 E2.4418
G1 X48.100 Y26.187 E4.4438
G1 X48.047 Y25.773 E4.4663
G1 X47.890 Y25.370 E4.4895
G1 X47.642 Y25.017 E4.5128
G1 X47.316 Y24.733 E4.5361
G1 X46.932 Y24.535 E4.5594
G1 X46.512 Y24.436 E4.5826
G1 X46.280 Y24.437 E4.5951
G1 X46.080 Y24.439 F446
G92 E0
G1 X45.661 Y24.546 E-0.4319 F2700
G1 X45.281 Y24.750 E-0.8639
G1 X44.960 Y25.039 E-1.2958
G1 X44.901 Y25.125 E-1.4000
G1 Z0.400 F420
; solid layer
G1 X45.094 Y23.924 F7800
G1 Z0.300 F420
G1 E-0.1000 F2700
G92 E0
G1 X44.991 Y23.822 E0.0078 F446
G1 X44.990 Y23.745 E0.0120
G1 X45.112 Y23.264 E0.0387
G1 X45.574 Y23.726 E0.0740
G1 X45.974 Y23.624 E0.0962
G1 X46.149 Y23.623 E0.1056
G1 X45.248 Y22.721 E0.1743
G1 X45.385 Y22.179 E0.2044
G1 X46.893 Y23.687 E0.3194
G1 X47.217 Y23.765 E0.3373
G1 X47.777 Y24.053 E0.3712
G1 X48.253 Y24.467 E0.4052
G1 X48.615 Y24.982 E0.4392
G1 X48.843 Y25.570 E0.4731
G1 X48.853 Y25.648 E0.4773
G1 X49.102 Y25.897 E0.4963
G1 X49.097 Y25.212 E0.5332
G1 X45.798 Y21.914 E0.7846
G1 X46.472 Y21.908 E0.8208
G1 X49.091 Y24.528 E1.0204
G1 X49.085 Y23.843 E1.0573
G1 X47.145 Y21.903 E1.2052
G1 X47.818 Y21.897 E1.2415
G1 X49.080 Y23.159 E1.3376
G1 X49.074 Y22.474 E1.3745
G1 X48.633 Y22.033 E1.4081
G1 X48.491 Y21.892 F446
G92 E0
G1 X49.074 Y22.474 E-0.8242 F2700
G1 X49.079 Y23.050 E-1.4000
G1 Z0.400 F420
G1 X48.918 Y26.391 F7800
G1 Z0.300 F420
G1 E-0.1000 F2700
G92 E0
G1 X49.108 Y26.581 E0.0145 F446
G1 X49.114 Y27.266 E0.0514
G1 X48.924 Y27.076 E0.0658
G1 X48.929 Y27.760 E0.1027
G1 X49.119 Y27.950 E0.1172
G1 X49.125 Y28.635 E0.1541
G1 X48.935 Y28.445 E0.1685
G1 X48.941 Y29.129 E0.2054
G1 X49.131 Y29.319 E0.2199
G1 X49.136 Y30.004 E0.2568
G1 X48.946 Y29.814 E0.2713
G1 X48.952 Y30.498 E0.3081
G1 X49.142 Y30.688 E0.3226
G1 X49.148 Y31.373 E0.3595
G1 X48.958 Y31.183 E0.3740
G1 X48.963 Y31.867 E0.4109
G1 X49.153 Y32.057 E0.4253
G1 X49.159 Y32.741 E0.4622
G1 X48.969 Y32.551 E0.4767
G1 X48.975 Y33.236 E0.5136
G1 X49.165 Y33.426 E0.5281
G1 X49.170 Y34.110 E0.5649
G1 X48.980 Y33.920 E0.5794
G1 X48.986 Y34.605 E0.6163
G1 X49.176 Y34.795 E0.6308
G1 X49.181 Y35.479 E0.6677
G1 X48.992 Y35.289 E0.6821
G1 X48.997 Y35.974 E0.7190
G1 X49.187 Y36.164 E0.7335
G1 X49.193 Y36.848 E0.7704
G1 X49.003 Y36.658 E0.7848
G1 X49.008 Y37.343 E0.8217
G1 X49.198 Y37.533 E0.8362
G1 X49.204 Y38.217 E0.8731
G1 X49.014 Y38.027 E0.8876
G1 X49.020 Y38.712 E0.9244
G1 X49.210 Y38.902 E0.9389
G1 X49.215 Y39.586 E0.9758
G1 X49.025 Y39.396 E0.9903
G1 X49.031 Y40.081 E1.0272
G1 X49.221 Y40.271 E1.0416
G1 X49.227 Y40.955 E1.0785
G1 X49.037 Y40.765 E1.0930
G1 X49.042 Y41.450 E1.1299
G1 X49.232 Y41.640 E1.1444
G1 X49.238 Y42.324 E1.1812
G1 X49.048 Y42.134 E1.1957
G1 X49.054 Y42.819 E1.2326
G1 X49.244 Y43.009 E1.2471
G1 X49.249 Y43.693 E1.2839
G1 X49.059 Y43.503 E1.2984
G1 X49.065 Y44.188 E1.3353
G1 X49.255 Y44.378 E1.3498
G1 X49.261 Y45.062 E1.3867
G1 X49.071 Y44.872 E1.4011
G1 X49.076 Y45.556 E1.4380
G1 X49.266 Y45.746 E1.4525
G1 X49.272 Y46.431 E1.4894
G1 X49.082 Y46.241 E1.5039
G1 X49.088 Y46.925 E1.5407
G1 X49.278 Y47.115 E1.5552
G1 X49.283 Y47.800 E1.5921
G1 X49.093 Y47.610 E1.6066
G1 X49.099 Y48.294 E1.6435
G1 X49.289 Y48.484 E1.6579
G1 X49.295 Y49.169 E1.6948
G1 X49.105 Y48.979 E1.7093
G1 X49.110 Y49.663 E1.7462
G1 X49.300 Y49.853 E1.7607
G1 X49.306 Y50.538 E1.7975
G1 X49.116 Y50.348 E1.8120
G1 X49.121 Y51.032 E1.8489
G1 X49.311 Y51.222 E1.8634
G1 X49.317 Y51.907 E1.9002
G1 X49.127 Y51.717 E1.9147
G1 X49.133 Y52.401 E1.9516
G1 X49.323 Y52.591 E1.9661
G1 X49.328 Y53.276 E2.0030
