;FLAVOR:Marlin
;TIME:3319
;Filament used: 2.24979m
;Layer height: 0.2
;Generated with Cura_SteamEngine 3.5.1
M82 ;absolute extrusion mode
;---------------------------------------
; ; ; Jellybox Start Script Begin ; ; ;
;_______________________________________
; for slicer: CURA 3
; start gcode last modified Jan 16, 2019

;              Print Settings Summary
; (leave these alone: this is only a list of the slicing settings)
; (overwriting these values will NOT change your printer's behavior)
;             sliced for :  IMADE3D JellyBOX Original
;        nozzle diameter :  0.4
;      filament diameter :  1.75
;           layer height :  0.2
;       1st layer height :  0.3
;             line width :  0.4  
;  outer wall wipe dist. :  0.6
;      infill line width :  0.6
;         wall thickness :  0.8
;          top thickness :  0.8
;       bottom thickness :  0.8
;         infill density :  70
;         infill pattern :  cubic
;      print temperature :  230.0
;  1st layer print temp. :  235.0
; heated bed temperature :  60
;    1st layer bed temp. :  65
;      regular fan speed :  45
;          max fan speed :  80.0
;     retraction amount  :  1.6
;   retr. retract speed  :  40
;     retr. prime speed  :  30
;   build plate adhesion :  skirt
;                support ?  True
;             spiralized ?  False

G21               ;metric values
G90               ;absolute positioning
M82               ;set extruder to absolute mode
M107              ;start with the fan off
M117 Preparing    ;write Preparing
M190 S20          ;wait for the bed to reach 45C
M109 S180         ;wait for the extruder to reach 180C
G28               ;home all axes
M203 Z4           ;slow Z speed down for greater accuracy when probing
G29 O             ;run auto bed leveling procedure IF leveling not active already
; M500            ;optionally save the mesh
M203 Z7           ;pick up z speed again for printing
G28 X             ;home x to get as far from the plate as possible
M420 S1           ;(re) enable bed leveling turned off by the G28
G0 Y0 F5000       ;position Y in front
G0 Z15 F3000      ;position Z
M190 S65              ;wait for the bed to reach desired temperature
M109 S235.0             ;wait for the extruder to reach desired temperature
M300 S440 P300    ;play a tone
; M0 Ready! Click to start ; optionally, stop and wait for user to continue
M420 S1           ;(re) enable bed leveling to make iron-sure
M117 Print starting   ;write Print starting
;================ ;PRINT:LINE start
G90               ;absolute positioning
G92 E0            ;reset the extruder position
M420 S1           ;(re) enable bed leveling to make iron-sure
G0 Z0             ;get Z down
M83               ;relative extrusion mode
M420 S1           ;(re) enable bed leveling to make iron-sure
G1 E22 F300       ;extrude __mm of feed stock
G1 E18 F250       ;extrude __mm of feed stock
G1 E10 F250       ;extrude __mm of feed stock
G4 S2             ;pause for ooze
M400              ;make sure all is finished
M420 S1           ;(re) enable bed leveling to make iron-sure
G0 F500 X3 Y0 Z0.6;get to the start of the LINE
G1 E2 F300        ;extrude __mm of feed stock
G1 F1000 X104 E10  ;print a thick LINE extruding __mm along the way
M82               ;absolute extrusion mode
G92 E0            ;reset the extruder position
;---------------------------------------------
; ; ; Jellybox Printer Start Script End ; ; ;
;_____________________________________________

M83 ;relative extrusion mode
G1 F2400 E-1.6
;LAYER_COUNT:95
;LAYER:0
M107
G0 F3600 X71.439 Y65.263 Z0.3
;TYPE:SKIRT
G1 F1800 E1.55842
G1 F1350 X72.316 Y64.39 E0.06174
G1 X72.767 Y63.991 E0.03004
G1 X73.795 Y63.181 E0.06529
G1 X74.349 Y62.799 E0.03357
G1 X75.933 Y61.854 E0.09202
G1 X76.539 Y61.545 E0.03394
G1 X77.794 Y61.004 E0.06818
G1 X78.374 Y60.793 E0.03079
G1 X80.371 Y60.201 E0.10392
G1 X81.118 Y60.039 E0.03813
G1 X83.117 Y59.755 E0.10073
G1 X83.728 Y59.704 E0.03059
G1 X85.412 Y59.665 E0.08404
G1 X86.054 Y59.69 E0.03205
G1 X87.817 Y59.868 E0.0884
G1 X88.358 Y59.952 E0.02731
G1 X89.651 Y60.222 E0.0659
G1 X90.187 Y60.364 E0.02766
G1 X91.905 Y60.919 E0.09007
G1 X92.593 Y61.197 E0.03702
G1 X94.349 Y62.057 E0.09755
G1 X95.024 Y62.453 E0.03904
G1 X96.549 Y63.51 E0.09257
G1 X97.083 Y63.934 E0.03402
G1 X97.931 Y64.704 E0.05715
G1 X98.362 Y65.146 E0.0308
G1 X99.269 Y66.191 E0.06903
G1 X99.614 Y66.635 E0.02805
G1 X100.328 Y67.664 E0.06249
G1 X100.668 Y68.226 E0.03277
G1 X101.599 Y70.014 E0.10057
G1 X101.827 Y70.515 E0.02746
G1 X102.364 Y71.882 E0.07327
G1 X102.525 Y72.358 E0.02507
G1 X103.094 Y74.355 E0.1036
G1 X103.219 Y74.904 E0.02809
G1 X103.734 Y77.917 E0.1525
G1 X103.797 Y78.46 E0.02727
G1 X103.895 Y79.985 E0.07624
G1 X103.904 Y80.463 E0.02385
G1 X103.853 Y82.297 E0.09153
G1 X103.783 Y83.017 E0.03609
G1 X103.474 Y84.849 E0.09269
G1 X103.327 Y85.477 E0.03218
G1 X103.224 Y85.787 E0.0163
G1 X102.639 Y87.37 E0.0842
G1 X102.242 Y88.206 E0.04617
G1 X101.957 Y88.69 E0.02802
G1 X101.596 Y89.224 E0.03216
G1 X101.172 Y89.709 E0.03214
G1 X100.691 Y90.138 E0.03216
G1 X100.16 Y90.505 E0.0322
G1 X99.589 Y90.803 E0.03213
G1 X98.984 Y91.027 E0.03219
G1 X98.357 Y91.176 E0.03215
G1 X97.839 Y91.238 E0.02603
G1 X96.897 Y91.304 E0.04711
G1 X96.521 Y91.317 E0.01877
G1 X72.435 Y91.258 E1.20166
G1 X71.792 Y91.216 E0.03215
G1 X71.159 Y91.096 E0.03214
G1 X70.545 Y90.897 E0.0322
G1 X69.961 Y90.625 E0.03214
G1 X69.415 Y90.282 E0.03217
G1 X68.916 Y89.874 E0.03216
G1 X68.471 Y89.408 E0.03215
G1 X68.087 Y88.89 E0.03217
G1 X67.815 Y88.42 E0.02709
G1 X67.221 Y87.255 E0.06524
G1 X66.965 Y86.664 E0.03213
G1 X66.859 Y86.338 E0.0171
G1 X66.463 Y84.969 E0.0711
G1 X66.331 Y84.395 E0.02938
G1 X66.2 Y83.624 E0.03902
G1 X66.137 Y83.081 E0.02727
G1 X66.011 Y81.09 E0.09953
G1 X66.01 Y80.465 E0.03118
G1 X66.124 Y78.475 E0.09944
G1 X66.176 Y77.975 E0.02508
G1 X66.518 Y75.769 E0.11137
G1 X66.623 Y75.263 E0.02578
G1 X67.264 Y72.787 E0.1276
G1 X67.454 Y72.199 E0.03083
G1 X68.251 Y70.157 E0.10936
G1 X68.513 Y69.588 E0.03125
G1 X69.227 Y68.258 E0.07531
G1 X69.617 Y67.641 E0.03642
G1 X70.916 Y65.871 E0.10953
G1 X71.266 Y65.464 E0.02678
G0 F1215 X71.439 Y65.263
G1 F2400 E-1.6
G1 F300 Z0.45
G0 F3600 X72.696 Y74.824 Z0.45
;TYPE:WALL-INNER
G1 F300 Z0.3
G1 F1800 E1.57165
G1 F1350 X72.776 Y74.527 E0.01535
G1 X72.993 Y73.858 E0.03509
G1 X73.244 Y73.182 E0.03598
G1 X73.54 Y72.49 E0.03755
G1 X73.66 Y72.23 E0.01429
G1 X73.992 Y71.581 E0.03637
G1 X74.347 Y70.967 E0.03538
G1 X74.774 Y70.322 E0.03859
G1 X75.221 Y69.732 E0.03693
G1 X75.555 Y69.334 E0.02592
G1 X75.864 Y69.005 E0.02252
G1 X76.118 Y68.753 E0.01785
G1 X76.429 Y68.47 E0.02098
G1 X76.729 Y68.216 E0.01961
G1 X77.071 Y67.949 E0.02165
G1 X77.447 Y67.679 E0.02309
G1 X77.839 Y67.421 E0.02341
G1 X78.289 Y67.153 E0.02613
G1 X78.735 Y66.913 E0.02527
G1 X79.484 Y66.559 E0.04133
G1 X80.294 Y66.242 E0.0434
G1 X81.033 Y66.004 E0.03873
G1 X81.935 Y65.774 E0.04644
G1 X82.444 Y65.672 E0.0259
G1 X82.982 Y65.586 E0.02718
G1 X83.508 Y65.52 E0.02645
G1 X84.03 Y65.477 E0.02613
G1 X84.556 Y65.452 E0.02627
G1 X85.367 Y65.453 E0.04046
G1 X85.855 Y65.475 E0.02437
G1 X86.392 Y65.521 E0.02689
G1 X86.911 Y65.583 E0.02608
G1 X87.404 Y65.661 E0.0249
G1 X87.906 Y65.759 E0.02552
G1 X88.384 Y65.869 E0.02447
G1 X88.942 Y66.024 E0.02889
G1 X89.332 Y66.143 E0.02034
G1 X89.861 Y66.331 E0.02801
G1 X90.589 Y66.631 E0.03928
G1 X91.323 Y66.988 E0.04072
G1 X91.988 Y67.367 E0.03819
G1 X92.618 Y67.785 E0.03772
G1 X93.194 Y68.226 E0.03619
G1 X93.83 Y68.788 E0.04234
G1 X94.372 Y69.348 E0.03888
G1 X94.879 Y69.965 E0.03984
G1 X95.397 Y70.697 E0.04474
G1 X95.853 Y71.454 E0.04409
G1 X96.243 Y72.207 E0.04231
G1 X96.591 Y72.991 E0.04279
G1 X96.846 Y73.649 E0.03521
G1 X97.148 Y74.547 E0.04727
G1 X97.335 Y75.199 E0.03384
G1 X97.458 Y75.676 E0.02458
G1 X97.644 Y76.51 E0.04263
G1 X97.813 Y77.399 E0.04515
G1 X97.985 Y78.579 E0.05949
G1 X98.087 Y79.598 E0.05109
G1 X98.123 Y80.713 E0.05566
G1 X98.113 Y81.27 E0.02779
G1 X98.083 Y81.878 E0.03037
G1 X98.031 Y82.432 E0.02776
G1 X97.981 Y82.82 E0.01952
G1 X97.886 Y83.368 E0.02775
G1 X97.756 Y83.913 E0.02795
G1 X97.598 Y84.435 E0.02721
G1 X97.4 Y84.949 E0.02748
G1 X97.227 Y85.317 E0.02029
G1 X97.11 Y85.517 E0.01156
G1 X72.807 Y85.516 E1.21248
G1 X72.707 Y85.351 E0.00963
G1 X72.49 Y84.897 E0.0251
G1 X72.314 Y84.429 E0.02495
G1 X72.163 Y83.928 E0.02611
G1 X72.04 Y83.416 E0.02627
G1 X71.946 Y82.901 E0.02612
G1 X71.875 Y82.351 E0.02767
G1 X71.827 Y81.796 E0.02779
G1 X71.8 Y81.253 E0.02712
G1 X71.792 Y80.705 E0.02734
G1 X71.801 Y80.12 E0.02919
G1 X71.832 Y79.528 E0.02958
G1 X71.894 Y78.914 E0.03079
G1 X71.976 Y78.26 E0.03288
G1 X72.168 Y77.046 E0.06132
G1 X72.413 Y75.874 E0.05974
G1 X72.581 Y75.208 E0.03427
G1 X72.62 Y75.078 E0.00677
G0 F1215 X72.696 Y74.824
G1 F2400 E-1.6
G1 F300 Z0.45
G0 F3600 X78.732 Y82.406 Z0.45
G1 F300 Z0.3
G1 F1800 E1.57165
G1 F1350 X79.216 Y82.241 E0.02551
G1 X79.652 Y81.996 E0.02495
G1 X79.935 Y81.771 E0.01804
G1 X80.055 Y81.659 E0.00819
G1 X80.282 Y81.395 E0.01737
G1 X80.378 Y81.263 E0.00814
G1 X80.555 Y80.961 E0.01746
G1 X80.622 Y80.812 E0.00815
G1 X80.745 Y80.476 E0.01785
G1 X80.827 Y80.042 E0.02204
G1 X80.913 Y80.131 E0.00617
G1 X81.453 Y80.575 E0.03488
G1 X82.039 Y80.951 E0.03474
G1 X82.478 Y81.172 E0.02452
G1 X82.676 Y81.26 E0.01081
G1 X83.128 Y81.424 E0.02399
G1 X83.335 Y81.49 E0.01084
G1 X83.805 Y81.6 E0.02408
G1 X84.019 Y81.641 E0.01087
G1 X84.498 Y81.695 E0.02405
G1 X84.715 Y81.71 E0.01085
G1 X85.199 Y81.709 E0.02415
G1 X85.415 Y81.697 E0.01079
G1 X85.893 Y81.64 E0.02402
G1 X86.109 Y81.602 E0.01094
G1 X86.576 Y81.489 E0.02397
G1 X86.785 Y81.427 E0.01088
G1 X87.239 Y81.26 E0.02413
G1 X87.437 Y81.172 E0.01081
G1 X87.868 Y80.954 E0.0241
G1 X88.054 Y80.843 E0.01081
G1 X88.456 Y80.577 E0.02405
G1 X88.629 Y80.445 E0.01086
G1 X89.005 Y80.127 E0.02457
G1 X89.093 Y80.036 E0.00632
G1 X89.111 Y80.234 E0.00992
G1 X89.252 Y80.724 E0.02544
G1 X89.477 Y81.173 E0.02506
G1 X89.689 Y81.463 E0.01792
G1 X89.794 Y81.59 E0.00822
G1 X90.048 Y81.829 E0.0174
G1 X90.176 Y81.93 E0.00813
G1 X90.467 Y82.121 E0.01737
G1 X90.613 Y82.196 E0.00819
G1 X90.946 Y82.336 E0.01802
G1 X91.436 Y82.451 E0.02511
G1 X91.942 Y82.475 E0.02527
G1 X92.449 Y82.406 E0.02553
G1 X92.933 Y82.241 E0.02551
G1 X93.37 Y81.996 E0.02499
G1 X93.652 Y81.771 E0.018
G1 X93.772 Y81.659 E0.00819
G1 X93.999 Y81.395 E0.01737
G1 X94.095 Y81.263 E0.00814
G1 X94.273 Y80.959 E0.01758
G1 X94.338 Y80.812 E0.00802
G1 X94.463 Y80.477 E0.01784
G1 X94.556 Y79.981 E0.02518
G1 X94.557 Y79.472 E0.02539
G1 X94.463 Y78.97 E0.02548
G1 X94.277 Y78.496 E0.0254
G1 X94.011 Y78.069 E0.0251
G1 X93.773 Y77.798 E0.01799
G1 X93.656 Y77.684 E0.00815
G1 X93.381 Y77.468 E0.01745
G1 X93.245 Y77.38 E0.00808
G1 X92.936 Y77.216 E0.01745
G1 X92.783 Y77.157 E0.00818
G1 X92.443 Y77.048 E0.01781
G1 X91.944 Y76.978 E0.02514
G1 X91.435 Y77 E0.02542
G1 X90.94 Y77.118 E0.02539
G1 X90.727 Y77.212 E0.01162
G1 X90.745 Y77.153 E0.00308
G1 X90.867 Y76.463 E0.03496
G1 X90.908 Y75.766 E0.03483
G1 X90.868 Y75.07 E0.03478
G1 X90.746 Y74.38 E0.03496
G1 X90.542 Y73.71 E0.03494
G1 X90.263 Y73.069 E0.03488
G1 X89.909 Y72.466 E0.03488
G1 X89.488 Y71.907 E0.03491
G1 X89.003 Y71.402 E0.03493
G1 X88.466 Y70.961 E0.03467
G1 X88.056 Y70.691 E0.02449
G1 X87.87 Y70.578 E0.01086
G1 X87.438 Y70.361 E0.02412
G1 X87.239 Y70.273 E0.01086
G1 X86.787 Y70.107 E0.02402
G1 X86.579 Y70.043 E0.01086
G1 X86.111 Y69.933 E0.02398
G1 X85.897 Y69.892 E0.01087
G1 X85.418 Y69.838 E0.02405
G1 X85.201 Y69.823 E0.01085
G1 X84.717 Y69.824 E0.02415
G1 X84.501 Y69.836 E0.01079
G1 X84.023 Y69.893 E0.02402
G1 X83.808 Y69.931 E0.01089
G1 X83.34 Y70.043 E0.02401
G1 X83.131 Y70.105 E0.01088
G1 X82.677 Y70.272 E0.02413
G1 X82.477 Y70.361 E0.01092
G1 X82.049 Y70.579 E0.02396
G1 X81.863 Y70.687 E0.01073
G1 X81.458 Y70.957 E0.02428
G1 X81.287 Y71.089 E0.01078
G1 X80.911 Y71.406 E0.02454
G1 X80.429 Y71.908 E0.03472
G1 X80.008 Y72.467 E0.03491
G1 X79.654 Y73.069 E0.03484
G1 X79.375 Y73.711 E0.03492
G1 X79.171 Y74.381 E0.03494
G1 X79.049 Y75.07 E0.03491
G1 X79.008 Y75.766 E0.03478
G1 X79.048 Y76.463 E0.03483
G1 X79.17 Y77.154 E0.03501
G1 X79.185 Y77.203 E0.00256
G1 X79.066 Y77.157 E0.00637
G1 X78.726 Y77.048 E0.01781
G1 X78.227 Y76.978 E0.02514
G1 X77.718 Y77 E0.02542
G1 X77.223 Y77.118 E0.02539
G1 X76.756 Y77.324 E0.02546
G1 X76.341 Y77.611 E0.02517
G1 X76.082 Y77.862 E0.01799
G1 X75.974 Y77.984 E0.00813
G1 X75.769 Y78.269 E0.01751
G1 X75.689 Y78.41 E0.00809
G1 X75.534 Y78.735 E0.01796
G1 X75.395 Y79.22 E0.02517
G1 X75.347 Y79.725 E0.02531
G1 X75.394 Y80.234 E0.0255
G1 X75.535 Y80.724 E0.02544
G1 X75.76 Y81.173 E0.02506
G1 X75.972 Y81.463 E0.01792
G1 X76.077 Y81.59 E0.00822
G1 X76.331 Y81.829 E0.0174
G1 X76.458 Y81.929 E0.00806
G1 X76.75 Y82.123 E0.01749
G1 X76.898 Y82.197 E0.00826
G1 X77.229 Y82.336 E0.01791
G1 X77.719 Y82.451 E0.02511
G1 X78.225 Y82.475 E0.02527
G1 X78.47 Y82.441 E0.01234
G0 F1215 X78.732 Y82.406
G0 F3600 X78.639 Y82.015
;TYPE:WALL-OUTER
G1 F1800 E0.01322
G1 F1350 X79.052 Y81.874 E0.02177
G1 X79.428 Y81.663 E0.02151
G1 X79.673 Y81.468 E0.01562
G1 X79.766 Y81.381 E0.00635
G1 X79.968 Y81.147 E0.01542
G1 X80.042 Y81.044 E0.00633
G1 X80.199 Y80.777 E0.01545
G1 X80.251 Y80.661 E0.00634
G1 X80.358 Y80.369 E0.01552
G1 X80.439 Y79.943 E0.02163
G1 X80.44 Y79.508 E0.0217
G1 X80.359 Y79.081 E0.02168
G1 X80.202 Y78.676 E0.02167
G1 X79.972 Y78.308 E0.02165
G1 X79.766 Y78.074 E0.01555
G1 X79.675 Y77.985 E0.00635
G1 X79.432 Y77.794 E0.01542
G1 X79.325 Y77.725 E0.00635
G1 X79.052 Y77.58 E0.01542
G1 X78.933 Y77.534 E0.00637
G1 X78.637 Y77.439 E0.01551
G1 X78.208 Y77.379 E0.02161
G1 X77.774 Y77.398 E0.02167
G1 X77.351 Y77.499 E0.0217
G1 X76.952 Y77.675 E0.02176
G1 X76.596 Y77.921 E0.02159
G1 X76.371 Y78.139 E0.01563
G1 X76.287 Y78.234 E0.00633
G1 X76.106 Y78.485 E0.01544
G1 X76.044 Y78.595 E0.0063
G1 X75.909 Y78.877 E0.0156
G1 X75.79 Y79.294 E0.02163
G1 X75.749 Y79.726 E0.02165
G1 X75.789 Y80.16 E0.02174
G1 X75.909 Y80.578 E0.0217
G1 X76.103 Y80.964 E0.02155
G1 X76.287 Y81.217 E0.01561
G1 X76.369 Y81.315 E0.00638
G1 X76.593 Y81.526 E0.01535
G1 X76.693 Y81.605 E0.00636
G1 X76.951 Y81.776 E0.01544
G1 X77.065 Y81.833 E0.00636
G1 X77.353 Y81.954 E0.01558
G1 X77.775 Y82.053 E0.02163
G1 X78.207 Y82.074 E0.02158
G1 X78.419 Y82.045 E0.01068
G0 F1215 X78.639 Y82.015
G0 F3600 X79.052 Y81.874
G0 X79.195 Y81.794
G1 F2400 E-1.6
G1 F300 Z0.45
G0 F3600 X72.311 Y74.715 Z0.45
G1 F300 Z0.3
G1 F1800 E1.56955
G1 F1350 X72.392 Y74.414 E0.01555
G1 X72.618 Y73.719 E0.03646
G1 X72.876 Y73.025 E0.03694
G1 X73.177 Y72.322 E0.03815
G1 X73.297 Y72.062 E0.01429
G1 X73.636 Y71.399 E0.03715
G1 X74.013 Y70.746 E0.03762
G1 X74.446 Y70.091 E0.03917
G1 X74.902 Y69.49 E0.03764
G1 X75.263 Y69.06 E0.02801
G1 X75.572 Y68.731 E0.02252
G1 X75.849 Y68.457 E0.01944
G1 X76.16 Y68.174 E0.02098
G1 X76.483 Y67.901 E0.0211
G1 X76.838 Y67.624 E0.02246
G1 X77.227 Y67.345 E0.02388
G1 X77.634 Y67.077 E0.02431
G1 X78.084 Y66.809 E0.02613
G1 X78.564 Y66.551 E0.02719
G1 X79.316 Y66.196 E0.04149
G1 X80.171 Y65.861 E0.04581
G1 X80.923 Y65.619 E0.03941
G1 X81.836 Y65.386 E0.04701
G1 X82.381 Y65.277 E0.02773
G1 X82.93 Y65.189 E0.02774
G1 X83.472 Y65.121 E0.02725
G1 X84.007 Y65.077 E0.02678
G1 X84.537 Y65.052 E0.02647
G1 X85.385 Y65.053 E0.04231
G1 X85.882 Y65.075 E0.02482
G1 X86.426 Y65.122 E0.02724
G1 X86.969 Y65.187 E0.02728
G1 X87.481 Y65.268 E0.02586
G1 X87.983 Y65.366 E0.02552
G1 X88.474 Y65.479 E0.02514
G1 X89.059 Y65.641 E0.03028
G1 X89.449 Y65.76 E0.02034
G1 X90.002 Y65.957 E0.02929
G1 X90.757 Y66.267 E0.04072
G1 X91.498 Y66.628 E0.04112
G1 X92.199 Y67.028 E0.04027
G1 X92.857 Y67.464 E0.03938
G1 X93.449 Y67.917 E0.03719
G1 X94.107 Y68.499 E0.04383
G1 X94.668 Y69.079 E0.04026
G1 X95.2 Y69.726 E0.04179
G1 X95.734 Y70.481 E0.04614
G1 X96.196 Y71.247 E0.04463
G1 X96.609 Y72.045 E0.04483
G1 X96.957 Y72.829 E0.04279
G1 X97.219 Y73.504 E0.03612
G1 X97.533 Y74.437 E0.04911
G1 X97.719 Y75.089 E0.03383
G1 X97.848 Y75.589 E0.02576
G1 X98.037 Y76.435 E0.04325
G1 X98.209 Y77.341 E0.04601
G1 X98.381 Y78.521 E0.05949
G1 X98.487 Y79.575 E0.05285
G1 X98.523 Y80.7 E0.05616
G1 X98.513 Y81.29 E0.02944
