;FLAVOR:Marlin
;TIME:1482
;Filament used: 1.04867m
;Layer height: 0.2
;Generated with Cura_SteamEngine 3.2.1
M82 ;absolute extrusion mode
;---------------------------------------
; ; ; Jellybox Start Script Begin ; ; ;
;_______________________________________
; M92 E140 ;optionally adjust steps per mm for your filament

;              Print Settings Summary
; (leave these alone: this is only a list of the slicing settings)
; (overwriting these values will NOT change your printer's behavior)
;             sliced for :  {machine_name}
;        nozzle diameter :  {machine_nozzle_size}
;      filament diameter :  {material_diameter}
;           layer height :  {layer_height}
;       1st layer height :  {layer_height_0}
;             line width :  {line_width}  
;  outer wall wipe dist. :  {wall_0_wipe_dist}
;      infill line width :  {infill_line_width}
;         wall thickness :  {wall_thickness}
;          top thickness :  {top_thickness}
;       bottom thickness :  {bottom_thickness}
;         infill density :  {infill_sparse_density}
;         infill pattern :  {infill_pattern}
;      print temperature :  {material_print_temperature}
;  1st layer print temp. :  {material_print_temperature_layer_0}
; heated bed temperature :  {material_bed_temperature}
;    1st layer bed temp. :  {material_bed_temperature_layer_0}
;      regular fan speed :  {cool_fan_speed_min}
;          max fan speed :  {cool_fan_speed_max}
;     retraction amount  :  {retraction_amount}
;   retr. retract speed  :  {retraction_retract_speed}
;     retr. prime speed  :  {retraction_prime_speed}
;   build plate adhesion :  {adhesion_type}
;                support ?  {support_enable}
;             spiralized ?  {magic_spiralize}

G21               ;metric values
G90               ;absolute positioning
M82               ;set extruder to absolute mode
M107              ;start with the fan off
M117 Preparing    ;write Preparing
M140 S45          ;set bed temperature and move on
M109 S180         ;wait for the extruder to reach 180C
G28               ;home all axes
M203 Z4           ;slow Z speed down for greater accuracy when probing
G29               ;auto bed leveling procedure
;M500              ;optionally save the mesh
M203 Z7           ;pick up z speed again for printing
G28 X             ;home x to get as far from the plate as possible
M420 S1           ;(re) enable bed leveling turned off by the G28
G0 Y0 F5000       ;position Y in front
G0 Z15 F3000      ;position Z
M190 S65              ;wait for the bed to reach desired temperature
M109 S235             ;wait for the extruder to reach desired temperature
M300 S440 P100    ;play a tone
G4 P200           ;pause
M300 S440 P100    ;play a tone
G4 P200           ;pause
M300 S440 P800    ;play a tone
M0
M420 S1           ;(re) enable bed leveling to make iron-sure
M117 Print starting   ;write Print starting
;================ ;PRINT:LINE start
G90               ;absolute positioning
G92 E0            ;reset the extruder position
M420 S1           ;(re) enable bed leveling to make iron-sure
G0 Z0             ;get Z down
M83               ;relative extrusion mode
G1 E22 F500       ;extrude __mm of feed stock
G1 E18 F400       ;extrude __mm of feed stock
G1 E10 F400       ;extrude __mm of feed stock
G4 S2             ;pause for ooze
M400              ;make sure all is finished
M420 S1           ;(re) enable bed leveling to make iron-sure
G0 F500 X3 Y0 Z0.6;get to the start of the LINE
G1 E2 F300        ;extrude __mm of feed stock
G1 F1000 X104 E10  ;print a thick LINE extruding __mm along the way
M82               ;absolute extrusion mode
G92 E0            ;reset the extruder position
;---------------------------------------------
; ; ; Jellybox Printer Start Script End ; ; ;
;_____________________________________________

M83 ;relative extrusion mode
;LAYER_COUNT:94
;LAYER:0
M107
G0 F3600 X29.931 Y29.263 Z0.3
;TYPE:SKIRT
G1 F1200 X30.459 Y28.776 E0.03584
G1 X31.359 Y28.054 E0.05756
G1 X31.997 Y27.616 E0.03861
G1 X33.811 Y26.56 E0.10472
G1 X34.447 Y26.246 E0.03539
G1 X35.829 Y25.677 E0.07456
G1 X36.377 Y25.486 E0.02895
G1 X38.824 Y24.785 E0.12699
G1 X39.363 Y24.661 E0.02759
G1 X41.336 Y24.317 E0.09992
G1 X41.703 Y24.267 E0.01848
G1 X43.642 Y24.07 E0.09724
G1 X44.04 Y24.045 E0.0199
G1 X46.713 Y23.979 E0.1334
G1 X47.189 Y23.989 E0.02375
G1 X50.411 Y24.205 E0.16111
G1 X50.968 Y24.272 E0.02799
G1 X53.609 Y24.739 E0.1338
G1 X54.161 Y24.868 E0.02828
G1 X56.141 Y25.446 E0.10291
G1 X56.764 Y25.672 E0.03306
G1 X58.87 Y26.591 E0.11464
G1 X59.584 Y26.972 E0.04038
G1 X61.144 Y27.966 E0.09229
G1 X61.751 Y28.417 E0.03773
G1 X62.54 Y29.099 E0.05203
G1 X63.087 Y29.649 E0.0387
G1 X63.993 Y30.706 E0.06945
G1 X64.382 Y31.22 E0.03216
G1 X64.649 Y31.673 E0.02623
G1 X65.29 Y32.894 E0.0688
G1 X65.554 Y33.482 E0.03216
G1 X65.77 Y34.217 E0.03822
G1 X65.971 Y35.151 E0.04766
G1 X66.067 Y35.788 E0.03214
G1 X66.086 Y36.321 E0.02661
G1 X66.077 Y36.933 E0.03054
G1 X65.995 Y37.781 E0.0425
G1 X65.883 Y38.401 E0.03143
G1 X65.729 Y39.027 E0.03216
G1 X65.585 Y39.43 E0.02135
G1 X65.213 Y40.348 E0.04942
G1 X64.859 Y41.06 E0.03967
G1 X64.588 Y41.514 E0.02638
G1 X64.135 Y42.158 E0.03928
G1 X63.283 Y43.191 E0.0668
G1 X62.731 Y43.764 E0.03969
G1 X61.886 Y44.517 E0.05647
G1 X61.339 Y44.942 E0.03456
G1 X60.094 Y45.784 E0.07498
G1 X59.614 Y46.072 E0.02793
G1 X58.598 Y46.61 E0.05736
G1 X58.092 Y46.845 E0.02783
G1 X56.36 Y47.536 E0.09303
G1 X55.744 Y47.738 E0.03234
G1 X53.233 Y48.392 E0.12945
G1 X52.681 Y48.504 E0.0281
G1 X50.314 Y48.853 E0.11937
G1 X49.844 Y48.901 E0.02357
G1 X46.811 Y49.07 E0.15155
G1 X46.305 Y49.073 E0.02524
G1 X43.307 Y48.948 E0.1497
G1 X42.811 Y48.904 E0.02484
G1 X40.153 Y48.536 E0.13387
G1 X39.562 Y48.419 E0.03006
G1 X36.88 Y47.724 E0.13823
G1 X36.285 Y47.531 E0.03121
G1 X34.651 Y46.89 E0.08757
G1 X34.101 Y46.636 E0.03022
G1 X32.792 Y45.937 E0.07403
G1 X32.198 Y45.567 E0.03491
G1 X30.883 Y44.618 E0.08091
G1 X30.278 Y44.107 E0.03951
G1 X29.373 Y43.216 E0.06336
G1 X28.891 Y42.669 E0.03637
G1 X28.452 Y42.095 E0.03605
G1 X28.082 Y41.542 E0.0332
G1 X27.592 Y40.696 E0.04878
G1 X27.304 Y40.119 E0.03217
G1 X27.171 Y39.77 E0.01863
G1 X26.931 Y39.067 E0.03706
G1 X26.761 Y38.445 E0.03217
G1 X26.673 Y37.857 E0.02966
G1 X26.572 Y36.745 E0.05571
G1 X26.554 Y36.101 E0.03214
G1 X26.624 Y35.409 E0.0347
G1 X26.741 Y34.716 E0.03506
G1 X26.887 Y34.089 E0.03212
G1 X27.089 Y33.533 E0.02951
G1 X27.562 Y32.43 E0.05988
G1 X27.852 Y31.854 E0.03217
G1 X28.053 Y31.537 E0.01873
G1 X28.538 Y30.83 E0.04277
G1 X29.044 Y30.203 E0.0402
G1 X29.75 Y29.455 E0.05132
G0 F1140 X29.931 Y29.263
G1 F2400 E-1.6
G1 F300 Z0.45
G0 F3600 X32.331 Y36.494 Z0.45
;TYPE:WALL-INNER
G1 F300 Z0.3
G1 F1800 E1.55086
G1 F1200 X32.353 Y36.162 E0.0166
G1 X32.412 Y35.841 E0.01628
G1 X32.516 Y35.49 E0.01826
G1 X32.656 Y35.15 E0.01834
G1 X32.821 Y34.828 E0.01805
G1 X33.045 Y34.469 E0.02111
G1 X33.276 Y34.154 E0.01949
G1 X33.572 Y33.806 E0.02279
G1 X33.741 Y33.625 E0.01235
G1 X34.097 Y33.281 E0.0247
G1 X34.449 Y32.977 E0.0232
G1 X34.824 Y32.688 E0.02362
G1 X35.259 Y32.386 E0.02642
G1 X35.711 Y32.104 E0.02658
G1 X36.165 Y31.848 E0.026
G1 X36.646 Y31.603 E0.02693
G1 X37.176 Y31.363 E0.02903
G1 X37.727 Y31.14 E0.02966
G1 X38.277 Y30.942 E0.02916
G1 X38.871 Y30.752 E0.03111
G1 X39.473 Y30.582 E0.03121
G1 X40.081 Y30.431 E0.03125
G1 X40.718 Y30.292 E0.03253
G1 X41.356 Y30.174 E0.03237
G1 X42.001 Y30.07 E0.03259
G1 X42.674 Y29.981 E0.03387
G1 X43.718 Y29.873 E0.05236
G1 X44.383 Y29.825 E0.03326
G1 X45.081 Y29.791 E0.03486
G1 X46.143 Y29.769 E0.05299
G1 X46.444 Y29.768 E0.01502
G1 X47.504 Y29.789 E0.05289
G1 X48.225 Y29.825 E0.03602
G1 X48.925 Y29.874 E0.03501
G1 X49.61 Y29.939 E0.03433
G1 X50.305 Y30.024 E0.03493
G1 X51.188 Y30.159 E0.04456
G1 X50.89 Y30.221 E0.01519
G1 X50.631 Y30.302 E0.01354
G1 X50.376 Y30.412 E0.01386
G1 X50.035 Y30.602 E0.01948
G1 X49.81 Y30.767 E0.01392
G1 X49.604 Y30.948 E0.01368
G1 X49.419 Y31.148 E0.01359
G1 X49.254 Y31.362 E0.01348
G1 X49.109 Y31.593 E0.01361
G1 X48.986 Y31.836 E0.01359
G1 X48.885 Y32.09 E0.01364
G1 X48.81 Y32.357 E0.01384
G1 X48.745 Y32.743 E0.01953
G1 X48.731 Y33.026 E0.01414
G1 X48.751 Y33.368 E0.01709
G1 X48.843 Y33.822 E0.02311
G1 X48.96 Y34.151 E0.01742
G1 X49.11 Y34.449 E0.01664
G1 X49.256 Y34.681 E0.01368
G1 X49.422 Y34.895 E0.01351
G1 X49.605 Y35.093 E0.01345
G1 X49.806 Y35.274 E0.01349
G1 X50.024 Y35.437 E0.01358
G1 X50.259 Y35.578 E0.01367
G1 X50.507 Y35.697 E0.01372
G1 X50.764 Y35.789 E0.01362
G1 X51.025 Y35.857 E0.01346
G1 X51.294 Y35.901 E0.0136
G1 X51.563 Y35.918 E0.01345
G1 X51.834 Y35.914 E0.01352
G1 X52.102 Y35.882 E0.01347
G1 X52.37 Y35.826 E0.01366
G1 X52.636 Y35.742 E0.01392
G1 X52.995 Y35.582 E0.01961
G1 X53.234 Y35.438 E0.01392
G1 X53.453 Y35.277 E0.01356
G1 X53.656 Y35.096 E0.01357
G1 X53.841 Y34.897 E0.01356
G1 X54.007 Y34.683 E0.01351
G1 X54.152 Y34.455 E0.01348
G1 X54.276 Y34.212 E0.01361
G1 X54.377 Y33.955 E0.01378
G1 X54.45 Y33.692 E0.01362
G1 X54.499 Y33.427 E0.01345
G1 X54.524 Y33.158 E0.01348
G1 X54.523 Y32.889 E0.01342
G1 X54.498 Y32.616 E0.01368
G1 X54.421 Y32.228 E0.01973
G1 X54.329 Y31.959 E0.01418
G1 X54.217 Y31.711 E0.01358
G1 X54.082 Y31.475 E0.01356
G1 X53.926 Y31.254 E0.0135
G1 X53.751 Y31.047 E0.01352
G1 X53.556 Y30.858 E0.01355
G1 X53.346 Y30.687 E0.01351
G1 X53.217 Y30.602 E0.00771
G1 X53.625 Y30.713 E0.0211
G1 X54.237 Y30.903 E0.03197
G1 X54.855 Y31.121 E0.03269
G1 X55.42 Y31.347 E0.03036
G1 X55.982 Y31.599 E0.03073
G1 X56.419 Y31.821 E0.02445
G1 X56.84 Y32.054 E0.02401
G1 X57.232 Y32.293 E0.02291
G1 X57.507 Y32.474 E0.01642
G1 X57.859 Y32.723 E0.02151
G1 X58.207 Y32.993 E0.02197
G1 X58.535 Y33.275 E0.02158
G1 X58.907 Y33.634 E0.02579
G1 X59.201 Y33.959 E0.02186
G1 X59.374 Y34.171 E0.01365
G1 X59.634 Y34.531 E0.02215
G1 X59.85 Y34.887 E0.02077
G1 X59.992 Y35.172 E0.01589
G1 X60.109 Y35.458 E0.01542
G1 X60.165 Y35.618 E0.00846
G1 X60.235 Y35.878 E0.01343
G1 X60.294 Y36.25 E0.01879
G1 X60.305 Y36.44 E0.0095
G1 X60.286 Y36.858 E0.02088
G1 X60.232 Y37.185 E0.01654
G1 X60.143 Y37.501 E0.01638
G1 X60.012 Y37.837 E0.01799
G1 X59.846 Y38.168 E0.01847
G1 X59.646 Y38.499 E0.01929
G1 X59.419 Y38.819 E0.01957
G1 X59.144 Y39.156 E0.0217
G1 X58.839 Y39.48 E0.0222
G1 X58.519 Y39.784 E0.02202
G1 X58.15 Y40.098 E0.02417
G1 X57.775 Y40.385 E0.02356
G1 X57.352 Y40.676 E0.02562
G1 X56.923 Y40.944 E0.02524
G1 X56.462 Y41.202 E0.02636
G1 X55.979 Y41.448 E0.02704
G1 X55.53 Y41.652 E0.0246
G1 X55.046 Y41.851 E0.02611
G1 X54.368 Y42.103 E0.03609
G1 X53.86 Y42.266 E0.02662
G1 X53.221 Y42.446 E0.03312
G1 X53.453 Y42.277 E0.01432
G1 X53.656 Y42.096 E0.01357
G1 X53.841 Y41.897 E0.01356
G1 X54.007 Y41.683 E0.01351
G1 X54.152 Y41.455 E0.01348
G1 X54.276 Y41.212 E0.01361
G1 X54.377 Y40.955 E0.01378
G1 X54.45 Y40.692 E0.01362
G1 X54.499 Y40.427 E0.01345
G1 X54.524 Y40.158 E0.01348
G1 X54.523 Y39.889 E0.01342
G1 X54.498 Y39.616 E0.01368
G1 X54.421 Y39.228 E0.01973
G1 X54.329 Y38.959 E0.01418
G1 X54.217 Y38.711 E0.01358
G1 X54.082 Y38.475 E0.01356
G1 X53.926 Y38.254 E0.0135
G1 X53.751 Y38.047 E0.01352
G1 X53.556 Y37.858 E0.01355
G1 X53.346 Y37.687 E0.01351
G1 X53.119 Y37.537 E0.01357
G1 X52.892 Y37.414 E0.01288
G1 X52.754 Y37.349 E0.00761
G1 X52.501 Y37.257 E0.01343
G1 X52.238 Y37.187 E0.01358
G1 X51.969 Y37.143 E0.0136
G1 X51.699 Y37.125 E0.0135
G1 X51.427 Y37.131 E0.01357
G1 X51.155 Y37.163 E0.01366
G1 X50.89 Y37.221 E0.01353
G1 X50.631 Y37.302 E0.01354
G1 X50.376 Y37.412 E0.01386
G1 X50.035 Y37.602 E0.01948
G1 X49.81 Y37.767 E0.01392
G1 X49.604 Y37.948 E0.01368
G1 X49.419 Y38.148 E0.01359
G1 X49.254 Y38.362 E0.01348
G1 X49.109 Y38.593 E0.01361
G1 X48.986 Y38.836 E0.01359
G1 X48.885 Y39.09 E0.01364
G1 X48.81 Y39.357 E0.01384
G1 X48.745 Y39.743 E0.01953
G1 X48.731 Y40.026 E0.01414
G1 X48.751 Y40.368 E0.01709
G1 X48.843 Y40.822 E0.02311
G1 X48.96 Y41.151 E0.01742
G1 X49.11 Y41.449 E0.01664
G1 X49.256 Y41.681 E0.01368
G1 X49.422 Y41.895 E0.01351
G1 X49.605 Y42.093 E0.01345
G1 X49.806 Y42.274 E0.01349
G1 X50.024 Y42.437 E0.01358
G1 X50.259 Y42.578 E0.01367
G1 X50.507 Y42.697 E0.01372
G1 X50.764 Y42.789 E0.01362
G1 X51.025 Y42.857 E0.01346
G1 X51.194 Y42.885 E0.00855
G1 X50.698 Y42.967 E0.02508
G1 X49.896 Y43.072 E0.04035
G1 X49.171 Y43.149 E0.03637
G1 X48.344 Y43.217 E0.0414
G1 X47.638 Y43.255 E0.03527
G1 X46.913 Y43.277 E0.03619
G1 X46.204 Y43.283 E0.03537
G1 X45.493 Y43.272 E0.03548
G1 X44.768 Y43.243 E0.0362
G1 X44.053 Y43.2 E0.03574
G1 X43.334 Y43.137 E0.03601
G1 X42.618 Y43.057 E0.03594
G1 X41.937 Y42.966 E0.03428
G1 X41.262 Y42.856 E0.03412
G1 X40.587 Y42.726 E0.03429
G1 X39.935 Y42.58 E0.03333
G1 X39.305 Y42.417 E0.03247
G1 X38.681 Y42.234 E0.03244
G1 X38.081 Y42.034 E0.03155
G1 X37.502 Y41.816 E0.03087
G1 X37.207 Y41.695 E0.01591
G1 X36.655 Y41.447 E0.03019
G1 X36.134 Y41.182 E0.02916
G1 X35.656 Y40.909 E0.02746
G1 X35.182 Y40.606 E0.02807
G1 X34.93 Y40.434 E0.01522
G1 X34.513 Y40.119 E0.02607
G1 X34.126 Y39.791 E0.02531
G1 X33.767 Y39.45 E0.0247
G1 X33.456 Y39.111 E0.02295
G1 X33.16 Y38.74 E0.02368
G1 X32.974 Y38.473 E0.01623
G1 X32.792 Y38.169 E0.01768
G1 X32.645 Y37.874 E0.01644
G1 X32.518 Y37.561 E0.01685
G1 X32.47 Y37.414 E0.00771
G1 X32.391 Y37.117 E0.01533
G1 X32.347 Y36.84 E0.01399
G1 X32.343 Y36.759 E0.00405
G0 F1140 X32.331 Y36.494
G1 F2400 E-1.6
G1 F300 Z0.45
G0 F3600 X35.07 Y36.829 Z0.45
G1 F300 Z0.3
G1 F1800 E1.55086
G1 F1200 X35.114 Y37.15 E0.01616
G1 X35.184 Y37.457 E0.01571
G1 X35.281 Y37.759 E0.01582
G1 X35.459 Y38.169 E0.0223
G1 X35.622 Y38.447 E0.01608
G1 X35.803 Y38.704 E0.01568
G1 X36.009 Y38.947 E0.01589
G1 X36.33 Y39.256 E0.02223
G1 X36.588 Y39.453 E0.01619
G1 X36.858 Y39.623 E0.01592
G1 X37.256 Y39.819 E0.02213
G1 X37.557 Y39.93 E0.01601
G1 X37.862 Y40.011 E0.01574
G1 X38.174 Y40.064 E0.01579
G1 X38.491 Y40.089 E0.01586
G1 X38.937 Y40.082 E0.02225
G1 X39.257 Y40.037 E0.01612
G1 X39.562 Y39.968 E0.0156
G1 X39.865 Y39.871 E0.01587
G1 X40.274 Y39.693 E0.02225
G1 X40.555 Y39.529 E0.01623
G1 X40.811 Y39.346 E0.0157
G1 X41.052 Y39.14 E0.01582
G1 X41.36 Y38.819 E0.02219
G1 X41.555 Y38.562 E0.01609
G1 X41.725 Y38.294 E0.01583
G1 X41.924 Y37.896 E0.0222
G1 X42.035 Y37.595 E0.01601
G1 X42.116 Y37.287 E0.01589
G1 X42.169 Y36.975 E0.01579
G1 X42.192 Y36.661 E0.01571
G1 X42.185 Y36.215 E0.02225
G1 X42.14 Y35.895 E0.01612
G1 X42.072 Y35.592 E0.01549
G1 X41.976 Y35.289 E0.01586
G1 X41.798 Y34.878 E0.02235
G1 X41.635 Y34.598 E0.01616
G1 X41.453 Y34.341 E0.01571
G1 X41.246 Y34.1 E0.01585
G1 X40.926 Y33.792 E0.02216
G1 X40.669 Y33.597 E0.01609
G1 X40.4 Y33.425 E0.01593
G1 X40.002 Y33.228 E0.02216
G1 X39.7 Y33.116 E0.01607
G1 X39.394 Y33.036 E0.01578
G1 X39.083 Y32.983 E0.01574
G1 X38.766 Y32.959 E0.01586
G1 X38.32 Y32.966 E0.02225
G1 X38 Y33.011 E0.01612
G1 X37.697 Y33.079 E0.01549
G1 X37.394 Y33.175 E0.01586
G1 X36.984 Y33.353 E0.0223
G1 X36.703 Y33.517 E0.01623
G1 X36.447 Y33.699 E0.01567
G1 X36.206 Y33.904 E0.01579
G1 X35.897 Y34.225 E0.02223
G1 X35.702 Y34.482 E0.01609
G1 X35.53 Y34.75 E0.01589
G1 X35.333 Y35.15 E0.02225
G1 X35.222 Y35.452 E0.01605
G1 X35.142 Y35.758 E0.01578
G1 X35.088 Y36.068 E0.0157
G1 X35.063 Y36.386 E0.01591
G1 X35.066 Y36.564 E0.00888
G0 F1140 X35.07 Y36.829
G1 F2400 E-1.6
G1 F300 Z0.45
G0 F3600 X31.93 Y36.496 Z0.45
;TYPE:WALL-OUTER
G1 F300 Z0.3
G1 F1800 E1.55086
G1 F1200 X31.955 Y36.114 E0.0191
G1 X32.024 Y35.74 E0.01897
G1 X32.136 Y35.362 E0.01967
G1 X32.289 Y34.99 E0.02007
G1 X32.475 Y34.627 E0.02035
G1 X32.711 Y34.248 E0.02227
G1 X32.965 Y33.902 E0.02141
G1 X33.267 Y33.547 E0.02325
G1 X33.463 Y33.337 E0.01433
G1 X33.819 Y32.993 E0.0247
G1 X34.198 Y32.666 E0.02497
G1 X34.596 Y32.359 E0.02508
G1 X35.031 Y32.057 E0.02642
G1 X35.499 Y31.765 E0.02752
G1 X35.976 Y31.496 E0.02732
G1 X36.481 Y31.239 E0.02827
G1 X37.026 Y30.992 E0.02985
G1 X37.577 Y30.769 E0.02966
G1 X38.155 Y30.561 E0.03065
G1 X38.758 Y30.368 E0.03159
G1 X39.364 Y30.197 E0.03141
G1 X39.996 Y30.04 E0.03249
G1 X40.633 Y29.901 E0.03253
G1 X41.292 Y29.779 E0.03344
G1 X41.949 Y29.673 E0.0332
G1 X42.622 Y29.584 E0.03387
G1 X43.681 Y29.475 E0.05311
G1 X44.364 Y29.425 E0.03417
G1 X45.062 Y29.391 E0.03486
