; G-Code generated by Simplify3D(R) Version 3.1.0
; Mar 23, 2017 at 11:53:35 AM
; Settings Summary
;   processName,Process1
;   applyToModels,cube 10x10x10
;   profileName,PETG 0.3 he.20 bt50 (modified)
;   profileVersion,2017-03-22 16:30:49
;   baseProfile,Default (modified)
;   printMaterial,
;   printQuality,
;   printExtruders,
;   extruderName,Primary Extruder
;   extruderToolheadNumber,0
;   extruderDiameter,0.4
;   extruderAutoWidth,0
;   extruderWidth,0.46
;   extrusionMultiplier,0.95
;   extruderUseRetract,1
;   extruderRetractionDistance,1.4
;   extruderExtraRestartDistance,-0.1
;   extruderRetractionZLift,0.1
;   extruderRetractionSpeed,4200
;   extruderUseCoasting,1
;   extruderCoastingDistance,0.2
;   extruderUseWipe,1
;   extruderWipeDistance,0.2
;   primaryExtruder,0
;   layerHeight,0.3
;   topSolidLayers,3
;   bottomSolidLayers,0
;   perimeterOutlines,2
;   printPerimetersInsideOut,1
;   startPointOption,2
;   startPointOriginX,80
;   startPointOriginY,0
;   startPointOriginZ,5
;   sequentialIslands,0
;   spiralVaseMode,0
;   firstLayerHeightPercentage,100
;   firstLayerWidthPercentage,140
;   firstLayerUnderspeed,0.3
;   useRaft,0
;   raftExtruder,0
;   raftLayers,3
;   raftOffset,3
;   raftSeparationDistance,0.14
;   raftInfill,85
;   disableRaftBaseLayers,0
;   useSkirt,1
;   skirtExtruder,0
;   skirtLayers,1
;   skirtOutlines,1
;   skirtOffset,3
;   usePrimePillar,0
;   primePillarExtruder,999
;   primePillarWidth,12
;   primePillarLocation,7
;   primePillarSpeedMultiplier,1
;   useOozeShield,0
;   oozeShieldExtruder,999
;   oozeShieldOffset,2
;   oozeShieldOutlines,1
;   oozeShieldSidewallShape,1
;   oozeShieldSidewallAngle,30
;   oozeShieldSpeedMultiplier,1
;   infillExtruder,0
;   internalInfillPattern,Rectilinear
;   externalInfillPattern,Rectilinear
;   infillPercentage,22
;   outlineOverlapPercentage,30
;   infillExtrusionWidthPercentage,150
;   minInfillLength,2
;   infillLayerInterval,1
;   infillAngles,45,-45
;   overlapInfillAngles,0
;   generateSupport,1
;   supportExtruder,0
;   supportInfillPercentage,33
;   supportExtraInflation,0.5
;   denseSupportLayers,0
;   denseSupportInfillPercentage,70
;   supportLayerInterval,1
;   supportHorizontalPartOffset,0.8
;   supportUpperSeparationLayers,1
;   supportLowerSeparationLayers,1
;   supportType,0
;   supportGridSpacing,1.5
;   maxOverhangAngle,55
;   supportAngles,90
;   temperatureName,Primary Extruder,bed
;   temperatureNumber,0,0
;   temperatureSetpointCount,2,2
;   temperatureSetpointLayers,1,2,1,2
;   temperatureSetpointTemperatures,240,235,65,60
;   temperatureStabilizeAtStartup,1,1
;   temperatureHeatedBed,0,1
;   temperatureRelayBetweenLayers,0,0
;   temperatureRelayBetweenLoops,0,0
;   fanLayers,1,4
;   fanSpeeds,0,20
;   blipFanToFullPower,1
;   adjustSpeedForCooling,0
;   minSpeedLayerTime,15
;   minCoolingSpeedSlowdown,65
;   increaseFanForCooling,1
;   minFanLayerTime,15
;   maxCoolingFanSpeed,60
;   increaseFanForBridging,1
;   bridgingFanSpeed,100
;   use5D,1
;   relativeEdistances,0
;   allowEaxisZeroing,1
;   independentExtruderAxes,0
;   includeM10123,0
;   stickySupport,1
;   applyToolheadOffsets,0
;   gcodeXoffset,0
;   gcodeYoffset,0
;   gcodeZoffset,0
;   overrideMachineDefinition,1
;   machineTypeOverride,0
;   strokeXoverride,170
;   strokeYoverride,160
;   strokeZoverride,145
;   originOffsetXoverride,0
;   originOffsetYoverride,0
;   originOffsetZoverride,0
;   homeXdirOverride,-1
;   homeYdirOverride,-1
;   homeZdirOverride,-1
;   flipXoverride,1
;   flipYoverride,-1
;   flipZoverride,1
;   toolheadOffsets,0,0|0,0|0,0|0,0|0,0|0,0
;   overrideFirmwareConfiguration,1
;   firmwareTypeOverride,RepRap (Marlin/Repetier/Sprinter)
;   GPXconfigOverride,r2
;   baudRateOverride,250000
;   overridePrinterModels,0
;   printerModelsOverride
;   startingGcode,;---------------------------------------,; ; ; Jellybox Start Script Begin ; ; ;,;_______________________________________,; M92 E140            ; optionally adjust steps per mm for your filament,M117 Preparing        ; write Preparing,M206 X10.0 Y0.0       ; set x homing offset for default bed leveling,G21                   ; metric values,G90                   ; absolute positioning,M107                  ; start with the fan off,M82                   ; set extruder to absolute mode,G28                   ; home all axes,M203 Z4               ; slow Z speed down for greater accuracy when probing,G29                   ; auto bed leveling procedure,M203 Z7               ; pick up z speed again for printing,G92 E0                ; reset the extruder position,G1 F1500 E15          ; extrude 15mm of feed stock,G92 E0                ; reset the extruder position again,M117 Print starting   ; write Print starting,;---------------------------------------------,; ; ; Jellybox Printer Start Script End ; ; ;,;_____________________________________________
;   layerChangeGcode,
;   retractionGcode,
;   toolChangeGcode,
;   endingGcode,; ; ;  Jellybox End Script Begin ; ; ;,; _________________________________,M117 Finishing Up  ; write Finishing Up,M107               ; start with the fan off,M104 S0            ; extruder heater off,M140 S0            ; bed heater off (if you have it),G91                ; relative positioning,G1 E-1 F300        ; retract the filament a bit before lifting the nozzle to release some of the pressure,G1 Z+0.5 E-5 X-20 Y-20 F9000 ; move Z up a bit and retract filament even more,G90                ; absolute positioning,G28 X              ; home x so the head is out of the way,G1 Y100            ; move Y forward so the print is more accessible,M84                ; steppers off,M107               ; fan off,M117 Print finished ; write Print finished,; ---------------------------------------,; ; ;  Jellybox End Script End ; ; ;,; _______________________________________
;   exportFileFormat,gcode
;   celebration,0
;   celebrationSong,Random Song
;   postProcessing,|{REPLACE "; layer" "M117 Layer"},|{REPLACE ", Z = " " "Z="}
;   defaultSpeed,2700
;   outlineUnderspeed,0.55
;   solidInfillUnderspeed,0.55
;   supportUnderspeed,0.9
;   rapidXYspeed,7800
;   rapidZspeed,420
;   minBridgingArea,50
;   bridgingExtraInflation,0.3
;   bridgingExtrusionMultiplier,1
;   bridgingSpeedMultiplier,1
;   filamentDiameter,1.75
;   filamentPricePerKg,30
;   filamentDensity,1.38
;   useMinPrintHeight,0
;   minPrintHeight,30
;   useMaxPrintHeight,0
;   maxPrintHeight,40
;   useDiaphragm,0
;   diaphragmLayerInterval,20
;   robustSlicing,1
;   mergeAllIntoSolid,0
;   onlyRetractWhenCrossingOutline,0
;   retractBetweenLayers,1
;   useRetractionMinTravel,1
;   retractionMinTravel,1
;   retractWhileWiping,1
;   onlyWipeOutlines,0
;   avoidCrossingOutline,1
;   maxMovementDetourFactor,2.5
;   toolChangeRetractionDistance,1.3
;   toolChangeExtraRestartDistance,0
;   toolChangeRetractionSpeed,600
;   allowThinWallGapFill,1
;   thinWallAllowedOverlapPercentage,15
;   horizontalSizeCompensation,0
G90
M82
M106 S0
M140 S65
M190 S65
M104 S240 T0
M109 S240 T0
;---------------------------------------
; ; ; Jellybox Start Script Begin ; ; ;
;_______________________________________
; M92 E140            ; optionally adjust steps per mm for your filament
M117 Preparing        ; write Preparing
M206 X10.0 Y0.0       ; set x homing offset for default bed leveling
G21                   ; metric values
G90                   ; absolute positioning
M107                  ; start with the fan off
M82                   ; set extruder to absolute mode
G28                   ; home all axes
M203 Z4               ; slow Z speed down for greater accuracy when probing
G29                   ; auto bed leveling procedure
M203 Z7               ; pick up z speed again for printing
G92 E0                ; reset the extruder position
G1 F1500 E15          ; extrude 15mm of feed stock
G92 E0                ; reset the extruder position again
M117 Print starting   ; write Print starting
;---------------------------------------------
; ; ; Jellybox Printer Start Script End ; ; ;
;_____________________________________________
G92 E0
G1 E-1.4000 F4200
G1 Z0.400 F420
M117 Layer 1 0.3
T0
; tool H0.300 W0.644
; skirt
G1 X56.805 Y53.627 F7800
G1 Z0.300 F420
G1 E-0.1000 F1260
G92 E0
G1 X58.627 Y51.805 E0.1966 F810
G1 X58.712 Y51.770 E0.2036
G1 X111.288 Y51.770 E4.2156
G1 X111.373 Y51.805 E4.2226
G1 X113.195 Y53.627 E4.4192
G1 X113.230 Y53.712 E4.4262
G1 X113.230 Y106.288 E8.4382
G1 X113.195 Y106.373 E8.4451
G1 X111.373 Y108.195 E8.6418
G1 X111.288 Y108.230 E8.6487
G1 X58.712 Y108.230 E12.6607
G1 X58.627 Y108.195 E12.6677
G1 X56.805 Y106.373 E12.8643
G1 X56.770 Y106.288 E12.8713
G1 X56.770 Y53.820 E16.8750
G1 X56.770 Y53.712 F810
G1 X56.805 Y53.627 F810
G92 E0
G1 X57.441 Y52.991 E-1.4000 F2700
G1 Z0.400 F420
; inner perimeter
G1 X60.966 Y55.966 F7800
G1 Z0.300 F420
G1 E-0.1000 F4200
G92 E0
G1 X109.034 Y55.966 E3.6679 F628
G1 X109.034 Y104.034 E7.3359
G1 X60.966 Y104.034 E11.0038
G1 X60.966 Y56.166 E14.6564
G1 X60.966 Y55.966 F628
G92 E0
G1 X61.866 Y55.966 E-1.4000 F2700
G1 Z0.400 F420
; outer perimeter
G1 X60.322 Y55.322 F7800
G1 Z0.300 F420
G1 E-0.1000 F4200
G92 E0
G1 X109.678 Y55.322 E3.7662 F446
G1 X109.678 Y104.678 E7.5324
G1 X60.322 Y104.678 E11.2986
G1 X60.322 Y55.522 E15.0496
G1 X60.322 Y55.322 F446
G92 E0
G1 X61.222 Y55.322 E-1.4000 F2700
G1 Z0.400 F420
; tool H0.300 W0.966
; infill
G1 X105.933 Y56.578 F7800
G1 Z0.300 F420
G1 E-0.1000 F4200
G92 E0
G1 X108.422 Y59.067 E0.4030 F810
G1 X108.422 Y63.503 E0.9107
G1 X101.497 Y56.578 E2.0316
G1 X97.062 Y56.578 E2.5393
G1 X108.422 Y67.938 E4.3782
G1 X108.422 Y72.374 E4.8859
G1 X92.626 Y56.578 E7.4429
G1 X88.191 Y56.578 E7.9505
G1 X108.422 Y76.809 E11.2254
G1 X108.422 Y81.245 E11.7331
G1 X83.755 Y56.578 E15.7260
G1 X79.320 Y56.578 E16.2337
G1 X108.422 Y85.680 E20.9445
G1 X108.422 Y90.116 E21.4522
G1 X74.884 Y56.578 E26.8811
G1 X70.449 Y56.578 E27.3888
G1 X108.422 Y94.551 E33.5356
G1 X108.422 Y98.987 E34.0433
G1 X66.013 Y56.578 E40.9081
G1 X61.578 Y56.578 E41.4158
G1 X108.422 Y103.422 E48.9985
G1 X103.987 Y103.422 E49.5062
G1 X61.578 Y61.013 E56.3710
G1 X61.578 Y65.449 E56.8787
G1 X99.551 Y103.422 E63.0255
G1 X95.116 Y103.422 E63.5332
G1 X61.578 Y69.884 E68.9621
G1 X61.578 Y74.320 E69.4697
G1 X90.680 Y103.422 E74.1806
G1 X86.245 Y103.422 E74.6883
G1 X61.578 Y78.755 E78.6812
G1 X61.578 Y83.191 E79.1889
G1 X81.809 Y103.422 E82.4638
G1 X77.374 Y103.422 E82.9715
G1 X61.578 Y87.626 E85.5284
G1 X61.578 Y92.062 E86.0361
G1 X72.938 Y103.422 E87.8750
G1 X68.503 Y103.422 E88.3827
G1 X61.578 Y96.497 E89.5037
G1 X61.578 Y100.933 E90.0113
G1 X63.926 Y103.281 E90.3914
G1 X64.067 Y103.422 F810
G92 E0
G1 X63.431 Y102.786 E-1.4000 F2700
G1 Z0.700 F420
M117 Layer 2 0.6
M104 S235 T0
M140 S60
; tool H0.300 W0.460
; inner perimeter
G1 X60.690 Y104.310 F7800
G1 Z0.600 F420
G1 E-0.1000 F4200
G92 E0
G1 X60.690 Y55.690 E2.6500 F2092
G1 X109.310 Y55.690 E5.3001
G1 X109.310 Y104.310 E7.9501
G1 X60.890 Y104.310 E10.5892
G1 X60.690 Y104.310 F2092
G92 E0
G1 X60.690 Y103.410 E-1.4000 F2700
G1 Z0.700 F420
; outer perimeter
G1 X60.230 Y104.770 F7800
G1 Z0.600 F420
G1 E-0.1000 F4200
G92 E0
G1 X60.230 Y55.230 E2.7002 F1485
G1 X109.770 Y55.230 E5.4004
G1 X109.770 Y104.770 E8.1005
G1 X60.430 Y104.770 E10.7898
G1 X60.230 Y104.770 F1485
G92 E0
G1 X60.230 Y103.870 E-1.4000 F2700
G1 Z0.700 F420
; tool H0.300 W0.690
; infill
G1 X61.127 Y59.518 F7800
G1 Z0.600 F420
G1 E-0.1000 F4200
G92 E0
G1 X64.518 Y56.127 E0.3921 F2700
G1 X68.954 Y56.127 E0.7547
G1 X61.127 Y63.954 E1.6597
G1 X61.127 Y68.389 E2.0223
G1 X73.389 Y56.127 E3.4401
G1 X77.825 Y56.127 E3.8027
G1 X61.127 Y72.825 E5.7333
G1 X61.127 Y77.260 E6.0960
G1 X82.260 Y56.127 E8.5394
G1 X86.696 Y56.127 E8.9021
G1 X61.127 Y81.696 E11.8584
G1 X61.127 Y86.131 E12.2210
G1 X91.131 Y56.127 E15.6901
G1 X95.567 Y56.127 E16.0528
G1 X61.127 Y90.567 E20.0348
G1 X61.127 Y95.002 E20.3974
G1 X100.002 Y56.127 E24.8922
G1 X104.438 Y56.127 E25.2549
G1 X61.127 Y99.438 E30.2626
G1 X61.127 Y103.873 E30.6252
G1 X108.873 Y56.127 E36.1457
G1 X108.873 Y60.563 E36.5083
G1 X65.562 Y103.873 E41.5160
G1 X69.998 Y103.873 E41.8786
G1 X108.873 Y64.998 E46.3735
G1 X108.873 Y69.434 E46.7361
G1 X74.433 Y103.873 E50.7181
G1 X78.869 Y103.873 E51.0807
G1 X108.873 Y73.869 E54.5499
G1 X108.873 Y78.304 E54.9125
G1 X83.304 Y103.873 E57.8688
G1 X87.740 Y103.873 E58.2314
G1 X108.873 Y82.740 E60.6749
G1 X108.873 Y87.175 E61.0375
G1 X92.175 Y103.873 E62.9681
G1 X96.611 Y103.873 E63.3308
G1 X108.873 Y91.611 E64.7485
G1 X108.873 Y96.046 E65.1112
G1 X101.046 Y103.873 E66.0161
G1 X105.482 Y103.873 E66.3787
G1 X108.732 Y100.623 E66.7545
G1 X108.873 Y100.482 F2700
G92 E0
G1 X108.237 Y101.118 E-1.4000 F2700
G1 Z1.000 F420
M117 Layer 3 0.9
; tool H0.300 W0.460
; inner perimeter
G1 X109.310 Y104.310 F7800
G1 Z0.900 F420
G1 E-0.1000 F4200
G92 E0
G1 X60.690 Y104.310 E2.6500 F2092
G1 X60.690 Y55.690 E5.3001
G1 X109.310 Y55.690 E7.9501
G1 X109.310 Y104.110 E10.5892
G1 X109.310 Y104.310 F2092
G92 E0
G1 X108.410 Y104.310 E-1.4000 F2700
G1 Z1.000 F420
; outer perimeter
G1 X109.770 Y104.770 F7800
G1 Z0.900 F420
G1 E-0.1000 F4200
G92 E0
G1 X60.230 Y104.770 E2.7002 F1485
G1 X60.230 Y55.230 E5.4004
G1 X109.770 Y55.230 E8.1005
G1 X109.770 Y104.570 E10.7898
G1 X109.770 Y104.770 F1485
G92 E0
G1 X108.870 Y104.770 E-1.4000 F2700
G1 Z1.000 F420
; tool H0.300 W0.690
; infill
G1 X64.518 Y103.873 F7800
G1 Z0.900 F420
G1 E-0.1000 F4200
G92 E0
G1 X61.127 Y100.482 E0.3921 F2700
G1 X61.127 Y96.046 E0.7547
G1 X68.954 Y103.873 E1.6597
G1 X73.389 Y103.873 E2.0223
G1 X61.127 Y91.611 E3.4401
G1 X61.127 Y87.175 E3.8027
G1 X77.825 Y103.873 E5.7333
G1 X82.260 Y103.873 E6.0960
G1 X61.127 Y82.740 E8.5394
G1 X61.127 Y78.304 E8.9020
G1 X86.696 Y103.873 E11.8584
G1 X91.131 Y103.873 E12.2210
G1 X61.127 Y73.869 E15.6901
G1 X61.127 Y69.433 E16.0528
G1 X95.567 Y103.873 E20.0348
G1 X100.002 Y103.873 E20.3974
G1 X61.127 Y64.998 E24.8922
G1 X61.127 Y60.562 E25.2549
G1 X104.438 Y103.873 E30.2625
G1 X108.873 Y103.873 E30.6252
G1 X61.127 Y56.127 E36.1457
G1 X65.562 Y56.127 E36.5083
G1 X108.873 Y99.437 E41.5160
G1 X108.873 Y95.002 E41.8786
G1 X69.998 Y56.127 E46.3735
G1 X74.433 Y56.127 E46.7361
G1 X108.873 Y90.566 E50.7181
G1 X108.873 Y86.131 E51.0807
G1 X78.869 Y56.127 E54.5499
G1 X83.304 Y56.127 E54.9125
G1 X108.873 Y81.696 E57.8688
G1 X108.873 Y77.260 E58.2314
G1 X87.740 Y56.127 E60.6749
G1 X92.175 Y56.127 E61.0375
G1 X108.873 Y72.825 E62.9681
G1 X108.873 Y68.389 E63.3308
G1 X96.611 Y56.127 E64.7485
G1 X101.046 Y56.127 E65.1112
G1 X108.873 Y63.954 E66.0161
G1 X108.873 Y59.518 E66.3787
G1 X105.623 Y56.268 E66.7545
G1 X105.482 Y56.127 F2700
G92 E0
G1 X106.118 Y56.763 E-1.4000 F2700
G1 Z1.300 F420
M117 Layer 4 1.2
M106 S255
G4 P500
M106 S51
; tool H0.300 W0.460
; inner perimeter
G1 X109.310 Y55.690 F7800
G1 Z1.200 F420
G1 E-0.1000 F4200
G92 E0
G1 X109.310 Y104.310 E2.6500 F2092
G1 X60.690 Y104.310 E5.3001
G1 X60.690 Y55.690 E7.9501
G1 X109.110 Y55.690 E10.5892
G1 X109.310 Y55.690 F2092
G92 E0
G1 X109.310 Y56.590 E-1.4000 F2700
G1 Z1.300 F420
; outer perimeter
G1 X109.770 Y55.230 F7800
G1 Z1.200 F420
G1 E-0.1000 F4200
G92 E0
G1 X109.770 Y104.770 E2.7002 F1485
G1 X60.230 Y104.770 E5.4004
G1 X60.230 Y55.230 E8.1005
G1 X109.570 Y55.230 E10.7898
G1 X109.770 Y55.230 F1485
G92 E0
G1 X109.770 Y56.130 E-1.4000 F2700
G1 Z1.300 F420
; tool H0.300 W0.690
; infill
G1 X108.873 Y100.482 F7800
G1 Z1.200 F420
G1 E-0.1000 F4200
G92 E0
G1 X105.482 Y103.873 E0.3921 F2700
G1 X101.046 Y103.873 E0.7547
G1 X108.873 Y96.046 E1.6596
G1 X108.873 Y91.611 E2.0223
G1 X96.611 Y103.873 E3.4400
G1 X92.175 Y103.873 E3.8027
G1 X108.873 Y87.175 E5.7333
G1 X108.873 Y82.740 E6.0959
G1 X87.740 Y103.873 E8.5394
G1 X83.304 Y103.873 E8.9020
G1 X108.873 Y78.304 E11.8583
G1 X108.873 Y73.869 E12.2210
G1 X78.869 Y103.873 E15.6901
G1 X74.433 Y103.873 E16.0527
G1 X108.873 Y69.434 E20.0347
G1 X108.873 Y64.998 E20.3973
G1 X69.998 Y103.873 E24.8922
G1 X65.562 Y103.873 E25.2548
G1 X108.873 Y60.563 E30.2625
G1 X108.873 Y56.127 E30.6251
G1 X61.127 Y103.873 E36.1456
G1 X61.127 Y99.438 E36.5083
