; G-Code generated by Simplify3D(R) Version 3.1.0
; Mar 21, 2017 at 9:28:47 AM
; Settings Summary
;   this file is expected to be often modified, manually.
;   thus, it does not really resemle the original S3D file.
;   profileName,PETG 0.3 he.20 bt50
;   profileVersion,2017-02-27 23:31:17
;---------------------------------------
; ; ; MODIFY THESE VALUES ; ; ;
;_______________________________________
M140 S65        ; set bed temperature and move on
M190 S60        ; wait for bed temperature to reach this value
M104 S240 T0    ; set hotend temperature and move on
M109 S240 T0    ; wait for hotend temperature to reach this value
; NOTE: the first layer hotend temperature is 5C higher.
; search for `M104` and `M109` to modify the 2nd layer code as well if needed
;
;---------------------------------------
; ; ; Jellybox Start Script Begin ; ; ;
;_______________________________________
M117 Preparing        ; write Preparing
M106 S0               ; fan off
; M92 E140            ; optionally adjust E steps/mm
; M207 S1.5 F600 Z0     ; optionally adjust retract settings
; M208 S-0.00 F600      ; optionally adjust unretract = recover settings
M206 X10.0 Y0.0       ; set x homing offset for default bed leveling
G21                   ; metric values
G90                   ; absolute positioning
M107                  ; start with the fan off
M82                   ; set extruder to absolute mode
G28                   ; home all axes
M203 Z4               ; slow Z speed down for greater accuracy when probing
G29                   ; auto bed leveling procedure
M203 Z7               ; pick up z speed again for printing
G92 E0                ; reset the extruder position
G1 F1500 E15          ; extrude 15mm of feed stock
G92 E0                ; reset the extruder position again
M117 Print starting   ; write Print starting
;---------------------------------------------
; ; ; Jellybox Printer Start Script End ; ; ;
;_____________________________________________
G92 E0
G1 E-1.4000 F4200
G1 Z0.400 F420
M117 Layer 1 0.3
T0
; tool H0.300 W0.480
; skirt
G1 X39.463 Y71.425 F7200
G1 Z0.300 F420
G1 E-0.1000 F1260
G92 E0
G1 X40.083 Y71.109 E0.0396 F990
G1 X40.116 Y71.094 E0.0417
G1 X40.318 Y71.006 E0.0542
G1 X40.352 Y70.992 E0.0563
G1 X65.747 Y61.749 E1.5933
G1 X65.782 Y61.738 E1.5954
G1 X65.989 Y61.676 E1.6076
G1 X66.023 Y61.667 E1.6097
G1 X66.689 Y61.512 E1.6486
G1 X66.760 Y61.500 E1.6527
G1 X67.190 Y61.453 E1.6773
G1 X67.262 Y61.449 E1.6814
G1 X68.053 Y61.458 E1.7264
G1 X68.125 Y61.463 E1.7305
G1 X68.554 Y61.519 E1.7551
G1 X68.624 Y61.533 E1.7592
G1 X69.391 Y61.729 E1.8042
G1 X69.460 Y61.751 E1.8083
G1 X69.863 Y61.908 E1.8329
G1 X69.928 Y61.938 E1.8370
G1 X70.626 Y62.311 E1.8820
G1 X70.688 Y62.349 E1.8861
G1 X71.042 Y62.597 E1.9107
G1 X71.098 Y62.642 E1.9148
G1 X71.688 Y63.170 E1.9598
G1 X71.738 Y63.221 E1.9639
G1 X72.023 Y63.547 E1.9885
G1 X72.068 Y63.603 E1.9926
G1 X72.514 Y64.257 E2.0376
G1 X72.552 Y64.318 E2.0417
G1 X72.751 Y64.702 E2.0663
G1 X72.781 Y64.768 E2.0704
G1 X73.059 Y65.509 E2.1154
G1 X73.081 Y65.577 E2.1195
G1 X73.183 Y65.997 E2.1441
G1 X73.196 Y66.068 E2.1482
G1 X73.278 Y66.747 E2.1870
G1 X73.281 Y66.783 E2.1891
G1 X73.294 Y66.998 E2.2014
G1 X73.295 Y67.034 E2.2034
G1 X73.295 Y74.900 E2.6508
G1 X114.125 Y74.900 E4.9730
G1 X114.135 Y74.900 E4.9736
G1 X114.195 Y74.901 E4.9770
G1 X114.205 Y74.901 E4.9775
G1 X130.681 Y75.451 E5.9151
G1 X131.108 Y75.640 E5.9417
G1 X133.120 Y77.720 E6.1063
G1 X133.295 Y78.153 E6.1329
G1 X133.295 Y81.847 E6.3429
G1 X133.120 Y82.280 E6.3695
G1 X131.108 Y84.360 E6.5341
G1 X130.681 Y84.549 E6.5607
G1 X114.205 Y85.099 E7.4983
G1 X114.195 Y85.099 E7.4988
G1 X114.135 Y85.100 E7.5022
G1 X114.125 Y85.100 E7.5028
G1 X73.295 Y85.100 E9.8250
G1 X73.295 Y92.973 E10.2728
G1 X73.293 Y93.009 E10.2748
G1 X73.281 Y93.224 E10.2871
G1 X73.277 Y93.260 E10.2891
G1 X73.196 Y93.932 E10.3276
G1 X73.183 Y94.003 E10.3317
G1 X73.081 Y94.423 E10.3563
G1 X73.059 Y94.491 E10.3604
G1 X72.781 Y95.232 E10.4054
G1 X72.751 Y95.298 E10.4095
G1 X72.552 Y95.681 E10.4341
G1 X72.515 Y95.743 E10.4382
G1 X72.068 Y96.397 E10.4832
G1 X72.023 Y96.453 E10.4873
G1 X71.738 Y96.779 E10.5119
G1 X71.688 Y96.830 E10.5160
G1 X71.098 Y97.358 E10.5610
G1 X71.042 Y97.403 E10.5651
G1 X70.688 Y97.651 E10.5897
G1 X70.626 Y97.689 E10.5938
G1 X69.928 Y98.062 E10.6388
G1 X69.863 Y98.092 E10.6429
G1 X69.460 Y98.249 E10.6675
G1 X69.391 Y98.271 E10.6716
G1 X68.624 Y98.467 E10.7166
G1 X68.554 Y98.481 E10.7207
G1 X68.125 Y98.537 E10.7453
G1 X68.053 Y98.542 E10.7494
G1 X67.262 Y98.551 E10.7944
G1 X67.190 Y98.547 E10.7985
G1 X66.760 Y98.500 E10.8231
G1 X66.689 Y98.488 E10.8272
G1 X66.023 Y98.333 E10.8661
G1 X65.989 Y98.324 E10.8681
G1 X65.782 Y98.262 E10.8804
G1 X65.747 Y98.251 E10.8825
G1 X40.352 Y89.008 E12.4195
G1 X40.318 Y88.994 E12.4216
G1 X40.116 Y88.906 E12.4341
G1 X40.083 Y88.891 E12.4362
G1 X39.463 Y88.575 E12.4758
G1 X39.400 Y88.538 E12.4800
G1 X39.035 Y88.291 E12.5050
G1 X38.976 Y88.247 E12.5092
G1 X38.368 Y87.718 E12.5550
G1 X38.316 Y87.667 E12.5592
G1 X38.021 Y87.340 E12.5842
G1 X37.976 Y87.282 E12.5884
G1 X37.514 Y86.622 E12.6342
G1 X37.475 Y86.559 E12.6384
G1 X37.268 Y86.171 E12.6634
G1 X37.238 Y86.104 E12.6676
G1 X36.949 Y85.352 E12.7135
G1 X36.927 Y85.282 E12.7176
G1 X36.821 Y84.854 E12.7427
G1 X36.807 Y84.782 E12.7468
G1 X36.722 Y84.092 E12.7864
G1 X36.719 Y84.055 E12.7885
G1 X36.706 Y83.836 E12.8010
G1 X36.705 Y83.799 E12.8031
G1 X36.705 Y76.201 E13.2352
G1 X36.706 Y76.164 E13.2373
G1 X36.719 Y75.945 E13.2498
G1 X36.722 Y75.908 E13.2519
G1 X36.807 Y75.218 E13.2915
G1 X36.821 Y75.146 E13.2957
G1 X36.927 Y74.718 E13.3207
G1 X36.949 Y74.648 E13.3249
G1 X37.238 Y73.896 E13.3707
G1 X37.268 Y73.829 E13.3749
G1 X37.475 Y73.440 E13.3999
G1 X37.514 Y73.378 E13.4041
G1 X37.976 Y72.718 E13.4499
G1 X38.021 Y72.660 E13.4541
G1 X38.316 Y72.333 E13.4791
G1 X38.368 Y72.282 E13.4833
G1 X38.976 Y71.753 E13.5291
G1 X39.035 Y71.709 E13.5333
G1 X39.295 Y71.533 E13.5511
G1 X39.400 Y71.462 F990
G1 X39.463 Y71.425 F990
G1 X39.694 Y71.846 F7200
G92 E0
G1 X40.294 Y71.540 E0.0383 F990
G1 X40.314 Y71.531 E0.0396
G1 X40.502 Y71.449 E0.0512
G1 X40.523 Y71.441 E0.0525
G1 X65.905 Y62.203 E1.5887
G1 X65.925 Y62.196 E1.5900
G1 X66.118 Y62.138 E1.6014
G1 X66.139 Y62.133 E1.6027
G1 X66.784 Y61.982 E1.6403
G1 X66.826 Y61.975 E1.6428
G1 X67.228 Y61.931 E1.6657
G1 X67.271 Y61.929 E1.6682
G1 X68.034 Y61.937 E1.7116
G1 X68.077 Y61.941 E1.7140
G1 X68.477 Y61.993 E1.7370
G1 X68.519 Y62.001 E1.7394
G1 X69.258 Y62.191 E1.7828
G1 X69.299 Y62.204 E1.7853
G1 X69.675 Y62.350 E1.8082
G1 X69.715 Y62.368 E1.8107
G1 X70.387 Y62.728 E1.8541
G1 X70.424 Y62.750 E1.8565
G1 X70.755 Y62.982 E1.8795
G1 X70.789 Y63.009 E1.8819
G1 X71.356 Y63.518 E1.9253
G1 X71.387 Y63.549 E1.9278
G1 X71.653 Y63.852 E1.9507
G1 X71.680 Y63.886 E1.9532
G1 X72.110 Y64.516 E1.9966
G1 X72.132 Y64.553 E1.9990
G1 X72.319 Y64.911 E2.0220
G1 X72.336 Y64.950 E2.0244
G1 X72.605 Y65.664 E2.0678
G1 X72.618 Y65.705 E2.0703
G1 X72.714 Y66.098 E2.0932
G1 X72.722 Y66.140 E2.0957
G1 X72.801 Y66.797 E2.1333
G1 X72.803 Y66.819 E2.1345
G1 X72.815 Y67.020 E2.1460
G1 X72.815 Y67.041 E2.1472
G1 X72.815 Y75.380 E2.6215
G1 X114.123 Y75.380 E4.9709
G1 X114.129 Y75.380 E4.9712
G1 X114.185 Y75.381 E4.9744
G1 X114.191 Y75.381 E4.9747
G1 X130.572 Y75.927 E5.9069
G1 X130.828 Y76.041 E5.9229
G1 X132.710 Y77.987 E6.0768
G1 X132.815 Y78.246 E6.0928
G1 X132.815 Y81.754 E6.2922
G1 X132.710 Y82.013 E6.3082
G1 X130.828 Y83.959 E6.4621
G1 X130.572 Y84.073 E6.4781
G1 X114.191 Y84.619 E7.4102
G1 X114.185 Y84.619 E7.4106
G1 X114.129 Y84.620 E7.4138
G1 X114.123 Y84.620 E7.4141
G1 X72.815 Y84.620 E9.7635
G1 X72.815 Y92.966 E10.2381
G1 X72.814 Y92.987 E10.2394
G1 X72.802 Y93.188 E10.2508
G1 X72.800 Y93.210 E10.2521
G1 X72.722 Y93.860 E10.2893
G1 X72.714 Y93.902 E10.2918
G1 X72.618 Y94.295 E10.3147
G1 X72.605 Y94.336 E10.3172
G1 X72.336 Y95.050 E10.3606
G1 X72.319 Y95.089 E10.3630
G1 X72.132 Y95.447 E10.3860
G1 X72.110 Y95.484 E10.3884
G1 X71.680 Y96.114 E10.4318
G1 X71.653 Y96.148 E10.4343
G1 X71.387 Y96.451 E10.4572
G1 X71.356 Y96.482 E10.4597
G1 X70.789 Y96.991 E10.5031
G1 X70.755 Y97.018 E10.5055
G1 X70.424 Y97.249 E10.5285
G1 X70.387 Y97.272 E10.5309
G1 X69.715 Y97.632 E10.5743
G1 X69.675 Y97.650 E10.5768
G1 X69.299 Y97.796 E10.5997
G1 X69.258 Y97.809 E10.6022
G1 X68.519 Y97.999 E10.6456
G1 X68.477 Y98.007 E10.6480
G1 X68.077 Y98.059 E10.6710
G1 X68.034 Y98.063 E10.6734
G1 X67.271 Y98.071 E10.7168
G1 X67.228 Y98.069 E10.7193
G1 X66.826 Y98.025 E10.7422
G1 X66.784 Y98.018 E10.7447
G1 X66.139 Y97.867 E10.7823
G1 X66.119 Y97.862 E10.7836
G1 X65.925 Y97.804 E10.7950
G1 X65.905 Y97.797 E10.7962
G1 X40.523 Y88.559 E12.3325
G1 X40.502 Y88.551 E12.3337
G1 X40.314 Y88.469 E12.3454
G1 X40.294 Y88.460 E12.3467
G1 X39.694 Y88.154 E12.3850
G1 X39.656 Y88.132 E12.3875
G1 X39.315 Y87.902 E12.4109
G1 X39.280 Y87.875 E12.4134
G1 X38.694 Y87.365 E12.4575
G1 X38.663 Y87.335 E12.4600
G1 X38.388 Y87.029 E12.4834
G1 X38.361 Y86.995 E12.4859
G1 X37.915 Y86.359 E12.5301
G1 X37.892 Y86.321 E12.5326
G1 X37.699 Y85.958 E12.5560
G1 X37.681 Y85.918 E12.5585
G1 X37.403 Y85.193 E12.6026
G1 X37.389 Y85.151 E12.6051
G1 X37.290 Y84.753 E12.6285
G1 X37.282 Y84.709 E12.6310
G1 X37.200 Y84.041 E12.6693
G1 X37.198 Y84.019 E12.6706
G1 X37.185 Y83.814 E12.6823
G1 X37.185 Y83.792 E12.6835
G1 X37.185 Y76.208 E13.1148
G1 X37.185 Y76.186 E13.1161
G1 X37.198 Y75.981 E13.1277
G1 X37.200 Y75.959 E13.1290
G1 X37.282 Y75.291 E13.1673
G1 X37.290 Y75.247 E13.1698
G1 X37.389 Y74.849 E13.1932
G1 X37.403 Y74.807 E13.1957
G1 X37.681 Y74.082 E13.2399
G1 X37.699 Y74.042 E13.2424
G1 X37.892 Y73.679 E13.2657
G1 X37.915 Y73.641 E13.2682
G1 X38.361 Y73.005 E13.3124
G1 X38.388 Y72.971 E13.3149
G1 X38.663 Y72.665 E13.3383
G1 X38.694 Y72.635 E13.3408
G1 X39.280 Y72.125 E13.3849
G1 X39.315 Y72.098 E13.3874
G1 X39.527 Y71.956 E13.4020
G1 X39.656 Y71.868 F990
G1 X39.694 Y71.846 F990
G1 X39.925 Y72.267 F7200
G92 E0
G1 X40.506 Y71.971 E0.0371 F990
G1 X40.512 Y71.968 E0.0375
G1 X40.687 Y71.892 E0.0483
G1 X40.694 Y71.889 E0.0487
G1 X66.062 Y62.656 E1.5842
G1 X66.069 Y62.654 E1.5846
G1 X66.248 Y62.600 E1.5952
G1 X66.255 Y62.599 E1.5956
G1 X66.879 Y62.453 E1.6320
G1 X66.893 Y62.451 E1.6329
G1 X67.266 Y62.410 E1.6542
G1 X67.280 Y62.409 E1.6550
G1 X68.014 Y62.417 E1.6967
G1 X68.028 Y62.418 E1.6976
G1 X68.400 Y62.467 E1.7189
G1 X68.414 Y62.470 E1.7197
G1 X69.125 Y62.652 E1.7614
G1 X69.139 Y62.657 E1.7623
G1 X69.488 Y62.792 E1.7836
G1 X69.501 Y62.798 E1.7844
G1 X70.148 Y63.144 E1.8261
G1 X70.161 Y63.152 E1.8269
G1 X70.468 Y63.367 E1.8483
G1 X70.479 Y63.376 E1.8491
G1 X71.025 Y63.866 E1.8908
G1 X71.036 Y63.876 E1.8916
G1 X71.283 Y64.158 E1.9130
G1 X71.292 Y64.169 E1.9138
G1 X71.706 Y64.775 E1.9555
G1 X71.713 Y64.787 E1.9563
G1 X71.886 Y65.120 E1.9777
G1 X71.892 Y65.133 E1.9785
G1 X72.151 Y65.820 E2.0202
G1 X72.155 Y65.834 E2.0210
G1 X72.244 Y66.198 E2.0424
G1 X72.247 Y66.212 E2.0432
G1 X72.323 Y66.847 E2.0796
G1 X72.324 Y66.855 E2.0800
G1 X72.335 Y67.041 E2.0906
G1 X72.335 Y67.049 E2.0911
G1 X72.335 Y75.860 E2.5922
G1 X114.121 Y75.860 E4.9688
G1 X114.123 Y75.860 E4.9689
G1 X114.175 Y75.861 E4.9718
G1 X114.177 Y75.861 E4.9720
G1 X130.463 Y76.404 E5.8987
G1 X130.548 Y76.442 E5.9040
G1 X132.300 Y78.253 E6.0474
G1 X132.335 Y78.340 E6.0527
G1 X132.335 Y81.660 E6.2415
G1 X132.300 Y81.747 E6.2468
G1 X130.548 Y83.558 E6.3902
G1 X130.463 Y83.596 E6.3955
G1 X114.177 Y84.139 E7.3222
G1 X114.175 Y84.139 E7.3223
G1 X114.123 Y84.140 E7.3253
G1 X114.121 Y84.140 E7.3254
G1 X72.335 Y84.140 E9.7020
G1 X72.335 Y92.958 E10.2035
G1 X72.334 Y92.965 E10.2039
G1 X72.323 Y93.152 E10.2146
G1 X72.322 Y93.159 E10.2150
G1 X72.247 Y93.788 E10.2510
G1 X72.244 Y93.802 E10.2518
G1 X72.155 Y94.166 E10.2731
G1 X72.151 Y94.180 E10.2740
G1 X71.892 Y94.867 E10.3157
G1 X71.886 Y94.880 E10.3165
G1 X71.713 Y95.213 E10.3378
G1 X71.706 Y95.225 E10.3387
G1 X71.292 Y95.831 E10.3804
G1 X71.283 Y95.842 E10.3812
G1 X71.036 Y96.124 E10.4025
G1 X71.025 Y96.134 E10.4034
G1 X70.479 Y96.624 E10.4451
G1 X70.468 Y96.633 E10.4459
G1 X70.161 Y96.848 E10.4672
G1 X70.148 Y96.856 E10.4680
G1 X69.501 Y97.202 E10.5098
G1 X69.488 Y97.208 E10.5106
G1 X69.139 Y97.343 E10.5319
G1 X69.125 Y97.348 E10.5327
G1 X68.414 Y97.530 E10.5745
G1 X68.400 Y97.533 E10.5753
G1 X68.028 Y97.582 E10.5966
G1 X68.014 Y97.583 E10.5974
G1 X67.280 Y97.591 E10.6392
G1 X67.266 Y97.590 E10.6400
G1 X66.893 Y97.549 E10.6613
G1 X66.879 Y97.547 E10.6621
G1 X66.255 Y97.401 E10.6985
G1 X66.248 Y97.400 E10.6990
G1 X66.069 Y97.346 E10.7096
G1 X66.062 Y97.344 E10.7100
G1 X40.694 Y88.111 E12.2454
G1 X40.687 Y88.108 E12.2459
G1 X40.512 Y88.032 E12.2567
G1 X40.506 Y88.029 E12.2571
G1 X39.925 Y87.733 E12.2942
G1 X39.912 Y87.725 E12.2950
G1 X39.596 Y87.512 E12.3167
G1 X39.584 Y87.503 E12.3176
G1 X39.020 Y87.013 E12.3601
G1 X39.010 Y87.003 E12.3609
G1 X38.754 Y86.719 E12.3826
G1 X38.745 Y86.707 E12.3834
G1 X38.317 Y86.095 E12.4259
G1 X38.309 Y86.083 E12.4268
G1 X38.130 Y85.746 E12.4485
G1 X38.124 Y85.733 E12.4493
G1 X37.856 Y85.035 E12.4918
G1 X37.852 Y85.021 E12.4926
G1 X37.759 Y84.651 E12.5143
G1 X37.757 Y84.636 E12.5152
G1 X37.677 Y83.989 E12.5522
G1 X37.676 Y83.982 E12.5527
G1 X37.665 Y83.792 E12.5635
G1 X37.665 Y83.784 E12.5639
G1 X37.665 Y76.216 E12.9944
G1 X37.665 Y76.208 E12.9948
G1 X37.676 Y76.018 E13.0057
G1 X37.677 Y76.011 E13.0061
G1 X37.757 Y75.364 E13.0431
G1 X37.759 Y75.349 E13.0440
G1 X37.852 Y74.979 E13.0657
G1 X37.856 Y74.965 E13.0665
G1 X38.124 Y74.267 E13.1090
G1 X38.130 Y74.254 E13.1099
G1 X38.309 Y73.917 E13.1316
G1 X38.317 Y73.905 E13.1324
G1 X38.745 Y73.293 E13.1749
G1 X38.754 Y73.281 E13.1757
G1 X39.010 Y72.997 E13.1974
G1 X39.020 Y72.987 E13.1983
G1 X39.584 Y72.497 E13.2408
G1 X39.596 Y72.488 E13.2416
G1 X39.758 Y72.378 E13.2528
G1 X39.912 Y72.275 F990
G1 X39.925 Y72.267 F990
; inner perimeter
G1 X41.971 Y75.669 F7200
G92 E0
G1 X42.179 Y75.563 E0.0133 F767
G1 X67.288 Y66.424 E1.5330
G1 X67.511 Y66.372 E1.5460
G1 X67.697 Y66.374 E1.5565
G1 X67.876 Y66.420 E1.5671
G1 X68.040 Y66.508 E1.5776
G1 X68.178 Y66.631 E1.5882
G1 X68.283 Y66.784 E1.5987
G1 X68.348 Y66.958 E1.6093
G1 X68.375 Y67.185 E1.6223
G1 X68.375 Y76.135 E2.1313
G1 X68.443 Y76.826 E2.1708
G1 X68.655 Y77.525 E2.2124
G1 X68.999 Y78.169 E2.2539
G1 X69.462 Y78.733 E2.2954
G1 X70.027 Y79.196 E2.3369
G1 X70.670 Y79.540 E2.3784
G1 X71.369 Y79.752 E2.4199
G1 X72.060 Y79.820 E2.4594
G1 X114.083 Y79.820 E4.8495
G1 X114.609 Y79.838 E4.8794
G1 X114.609 Y80.162 E4.8979
G1 X114.083 Y80.180 E4.9278
G1 X72.060 Y80.180 E7.3178
G1 X71.369 Y80.248 E7.3573
G1 X70.670 Y80.460 E7.3988
G1 X70.027 Y80.804 E7.4403
G1 X69.462 Y81.267 E7.4819
G1 X68.999 Y81.831 E7.5234
G1 X68.655 Y82.475 E7.5649
G1 X68.443 Y83.174 E7.6064
G1 X68.375 Y83.865 E7.6459
G1 X68.375 Y92.821 E8.1553
G1 X68.348 Y93.042 E8.1680
G1 X68.283 Y93.216 E8.1785
G1 X68.178 Y93.369 E8.1891
G1 X68.040 Y93.492 E8.1996
G1 X67.876 Y93.580 E8.2102
G1 X67.697 Y93.626 E8.2207
G1 X67.511 Y93.628 E8.2312
G1 X67.288 Y93.576 E8.2443
G1 X42.179 Y84.437 E9.7640
G1 X41.971 Y84.331 E9.7772
G1 X41.829 Y84.207 E9.7880
G1 X41.721 Y84.053 E9.7987
G1 X41.653 Y83.876 E9.8095
G1 X41.625 Y83.645 E9.8227
G1 X41.625 Y76.355 E10.2373
G1 X41.653 Y76.124 E10.2506
G1 X41.721 Y75.947 E10.2613
G1 X41.823 Y75.802 E10.2714
G1 X41.829 Y75.793 F767
G1 X41.971 Y75.669 F767
; outer perimeter
G1 X41.701 Y75.268 F7200
G92 E0
G1 X41.987 Y75.122 E0.0183 F544
G1 X67.151 Y65.963 E1.5413
G1 X67.458 Y65.891 E1.5593
G1 X67.760 Y65.895 E1.5764
G1 X68.051 Y65.970 E1.5935
G1 X68.317 Y66.112 E1.6107
G1 X68.541 Y66.313 E1.6278
G1 X68.711 Y66.561 E1.6449
G1 X68.818 Y66.843 E1.6621
G1 X68.855 Y67.157 E1.6800
G1 X68.855 Y76.112 E2.1893
G1 X68.916 Y76.732 E2.2248
G1 X69.101 Y77.340 E2.2609
G1 X69.400 Y77.901 E2.2971
G1 X69.804 Y78.392 E2.3332
G1 X70.295 Y78.795 E2.3693
G1 X70.855 Y79.094 E2.4055
G1 X71.463 Y79.279 E2.4416
G1 X72.084 Y79.340 E2.4771
G1 X114.091 Y79.340 E4.8663
G1 X128.855 Y79.832 E5.7064
G1 X128.855 Y80.168 E5.7255
G1 X114.091 Y80.660 E6.5657
G1 X72.084 Y80.660 E8.9549
G1 X71.463 Y80.721 E8.9903
G1 X70.855 Y80.906 E9.0265
