;FLAVOR:Marlin
;TIME:10190
;Filament used: 14.9981m
;Layer height: 0.3
;Generated with Cura_SteamEngine 3.5.1
M82 ;absolute extrusion mode
;---------------------------------------
; ; ; Jellybox Start Script Begin ; ; ;
;_______________________________________
; for slicer: CURA 3
; start gcode last modified Jan 16, 2019

;              Print Settings Summary
; (leave these alone: this is only a list of the slicing settings)
; (overwriting these values will NOT change your printer's behavior)
;             sliced for :  IMADE3D JellyBOX Original
;        nozzle diameter :  0.4
;      filament diameter :  1.75
;           layer height :  0.3
;       1st layer height :  0.3
;             line width :  0.4  
;  outer wall wipe dist. :  0.6
;      infill line width :  0.6
;         wall thickness :  0.8
;          top thickness :  0.8
;       bottom thickness :  0.8
;         infill density :  70
;         infill pattern :  cubic
;      print temperature :  230.0
;  1st layer print temp. :  235.0
; heated bed temperature :  60
;    1st layer bed temp. :  65
;      regular fan speed :  45
;          max fan speed :  80.0
;     retraction amount  :  1.6
;   retr. retract speed  :  40
;     retr. prime speed  :  30
;   build plate adhesion :  skirt
;                support ?  False
;             spiralized ?  False

G21               ;metric values
G90               ;absolute positioning
M82               ;set extruder to absolute mode
M107              ;start with the fan off
M117 Preparing    ;write Preparing
M190 S20          ;wait for the bed to reach 45C
M109 S180         ;wait for the extruder to reach 180C
G28               ;home all axes
M203 Z4           ;slow Z speed down for greater accuracy when probing
G29 O             ;run auto bed leveling procedure IF leveling not active already
; M500            ;optionally save the mesh
M203 Z7           ;pick up z speed again for printing
G28 X             ;home x to get as far from the plate as possible
M420 S1           ;(re) enable bed leveling turned off by the G28
G0 Y0 F5000       ;position Y in front
G0 Z15 F3000      ;position Z
M190 S65              ;wait for the bed to reach desired temperature
M109 S235.0             ;wait for the extruder to reach desired temperature
M300 S440 P300    ;play a tone
; M0 Ready! Click to start ; optionally, stop and wait for user to continue
M420 S1           ;(re) enable bed leveling to make iron-sure
M117 Print starting   ;write Print starting
;================ ;PRINT:LINE start
G90               ;absolute positioning
G92 E0            ;reset the extruder position
M420 S1           ;(re) enable bed leveling to make iron-sure
G0 Z0             ;get Z down
M83               ;relative extrusion mode
M420 S1           ;(re) enable bed leveling to make iron-sure
G1 E22 F300       ;extrude __mm of feed stock
G1 E18 F250       ;extrude __mm of feed stock
G1 E10 F250       ;extrude __mm of feed stock
G4 S2             ;pause for ooze
M400              ;make sure all is finished
M420 S1           ;(re) enable bed leveling to make iron-sure
G0 F500 X3 Y0 Z0.6;get to the start of the LINE
G1 E2 F300        ;extrude __mm of feed stock
G1 F1000 X104 E10  ;print a thick LINE extruding __mm along the way
M82               ;absolute extrusion mode
G92 E0            ;reset the extruder position
;---------------------------------------------
; ; ; Jellybox Printer Start Script End ; ; ;
;_____________________________________________

M83 ;relative extrusion mode
G1 F2400 E-1.6
;LAYER_COUNT:92
;LAYER:0
M107
G0 F3600 X40.783 Y29.291 Z0.3
;TYPE:SKIRT
G1 F1800 E1.47527
G1 F1350 X40.998 Y29.024 E0.0171
G1 X42.203 Y27.63 E0.09193
G1 X42.666 Y27.159 E0.03295
G1 X45.326 Y24.774 E0.17824
G1 X49.191 Y20.989 E0.26989
G1 X52.817 Y17.013 E0.26847
G1 X56.644 Y12.41 E0.29865
G1 X57.27 Y11.776 E0.04445
G1 X58.457 Y10.765 E0.07779
G1 X59.05 Y10.329 E0.03672
G1 X59.901 Y9.791 E0.05023
G1 X60.425 Y9.5 E0.0299
G1 X61.279 Y9.089 E0.04728
G1 X61.798 Y8.873 E0.02805
G1 X62.696 Y8.555 E0.04753
G1 X63.438 Y8.353 E0.03837
G1 X64.845 Y8.079 E0.07151
G1 X65.663 Y7.986 E0.04107
G1 X67.025 Y7.94 E0.06799
G1 X67.787 Y7.97 E0.03805
G1 X68.73 Y8.077 E0.04735
G1 X69.242 Y8.161 E0.02589
G1 X70.617 Y8.458 E0.07018
G1 X72.36 Y8.83 E0.08892
G1 X77.676 Y9.742 E0.26909
G1 X83.008 Y10.349 E0.26773
G1 X88.371 Y10.655 E0.268
G1 X93.721 Y10.657 E0.26691
G1 X99.079 Y10.355 E0.26774
G1 X104.402 Y9.752 E0.26726
G1 X109.765 Y8.835 E0.27144
G1 X113.448 Y8.087 E0.1875
G1 X114.307 Y7.986 E0.04315
G1 X115.669 Y7.94 E0.06799
G1 X116.431 Y7.97 E0.03805
G1 X117.374 Y8.077 E0.04735
G1 X118.123 Y8.218 E0.03802
G1 X119.516 Y8.588 E0.07191
G1 X120.301 Y8.866 E0.04155
G1 X121.602 Y9.447 E0.07109
G1 X122.256 Y9.797 E0.03701
G1 X123.079 Y10.316 E0.04854
G1 X123.739 Y10.809 E0.0411
G1 X125.172 Y12.069 E0.0952
G1 X125.748 Y12.663 E0.04128
G1 X129.025 Y16.632 E0.25679
G1 X132.643 Y20.629 E0.26897
G1 X134.473 Y22.487 E0.13011
G1 X139.431 Y27.066 E0.33671
G1 X139.695 Y27.328 E0.01856
G1 X140.381 Y28.059 E0.05001
G1 X140.74 Y28.484 E0.02776
G1 X141.297 Y29.222 E0.04613
G1 X141.632 Y29.726 E0.03019
G1 X142.197 Y30.69 E0.05575
G1 X142.488 Y31.265 E0.03215
G1 X142.614 Y31.586 E0.0172
G1 X143.311 Y33.558 E0.10435
G1 X143.488 Y34.178 E0.03217
G1 X143.574 Y34.697 E0.02625
G1 X143.75 Y36.227 E0.07684
G1 X143.779 Y37.059 E0.04153
G1 X143.732 Y38.083 E0.05114
G1 X143.628 Y38.906 E0.04139
G1 X143.313 Y40.417 E0.077
G1 X143.134 Y41.062 E0.0334
G1 X141.6 Y45.48 E0.23332
G1 X140.822 Y47.989 E0.13105
G1 X139.429 Y53.262 E0.2721
G1 X138.362 Y58.476 E0.26552
G1 X137.587 Y63.773 E0.26708
G1 X137.11 Y69.14 E0.26882
G1 X136.939 Y74.487 E0.2669
G1 X137.069 Y79.837 E0.26699
G1 X137.504 Y85.185 E0.26769
G1 X138.241 Y90.51 E0.2682
G1 X139.276 Y95.774 E0.26765
G1 X139.886 Y98.309 E0.13008
G1 X141.969 Y105.43 E0.37016
G1 X142.122 Y106.129 E0.0357
G1 X142.216 Y106.764 E0.03203
G1 X142.271 Y107.406 E0.03215
G1 X142.266 Y107.772 E0.01826
G1 X142.207 Y109.015 E0.06208
G1 X142.137 Y109.655 E0.03212
G1 X142.036 Y110.113 E0.0234
G1 X141.839 Y110.849 E0.03801
G1 X141.586 Y111.575 E0.03836
G1 X141.276 Y112.289 E0.03883
G1 X140.846 Y113.083 E0.04505
G1 X140.273 Y113.951 E0.05189
G1 X139.816 Y114.545 E0.03739
G1 X139.237 Y115.195 E0.04343
G1 X138.917 Y115.523 E0.02286
G1 X134.837 Y119.361 E0.27946
G1 X131.133 Y123.254 E0.26809
G1 X127.641 Y127.366 E0.26914
G1 X126.261 Y129.164 E0.11308
G1 X126.135 Y129.322 E0.01008
G1 X124.659 Y131.097 E0.11517
G1 X124.021 Y131.74 E0.04519
G1 X123.042 Y132.569 E0.064
G1 X122.33 Y133.077 E0.04364
G1 X121.478 Y133.581 E0.04939
G1 X120.903 Y133.874 E0.0322
G1 X120.556 Y134.01 E0.01859
G1 X119.223 Y134.479 E0.0705
G1 X118.603 Y134.655 E0.03215
G1 X118.019 Y134.748 E0.0295
G1 X116.76 Y134.875 E0.06313
G1 X116.041 Y134.897 E0.03589
G1 X113.494 Y134.8 E0.12716
G1 X108.087 Y134.815 E0.26976
G1 X102.726 Y135.134 E0.26793
G1 X97.413 Y135.752 E0.26685
G1 X92.079 Y136.682 E0.27013
G1 X89.555 Y137.231 E0.12887
G1 X84.324 Y138.609 E0.26988
G1 X79.22 Y140.265 E0.26771
G1 X74.154 Y142.233 E0.27114
G1 X72.108 Y143.095 E0.11076
G1 X71.458 Y143.32 E0.03432
G1 X70.388 Y143.612 E0.05533
G1 X69.74 Y143.745 E0.033
G1 X68.19 Y143.962 E0.07808
G1 X67.561 Y144.011 E0.03148
G1 X65.574 Y144.046 E0.09915
G1 X64.927 Y144.017 E0.03231
G1 X62.636 Y143.771 E0.11496
G1 X62.154 Y143.697 E0.02433
G1 X61.392 Y143.542 E0.03879
G1 X60.977 Y143.439 E0.02133
G1 X59.705 Y143.069 E0.06609
G1 X58.992 Y142.804 E0.03795
G1 X57.769 Y142.244 E0.06711
G1 X57.115 Y141.885 E0.03722
G1 X56.647 Y141.583 E0.02779
G1 X56.128 Y141.201 E0.03215
G1 X55.855 Y140.955 E0.01833
G1 X55.136 Y140.261 E0.04986
G1 X54.7 Y139.786 E0.03217
G1 X54.177 Y139.001 E0.04706
G1 X53.811 Y138.327 E0.03826
G1 X53.499 Y137.637 E0.03778
G1 X52.435 Y134.738 E0.15407
G1 X50.346 Y129.741 E0.27021
G1 X48.009 Y124.936 E0.26657
G1 X45.396 Y120.253 E0.26754
G1 X42.492 Y115.679 E0.2703
G1 X40.274 Y112.459 E0.19507
G1 X39.911 Y111.846 E0.03554
G1 X39.422 Y110.874 E0.05428
G1 X39.114 Y110.12 E0.04063
G1 X38.645 Y108.653 E0.07684
G1 X38.454 Y107.828 E0.04225
G1 X38.296 Y106.756 E0.05406
G1 X38.241 Y106.093 E0.03319
G1 X38.223 Y105.107 E0.0492
G1 X38.276 Y104.266 E0.04204
G1 X38.503 Y102.7 E0.07894
G1 X38.675 Y101.929 E0.03941
G1 X40.064 Y97.374 E0.23758
G1 X41.416 Y92.1 E0.27163
G1 X41.945 Y89.588 E0.12807
G1 X42.839 Y84.244 E0.27032
G1 X43.423 Y78.921 E0.26716
G1 X43.704 Y73.562 E0.26773
G1 X43.684 Y68.193 E0.26786
G1 X43.36 Y62.851 E0.267
G1 X42.735 Y57.535 E0.26704
G1 X41.801 Y52.21 E0.26972
G1 X41.237 Y49.641 E0.13122
G1 X40.595 Y47.061 E0.13264
G1 X38.607 Y40.316 E0.35082
G1 X38.429 Y39.441 E0.04455
G1 X38.25 Y37.887 E0.07804
G1 X38.222 Y37.043 E0.04213
G1 X38.271 Y36.019 E0.05115
G1 X38.375 Y35.203 E0.04104
G1 X38.692 Y33.688 E0.07722
G1 X38.935 Y32.871 E0.04253
G1 X39.331 Y31.851 E0.05459
G1 X39.673 Y31.136 E0.03954
G1 X40.427 Y29.828 E0.07532
G1 X40.637 Y29.511 E0.01897
G0 F1215 X40.783 Y29.291
G1 F2400 E-1.6
G1 F300 Z0.45
G0 F3600 X68.051 Y13.827 Z0.45
;TYPE:WALL-INNER
G1 F300 Z0.3
G1 F1800 E1.4885
G1 F1350 X68.91 Y14.026 E0.04399
G1 X69.747 Y14.321 E0.04428
G1 X70.544 Y14.707 E0.04418
G1 X71.303 Y15.184 E0.04472
G1 X72.024 Y15.753 E0.04582
G1 X72.673 Y16.386 E0.04523
G1 X73.279 Y17.115 E0.0473
G1 X73.806 Y17.898 E0.04709
G1 X74.248 Y18.72 E0.04656
G1 X74.628 Y19.628 E0.04911
G1 X74.906 Y20.531 E0.04714
G1 X75.106 Y21.497 E0.04922
G1 X75.213 Y22.475 E0.04908
G1 X75.228 Y23.451 E0.0487
G1 X75.15 Y24.425 E0.04875
G1 X74.983 Y25.38 E0.04837
G1 X74.837 Y25.908 E0.02733
G1 X58.665 Y25.908 E0.80682
G1 X58.519 Y25.378 E0.02743
G1 X58.351 Y24.419 E0.04857
G1 X58.274 Y23.452 E0.0484
G1 X58.289 Y22.476 E0.0487
G1 X58.396 Y21.498 E0.04908
G1 X58.595 Y20.536 E0.04901
G1 X58.875 Y19.628 E0.04741
G1 X59.252 Y18.726 E0.04877
G1 X59.696 Y17.899 E0.04683
G1 X60.223 Y17.116 E0.04709
G1 X60.829 Y16.387 E0.0473
G1 X61.478 Y15.754 E0.04523
G1 X62.199 Y15.185 E0.04582
G1 X62.958 Y14.708 E0.04472
G1 X63.755 Y14.322 E0.04418
G1 X64.592 Y14.027 E0.04428
G1 X65.45 Y13.828 E0.04394
G1 X66.314 Y13.729 E0.04339
G1 X67.188 Y13.728 E0.0436
G1 X67.788 Y13.797 E0.03013
G0 F1215 X68.051 Y13.827
G0 F3600 X68.125 Y13.433
;TYPE:WALL-OUTER
G1 F1800 E0.01322
G1 F1350 X69.018 Y13.64 E0.04573
G1 X69.902 Y13.952 E0.04677
G1 X70.742 Y14.359 E0.04657
G1 X71.532 Y14.855 E0.04654
G1 X72.284 Y15.449 E0.04781
G1 X72.973 Y16.121 E0.04802
G1 X73.596 Y16.87 E0.0486
G1 X74.147 Y17.688 E0.04921
G1 X74.611 Y18.551 E0.04888
G1 X75.004 Y19.491 E0.05083
G1 X75.295 Y20.436 E0.04933
G1 X75.502 Y21.436 E0.05095
G1 X75.613 Y22.446 E0.05069
G1 X75.628 Y23.466 E0.05089
G1 X75.548 Y24.472 E0.05035
G1 X75.373 Y25.471 E0.0506
G1 X75.142 Y26.308 E0.04332
G1 X58.36 Y26.308 E0.83726
G1 X58.129 Y25.472 E0.04327
G1 X57.953 Y24.466 E0.05095
G1 X57.874 Y23.467 E0.05
G1 X57.889 Y22.447 E0.05089
G1 X58 Y21.437 E0.05069
G1 X58.206 Y20.441 E0.05074
G1 X58.499 Y19.491 E0.0496
G1 X58.889 Y18.557 E0.0505
G1 X59.355 Y17.689 E0.04915
G1 X59.906 Y16.871 E0.04921
G1 X60.529 Y16.122 E0.0486
G1 X61.218 Y15.45 E0.04802
G1 X61.97 Y14.856 E0.04781
G1 X62.76 Y14.36 E0.04654
G1 X63.6 Y13.953 E0.04657
G1 X64.484 Y13.641 E0.04677
G1 X65.377 Y13.434 E0.04573
G1 X66.294 Y13.329 E0.04605
G1 X67.207 Y13.328 E0.04555
G1 X67.862 Y13.403 E0.03289
G0 F1215 X68.125 Y13.433
G0 F3600 X68.709 Y13.568
G0 X68.786 Y14.439
;TYPE:SKIN
G1 F1800 E0.01322
G1 F1350 X69.586 Y14.721 E0.05078
G1 X70.337 Y15.085 E0.04996
G1 X71.045 Y15.529 E0.05003
G1 X71.74 Y16.077 E0.05299
G1 X72.359 Y16.681 E0.05178
G1 X72.936 Y17.374 E0.05399
G1 X73.436 Y18.119 E0.05372
G1 X73.866 Y18.918 E0.05432
G1 X74.22 Y19.767 E0.05507
G1 X74.489 Y20.639 E0.05463
G1 X74.679 Y21.555 E0.05601
G1 X74.783 Y22.507 E0.05733
G1 X74.798 Y23.445 E0.05616
G1 X74.725 Y24.357 E0.05477
G1 X74.562 Y25.286 E0.05647
G1 X74.51 Y25.478 E0.01191
G1 X58.993 Y25.478 E0.92898
G1 X58.939 Y25.279 E0.01234
G1 X58.775 Y24.344 E0.05683
G1 X58.704 Y23.446 E0.05393
G1 X58.719 Y22.508 E0.05616
G1 X58.822 Y21.561 E0.05703
G1 X59.012 Y20.643 E0.05612
G1 X59.278 Y19.78 E0.05406
G1 X59.641 Y18.913 E0.05627
G1 X60.066 Y18.12 E0.05386
G1 X60.566 Y17.375 E0.05372
G1 X61.143 Y16.682 E0.05399
G1 X61.762 Y16.078 E0.05178
G1 X62.457 Y15.53 E0.05299
G1 X63.165 Y15.086 E0.05003
G1 X63.916 Y14.722 E0.04996
G1 X64.716 Y14.44 E0.05078
G1 X65.517 Y14.254 E0.04923
G1 X66.345 Y14.159 E0.0499
G1 X67.166 Y14.158 E0.04915
G1 X67.976 Y14.251 E0.04881
G1 X68.572 Y14.39 E0.03664
G0 F1215 X68.786 Y14.439
G0 F3600 X68.652 Y14.901
G1 F1800 E0.01317
G1 F1350 X69.405 Y15.167 E0.04781
G1 X70.101 Y15.504 E0.0463
G1 X70.771 Y15.924 E0.04734
G1 X71.421 Y16.437 E0.04957
G1 X72.007 Y17.008 E0.04898
G1 X72.551 Y17.661 E0.05088
G1 X73.025 Y18.367 E0.05091
G1 X73.432 Y19.124 E0.05146
G1 X73.768 Y19.93 E0.05228
G1 X74.024 Y20.761 E0.05206
G1 X74.205 Y21.631 E0.0532
G1 X74.303 Y22.534 E0.05438
G1 X74.318 Y23.435 E0.05395
G1 X74.249 Y24.289 E0.05129
G1 X74.125 Y24.998 E0.04309
G1 X59.377 Y24.998 E0.88294
G1 X59.252 Y24.286 E0.04328
G1 X59.184 Y23.426 E0.05165
G1 X59.199 Y22.535 E0.05335
G1 X59.296 Y21.637 E0.05407
G1 X59.477 Y20.765 E0.05332
G1 X59.73 Y19.943 E0.05149
G1 X60.075 Y19.119 E0.05348
G1 X60.478 Y18.368 E0.05103
G1 X60.951 Y17.662 E0.05088
G1 X61.495 Y17.009 E0.05088
G1 X62.081 Y16.438 E0.04898
G1 X62.731 Y15.925 E0.04957
G1 X63.401 Y15.505 E0.04734
G1 X64.097 Y15.168 E0.0463
G1 X64.85 Y14.902 E0.04781
G1 X65.602 Y14.728 E0.04621
G1 X66.374 Y14.639 E0.04652
G1 X67.137 Y14.638 E0.04568
G1 X67.891 Y14.725 E0.04544
G1 X68.438 Y14.852 E0.03362
G0 F1215 X68.652 Y14.901
G1 F2400 E-1.6
G1 F300 Z0.45
G0 F3600 X72.897 Y18.591 Z0.45
G1 F300 Z0.3
G1 F1800 E1.48845
G1 F1350 X70.008 Y15.702 E0.2446
G1 X69.938 Y15.632
G1 F2400 E-1.6
G1 F300 Z0.45
G0 F3600 X68.819 Y15.192 Z0.45
G1 F300 Z0.3
G1 F1800 E1.47527
G1 F1350 X73.512 Y19.885 E0.39734
G1 X73.582 Y19.955
G0 F3600 X73.824 Y20.875
G1 F1350 X67.899 Y14.951 E0.50161
G0 F3600 X67.125 Y14.856
G1 F1350 X73.995 Y21.725 E0.58162
G0 F3600 X74.077 Y22.487
G1 F1350 X66.447 Y14.857 E0.64601
G0 F3600 X65.832 Y14.92
G1 F1350 X74.095 Y23.183 E0.6996
G0 F3600 X74.067 Y23.834
G1 F1350 X65.263 Y15.03 E0.7454
G0 F3600 X64.729 Y15.175
G1 F1350 X74 Y24.446 E0.78494
G0 F3600 X73.655 Y24.779
G1 F1350 X64.228 Y15.353 E0.79811
G0 F3600 X63.766 Y15.57
G1 F1350 X72.976 Y24.779 E0.77974
G0 F3600 X72.297 Y24.779
G1 F1350 X63.325 Y15.808 E0.75959
G0 F3600 X62.909 Y16.07
G1 F1350 X71.618 Y24.779 E0.73736
G0 F3600 X70.939 Y24.779
G1 F1350 X62.524 Y16.364 E0.71247
G0 F3600 X62.152 Y16.671
G1 F1350 X70.26 Y24.779 E0.68648
G0 F3600 X69.582 Y24.779
G1 F1350 X61.809 Y17.007 E0.65807
G0 F3600 X61.484 Y17.36
G1 F1350 X68.903 Y24.779 E0.62814
G0 F3600 X68.224 Y24.779
G1 F1350 X61.175 Y17.73 E0.59681
G0 F3600 X60.897 Y18.131
G1 F1350 X67.545 Y24.779 E0.56286
G0 F3600 X66.866 Y24.779
G1 F1350 X60.63 Y18.543 E0.52798
G0 F3600 X60.392 Y18.984
G1 F1350 X66.188 Y24.779 E0.49068
G0 F3600 X65.509 Y24.779
G1 F1350 X60.173 Y19.444 E0.45174
G0 F3600 X59.973 Y19.922
G1 F1350 X64.83 Y24.779 E0.41123
G0 F3600 X64.151 Y24.779
G1 F1350 X59.805 Y20.433 E0.36796
G0 F3600 X59.657 Y20.964
G1 F1350 X63.472 Y24.779 E0.323
G0 F3600 X62.793 Y24.779
G1 F1350 X59.539 Y21.525 E0.2755
G0 F3600 X59.461 Y22.126
G1 F1350 X62.115 Y24.779 E0.22466
G0 F3600 X61.436 Y24.779
G1 F1350 X59.412 Y22.756 E0.17132
G0 F3600 X59.401 Y23.423
G1 F1350 X60.757 Y24.779 E0.11481
G0 F3600 X60.078 Y24.779
G1 F1350 X59.459 Y24.16 E0.05241
G1 F2400 E-1.6
G1 F300 Z0.45
G0 F3600 X53.347 Y28.824 Z0.45
;TYPE:WALL-INNER
G1 F300 Z0.3
G1 F1800 E1.47527
G1 F1350 X53.899 Y28.836 E0.02755
G1 X54.434 Y28.874 E0.02676
G1 X54.975 Y28.943 E0.02721
G1 X55.6 Y29.058 E0.0317
G1 X55.6 Y45.251 E0.80787
G1 X54.975 Y45.366 E0.0317
G1 X54.435 Y45.434 E0.02715
G1 X53.9 Y45.472 E0.02676
G1 X53.348 Y45.484 E0.02755
G1 X52.794 Y45.466 E0.02765
G1 X52.242 Y45.421 E0.02763
G1 X51.718 Y45.349 E0.02639
G1 X51.172 Y45.246 E0.02772
G1 X50.65 Y45.12 E0.02679
G1 X50.112 Y44.957 E0.02805
G1 X49.619 Y44.78 E0.02613
G1 X49.129 Y44.575 E0.0265
G1 X48.646 Y44.338 E0.02684
G1 X48.178 Y44.079 E0.02669
G1 X47.738 Y43.8 E0.02599
G1 X47.297 Y43.487 E0.02698
