; G-Code generated by Simplify3D(R) Version 3.1.0
; Mar 22, 2017 at 6:43:33 PM
; Settings Summary
;   processName,Process1
;   applyToModels,right flat probe mount 2.1 pink
;   profileName,PETG 0.2 he.20 bt50 (modified)
;   profileVersion,2017-03-22 16:24:12
;   baseProfile,Default (modified)
;   printMaterial,
;   printQuality,
;   printExtruders,
;   extruderName,Primary Extruder
;   extruderToolheadNumber,0
;   extruderDiameter,0.4
;   extruderAutoWidth,0
;   extruderWidth,0.48
;   extrusionMultiplier,0.9
;   extruderUseRetract,1
;   extruderRetractionDistance,1.4
;   extruderExtraRestartDistance,-0.1
;   extruderRetractionZLift,0.1
;   extruderRetractionSpeed,2700
;   extruderUseCoasting,1
;   extruderCoastingDistance,0.2
;   extruderUseWipe,1
;   extruderWipeDistance,0.2
;   primaryExtruder,0
;   layerHeight,0.2
;   topSolidLayers,4
;   bottomSolidLayers,2
;   perimeterOutlines,2
;   printPerimetersInsideOut,1
;   startPointOption,2
;   startPointOriginX,85
;   startPointOriginY,0
;   startPointOriginZ,5
;   sequentialIslands,0
;   spiralVaseMode,0
;   firstLayerHeightPercentage,150
;   firstLayerWidthPercentage,100
;   firstLayerUnderspeed,0.3
;   useRaft,0
;   raftExtruder,0
;   raftLayers,3
;   raftOffset,3
;   raftSeparationDistance,0.14
;   raftInfill,85
;   disableRaftBaseLayers,0
;   useSkirt,1
;   skirtExtruder,0
;   skirtLayers,1
;   skirtOutlines,3
;   skirtOffset,3
;   usePrimePillar,0
;   primePillarExtruder,999
;   primePillarWidth,12
;   primePillarLocation,7
;   primePillarSpeedMultiplier,1
;   useOozeShield,0
;   oozeShieldExtruder,999
;   oozeShieldOffset,2
;   oozeShieldOutlines,1
;   oozeShieldSidewallShape,1
;   oozeShieldSidewallAngle,30
;   oozeShieldSpeedMultiplier,1
;   infillExtruder,0
;   internalInfillPattern,Rectilinear
;   externalInfillPattern,Rectilinear
;   infillPercentage,22
;   outlineOverlapPercentage,30
;   infillExtrusionWidthPercentage,125
;   minInfillLength,5
;   infillLayerInterval,1
;   infillAngles,45,-45
;   overlapInfillAngles,0
;   generateSupport,0
;   supportExtruder,0
;   supportInfillPercentage,20
;   supportExtraInflation,0.5
;   denseSupportLayers,0
;   denseSupportInfillPercentage,70
;   supportLayerInterval,1
;   supportHorizontalPartOffset,0.8
;   supportUpperSeparationLayers,1
;   supportLowerSeparationLayers,1
;   supportType,0
;   supportGridSpacing,1.5
;   maxOverhangAngle,55
;   supportAngles,0
;   temperatureName,Primary Extruder,bed
;   temperatureNumber,0,0
;   temperatureSetpointCount,2,2
;   temperatureSetpointLayers,1,2,1,2
;   temperatureSetpointTemperatures,240,235,65,60
;   temperatureStabilizeAtStartup,1,1
;   temperatureHeatedBed,0,1
;   temperatureRelayBetweenLayers,0,0
;   temperatureRelayBetweenLoops,0,0
;   fanLayers,1,4
;   fanSpeeds,0,20
;   blipFanToFullPower,1
;   adjustSpeedForCooling,0
;   minSpeedLayerTime,15
;   minCoolingSpeedSlowdown,65
;   increaseFanForCooling,1
;   minFanLayerTime,15
;   maxCoolingFanSpeed,60
;   increaseFanForBridging,1
;   bridgingFanSpeed,100
;   use5D,1
;   relativeEdistances,0
;   allowEaxisZeroing,1
;   independentExtruderAxes,0
;   includeM10123,0
;   stickySupport,1
;   applyToolheadOffsets,0
;   gcodeXoffset,0
;   gcodeYoffset,0
;   gcodeZoffset,0
;   overrideMachineDefinition,1
;   machineTypeOverride,0
;   strokeXoverride,170
;   strokeYoverride,160
;   strokeZoverride,145
;   originOffsetXoverride,0
;   originOffsetYoverride,0
;   originOffsetZoverride,0
;   homeXdirOverride,-1
;   homeYdirOverride,-1
;   homeZdirOverride,-1
;   flipXoverride,1
;   flipYoverride,-1
;   flipZoverride,1
;   toolheadOffsets,0,0|0,0|0,0|0,0|0,0|0,0
;   overrideFirmwareConfiguration,1
;   firmwareTypeOverride,RepRap (Marlin/Repetier/Sprinter)
;   GPXconfigOverride,r2
;   baudRateOverride,250000
;   overridePrinterModels,0
;   printerModelsOverride
;   startingGcode,;---------------------------------------,; ; ; Jellybox Start Script Begin ; ; ;,;_______________________________________,; M92 E140            ;optionally adjust steps per mm for your filament,M117 Preparing        ;write Preparing,M206 X10.0 Y0.0       ;set x homing offset for default bed leveling,G21                   ;metric values,G90                   ;absolute positioning,M107                  ;start with the fan off,M82                   ;set extruder to absolute mode,G28                   ;home all axes,M203 Z4               ;slow Z speed down for greater accuracy when probing,G29                   ;auto bed leveling procedure,M203 Z7               ;pick up z speed again for printing,G92 E0                ;reset the extruder position,G1 F1500 E15          ;extrude 15mm of feed stock,G92 E0                ;reset the extruder position again,M117 Print starting   ;write Print starting,;---------------------------------------------,; ; ; Jellybox Printer Start Script End ; ; ;,;_____________________________________________
;   layerChangeGcode,
;   retractionGcode,
;   toolChangeGcode,
;   endingGcode,; ---------------------------------,; ; ;  Jellybox End Script Begin ; ; ;,; _________________________________,M117 Finishing Up  ; write Finishing Up,M104 S0            ; extruder heater off,M140 S0            ; bed heater off (if you have it),G91                ; relative positioning,G1 E-1 F300        ; retract the filament a bit before lifting the nozzle to release some of the pressure,G1 Z+0.5 E-5 X-20 Y-20 F9000 ; move Z up a bit and retract filament even more,G90                ; absolute positioning,G28 X              ; home x so the head is out of the way,G1 Y100            ; move Y forward so the print is more accessible,M84                ; steppers off,M117 Print finished ; write Print finished,; ---------------------------------------,; ; ;  Jellybox End Script End ; ; ;,; _______________________________________
;   exportFileFormat,gcode
;   celebration,0
;   celebrationSong,Random Song
;   postProcessing,|{REPLACE "; layer" "M117 Layer"} ,{REPLACE ", Z = " " | Z="}
;   defaultSpeed,2700
;   outlineUnderspeed,0.55
;   solidInfillUnderspeed,0.55
;   supportUnderspeed,0.9
;   rapidXYspeed,7800
;   rapidZspeed,420
;   minBridgingArea,50
;   bridgingExtraInflation,0.2
;   bridgingExtrusionMultiplier,0.8
;   bridgingSpeedMultiplier,1.3
;   filamentDiameter,1.75
;   filamentPricePerKg,30
;   filamentDensity,1.38
;   useMinPrintHeight,0
;   minPrintHeight,0
;   useMaxPrintHeight,0
;   maxPrintHeight,1
;   useDiaphragm,0
;   diaphragmLayerInterval,20
;   robustSlicing,1
;   mergeAllIntoSolid,0
;   onlyRetractWhenCrossingOutline,0
;   retractBetweenLayers,1
;   useRetractionMinTravel,1
;   retractionMinTravel,1
;   retractWhileWiping,1
;   onlyWipeOutlines,0
;   avoidCrossingOutline,1
;   maxMovementDetourFactor,2.5
;   toolChangeRetractionDistance,1.3
;   toolChangeExtraRestartDistance,0
;   toolChangeRetractionSpeed,600
;   allowThinWallGapFill,1
;   thinWallAllowedOverlapPercentage,15
;   horizontalSizeCompensation,0
G90
M82
M106 S0
M140 S65
M190 S65
M104 S240 T0
M109 S240 T0
;---------------------------------------
; ; ; Jellybox Start Script Begin ; ; ;
;_______________________________________
; M92 E140            ;optionally adjust steps per mm for your filament
M117 Preparing        ;write Preparing
M206 X10.0 Y0.0       ;set x homing offset for default bed leveling
G21                   ;metric values
G90                   ;absolute positioning
M107                  ;start with the fan off
M82                   ;set extruder to absolute mode
G28                   ;home all axes
M203 Z4               ;slow Z speed down for greater accuracy when probing
G29                   ;auto bed leveling procedure
M203 Z7               ;pick up z speed again for printing
G92 E0                ;reset the extruder position
G1 F1500 E15          ;extrude 15mm of feed stock
G92 E0                ;reset the extruder position again
M117 Print starting   ;write Print starting
;---------------------------------------------
; ; ; Jellybox Printer Start Script End ; ; ;
;_____________________________________________
G92 E0
G1 E-1.4000 F2700
G1 Z0.400 F420
M117 Layer 1, Z = 0.3
T0
; tool H0.300 W0.480
; skirt
G1 X34.964 Y10.344 F7800
G1 Z0.300 F420
G1 E-0.1000 F810
G92 E0
G1 X35.143 Y9.902 E0.0257 F810
G1 X37.217 Y7.786 E0.1853
G1 X37.656 Y7.599 E0.2111
G1 X48.184 Y7.496 E0.7783
G1 X48.626 Y7.675 E0.8040
G1 X50.742 Y9.749 E0.9637
G1 X50.929 Y10.188 E0.9894
G1 X51.405 Y58.177 E3.5753
G1 X51.088 Y58.738 E3.6099
G1 X47.547 Y60.826 E3.8315
G1 X46.903 Y60.831 E3.8661
G1 X39.769 Y56.790 E4.3079
G1 X40.579 Y57.401 E4.3626
G1 X40.756 Y57.612 E4.3774
G1 X41.509 Y59.102 E4.4674
G1 X41.574 Y59.370 E4.4822
G1 X41.636 Y64.995 E4.7853
G1 X41.457 Y65.439 E4.8111
G1 X39.378 Y67.558 E4.9711
G1 X38.938 Y67.745 E4.9968
G1 X25.721 Y67.852 E5.7090
G1 X25.279 Y67.673 E5.7347
G1 X23.168 Y65.600 E5.8942
G1 X22.981 Y65.161 E5.9198
G1 X22.927 Y59.574 E6.2209
G1 X22.982 Y59.314 E6.2352
G1 X23.658 Y57.848 E6.3222
G1 X23.820 Y57.637 E6.3365
G1 X25.389 Y56.324 E6.4468
G1 X25.567 Y56.221 E6.4579
G1 X26.735 Y55.789 E6.5250
G1 X26.938 Y55.752 E6.5361
G1 X37.392 Y55.637 E7.0994
G1 X37.588 Y55.667 E7.1101
G1 X38.063 Y55.823 E7.1370
G1 X36.663 Y55.030 E7.2237
G1 X36.438 Y54.809 E7.2407
G1 X35.463 Y53.155 E7.3441
G1 X35.379 Y52.851 E7.3611
G1 X34.966 Y10.544 E9.6408
G1 X34.964 Y10.344 F810
G1 X35.143 Y9.902 F2700
G1 X35.789 Y9.243 F2700
G1 X35.552 Y10.170 F7800
G92 E0
G1 X37.493 Y8.191 E0.1493 F810
G1 X37.756 Y8.078 E0.1648
G1 X48.093 Y7.977 E0.7217
G1 X48.358 Y8.084 E0.7372
G1 X50.337 Y10.025 E0.8865
G1 X50.450 Y10.288 E0.9019
G1 X50.924 Y58.053 E3.4757
G1 X50.734 Y58.390 E3.4965
G1 X47.414 Y60.347 E3.7042
G1 X47.028 Y60.350 E3.7250
G1 X36.955 Y54.644 E4.3488
G1 X36.820 Y54.511 E4.3590
G1 X35.909 Y52.965 E4.4556
G1 X35.858 Y52.783 E4.4658
G1 X35.445 Y10.435 E6.7477
G1 X35.478 Y10.355 E6.7524
G1 X35.552 Y10.170 F810
G92 E0
G1 X36.533 Y9.170 E-1.4000 F2700
G1 Z0.400 F420
G1 X37.358 Y56.117 F7800
G1 Z0.300 F420
G1 E-0.1000 F2700
G92 E0
G1 X37.475 Y56.135 E0.0064 F810
G1 X38.533 Y56.483 E0.0664
G1 X38.638 Y56.538 E0.0728
G1 X40.246 Y57.751 E0.1813
G1 X40.352 Y57.877 E0.1902
G1 X41.055 Y59.270 E0.2742
G1 X41.095 Y59.430 E0.2831
G1 X41.155 Y64.905 E0.5781
G1 X41.048 Y65.171 E0.5936
G1 X39.103 Y67.153 E0.7432
G1 X38.839 Y67.266 E0.7587
G1 X25.813 Y67.371 E1.4606
G1 X25.547 Y67.264 E1.4760
G1 X23.572 Y65.324 E1.6252
G1 X23.460 Y65.061 E1.6406
G1 X23.407 Y59.623 E1.9336
G1 X23.441 Y59.466 E1.9422
G1 X24.072 Y58.098 E2.0234
G1 X24.169 Y57.971 E2.0321
G1 X25.665 Y56.719 E2.1372
G1 X25.772 Y56.657 E2.1438
G1 X26.863 Y56.254 E2.2065
G1 X26.984 Y56.231 E2.2132
G1 X37.158 Y56.119 E2.7614
G1 X37.358 Y56.117 F810
G1 X37.475 Y56.135 F2700
G1 X38.533 Y56.483 F2700
G1 X38.638 Y56.538 F2700
G1 X38.678 Y56.568 F2700
G1 X38.381 Y56.945 F7800
G92 E0
G1 X39.913 Y58.101 E0.1034 F810
G1 X39.948 Y58.143 E0.1064
G1 X40.602 Y59.437 E0.1845
G1 X40.615 Y59.491 E0.1875
G1 X40.674 Y64.814 E0.4743
G1 X40.638 Y64.903 E0.4795
G1 X38.827 Y66.749 E0.6188
G1 X38.739 Y66.786 E0.6240
G1 X25.904 Y66.891 E1.3156
G1 X25.816 Y66.855 E1.3207
G1 X23.977 Y65.049 E1.4596
G1 X23.939 Y64.961 E1.4648
G1 X23.888 Y59.671 E1.7498
G1 X23.899 Y59.619 E1.7526
G1 X24.485 Y58.347 E1.8281
G1 X24.518 Y58.305 E1.8310
G1 X25.942 Y57.113 E1.9310
G1 X25.977 Y57.092 E1.9333
G1 X26.990 Y56.718 E1.9915
G1 X27.031 Y56.711 E1.9937
G1 X37.324 Y56.598 E2.5483
G1 X37.363 Y56.604 E2.5504
G1 X38.193 Y56.876 E2.5975
G1 X38.346 Y56.927 F810
G1 X38.381 Y56.945 F810
G92 E0
G1 X39.498 Y57.788 E-1.4000 F2700
G1 Z0.400 F420
G1 X37.246 Y54.257 F7800
G1 Z0.300 F420
G1 E-0.1000 F2700
G92 E0
G1 X37.201 Y54.213 E0.0034 F810
G1 X36.354 Y52.776 E0.0933
G1 X36.337 Y52.715 E0.0967
G1 X35.926 Y10.526 E2.3700
G1 X35.962 Y10.437 E2.3751
G1 X37.769 Y8.595 E2.5142
G1 X37.857 Y8.558 E2.5193
G1 X48.002 Y8.458 E3.0660
G1 X48.091 Y8.494 E3.0712
G1 X49.933 Y10.300 E3.2102
G1 X49.971 Y10.388 E3.2153
G1 X50.442 Y57.929 E5.7771
G1 X50.379 Y58.042 E5.7840
G1 X47.281 Y59.868 E5.9778
G1 X47.152 Y59.869 E5.9847
G1 X37.420 Y54.356 E6.5874
G1 X37.246 Y54.257 F810
G92 E0
G1 X37.201 Y54.213 E-0.0631 F2700
G1 X36.523 Y53.061 E-1.4000
G1 Z0.400 F420
; inner perimeter
G1 X40.285 Y51.427 F7800
G1 Z0.300 F420
G1 E-0.1000 F2700
G92 E0
G1 X39.906 Y12.498 E2.0977 F628
G1 X46.031 Y12.438 E2.4277
G1 X46.077 Y17.133 E2.6807
G1 X45.596 Y16.283 E2.7333
G1 X45.301 Y15.931 E2.7581
G1 X44.873 Y15.572 E2.7882
G1 X44.372 Y15.300 E2.8189
G1 X43.827 Y15.135 E2.8495
G1 X43.260 Y15.083 E2.8802
G1 X42.694 Y15.147 E2.9109
G1 X42.153 Y15.322 E2.9416
G1 X41.664 Y15.599 E2.9718
G1 X41.312 Y15.894 E2.9966
G1 X40.952 Y16.322 E3.0267
G1 X40.681 Y16.823 E3.0574
G1 X40.516 Y17.368 E3.0881
G1 X40.468 Y17.898 E3.1168
G1 X40.592 Y30.602 E3.8013
G1 X40.587 Y30.602 E3.8016
G1 X40.722 Y44.396 E4.5449
G1 X40.781 Y44.926 E4.5736
G1 X40.957 Y45.469 E4.6043
G1 X41.238 Y45.965 E4.6351
G1 X41.607 Y46.386 E4.6652
G1 X41.965 Y46.674 E4.6900
G1 X42.459 Y46.942 E4.7203
G1 X43.005 Y47.107 E4.7510
G1 X43.573 Y47.159 E4.7818
G1 X44.140 Y47.096 E4.8125
G1 X44.682 Y46.920 E4.8432
G1 X45.178 Y46.639 E4.8739
G1 X45.600 Y46.270 E4.9041
G1 X45.888 Y45.912 E4.9289
G1 X46.354 Y45.051 E4.9817
G1 X46.452 Y54.921 E5.5135
G1 X40.459 Y51.526 E5.8847
G1 X40.285 Y51.427 F628
G92 E0
G1 X40.271 Y50.027 E-1.4000 F2700
G1 Z0.400 F420
; outer perimeter
G1 X39.808 Y51.709 F7800
G1 Z0.300 F420
G1 E-0.1000 F2700
G92 E0
G1 X39.421 Y12.022 E2.1385 F446
G1 X46.506 Y11.953 E2.5202
G1 X46.941 Y55.749 E4.8802
G1 X39.982 Y51.807 E5.3111
G1 X39.808 Y51.709 F446
G92 E0
G1 X39.794 Y50.309 E-1.4000 F2700
G1 Z0.400 F420
; inner perimeter
; outer perimeter
G1 X41.940 Y46.038 F7800
G1 Z0.300 F420
G1 E-0.1000 F2700
G92 E0
G1 X42.232 Y46.273 E0.0202 F446
G1 X42.645 Y46.497 E0.0455
G1 X43.097 Y46.634 E0.0710
G1 X43.568 Y46.677 E0.0964
G1 X44.038 Y46.625 E0.1219
G1 X44.488 Y46.479 E0.1474
G1 X44.899 Y46.246 E0.1728
G1 X45.252 Y45.937 E0.1981
G1 X45.486 Y45.645 E0.2183
G1 X45.708 Y45.236 E0.2434
G1 X45.746 Y45.124 E0.2497
G1 X45.847 Y44.778 E0.2691
G1 X45.889 Y44.321 E0.2939
G1 X45.628 Y17.872 E1.7191
G1 X45.577 Y17.416 E1.7438
G1 X45.469 Y17.074 E1.7631
G1 X45.429 Y16.963 E1.7695
G1 X45.200 Y16.558 E1.7945
G1 X44.960 Y16.272 E1.8147
G1 X44.601 Y15.970 E1.8399
G1 X44.186 Y15.746 E1.8653
G1 X43.735 Y15.609 E1.8907
G1 X43.265 Y15.566 E1.9162
G1 X42.796 Y15.618 E1.9416
G1 X42.347 Y15.764 E1.9670
G1 X41.939 Y15.995 E1.9923
G1 X41.652 Y16.235 E2.0124
G1 X41.351 Y16.594 E2.0377
G1 X41.126 Y17.008 E2.0631
G1 X40.990 Y17.460 E2.0885
G1 X40.948 Y17.918 E2.1133
G1 X41.077 Y31.077 E2.8223
G1 X41.071 Y31.077 E2.8226
G1 X41.201 Y44.367 E3.5387
G1 X41.252 Y44.825 E3.5636
G1 X41.398 Y45.274 E3.5890
G1 X41.631 Y45.685 E3.6145
G1 X41.809 Y45.888 E3.6290
G1 X41.940 Y46.038 F446
G92 E0
G1 X42.232 Y46.273 E-0.3742 F2700
G1 X42.645 Y46.497 E-0.8442
G1 X43.097 Y46.634 E-1.3169
G1 X43.180 Y46.641 E-1.4000
G1 Z0.400 F420
; gap fill
G1 X43.186 Y46.637 F7800
G1 X43.568 Y46.672 F7800
G1 X44.037 Y46.620 F7800
G1 X44.486 Y46.474 F7800
G1 X44.896 Y46.242 F7800
G1 X45.248 Y45.934 F7800
G1 X45.482 Y45.643 F7800
G1 X45.704 Y45.234 F7800
G1 X45.742 Y45.122 F7800
G1 X45.840 Y44.785 F7800
G1 X46.213 Y44.525 F7800
G1 Z0.300 F420
G1 E-0.1000 F2700
G92 E0
G1 X46.241 Y44.554 E0.0022 F446
G1 X46.480 Y44.113 E0.0292
G1 X46.226 Y43.859 E0.0486
G1 X46.219 Y43.173 E0.0855
G1 X46.478 Y43.432 E0.1052
G1 X46.471 Y42.747 E0.1422
G1 X46.212 Y42.488 E0.1619
G1 X46.205 Y41.802 E0.1988
G1 X46.464 Y42.061 E0.2185
G1 X46.457 Y41.375 E0.2555
G1 X46.198 Y41.117 E0.2752
G1 X46.192 Y40.431 E0.3121
G1 X46.450 Y40.690 E0.3318
G1 X46.444 Y40.004 E0.3688
G1 X46.185 Y39.745 E0.3885
G1 X46.178 Y39.060 E0.4254
G1 X46.437 Y39.318 E0.4452
G1 X46.430 Y38.633 E0.4821
G1 X46.171 Y38.374 E0.5018
G1 X46.164 Y37.689 E0.5388
G1 X46.423 Y37.947 E0.5585
G1 X46.416 Y37.262 E0.5954
G1 X46.158 Y37.003 E0.6151
G1 X46.151 Y36.317 E0.6521
G1 X46.410 Y36.576 E0.6718
G1 X46.403 Y35.890 E0.7087
G1 X46.144 Y35.632 E0.7284
G1 X46.137 Y34.946 E0.7653
G1 X46.396 Y35.205 E0.7850
G1 X46.389 Y34.519 E0.8220
G1 X46.131 Y34.261 E0.8417
G1 X46.124 Y33.575 E0.8786
