;FLAVOR:Marlin
;TIME:4686
;Filament used: 6.44407m
;Layer height: 0.3
;Generated with Cura_SteamEngine 3.5.1
M82 ;absolute extrusion mode
;---------------------------------------
; ; ; Jellybox Start Script Begin ; ; ;
;_______________________________________
; for slicer: CURA 3
; start gcode last modified Jan 16, 2019

;              Print Settings Summary
; (leave these alone: this is only a list of the slicing settings)
; (overwriting these values will NOT change your printer's behavior)
;             sliced for :  IMADE3D JellyBOX 2
;        nozzle diameter :  0.4
;      filament diameter :  1.75
;           layer height :  0.3
;       1st layer height :  0.3
;             line width :  0.4  
;  outer wall wipe dist. :  0.5
;      infill line width :  0.6
;         wall thickness :  0.8
;          top thickness :  0.8
;       bottom thickness :  0.8
;         infill density :  70
;         infill pattern :  cubic
;      print temperature :  230
;  1st layer print temp. :  235
; heated bed temperature :  65
;    1st layer bed temp. :  70
;      regular fan speed :  30
;          max fan speed :  50
;     retraction amount  :  1.7
;   retr. retract speed  :  40
;     retr. prime speed  :  10
;   build plate adhesion :  skirt
;                support ?  True
;             spiralized ?  False

G21               ;metric values
G90               ;absolute positioning
M82               ;set extruder to absolute mode
M107              ;start with the fan off
M117 Preparing    ;write Preparing
M190 S45          ;wait for the bed to reach 45C
M109 S180         ;wait for the extruder to reach 180C
G28               ;home all axes
M203 Z4           ;slow Z speed down for greater accuracy when probing
G29               ;auto bed leveling procedure
;M500              ;optionally save the mesh
M203 Z7           ;pick up z speed again for printing
G28 X             ;home x to get as far from the plate as possible
M420 S1           ;(re) enable bed leveling turned off by the G28
G0 Y0 F5000       ;position Y in front
G0 Z15 F3000      ;position Z
M190 S70              ;wait for the bed to reach desired temperature
M109 S235             ;wait for the extruder to reach desired temperature
M300 S440 P300    ;play a tone
; M0 Ready! Click to start ; optionally, stop and wait for user to continue
M420 S1           ;(re) enable bed leveling to make iron-sure
M117 Print starting   ;write Print starting
;================ ;PRINT:LINE start
G90               ;absolute positioning
G92 E0            ;reset the extruder position
M420 S1           ;(re) enable bed leveling to make iron-sure
G0 Z0             ;get Z down
M83               ;relative extrusion mode
M420 S1           ;(re) enable bed leveling to make iron-sure
G1 E22 F300       ;extrude __mm of feed stock
G1 E18 F250       ;extrude __mm of feed stock
G1 E10 F250       ;extrude __mm of feed stock
G4 S2             ;pause for ooze
M400              ;make sure all is finished
M420 S1           ;(re) enable bed leveling to make iron-sure
G0 F500 X3 Y0 Z0.6;get to the start of the LINE
G1 E2 F300        ;extrude __mm of feed stock
G1 F1000 X104 E10  ;print a thick LINE extruding __mm along the way
M82               ;absolute extrusion mode
G92 E0            ;reset the extruder position
;---------------------------------------------
; ; ; Jellybox Printer Start Script End ; ; ;
;_____________________________________________

M83 ;relative extrusion mode
G1 F2400 E-1.7
;LAYER_COUNT:78
;LAYER:0
M107
G0 F3600 X73.935 Y48.206 Z0.3
;TYPE:SKIRT
G1 F600 E1.7
G1 F1200 X74.384 Y47.574 E0.03674
G1 X75.061 Y46.758 E0.05025
G1 X75.503 Y46.288 E0.03058
G1 X75.962 Y45.904 E0.02836
G1 X76.464 Y45.531 E0.02964
G1 X77.004 Y45.179 E0.03055
G1 X77.48 Y44.941 E0.02522
G1 X78.49 Y44.499 E0.05225
G1 X79.332 Y44.214 E0.04213
G1 X79.905 Y44.073 E0.02797
G1 X80.575 Y43.954 E0.03225
G1 X81.613 Y43.839 E0.0495
G1 X82.402 Y43.811 E0.03742
G1 X84.305 Y43.89 E0.09027
G1 X84.993 Y43.965 E0.0328
G1 X86.766 Y44.278 E0.08533
G1 X87.39 Y44.429 E0.03043
G1 X89.478 Y45.071 E0.10353
G1 X90.161 Y45.335 E0.03471
G1 X97.129 Y48.609 E0.36489
G1 X102.185 Y50.65 E0.25842
G1 X104.593 Y51.504 E0.12109
G1 X109.75 Y53.091 E0.25573
G1 X117.79 Y55.016 E0.39183
G1 X118.221 Y55.139 E0.02124
G1 X119.321 Y55.505 E0.05495
G1 X119.809 Y55.695 E0.02482
G1 X121.58 Y56.49 E0.09201
G1 X122.193 Y56.816 E0.03291
G1 X123.868 Y57.856 E0.09345
G1 X124.575 Y58.384 E0.04182
G1 X125.503 Y59.207 E0.05879
G1 X125.958 Y59.663 E0.03053
G1 X126.328 Y60.136 E0.02846
G1 X127.13 Y61.294 E0.06676
G1 X127.463 Y61.846 E0.03055
G1 X127.8 Y62.648 E0.04123
G1 X128.006 Y63.282 E0.0316
G1 X128.167 Y63.906 E0.03054
G1 X128.24 Y64.424 E0.02479
G1 X128.295 Y65.036 E0.02912
G1 X128.313 Y65.68 E0.03053
G1 X128.241 Y66.378 E0.03326
G1 X127.662 Y69.759 E0.16258
G1 X126.938 Y75.132 E0.25696
G1 X126.522 Y80.471 E0.25381
G1 X126.41 Y85.836 E0.25433
G1 X126.601 Y91.202 E0.25449
G1 X127.098 Y96.584 E0.25617
G1 X127.375 Y98.679 E0.10016
G1 X127.42 Y99.322 E0.03055
G1 X127.385 Y99.966 E0.03057
G1 X127.27 Y100.6 E0.03054
G1 X127.128 Y101.078 E0.02363
G1 X124.99 Y107.189 E0.30685
G1 X124.74 Y107.783 E0.03054
G1 X124.418 Y108.342 E0.03058
G1 X124.03 Y108.856 E0.03052
G1 X123.527 Y109.367 E0.03398
G1 X120.797 Y111.782 E0.17275
G1 X116.922 Y115.514 E0.25498
G1 X113.238 Y119.488 E0.25683
G1 X111.553 Y121.467 E0.12319
G1 X108.232 Y125.724 E0.2559
G1 X105.167 Y130.142 E0.25485
G1 X102.201 Y134.989 E0.26933
G1 X101.902 Y135.427 E0.02514
G1 X101.399 Y136.087 E0.03933
G1 X100.977 Y136.575 E0.03058
G1 X100.649 Y136.881 E0.02126
G1 X99.677 Y137.715 E0.0607
G1 X99.163 Y138.104 E0.03055
G1 X98.672 Y138.392 E0.02698
G1 X97.711 Y138.887 E0.05123
G1 X97.121 Y139.146 E0.03054
G1 X96.746 Y139.267 E0.01868
G1 X95.937 Y139.496 E0.03985
G1 X94.998 Y139.671 E0.04527
G1 X93.944 Y139.768 E0.05017
G1 X93.299 Y139.787 E0.03058
G1 X92.907 Y139.76 E0.01862
G1 X92.049 Y139.667 E0.0409
G1 X91.27 Y139.522 E0.03756
G1 X88.264 Y138.721 E0.14744
G1 X82.935 Y137.51 E0.25901
G1 X80.321 Y137.033 E0.12594
G1 X75.936 Y136.352 E0.21032
G1 X75.292 Y136.21 E0.03126
G1 X73.417 Y135.669 E0.09249
G1 X72.733 Y135.418 E0.03453
G1 X70.981 Y134.633 E0.09099
G1 X70.496 Y134.385 E0.02582
G1 X67.464 Y132.625 E0.16616
G1 X62.688 Y130.107 E0.2559
G1 X57.484 Y127.738 E0.271
G1 X57.072 Y127.528 E0.02192
G1 X55.905 Y126.866 E0.06359
G1 X55.365 Y126.514 E0.03055
G1 X54.848 Y126.073 E0.03221
G1 X53.945 Y125.196 E0.05966
G1 X53.511 Y124.719 E0.03057
G1 X53.121 Y124.162 E0.03223
G1 X52.465 Y123.08 E0.05997
G1 X52.166 Y122.509 E0.03055
G1 X51.936 Y121.892 E0.03121
G1 X51.575 Y120.701 E0.05898
G1 X51.426 Y120.074 E0.03054
G1 X51.356 Y119.414 E0.03146
G1 X51.303 Y118.168 E0.05911
G1 X51.345 Y117.248 E0.04365
G1 X51.766 Y114.141 E0.1486
G1 X52.253 Y108.766 E0.2558
G1 X52.434 Y103.418 E0.25362
G1 X52.31 Y98.049 E0.25454
G1 X51.885 Y92.699 E0.25437
G1 X51.154 Y87.355 E0.25564
G1 X50.521 Y83.814 E0.17049
G1 X50.447 Y83.173 E0.03058
G1 X50.453 Y82.529 E0.03052
G1 X50.539 Y81.89 E0.03056
G1 X50.733 Y81.179 E0.03493
G1 X52.874 Y75.07 E0.30681
G1 X53.124 Y74.476 E0.03054
G1 X53.446 Y73.918 E0.03053
G1 X53.835 Y73.403 E0.03059
G1 X54.234 Y72.988 E0.02729
G1 X56.653 Y70.731 E0.1568
G1 X60.438 Y66.87 E0.25626
G1 X63.973 Y62.83 E0.25443
G1 X67.266 Y58.604 E0.25392
G1 X70.309 Y54.209 E0.25336
G1 X73.798 Y48.432 E0.31987
G0 F1080 X73.935 Y48.206
G1 F2400 E-1.7
G1 F300 Z0.5
G0 F3600 X74.205 Y99.349 Z0.5
;TYPE:SUPPORT
G1 F300 Z0.3
G1 F600 E1.71256
G1 F1200 X74.416 Y99.372 E0.01006
G1 X74.623 Y99.437 E0.01028
G1 X74.711 Y99.482 E0.00468
G1 X74.901 Y99.621 E0.01116
G1 X75.034 Y99.764 E0.00926
G1 X75.143 Y99.941 E0.00985
G1 X75.212 Y100.127 E0.0094
G1 X75.244 Y100.339 E0.01016
G1 X75.236 Y100.541 E0.00958
G1 X75.188 Y100.739 E0.00966
G1 X75.105 Y100.915 E0.00922
G1 X74.975 Y101.093 E0.01045
G1 X74.828 Y101.228 E0.00946
G1 X74.643 Y101.34 E0.01025
G1 X74.55 Y101.376 E0.00473
G1 X74.331 Y101.428 E0.01067
G1 X74.117 Y101.433 E0.01015
G1 X73.93 Y101.401 E0.00899
G1 X73.731 Y101.325 E0.0101
G1 X73.559 Y101.215 E0.00968
G1 X73.409 Y101.072 E0.00982
G1 X73.293 Y100.906 E0.0096
G1 X73.209 Y100.717 E0.0098
G1 X73.166 Y100.52 E0.00956
G1 X73.16 Y100.299 E0.01048
G1 X73.177 Y100.193 E0.00509
G1 X73.241 Y99.989 E0.01013
G1 X73.342 Y99.803 E0.01003
G1 X73.476 Y99.643 E0.00989
G1 X73.629 Y99.519 E0.00933
G1 X73.807 Y99.425 E0.00954
G1 X74.013 Y99.365 E0.01017
G1 X74.107 Y99.357 E0.00447
G0 F1080 X74.205 Y99.349
G0 F3600 X74 Y99.524
G1 F600 E0.00464
G1 F1200 X74 Y101.26 E0.08228
G1 F2400 E-1.7
G1 F300 Z0.5
G0 F3600 X73.406 Y100 Z0.5
G1 F300 Z0.3
G1 F600 E1.7
G1 F1200 X75.003 Y100 E0.07569
G1 F2400 E-1.7
G1 F300 Z0.5
G0 F3600 X83.409 Y49.611 Z0.5
;TYPE:WALL-INNER
G1 F300 Z0.3
G1 F600 E1.7
G1 F1200 X83.898 Y49.654 E0.02327
G1 X84.417 Y49.72 E0.0248
G1 X84.938 Y49.804 E0.02501
G1 X85.986 Y50.032 E0.05083
G1 X87.012 Y50.329 E0.05062
G1 X87.514 Y50.503 E0.02518
G1 X88.008 Y50.695 E0.02512
G1 X88.459 Y50.892 E0.02333
G1 X88.93 Y51.122 E0.02484
G1 X89.336 Y51.343 E0.02191
G1 X89.73 Y51.587 E0.02196
G1 X90.083 Y51.833 E0.02039
G1 X90.436 Y52.115 E0.02141
G1 X90.725 Y52.384 E0.01871
G1 X90.985 Y52.666 E0.01818
G1 X91.209 Y52.957 E0.01741
G1 X91.396 Y53.257 E0.01675
G1 X91.545 Y53.564 E0.01617
G1 X91.653 Y53.866 E0.0152
G1 X91.728 Y54.192 E0.01585
G1 X91.767 Y54.539 E0.01655
G1 X91.768 Y54.88 E0.01616
G1 X91.728 Y55.251 E0.01769
G1 X91.647 Y55.642 E0.01893
G1 X91.524 Y56.045 E0.01997
G1 X91.359 Y56.462 E0.02125
G1 X91.132 Y56.929 E0.02461
G1 X90.879 Y57.371 E0.02414
G1 X90.563 Y57.857 E0.02748
G1 X90.205 Y58.349 E0.02884
G1 X89.801 Y58.854 E0.03065
G1 X89.343 Y59.38 E0.03306
G1 X88.827 Y59.93 E0.03574
G1 X88.272 Y60.484 E0.03717
G1 X87.674 Y61.047 E0.03893
G1 X87.022 Y61.628 E0.04139
G1 X86.58 Y62.003 E0.02747
G1 X78.656 Y59.228 E0.39793
G1 X78.538 Y58.537 E0.03322
G1 X78.394 Y57.557 E0.04695
G1 X78.289 Y56.666 E0.04252
G1 X78.218 Y55.82 E0.04024
G1 X78.181 Y55.034 E0.03729
G1 X78.179 Y54.352 E0.03232
G1 X78.212 Y53.681 E0.03184
G1 X78.277 Y53.09 E0.02818
G1 X78.371 Y52.563 E0.02537
G1 X78.495 Y52.095 E0.02295
G1 X78.644 Y51.683 E0.02076
G1 X78.819 Y51.321 E0.01906
G1 X79.015 Y51.007 E0.01754
G1 X79.246 Y50.72 E0.01746
G1 X79.477 Y50.496 E0.01525
G1 X79.754 Y50.283 E0.01656
G1 X80.045 Y50.109 E0.01607
G1 X80.392 Y49.95 E0.01809
G1 X80.727 Y49.833 E0.01682
G1 X81.117 Y49.734 E0.01907
G1 X81.53 Y49.659 E0.01989
G1 X81.976 Y49.611 E0.02126
G1 X82.421 Y49.588 E0.02112
G1 X82.889 Y49.588 E0.02218
G1 X83.144 Y49.6 E0.0121
G0 F1080 X83.409 Y49.611
G0 F3600 X83.427 Y49.211
;TYPE:WALL-OUTER
G1 F600 E0.01256
G1 F1200 X83.948 Y49.257 E0.02479
G1 X84.475 Y49.324 E0.02518
G1 X85.012 Y49.411 E0.02578
G1 X86.078 Y49.643 E0.05171
G1 X87.139 Y49.95 E0.05235
G1 X87.659 Y50.13 E0.02608
G1 X88.153 Y50.322 E0.02512
G1 X88.635 Y50.533 E0.02494
G1 X89.106 Y50.763 E0.02484
G1 X89.537 Y50.998 E0.02327
G1 X89.959 Y51.259 E0.02352
G1 X90.333 Y51.52 E0.02162
G1 X90.686 Y51.802 E0.02141
G1 X91.016 Y52.108 E0.02133
G1 X91.287 Y52.403 E0.01899
G1 X91.539 Y52.73 E0.01957
G1 X91.747 Y53.064 E0.01865
G1 X91.914 Y53.407 E0.01808
G1 X92.038 Y53.755 E0.01751
G1 X92.124 Y54.127 E0.0181
G1 X92.167 Y54.511 E0.01831
G1 X92.168 Y54.904 E0.01863
G1 X92.124 Y55.313 E0.0195
G1 X92.035 Y55.743 E0.02081
G1 X91.904 Y56.172 E0.02126
G1 X91.724 Y56.627 E0.02319
G1 X91.491 Y57.106 E0.02525
G1 X91.219 Y57.582 E0.02598
G1 X90.895 Y58.08 E0.02816
G1 X90.517 Y58.599 E0.03043
G1 X90.103 Y59.117 E0.03143
G1 X89.635 Y59.654 E0.03376
G1 X89.119 Y60.204 E0.03574
G1 X88.555 Y60.767 E0.03777
G1 X87.94 Y61.346 E0.04003
G1 X87.281 Y61.933 E0.04183
G1 X86.664 Y62.457 E0.03837
G1 X78.302 Y59.528 E0.41993
G1 X78.142 Y58.595 E0.04487
G1 X77.998 Y57.615 E0.04695
G1 X77.89 Y56.699 E0.04372
G1 X77.819 Y55.853 E0.04024
G1 X77.781 Y55.053 E0.03796
G1 X77.779 Y54.332 E0.03417
G1 X77.812 Y53.661 E0.03184
G1 X77.88 Y53.035 E0.02984
G1 X77.98 Y52.476 E0.02691
G1 X78.11 Y51.984 E0.02412
G1 X78.275 Y51.528 E0.02298
G1 X78.47 Y51.123 E0.0213
G1 X78.689 Y50.774 E0.01953
G1 X78.945 Y50.456 E0.01935
G1 X79.219 Y50.189 E0.01813
G1 X79.525 Y49.955 E0.01826
G1 X79.866 Y49.751 E0.01883
G1 X80.232 Y49.583 E0.01909
G1 X80.62 Y49.447 E0.01949
G1 X81.034 Y49.342 E0.02024
G1 X81.472 Y49.263 E0.02109
G1 X81.933 Y49.213 E0.02198
G1 X82.419 Y49.188 E0.02306
G1 X82.907 Y49.188 E0.02313
G1 X83.162 Y49.2 E0.0121
G0 F1080 X83.427 Y49.211
G0 F3600 X83.925 Y49.254
G0 X83.856 Y50.082
;TYPE:SKIN
G1 F600 E0.01256
G1 F1200 X84.355 Y50.146 E0.02861
G1 X84.85 Y50.225 E0.02851
G1 X85.878 Y50.449 E0.05984
G1 X86.892 Y50.742 E0.06003
G1 X87.374 Y50.909 E0.02901
G1 X87.836 Y51.089 E0.0282
G1 X88.27 Y51.279 E0.02695
G1 X88.733 Y51.505 E0.0293
G1 X89.119 Y51.715 E0.02499
G1 X89.504 Y51.953 E0.02574
G1 X89.814 Y52.169 E0.02149
G1 X90.167 Y52.451 E0.0257
G1 X90.414 Y52.682 E0.01923
G1 X90.665 Y52.954 E0.02105
G1 X90.848 Y53.191 E0.01703
G1 X91.019 Y53.466 E0.01842
G1 X91.15 Y53.734 E0.01697
G1 X91.24 Y53.987 E0.01527
G1 X91.302 Y54.257 E0.01576
G1 X91.337 Y54.57 E0.01791
G1 X91.338 Y54.854 E0.01615
G1 X91.302 Y55.187 E0.01905
G1 X91.228 Y55.541 E0.02057
G1 X91.122 Y55.892 E0.02085
G1 X90.961 Y56.296 E0.02473
G1 X90.758 Y56.716 E0.02653
G1 X90.512 Y57.146 E0.02818
G1 X90.21 Y57.61 E0.03149
G1 X89.863 Y58.087 E0.03355
G1 X89.471 Y58.579 E0.03578
G1 X89.029 Y59.086 E0.03825
G1 X88.524 Y59.625 E0.04201
G1 X87.977 Y60.171 E0.04396
G1 X87.384 Y60.729 E0.04631
G1 X86.74 Y61.303 E0.04906
G1 X86.49 Y61.516 E0.01868
G1 X79.037 Y58.906 E0.44913
G1 X78.962 Y58.464 E0.0255
G1 X78.819 Y57.495 E0.05571
G1 X78.716 Y56.616 E0.05034
G1 X78.648 Y55.8 E0.04657
G1 X78.611 Y55.014 E0.04475
G1 X78.609 Y54.373 E0.03646
G1 X78.64 Y53.728 E0.03673
G1 X78.705 Y53.137 E0.03382
G1 X78.792 Y52.648 E0.02825
G1 X78.903 Y52.231 E0.02454
G1 X79.041 Y51.849 E0.0231
G1 X79.194 Y51.533 E0.01997
G1 X79.37 Y51.251 E0.01891
G1 X79.563 Y51.012 E0.01747
G1 X79.758 Y50.822 E0.01548
G1 X79.989 Y50.644 E0.01659
G1 X80.256 Y50.485 E0.01767
G1 X80.554 Y50.348 E0.01865
G1 X80.845 Y50.247 E0.01752
G1 X81.213 Y50.153 E0.0216
G1 X81.586 Y50.086 E0.02155
G1 X82.008 Y50.041 E0.02414
G1 X82.443 Y50.018 E0.02478
G1 X82.87 Y50.018 E0.02429
G1 X83.39 Y50.041 E0.0296
G1 X83.637 Y50.063 E0.0141
G0 F1080 X83.856 Y50.082
G0 F3600 X83.803 Y50.559
G1 F600 E0.01251
G1 F1200 X84.281 Y50.62 E0.02741
G1 X84.763 Y50.697 E0.02776
G1 X85.763 Y50.915 E0.05821
G1 X86.735 Y51.196 E0.05755
G1 X87.217 Y51.363 E0.02901
G1 X87.644 Y51.529 E0.02606
G1 X88.069 Y51.715 E0.02639
G1 X88.504 Y51.927 E0.02752
G1 X88.89 Y52.137 E0.02499
G1 X89.235 Y52.351 E0.02309
G1 X89.523 Y52.551 E0.01994
G1 X89.851 Y52.813 E0.02388
G1 X90.072 Y53.02 E0.01722
G1 X90.303 Y53.27 E0.01936
G1 X90.452 Y53.463 E0.01387
G1 X90.599 Y53.7 E0.01586
G1 X90.707 Y53.921 E0.01399
G1 X90.778 Y54.119 E0.01196
G1 X90.828 Y54.339 E0.01283
G1 X90.857 Y54.597 E0.01477
G1 X90.858 Y54.831 E0.01331
G1 X90.828 Y55.109 E0.0159
G1 X90.763 Y55.417 E0.0179
G1 X90.667 Y55.737 E0.019
G1 X90.52 Y56.106 E0.02259
G1 X90.335 Y56.489 E0.02419
G1 X90.1 Y56.9 E0.02693
G1 X89.813 Y57.341 E0.02993
G1 X89.481 Y57.797 E0.03208
G1 X89.109 Y58.264 E0.03396
G1 X88.669 Y58.768 E0.03805
G1 X88.185 Y59.285 E0.04028
G1 X87.648 Y59.821 E0.04315
G1 X87.055 Y60.379 E0.04631
G1 X86.389 Y60.972 E0.05072
G1 X79.463 Y58.546 E0.41738
G1 X79.294 Y57.425 E0.06448
G1 X79.193 Y56.56 E0.04953
G1 X79.126 Y55.76 E0.04566
G1 X79.091 Y55.012 E0.04259
G1 X79.089 Y54.372 E0.0364
G1 X79.118 Y53.77 E0.03428
G1 X79.178 Y53.221 E0.03141
G1 X79.262 Y52.748 E0.02732
G1 X79.363 Y52.369 E0.02231
G1 X79.482 Y52.039 E0.01995
G1 X79.615 Y51.764 E0.01737
G1 X79.762 Y51.529 E0.01577
G1 X79.917 Y51.337 E0.01403
G1 X80.075 Y51.183 E0.01255
G1 X80.259 Y51.042 E0.01318
G1 X80.482 Y50.909 E0.01477
G1 X80.736 Y50.792 E0.01591
G1 X80.977 Y50.709 E0.0145
G1 X81.32 Y50.621 E0.02014
G1 X81.652 Y50.561 E0.01919
G1 X82.047 Y50.519 E0.02259
G1 X82.449 Y50.498 E0.02289
G1 X82.849 Y50.498 E0.02275
G1 X83.369 Y50.521 E0.0296
G1 X83.584 Y50.54 E0.01228
G0 F1080 X83.803 Y50.559
G0 F3600 X83.904 Y49.766
G0 X85.939 Y50.197
G0 X87.947 Y50.855
G0 X89.259 Y51.503
