;FLAVOR:RepRap
;TIME:7640
;Filament used: 14.2405m
;Layer height: 0.3
;Generated with Cura_SteamEngine 2.4.0
;---------------------------------------
; ; ; Jellybox Start Script Begin ; ; ;
;_______________________________________
; M92 E140 ;optionally adjust steps per mm for your filament

;              Print Settings Summary
; (leave these alone: this is only a list of the slicing settings)
; (overwriting these values will NOT change your printer's behavior)
;             sliced for :  IMADE3D JellyBOX
;        nozzle diameter :  0.4
;      filament diameter :  1.75
;           layer height :  0.3
;       1st layer height :  0.3
;             line width :  0.46
;  outer wall wipe dist. :  0.2
;      infill line width :  0.69
;         wall thickness :  0.8
;          top thickness :  0.9
;       bottom thickness :  0.6
;         infill density :  22
;         infill pattern :  zigzag
;      print temperature :  235
;  1st layer print temp. :  240
; heated bed temperature :  60
;    1st layer bed temp. :  65
;      regular fan speed :  20
;          max fan speed :  50
;     retraction amount  :  1.4
;   retr. retract speed  :  70
;     retr. prime speed  :  35
;   build plate adhesion :  skirt
;                support ?  False
;             spiralized ?  False

M117 Preparing        ;write Preparing
M140 S65              ;set bed temperature and move on
M104 S240             ;set extruder temperature and move on
M206 X10.0 Y0.0       ;set x homing offset for default bed leveling
G21                   ;metric values
G90                   ;absolute positioning
M107                  ;start with the fan off
M82                   ;set extruder to absolute mode
G28                   ;home all axes
M203 Z4               ;slow Z speed down for greater accuracy when probing
G29                   ;auto bed leveling procedure
M203 Z7               ;pick up z speed again for printing
M190 S65              ;wait for the bed to reach desired temperature
M109 S240             ;wait for the extruder to reach desired temperature
G92 E0                ;reset the extruder position
G1 F1500 E15          ;extrude 15mm of feed stock
G92 E0                ;reset the extruder position again
M117 Print starting   ;write Print starting
;---------------------------------------------
; ; ; Jellybox Printer Start Script End ; ; ;
;_____________________________________________

;LAYER_COUNT:92
;LAYER:0
M107
G1 F4200 E-1.4
G0 F3600 X46.922 Y24.172 Z0.3
;TYPE:SKIRT
G1 F2100 E0
G1 X47.19 Y23.7 E0.03114
G1 X47.524 Y23.272 E0.06229
G1 X47.918 Y22.897 E0.0935
G1 X48.361 Y22.585 E0.12458
G1 X48.847 Y22.341 E0.15578
G1 X49.362 Y22.17 E0.18692
G1 X49.897 Y22.078 E0.21806
G1 X50.258 Y22.06 E0.2388
G1 X70.421 Y22.062 E1.39563
G1 X70.866 Y22.089 E1.42121
G1 X75.515 Y22.653 E1.68989
G1 X80.956 Y23.035 E2.00283
G1 X86.407 Y23.11 E2.31561
G1 X91.836 Y22.876 E2.62738
G1 X99.151 Y22.085 E3.04951
G1 X99.547 Y22.064 E3.07226
G1 X119.741 Y22.06 E4.23087
G1 X120.283 Y22.1 E4.26205
G1 X120.813 Y22.219 E4.29322
G1 X121.319 Y22.414 E4.32433
G1 X121.792 Y22.682 E4.35552
G1 X122.22 Y23.016 E4.38667
G1 X122.594 Y23.409 E4.41779
G1 X122.907 Y23.853 E4.44896
G1 X123.151 Y24.338 E4.48011
G1 X123.321 Y24.853 E4.51123
G1 X123.414 Y25.388 E4.54238
G1 X123.432 Y25.75 E4.56318
G1 X123.429 Y89.509 E8.22127
G1 X123.427 Y89.621 E8.22769
G1 X123.326 Y92.968 E8.41981
G1 X123.436 Y99.462 E8.79245
G1 X123.437 Y99.528 E8.79624
G1 X123.422 Y116.656 E9.77894
G1 X123.396 Y117.091 E9.80394
G1 X123.274 Y118.111 E9.86288
G1 X123.183 Y118.593 E9.89102
G1 X123.03 Y119.187 E9.92621
G1 X122.822 Y119.78 E9.96227
G1 X122.34 Y120.852 E10.0297
G1 X122.097 Y121.306 E10.05925
G1 X121.763 Y121.836 E10.09519
G1 X121.444 Y122.268 E10.126
G1 X120.856 Y122.955 E10.17788
G1 X120.444 Y123.367 E10.21131
G1 X119.775 Y123.936 E10.2617
G1 X119.108 Y124.388 E10.30792
G1 X117.698 Y125.133 E10.39942
G1 X116.942 Y125.431 E10.44604
G1 X115.886 Y125.718 E10.50883
G1 X115.214 Y125.835 E10.54796
G1 X114.307 Y125.908 E10.60017
G1 X114.036 Y125.92 E10.61573
G1 X106.626 Y125.97 E11.04088
G1 X101.171 Y126.28 E11.35436
G1 X95.775 Y126.892 E11.66593
G1 X90.395 Y127.815 E11.97911
G1 X85.075 Y129.04 E12.29233
G1 X82.496 Y129.747 E12.44575
G1 X77.262 Y131.431 E12.76121
G1 X72.208 Y133.378 E13.07195
G1 X67.206 Y135.638 E13.38687
G1 X63.757 Y137.403 E13.60915
G1 X63.425 Y137.552 E13.63003
G1 X62.44 Y137.939 E13.69075
G1 X61.922 Y138.1 E13.72187
G1 X61.611 Y138.158 E13.74002
G1 X60.628 Y138.298 E13.79699
G1 X60.087 Y138.335 E13.8281
G1 X59.756 Y138.318 E13.84712
G1 X58.659 Y138.213 E13.91034
G1 X58.019 Y138.094 E13.94769
G1 X57.471 Y137.941 E13.98034
G1 X56.77 Y137.666 E14.02354
G1 X55.726 Y137.127 E14.09095
G1 X55.085 Y136.706 E14.13495
G1 X54.649 Y136.35 E14.16724
G1 X54.255 Y135.977 E14.19837
G1 X54.075 Y135.764 E14.21437
G1 X53.371 Y134.863 E14.27997
G1 X52.971 Y134.226 E14.32313
G1 X52.671 Y133.619 E14.36198
G1 X52.485 Y133.17 E14.38986
G1 X51.607 Y130.584 E14.54655
G1 X49.654 Y125.429 E14.86282
G1 X47.241 Y119.948 E15.20641
G1 X47.063 Y119.451 E15.2367
G1 X46.821 Y118.582 E15.28846
G1 X46.7 Y117.913 E15.32746
G1 X46.575 Y116.483 E15.40982
G1 X46.561 Y116.162 E15.42825
G1 X46.568 Y25.75 E20.61553
G1 X46.608 Y25.208 E20.64671
G1 X46.727 Y24.678 E20.67787
G1 X46.756 Y24.604 E20.68243
G0 F1995 X46.922 Y24.172
G0 F3600 X47.382 Y24.28
G1 F2100 E20.709
G1 X47.648 Y23.848 E20.73811
G1 X47.978 Y23.462 E20.76724
G1 X48.365 Y23.133 E20.79639
G1 X48.799 Y22.868 E20.82556
G1 X49.268 Y22.675 E20.85466
G1 X49.763 Y22.558 E20.88384
G1 X50.258 Y22.52 E20.91232
G1 X70.421 Y22.522 E22.06915
G1 X70.81 Y22.546 E22.09151
G1 X75.465 Y23.111 E22.36055
G1 X80.935 Y23.495 E22.67515
G1 X86.421 Y23.57 E22.98993
G1 X91.875 Y23.335 E23.30314
G1 X99.201 Y22.543 E23.72591
G1 X99.547 Y22.524 E23.74579
G1 X119.741 Y22.52 E24.9044
G1 X120.248 Y22.56 E24.93358
G1 X120.742 Y22.679 E24.96273
G1 X121.211 Y22.873 E24.99185
G1 X121.644 Y23.139 E25.021
G1 X122.029 Y23.469 E25.0501
G1 X122.359 Y23.856 E25.07928
G1 X122.623 Y24.29 E25.10842
G1 X122.816 Y24.76 E25.13757
G1 X122.934 Y25.254 E25.16671
G1 X122.972 Y25.75 E25.19525
G1 X122.969 Y89.509 E28.85335
G1 X122.968 Y89.607 E28.85897
G1 X122.866 Y92.962 E29.05155
G1 X122.977 Y99.47 E29.42499
G1 X122.977 Y99.528 E29.42832
G1 X122.962 Y116.656 E30.41101
G1 X122.939 Y117.037 E30.43291
G1 X122.817 Y118.057 E30.49185
G1 X122.738 Y118.479 E30.51648
G1 X122.585 Y119.073 E30.55168
G1 X122.403 Y119.592 E30.58323
G1 X121.921 Y120.664 E30.65067
G1 X121.708 Y121.061 E30.67652
G1 X121.374 Y121.591 E30.71246
G1 X121.095 Y121.969 E30.73941
G1 X120.507 Y122.656 E30.79129
G1 X120.146 Y123.016 E30.82055
G1 X119.477 Y123.585 E30.87093
G1 X118.893 Y123.981 E30.91142
G1 X117.483 Y124.726 E31.00291
G1 X116.821 Y124.987 E31.04374
G1 X115.765 Y125.274 E31.10652
G1 X115.177 Y125.377 E31.14077
G1 X114.27 Y125.45 E31.19298
G1 X114.033 Y125.46 E31.20659
G1 X106.617 Y125.51 E31.63208
G1 X101.128 Y125.821 E31.94751
G1 X95.715 Y126.436 E32.26007
G1 X90.304 Y127.364 E32.57505
G1 X84.967 Y128.593 E32.88927
G1 X82.351 Y129.311 E33.04491
G1 X77.118 Y130.994 E33.36029
G1 X72.008 Y132.962 E33.67447
G1 X67.012 Y135.22 E33.98902
G1 X63.547 Y136.993 E34.21234
G1 X63.257 Y137.124 E34.23059
G1 X62.272 Y137.511 E34.29131
G1 X61.546 Y137.703 E34.3344
G1 X60.563 Y137.843 E34.39136
G1 X60.056 Y137.875 E34.42051
G1 X59.8 Y137.86 E34.43522
G1 X58.703 Y137.755 E34.49845
G1 X58.142 Y137.651 E34.53118
G1 X57.594 Y137.498 E34.56383
G1 X56.981 Y137.257 E34.60162
G1 X55.937 Y136.718 E34.66903
G1 X55.376 Y136.35 E34.70752
G1 X54.94 Y135.994 E34.73982
G1 X54.438 Y135.481 E34.781
G1 X53.734 Y134.58 E34.8466
G1 X53.383 Y134.022 E34.88442
G1 X53.083 Y133.415 E34.92327
G1 X52.92 Y133.022 E34.94768
G1 X52.037 Y130.419 E35.10538
G1 X50.08 Y125.254 E35.42227
G1 X47.662 Y119.763 E35.76651
G1 X47.506 Y119.328 E35.79302
G1 X47.264 Y118.459 E35.84478
G1 X47.158 Y117.873 E35.87894
G1 X47.033 Y116.443 E35.9613
G1 X47.021 Y116.162 E35.97744
G1 X47.028 Y25.75 E41.16471
G1 X47.068 Y25.243 E41.19389
G1 X47.187 Y24.75 E41.22299
G1 X47.205 Y24.708 E41.22561
G0 F1995 X47.382 Y24.28
G1 F4200 E39.82561
G0 F3600 X49.585 Y26.445
G0 X50.953 Y26.444
G0 X51.04 Y26.66
G0 X50.939 Y26.66
;TYPE:WALL-INNER
G1 F2100 E41.25217
G1 F1800 X50.939 Y26.43 E41.26537
G1 X51.169 Y26.43 E41.2739
G1 X69.777 Y26.432 E42.34151
G1 X69.83 Y27.694 E42.41398
G1 X69.895 Y28.581 E42.46501
G1 X69.995 Y29.748 E42.53221
G1 X70.093 Y30.549 E42.57851
G1 X70.256 Y31.704 E42.64543
G1 X70.504 Y33.043 E42.72356
G1 X70.715 Y33.95 E42.77699
G1 X70.955 Y34.809 E42.82816
G1 X71.221 Y35.617 E42.87697
G1 X71.515 Y36.381 E42.92393
G1 X71.855 Y37.139 E42.9716
G1 X72.229 Y37.85 E43.01769
G1 X72.646 Y38.526 E43.06326
G1 X73.112 Y39.17 E43.10887
G1 X73.648 Y39.797 E43.15619
G1 X74.247 Y40.377 E43.20403
G1 X74.881 Y40.888 E43.25075
G1 X75.555 Y41.336 E43.29718
G1 X76.258 Y41.716 E43.34303
G1 X76.985 Y42.032 E43.38851
G1 X77.416 Y42.183 E43.41471
G1 X77.776 Y42.3 E43.43643
G1 X78.211 Y42.418 E43.46229
G1 X78.576 Y42.508 E43.48386
G1 X79.013 Y42.598 E43.50946
G1 X79.389 Y42.664 E43.53136
G1 X80.617 Y42.815 E43.60235
G1 X82.191 Y42.896 E43.69277
G1 X83.718 Y42.906 E43.78038
G1 X85 Y42.9 E43.85394
G1 X86.281 Y42.905 E43.92743
G1 X87.809 Y42.896 E44.0151
G1 X89.383 Y42.815 E44.10553
G1 X90.608 Y42.663 E44.17635
G1 X90.986 Y42.599 E44.19835
G1 X91.423 Y42.507 E44.22397
G1 X91.788 Y42.419 E44.24551
G1 X92.222 Y42.299 E44.27134
G1 X92.583 Y42.184 E44.29308
G1 X93.015 Y42.03 E44.3194
G1 X93.741 Y41.715 E44.3648
G1 X94.444 Y41.335 E44.41065
G1 X95.118 Y40.887 E44.45708
G1 X95.752 Y40.376 E44.5038
G1 X96.35 Y39.797 E44.55156
G1 X96.887 Y39.171 E44.59888
G1 X97.354 Y38.527 E44.64452
G1 X97.772 Y37.851 E44.69012
G1 X98.146 Y37.14 E44.73621
G1 X98.486 Y36.382 E44.78388
G1 X98.78 Y35.617 E44.8309
G1 X99.045 Y34.808 E44.87974
G1 X99.284 Y33.949 E44.93089
G1 X99.496 Y33.044 E44.98422
G1 X99.745 Y31.705 E45.06236
G1 X99.906 Y30.55 E45.12927
G1 X100.006 Y29.749 E45.17558
G1 X100.171 Y27.696 E45.29375
G1 X100.224 Y26.432 E45.36634
G1 X118.832 Y26.43 E46.43395
G1 X119.062 Y26.43 E46.44714
G1 X119.062 Y26.66 E46.45568
G1 X119.059 Y89.235 E50.04584
G1 X118.834 Y89.473 E50.06463
G1 X118.376 Y90.061 E50.10739
G1 X117.892 Y90.853 E50.16064
G1 X117.515 Y91.691 E50.21337
G1 X117.445 Y91.892 E50.22558
G1 X117.243 Y92.577 E50.26655
G1 X117.191 Y92.787 E50.27896
G1 X117.052 Y93.697 E50.33178
G1 X117.02 Y94.467 E50.37599
G1 X117.063 Y95.239 E50.42036
G1 X117.242 Y96.242 E50.47881
G1 X117.298 Y96.461 E50.49178
G1 X117.632 Y97.412 E50.54961
G1 X117.722 Y97.608 E50.56198
G1 X118.106 Y98.334 E50.60911
G1 X118.218 Y98.516 E50.62137
G1 X118.819 Y99.323 E50.6791
G1 X119.06 Y99.579 E50.69927
G1 X119.059 Y116.468 E51.66825
G1 X118.996 Y117.281 E51.71504
G1 X118.809 Y118.058 E51.76089
G1 X118.506 Y118.788 E51.80624
G1 X118.092 Y119.465 E51.85177
G1 X117.577 Y120.069 E51.89731
G1 X116.974 Y120.583 E51.94277
G1 X116.297 Y120.998 E51.98833
G1 X115.566 Y121.301 E52.03373
G1 X114.791 Y121.486 E52.07944
G1 X113.972 Y121.551 E52.12658
G1 X71.148 Y121.551 E54.58355
G1 X70.231 Y121.585 E54.6362
G1 X69.554 Y121.648 E54.67521
G1 X68.641 Y121.817 E54.72848
G1 X68.403 Y121.878 E54.74258
G1 X67.688 Y122.12 E54.78588
G1 X67.461 Y122.212 E54.79994
G1 X67.089 Y122.395 E54.82372
G1 X66.551 Y122.73 E54.86008
G1 X66.221 Y122.993 E54.88429
G1 X66.039 Y123.157 E54.89835
G1 X65.744 Y123.457 E54.92249
G1 X65.357 Y123.955 E54.95868
G1 X65.136 Y124.309 E54.98262
G1 X65.019 Y124.527 E54.99681
G1 X64.699 Y125.231 E55.04118
G1 X64.612 Y125.468 E55.05567
G1 X64.388 Y126.215 E55.10041
G1 X64.327 Y126.444 E55.11401
G1 X64.122 Y127.438 E55.17224
G1 X63.807 Y129.346 E55.28319
G1 X63.676 Y130.035 E55.32343
G1 X63.54 Y130.649 E55.35951
G1 X63.374 Y131.231 E55.39423
G1 X63.241 Y131.612 E55.41738
G1 X63 Y132.147 E55.45105
G1 X62.71 Y132.624 E55.48308
G1 X62.591 Y132.783 E55.49447
G1 X62.386 Y133.018 E55.51236
G1 X62.133 Y133.249 E55.53202
G1 X61.935 Y133.397 E55.5462
G1 X61.602 Y133.596 E55.56846
G1 X61.257 Y133.749 E55.59011
G1 X60.886 Y133.861 E55.61235
G1 X60.623 Y133.915 E55.62775
G1 X60.214 Y133.96 E55.65136
G1 X59.821 Y133.962 E55.67391
G1 X59.401 Y133.919 E55.69813
G1 X59.142 Y133.872 E55.71323
G1 X58.746 Y133.763 E55.7368
G1 X58.368 Y133.613 E55.76013
G1 X58.127 Y133.491 E55.77563
G1 X57.789 Y133.277 E55.79858
G1 X57.427 Y132.976 E55.82559
G1 X57.13 Y132.645 E55.85111
G1 X56.848 Y132.221 E55.88032
G1 X56.767 Y132.064 E55.89046
G1 X56.583 Y131.672 E55.9153
G1 X56.356 Y130.987 E55.9567
G1 X56.188 Y130.224 E56.00153
G1 X56.006 Y128.801 E56.08384
G1 X55.822 Y126.791 E56.19964
G1 X55.643 Y125.504 E56.27419
G1 X55.598 Y125.231 E56.29007
G1 X55.484 Y124.73 E56.31954
G1 X55.27 Y123.985 E56.36402
G1 X54.985 Y123.247 E56.40941
G1 X54.757 Y122.785 E56.43896
G1 X54.623 Y122.541 E56.45494
G1 X54.352 Y122.102 E56.48454
G1 X53.884 Y121.482 E56.5291
G1 X53.443 Y120.999 E56.56663
G1 X53.176 Y120.739 E56.58801
G1 X52.811 Y120.419 E56.61586
G1 X52.247 Y119.881 E56.66058
G1 X51.79 Y119.295 E56.70322
G1 X51.427 Y118.653 E56.74553
G1 X51.157 Y117.958 E56.78831
G1 X50.997 Y117.235 E56.83079
G1 X50.941 Y116.472 E56.87469
G1 X50.939 Y27.123 E62.00097
G0 F1710 X50.939 Y26.66
G0 F3600 X51.04 Y26.66
G0 X57.091 Y43.31
G0 X57.161 Y43.38
G1 F2100 E62.02754
G1 F1800 X57.161 Y43.61 E62.04073
G1 X57.162 Y62.913 E63.14822
G1 X62.962 Y62.914 E63.48099
G1 X62.997 Y62.918 E63.48301
G1 X63.044 Y62.924 E63.48573
G1 X63.077 Y62.938 E63.48778
G1 X63.11 Y62.964 E63.49019
G1 X63.137 Y62.998 E63.49268
G1 X63.151 Y63.033 E63.49485
G1 X63.156 Y63.074 E63.49722
G1 X63.138 Y63.147 E63.50153
G1 X63.106 Y63.188 E63.50451
G1 X63.044 Y63.224 E63.50863
G1 X63.002 Y63.229 E63.50864
G1 X62.958 Y63.235 E63.50891
G1 X57.162 Y63.235 E63.74129
G1 X57.162 Y87.892 E65.15595
G1 X62.959 Y87.893 E65.48855
G1 X62.994 Y87.897 E65.49057
G1 X63.046 Y87.903 E65.49357
G1 X63.077 Y87.916 E65.4955
G1 X63.109 Y87.942 E65.49787
G1 X63.137 Y87.977 E65.50044
G1 X63.151 Y88.012 E65.5026
G1 X63.156 Y88.053 E65.50497
G1 X63.138 Y88.126 E65.50928
G1 X63.106 Y88.167 E65.51227
G1 X63.044 Y88.203 E65.51638
G1 X62.999 Y88.208 E65.51639
G1 X62.958 Y88.214 E65.51745
G1 X57.162 Y88.214 E65.74986
G1 X57.161 Y102.921 E66.59366
G1 X57.161 Y103.151 E66.60685
G1 X57.391 Y103.151 E66.61539
G1 X112.738 Y103.149 E69.79085
G1 X112.738 Y43.383 E73.21985
G1 X57.391 Y43.38 E76.39531
G1 X57.161 Y43.38 E76.40385
G0 F3600 X57.091 Y43.31
G0 X112.766 Y43.355
G0 X112.766 Y103.177
G0 X72.765 Y112.133
G0 X72.835 Y112.203
G1 F1800 X72.835 Y112.433 E76.41704
G1 X72.835 Y120.655 E76.88877
G1 X85 Y120.669 E77.58672
G1 X97.164 Y120.653 E78.28462
G1 X97.169 Y115.345 E78.58916
G1 X97.164 Y112.204 E78.76937
G1 X73.065 Y112.203 E80.15202
G1 X72.835 Y112.203 E80.16055
G0 F3600 X72.765 Y112.133
G0 X61.547 Y127.714
G0 X61.498 Y127.8
G1 F1800 X60.775 Y127.501 E80.20544
G1 X60.001 Y127.399 E80.25023
G1 X59.226 Y127.501 E80.29508
G1 X58.504 Y127.8 E80.33991
G1 X57.883 Y128.276 E80.38481
G1 X57.407 Y128.897 E80.4297
G1 X57.108 Y129.62 E80.47459
G1 X57.006 Y130.394 E80.51938
G1 X57.108 Y131.168 E80.56417
G1 X57.407 Y131.891 E80.60906
G1 X57.883 Y132.511 E80.6539
G1 X58.504 Y132.988 E80.69883
G1 X59.226 Y133.286 E80.74364
G1 X60.001 Y133.389 E80.7885
G1 X60.775 Y133.286 E80.8333
G1 X61.498 Y132.988 E80.87816
G1 X62.118 Y132.511 E80.92305
G1 X62.594 Y131.891 E80.96789
G1 X62.893 Y131.168 E81.01278
G1 X62.996 Y130.394 E81.05758
G1 X62.893 Y129.62 E81.10238
G1 X62.594 Y128.897 E81.14727
G1 X62.118 Y128.276 E81.19216
G1 X61.865 Y128.082 E81.21045
G0 F1710 X61.498 Y127.8
G0 F3600 X61.266 Y128.202
;TYPE:WALL-OUTER
G1 F2100 E81.23701
G1 F1800 X60.655 Y127.949 E81.27496
G1 X60.001 Y127.863 E81.3128
G1 X59.346 Y127.949 E81.3507
G1 X58.736 Y128.202 E81.38859
G1 X58.211 Y128.604 E81.42653
G1 X57.809 Y129.129 E81.46447
G1 X57.556 Y129.74 E81.50241
G1 X57.47 Y130.394 E81.54025
G1 X57.556 Y131.048 E81.5781
G1 X57.809 Y131.659 E81.61604
G1 X58.211 Y132.183 E81.65393
G1 X58.736 Y132.586 E81.69191
G1 X59.346 Y132.838 E81.72977
G1 X60.001 Y132.925 E81.76768
G1 X60.655 Y132.838 E81.80553
G1 X61.266 Y132.586 E81.84345
