;FLAVOR:RepRap
;TIME:7788
;Filament used: 13.7253m
;Layer height: 0.3
;Generated with Cura_SteamEngine 2.4.0
;---------------------------------------
; ; ; Jellybox Start Script Begin ; ; ;
;_______________________________________
; M92 E140 ;optionally adjust steps per mm for your filament

;              Print Settings Summary
; (leave these alone: this is only a list of the slicing settings)
; (overwriting these values will NOT change your printer's behavior)
;             sliced for :  IMADE3D JellyBOX
;        nozzle diameter :  0.4
;      filament diameter :  1.75
;           layer height :  0.3
;       1st layer height :  0.3
;             line width :  0.4
;  outer wall wipe dist. :  0.2
;      infill line width :  0.69
;         wall thickness :  0.8
;          top thickness :  0.9
;       bottom thickness :  0.6
;         infill density :  22
;         infill pattern :  zigzag
;      print temperature :  235
;  1st layer print temp. :  240
; heated bed temperature :  60
;    1st layer bed temp. :  65
;      regular fan speed :  20
;          max fan speed :  50
;     retraction amount  :  1.4
;   retr. retract speed  :  70
;     retr. prime speed  :  35
;   build plate adhesion :  skirt
;                support ?  False
;             spiralized ?  False

M117 Preparing        ;write Preparing
M140 S65              ;set bed temperature and move on
M104 S240             ;set extruder temperature and move on
M206 X10.0 Y0.0       ;set x homing offset for default bed leveling
G21                   ;metric values
G90                   ;absolute positioning
M107                  ;start with the fan off
M82                   ;set extruder to absolute mode
G28                   ;home all axes
M203 Z4               ;slow Z speed down for greater accuracy when probing
G29                   ;auto bed leveling procedure
M203 Z7               ;pick up z speed again for printing
M190 S65              ;wait for the bed to reach desired temperature
M109 S240             ;wait for the extruder to reach desired temperature
G92 E0                ;reset the extruder position
G1 F1500 E15          ;extrude 15mm of feed stock
G92 E0                ;reset the extruder position again
M117 Print starting   ;write Print starting
;---------------------------------------------
; ; ; Jellybox Printer Start Script End ; ; ;
;_____________________________________________

;LAYER_COUNT:92
;LAYER:0
M107
G1 F4200 E-1.4
G0 F3600 X47.012 Y24.193 Z0.3
;TYPE:SKIRT
G1 F2100 E0
G1 X47.28 Y23.728 E0.02678
G1 X47.613 Y23.308 E0.05352
G1 X48.005 Y22.942 E0.08027
G1 X48.447 Y22.638 E0.10704
G1 X48.93 Y22.404 E0.13381
G1 X49.442 Y22.244 E0.16057
G1 X49.972 Y22.161 E0.18734
G1 X50.258 Y22.15 E0.20162
G1 X70.421 Y22.152 E1.20755
G1 X70.855 Y22.178 E1.22925
G1 X75.517 Y22.744 E1.46354
G1 X80.949 Y23.125 E1.73521
G1 X86.41 Y23.2 E2.00769
G1 X91.85 Y22.966 E2.27934
G1 X99.161 Y22.175 E2.64622
G1 X99.547 Y22.154 E2.6655
G1 X119.741 Y22.15 E3.67299
G1 X120.276 Y22.19 E3.69975
G1 X120.799 Y22.309 E3.72651
G1 X121.299 Y22.504 E3.75329
G1 X121.763 Y22.771 E3.77999
G1 X122.184 Y23.104 E3.80677
G1 X122.549 Y23.497 E3.83353
G1 X122.853 Y23.939 E3.8603
G1 X123.088 Y24.421 E3.88705
G1 X123.248 Y24.933 E3.91381
G1 X123.331 Y25.463 E3.94057
G1 X123.342 Y25.75 E3.9549
G1 X123.339 Y89.509 E7.13585
G1 X123.337 Y89.618 E7.14129
G1 X123.235 Y92.967 E7.30845
G1 X123.346 Y99.464 E7.63264
G1 X123.347 Y99.528 E7.63583
G1 X123.332 Y116.656 E8.49035
G1 X123.307 Y117.081 E8.51159
G1 X123.185 Y118.101 E8.56284
G1 X123.096 Y118.571 E8.5867
G1 X122.943 Y119.165 E8.61731
G1 X122.74 Y119.743 E8.64787
G1 X122.258 Y120.815 E8.70651
G1 X122.021 Y121.258 E8.73158
G1 X121.687 Y121.788 E8.76283
G1 X121.376 Y122.21 E8.78898
G1 X120.788 Y122.897 E8.8341
G1 X120.385 Y123.298 E8.86246
G1 X119.716 Y123.867 E8.90628
G1 X119.066 Y124.308 E8.94546
G1 X117.656 Y125.053 E9.02503
G1 X116.918 Y125.344 E9.0646
G1 X115.862 Y125.631 E9.1192
G1 X115.207 Y125.745 E9.15237
G1 X114.3 Y125.818 E9.19776
G1 X114.035 Y125.83 E9.211
G1 X106.62 Y125.88 E9.58094
G1 X101.173 Y126.189 E9.85313
G1 X95.747 Y126.805 E10.12558
G1 X90.38 Y127.725 E10.39724
G1 X85.075 Y128.947 E10.66884
G1 X82.445 Y129.669 E10.80491
G1 X77.242 Y131.343 E11.07759
G1 X72.165 Y133.298 E11.34901
G1 X67.176 Y135.552 E11.62214
G1 X63.716 Y137.323 E11.81606
G1 X63.392 Y137.469 E11.83379
G1 X62.407 Y137.856 E11.88658
G1 X61.895 Y138.014 E11.91332
G1 X61.599 Y138.069 E11.92834
G1 X60.616 Y138.209 E11.97787
G1 X60.081 Y138.245 E12.00463
G1 X59.765 Y138.229 E12.02041
G1 X58.668 Y138.124 E12.07539
G1 X58.043 Y138.007 E12.10711
G1 X57.495 Y137.854 E12.1355
G1 X56.811 Y137.586 E12.17215
G1 X55.767 Y137.047 E12.23077
G1 X55.142 Y136.637 E12.26806
G1 X54.706 Y136.281 E12.29614
G1 X54.146 Y135.709 E12.33608
G1 X53.442 Y134.808 E12.39312
G1 X53.052 Y134.186 E12.42975
G1 X52.752 Y133.579 E12.46353
G1 X52.57 Y133.141 E12.48719
G1 X51.691 Y130.551 E12.62365
G1 X49.74 Y125.4 E12.89845
G1 X47.323 Y119.912 E13.19762
G1 X47.15 Y119.427 E13.22331
G1 X46.908 Y118.558 E13.26832
G1 X46.79 Y117.905 E13.30142
G1 X46.665 Y116.475 E13.37304
G1 X46.651 Y116.162 E13.38867
G1 X46.658 Y25.75 E17.89934
G1 X46.698 Y25.215 E17.92611
G1 X46.817 Y24.692 E17.95287
G1 X46.819 Y24.689 E17.95305
G0 F1995 X47.012 Y24.193
G0 F3600 X47.412 Y24.288
G1 F2100 E17.97959
G1 X47.677 Y23.858 E18.00479
G1 X48.008 Y23.475 E18.03005
G1 X48.394 Y23.149 E18.05525
G1 X48.827 Y22.888 E18.08048
G1 X49.296 Y22.698 E18.10572
G1 X49.788 Y22.585 E18.13091
G1 X50.258 Y22.55 E18.15442
G1 X70.421 Y22.552 E19.16036
G1 X70.807 Y22.575 E19.17965
G1 X75.48 Y23.142 E19.41449
G1 X80.933 Y23.525 E19.68722
G1 X86.423 Y23.6 E19.96114
G1 X91.879 Y23.365 E20.23359
G1 X99.204 Y22.573 E20.60117
G1 X99.547 Y22.554 E20.61831
G1 X119.741 Y22.55 E21.62579
G1 X120.245 Y22.59 E21.65101
G1 X120.737 Y22.709 E21.67627
G1 X121.203 Y22.903 E21.70145
G1 X121.634 Y23.169 E21.72672
G1 X122.016 Y23.499 E21.7519
G1 X122.343 Y23.885 E21.77714
G1 X122.604 Y24.318 E21.80236
G1 X122.794 Y24.787 E21.82761
G1 X122.907 Y25.279 E21.8528
G1 X122.942 Y25.75 E21.87636
G1 X122.939 Y89.509 E25.05731
G1 X122.938 Y89.606 E25.06215
G1 X122.836 Y92.962 E25.22966
G1 X122.947 Y99.471 E25.55444
G1 X122.947 Y99.528 E25.55728
G1 X122.932 Y116.656 E26.4118
G1 X122.909 Y117.033 E26.43065
G1 X122.787 Y118.053 E26.4819
G1 X122.709 Y118.471 E26.50311
G1 X122.556 Y119.065 E26.53371
G1 X122.376 Y119.579 E26.56088
G1 X121.894 Y120.651 E26.61952
G1 X121.682 Y121.045 E26.64184
G1 X121.348 Y121.575 E26.6731
G1 X121.072 Y121.95 E26.69633
G1 X120.484 Y122.637 E26.74144
G1 X120.126 Y122.994 E26.76667
G1 X119.457 Y123.563 E26.81048
G1 X118.879 Y123.954 E26.8453
G1 X117.469 Y124.699 E26.92486
G1 X116.813 Y124.958 E26.96004
G1 X115.757 Y125.245 E27.01464
G1 X115.175 Y125.347 E27.04412
G1 X114.268 Y125.42 E27.08952
G1 X114.033 Y125.43 E27.10125
G1 X106.614 Y125.48 E27.47139
G1 X101.142 Y125.791 E27.74483
G1 X95.689 Y126.409 E28.01863
G1 X90.291 Y127.335 E28.29187
G1 X84.976 Y128.559 E28.56397
G1 X82.336 Y129.284 E28.70056
G1 X77.112 Y130.964 E28.97433
G1 X72.006 Y132.931 E29.24732
G1 X67.009 Y135.189 E29.52089
G1 X63.534 Y136.967 E29.71564
G1 X63.246 Y137.096 E29.73138
G1 X62.261 Y137.483 E29.78418
G1 X61.542 Y137.673 E29.82128
G1 X60.559 Y137.813 E29.87082
G1 X59.803 Y137.83 E29.90855
G1 X58.706 Y137.725 E29.96353
G1 X58.15 Y137.622 E29.99174
G1 X57.602 Y137.469 E30.02012
G1 X56.995 Y137.23 E30.05267
G1 X55.951 Y136.691 E30.11129
G1 X55.395 Y136.327 E30.14444
G1 X54.959 Y135.971 E30.17252
G1 X54.461 Y135.462 E30.20805
G1 X53.757 Y134.561 E30.26509
G1 X53.41 Y134.009 E30.29762
G1 X53.11 Y133.402 E30.3314
G1 X52.949 Y133.012 E30.35245
G1 X52.066 Y130.409 E30.48959
G1 X50.116 Y125.263 E30.76414
G1 X47.689 Y119.751 E31.06461
G1 X47.535 Y119.319 E31.08749
G1 X47.293 Y118.45 E31.13249
G1 X47.188 Y117.871 E31.16185
G1 X47.063 Y116.441 E31.23347
G1 X47.051 Y116.162 E31.2474
G1 X47.058 Y25.75 E35.75807
G1 X47.098 Y25.246 E35.78329
G1 X47.211 Y24.78 E35.80722
G0 F1995 X47.217 Y24.754
G0 X47.412 Y24.288
G1 F4200 E34.40722
G0 F3600 X49.585 Y26.355
G0 X50.863 Y26.354
G0 X50.95 Y26.54
G0 X50.849 Y26.54
;TYPE:WALL-INNER
G1 F2100 E35.83376
G1 F1800 X50.849 Y26.34 E35.84374
G1 X51.049 Y26.34 E35.8502
G1 X69.863 Y26.342 E36.78883
G1 X69.92 Y27.689 E36.85609
G1 X69.985 Y28.574 E36.90037
G1 X70.085 Y29.739 E36.9587
G1 X70.182 Y30.537 E36.99881
G1 X70.345 Y31.689 E37.05685
G1 X70.591 Y33.025 E37.12463
G1 X70.802 Y33.928 E37.17089
G1 X71.041 Y34.783 E37.21518
G1 X71.306 Y35.586 E37.25737
G1 X71.598 Y36.347 E37.29803
G1 X71.936 Y37.1 E37.33921
G1 X72.307 Y37.805 E37.37896
G1 X72.721 Y38.476 E37.41829
G1 X73.183 Y39.115 E37.45763
G1 X73.714 Y39.735 E37.49836
G1 X74.307 Y40.31 E37.53957
G1 X74.934 Y40.815 E37.57973
G1 X75.602 Y41.259 E37.61975
G1 X76.297 Y41.635 E37.65917
G1 X77.02 Y41.948 E37.69848
G1 X77.8 Y42.214 E37.73959
G1 X78.234 Y42.331 E37.76202
G1 X78.596 Y42.42 E37.78062
G1 X79.03 Y42.51 E37.80273
G1 X79.403 Y42.575 E37.82162
G1 X80.625 Y42.725 E37.88304
G1 X82.193 Y42.806 E37.96138
G1 X83.718 Y42.816 E38.03746
G1 X85 Y42.81 E38.10142
G1 X86.281 Y42.815 E38.16533
G1 X87.807 Y42.806 E38.24146
G1 X89.375 Y42.725 E38.3198
G1 X90.595 Y42.574 E38.38113
G1 X90.969 Y42.511 E38.40005
G1 X91.403 Y42.419 E38.42218
G1 X91.765 Y42.332 E38.44076
G1 X92.196 Y42.213 E38.46306
G1 X92.554 Y42.099 E38.48181
G1 X92.982 Y41.946 E38.50448
G1 X93.702 Y41.634 E38.54363
G1 X94.397 Y41.258 E38.58306
G1 X95.065 Y40.814 E38.62307
G1 X95.692 Y40.309 E38.66324
G1 X96.285 Y39.734 E38.70445
G1 X96.816 Y39.115 E38.74513
G1 X97.279 Y38.477 E38.78446
G1 X97.694 Y37.806 E38.82382
G1 X98.065 Y37.101 E38.86357
G1 X98.403 Y36.348 E38.90475
G1 X98.695 Y35.587 E38.94541
G1 X98.959 Y34.782 E38.98768
G1 X99.197 Y33.927 E39.03196
G1 X99.409 Y33.025 E39.07819
G1 X99.656 Y31.69 E39.14592
G1 X99.817 Y30.538 E39.20395
G1 X99.916 Y29.74 E39.24407
G1 X100.081 Y27.691 E39.34662
G1 X100.137 Y26.342 E39.41398
G1 X118.952 Y26.34 E40.35267
G1 X119.152 Y26.34 E40.36265
G1 X119.152 Y26.54 E40.36911
G1 X119.149 Y89.27 E43.49872
G1 X118.902 Y89.532 E43.51668
G1 X118.45 Y90.112 E43.55337
G1 X117.973 Y90.895 E43.59911
G1 X117.599 Y91.725 E43.64453
G1 X117.531 Y91.921 E43.65488
G1 X117.33 Y92.601 E43.69026
G1 X117.28 Y92.806 E43.70078
G1 X117.142 Y93.705 E43.74616
G1 X117.111 Y94.466 E43.78416
G1 X117.153 Y95.228 E43.82223
G1 X117.33 Y96.221 E43.87255
G1 X117.384 Y96.434 E43.88352
G1 X117.716 Y97.378 E43.93344
G1 X117.802 Y97.567 E43.9438
G1 X118.184 Y98.289 E43.98455
G1 X118.293 Y98.466 E43.99492
G1 X118.889 Y99.265 E44.04465
G1 X119.15 Y99.544 E44.06371
G1 X119.149 Y116.473 E44.90831
G1 X119.084 Y117.298 E44.94959
G1 X118.897 Y118.08 E44.98971
G1 X118.587 Y118.826 E45.03001
G1 X118.164 Y119.518 E45.07047
G1 X117.64 Y120.132 E45.11075
G1 X117.027 Y120.655 E45.15095
G1 X116.335 Y121.078 E45.19141
G1 X115.595 Y121.386 E45.2314
G1 X114.801 Y121.576 E45.27213
G1 X113.979 Y121.641 E45.31327
G1 X71.149 Y121.641 E47.45006
G1 X70.237 Y121.675 E47.4956
G1 X69.567 Y121.737 E47.52917
G1 X68.661 Y121.905 E47.57514
G1 X68.429 Y121.964 E47.58708
G1 X67.72 Y122.204 E47.62442
G1 X67.498 Y122.294 E47.63637
G1 X67.134 Y122.474 E47.65663
G1 X66.603 Y122.803 E47.6878
G1 X66.28 Y123.062 E47.70845
G1 X66.102 Y123.222 E47.72039
G1 X65.812 Y123.516 E47.741
G1 X65.432 Y124.007 E47.77197
G1 X65.214 Y124.354 E47.79242
G1 X65.1 Y124.567 E47.80447
G1 X64.783 Y125.265 E47.84272
G1 X64.698 Y125.495 E47.85495
G1 X64.474 Y126.24 E47.89376
G1 X64.414 Y126.465 E47.90538
G1 X64.21 Y127.454 E47.95576
G1 X63.896 Y129.363 E48.05228
G1 X63.767 Y130.042 E48.08676
G1 X63.629 Y130.668 E48.11874
G1 X63.463 Y131.246 E48.14874
G1 X63.318 Y131.661 E48.17068
G1 X63.079 Y132.191 E48.19968
G1 X62.876 Y132.532 E48.21948
G1 X62.775 Y132.687 E48.22871
G1 X62.664 Y132.837 E48.23802
G1 X62.452 Y133.08 E48.25411
G1 X62.189 Y133.319 E48.27184
G1 X61.988 Y133.47 E48.28438
G1 X61.644 Y133.675 E48.30436
G1 X61.286 Y133.835 E48.32392
G1 X60.91 Y133.948 E48.34351
G1 X60.638 Y134.004 E48.35737
G1 X60.216 Y134.05 E48.37854
G1 X59.812 Y134.052 E48.3987
G1 X59.39 Y134.009 E48.41986
G1 X59.123 Y133.96 E48.43341
G1 X58.714 Y133.848 E48.45456
G1 X58.328 Y133.695 E48.47528
G1 X58.091 Y133.575 E48.48853
G1 X57.733 Y133.348 E48.50968
G1 X57.366 Y133.043 E48.53349
G1 X57.06 Y132.702 E48.55634
G1 X56.769 Y132.264 E48.58258
G1 X56.5 Y131.708 E48.61339
G1 X56.268 Y131.005 E48.65033
G1 X56.102 Y130.248 E48.68899
G1 X55.915 Y128.797 E48.76198
G1 X55.732 Y126.801 E48.86198
G1 X55.554 Y125.517 E48.92665
G1 X55.509 Y125.248 E48.94026
G1 X55.397 Y124.752 E48.96563
G1 X55.185 Y124.013 E49.00398
G1 X54.902 Y123.284 E49.043
G1 X54.677 Y122.826 E49.06846
G1 X54.545 Y122.586 E49.08212
G1 X54.278 Y122.153 E49.1075
G1 X53.815 Y121.539 E49.14587
G1 X53.379 Y121.062 E49.17811
G1 X53.115 Y120.805 E49.19649
G1 X52.745 Y120.48 E49.22106
G1 X52.184 Y119.946 E49.2597
G1 X51.716 Y119.344 E49.29774
G1 X51.346 Y118.692 E49.33514
G1 X51.07 Y117.978 E49.37333
G1 X50.907 Y117.247 E49.4107
G1 X50.851 Y116.476 E49.44926
G1 X50.849 Y27.072 E53.90965
G0 F1710 X50.849 Y26.54
G0 F3600 X50.95 Y26.54
G0 X57.181 Y43.4
G0 X57.251 Y43.47
G1 F2100 E53.93619
G1 F1800 X57.251 Y43.67 E53.94617
G1 X57.252 Y62.823 E54.90171
G1 X62.953 Y62.824 E55.18614
G1 X62.967 Y62.824 E55.18684
G1 X63.067 Y62.836 E55.19186
G1 X63.124 Y62.86 E55.19495
G1 X63.174 Y62.899 E55.19811
G1 X63.213 Y62.95 E55.20131
G1 X63.239 Y63.01 E55.20458
G1 X63.246 Y63.063 E55.20724
G1 X63.247 Y63.074 E55.20779
G1 X63.246 Y63.088 E55.20849
G1 X63.239 Y63.138 E55.21101
G1 X63.212 Y63.201 E55.21443
G1 X63.177 Y63.247 E55.21732
G1 X63.125 Y63.286 E55.22056
G1 X63.065 Y63.312 E55.22382
G1 X62.961 Y63.325 E55.22905
G1 X62.95 Y63.325 E55.2296
G1 X57.252 Y63.325 E55.51387
G1 X57.252 Y87.802 E56.73504
G1 X62.949 Y87.803 E57.01926
G1 X62.96 Y87.803 E57.01981
G1 X63.067 Y87.816 E57.02519
G1 X63.123 Y87.839 E57.02821
G1 X63.176 Y87.881 E57.03158
G1 X63.213 Y87.928 E57.03457
G1 X63.239 Y87.991 E57.03797
G1 X63.246 Y88.042 E57.04053
G1 X63.247 Y88.052 E57.04103
G1 X63.246 Y88.063 E57.04159
G1 X63.239 Y88.117 E57.0443
G1 X63.212 Y88.18 E57.04772
G1 X63.177 Y88.226 E57.05061
G1 X63.125 Y88.265 E57.05385
G1 X63.065 Y88.291 E57.05711
G1 X62.961 Y88.304 E57.06234
G1 X62.951 Y88.304 E57.06284
G1 X57.252 Y88.304 E57.34716
G1 X57.251 Y102.861 E58.07341
G1 X57.251 Y103.061 E58.08339
G1 X57.451 Y103.061 E58.08985
G1 X112.648 Y103.059 E60.84364
G1 X112.648 Y43.473 E63.8164
G1 X57.451 Y43.47 E66.57019
G1 X57.251 Y43.47 E66.57665
G0 F3600 X57.181 Y43.4
G0 X112.676 Y43.445
G0 X112.676 Y103.087
G0 X72.855 Y112.223
G0 X72.925 Y112.293
G1 F1800 X72.925 Y112.493 E66.58663
G1 X72.925 Y120.566 E66.98939
G1 X85 Y120.579 E67.59182
G1 X97.074 Y120.564 E68.19419
G1 X97.079 Y115.345 E68.45457
G1 X97.074 Y112.294 E68.60678
G1 X73.125 Y112.293 E69.8016
G1 X72.925 Y112.293 E69.80807
G0 F3600 X72.855 Y112.223
G0 X61.502 Y127.793
G0 X61.453 Y127.879
G1 F1800 X60.751 Y127.588 E69.84598
G1 X60.001 Y127.49 E69.88371
G1 X59.25 Y127.588 E69.9215
G1 X58.55 Y127.879 E69.95932
G1 X57.947 Y128.34 E69.99719
G1 X57.485 Y128.943 E70.03509
G1 X57.195 Y129.644 E70.07293
G1 X57.097 Y130.394 E70.11067
G1 X57.195 Y131.144 E70.14841
G1 X57.486 Y131.846 E70.18632
G1 X57.947 Y132.447 E70.22411
G1 X58.55 Y132.91 E70.26204
G1 X59.25 Y133.199 E70.29982
G1 X60.001 Y133.299 E70.33762
G1 X60.751 Y133.199 E70.37537
G1 X61.453 Y132.91 E70.41324
G1 X62.054 Y132.447 E70.45109
G1 X62.515 Y131.846 E70.48888
G1 X62.806 Y131.145 E70.52675
G1 X62.906 Y130.394 E70.56454
G1 X62.806 Y129.643 E70.60234
G1 X62.516 Y128.943 E70.64014
G1 X62.054 Y128.34 E70.67804
G1 X61.875 Y128.202 E70.68932
G0 F1710 X61.453 Y127.879
G0 F3600 X61.251 Y128.228
;TYPE:WALL-OUTER
G1 F2100 E70.71586
G1 F1800 X60.647 Y127.978 E70.74847
G1 X60.001 Y127.893 E70.78098
G1 X59.354 Y127.978 E70.81354
G1 X58.751 Y128.228 E70.8461
G1 X58.232 Y128.625 E70.8787
G1 X57.835 Y129.144 E70.9113
G1 X57.585 Y129.748 E70.94392
G1 X57.5 Y130.394 E70.97642
G1 X57.585 Y131.04 E71.00893
G1 X57.835 Y131.644 E71.04154
G1 X58.232 Y132.162 E71.0741
G1 X58.751 Y132.56 E71.10673
