; G-Code generated by Simplify3D(R) Version 3.1.0
; Mar 22, 2017 at 5:24:58 PM
; Settings Summary
;   processName,Process1
;   applyToModels,corner clip 1.0 green,corner clip 1.0 green(2),corner clip 1.0 green(3),corner clip 1.0 green(4),corner clip 1.0 green(5),corner clip 1.0 green(6),corner clip 1.0 green(7),corner clip 1.0 green(8),corner clip 1.0 green(9)
;   profileName,PETG 0.3 he.20 bt50 (modified)
;   profileVersion,2017-02-27 23:31:17
;   baseProfile,Default (modified)
;   printMaterial,
;   printQuality,
;   printExtruders,
;   extruderName,Primary Extruder
;   extruderToolheadNumber,0
;   extruderDiameter,0.4
;   extruderAutoWidth,0
;   extruderWidth,0.48
;   extrusionMultiplier,0.95
;   extruderUseRetract,1
;   extruderRetractionDistance,1.4
;   extruderExtraRestartDistance,-0.1
;   extruderRetractionZLift,0.1
;   extruderRetractionSpeed,4200
;   extruderUseCoasting,1
;   extruderCoastingDistance,0.2
;   extruderUseWipe,1
;   extruderWipeDistance,0.2
;   primaryExtruder,0
;   layerHeight,0.3
;   topSolidLayers,3
;   bottomSolidLayers,2
;   perimeterOutlines,2
;   printPerimetersInsideOut,1
;   startPointOption,2
;   startPointOriginX,80
;   startPointOriginY,0
;   startPointOriginZ,5
;   sequentialIslands,0
;   spiralVaseMode,0
;   firstLayerHeightPercentage,100
;   firstLayerWidthPercentage,100
;   firstLayerUnderspeed,0.35
;   useRaft,0
;   raftExtruder,0
;   raftLayers,3
;   raftOffset,3
;   raftSeparationDistance,0.14
;   raftInfill,85
;   disableRaftBaseLayers,0
;   useSkirt,1
;   skirtExtruder,0
;   skirtLayers,1
;   skirtOutlines,3
;   skirtOffset,3
;   usePrimePillar,0
;   primePillarExtruder,999
;   primePillarWidth,12
;   primePillarLocation,7
;   primePillarSpeedMultiplier,1
;   useOozeShield,0
;   oozeShieldExtruder,999
;   oozeShieldOffset,2
;   oozeShieldOutlines,1
;   oozeShieldSidewallShape,1
;   oozeShieldSidewallAngle,30
;   oozeShieldSpeedMultiplier,1
;   infillExtruder,0
;   internalInfillPattern,Rectilinear
;   externalInfillPattern,Rectilinear
;   infillPercentage,0
;   outlineOverlapPercentage,30
;   infillExtrusionWidthPercentage,150
;   minInfillLength,2
;   infillLayerInterval,1
;   infillAngles,45,-45
;   overlapInfillAngles,0
;   generateSupport,1
;   supportExtruder,0
;   supportInfillPercentage,33
;   supportExtraInflation,0.5
;   denseSupportLayers,0
;   denseSupportInfillPercentage,70
;   supportLayerInterval,1
;   supportHorizontalPartOffset,0.8
;   supportUpperSeparationLayers,1
;   supportLowerSeparationLayers,1
;   supportType,0
;   supportGridSpacing,1.5
;   maxOverhangAngle,55
;   supportAngles,90
;   temperatureName,Primary Extruder,bed
;   temperatureNumber,0,0
;   temperatureSetpointCount,2,2
;   temperatureSetpointLayers,1,2,1,2
;   temperatureSetpointTemperatures,240,235,65,60
;   temperatureStabilizeAtStartup,1,1
;   temperatureHeatedBed,0,1
;   temperatureRelayBetweenLayers,0,0
;   temperatureRelayBetweenLoops,0,0
;   fanLayers,1,4
;   fanSpeeds,0,20
;   blipFanToFullPower,1
;   adjustSpeedForCooling,0
;   minSpeedLayerTime,15
;   minCoolingSpeedSlowdown,65
;   increaseFanForCooling,1
;   minFanLayerTime,15
;   maxCoolingFanSpeed,60
;   increaseFanForBridging,1
;   bridgingFanSpeed,100
;   use5D,1
;   relativeEdistances,0
;   allowEaxisZeroing,1
;   independentExtruderAxes,0
;   includeM10123,0
;   stickySupport,1
;   applyToolheadOffsets,0
;   gcodeXoffset,0
;   gcodeYoffset,0
;   gcodeZoffset,0
;   overrideMachineDefinition,1
;   machineTypeOverride,0
;   strokeXoverride,170
;   strokeYoverride,160
;   strokeZoverride,145
;   originOffsetXoverride,0
;   originOffsetYoverride,0
;   originOffsetZoverride,0
;   homeXdirOverride,-1
;   homeYdirOverride,-1
;   homeZdirOverride,-1
;   flipXoverride,1
;   flipYoverride,-1
;   flipZoverride,1
;   toolheadOffsets,0,0|0,0|0,0|0,0|0,0|0,0
;   overrideFirmwareConfiguration,1
;   firmwareTypeOverride,RepRap (Marlin/Repetier/Sprinter)
;   GPXconfigOverride,r2
;   baudRateOverride,250000
;   overridePrinterModels,0
;   printerModelsOverride
;   startingGcode,;---------------------------------------,; ; ; Jellybox Start Script Begin ; ; ;,;_______________________________________,M117 Preparing        ; write Preparing,; M92 E140            ; optionally adjust E steps/mm,M207 S1.5 F600 Z0     ; optionally adjust retract settings,M208 S-0.00 F600      ; optionally adjust unretract = recover settings,M206 X10.0 Y0.0       ; set x homing offset for default bed leveling,G21                   ; metric values,G90                   ; absolute positioning,M107                  ; start with the fan off,M82                   ; set extruder to absolute mode,G28                   ; home all axes,M203 Z4               ; slow Z speed down for greater accuracy when probing,G29                   ; auto bed leveling procedure,M203 Z7               ; pick up z speed again for printing,G92 E0                ; reset the extruder position,G1 F1500 E15          ; extrude 15mm of feed stock,G92 E0                ; reset the extruder position again,M117 Print starting   ; write Print starting,;---------------------------------------------,; ; ; Jellybox Printer Start Script End ; ; ;,;_____________________________________________
;   layerChangeGcode,
;   retractionGcode,
;   toolChangeGcode,
;   endingGcode,; ---------------------------------,; ; ;  Jellybox End Script Begin ; ; ;,; _________________________________,M117 Finishing Up ; write Finishing Up,M107                  ; sfan off,M104 S0            ; extruder heater off,M140 S0            ; bed heater off (if you have it),G91                ; relative positioning,G1 E-1 F300        ; retract the filament a bit before lifting the nozzle to release some of the pressure,G1 Z+0.5 E-5 X-20 Y-20 F9000 ; move Z up a bit and retract filament even more,G90                ; absolute positioning,G28 X              ; home x so the head is out of the way,G1 Y100            ; move Y forward so the print is more accessible,M84                ; steppers off,M117 Print finished ; write Print finisheds,; ---------------------------------------,; ; ;  Jellybox End Script End ; ; ;,; _______________________________________
;   exportFileFormat,gcode
;   celebration,0
;   celebrationSong,Random Song
;   postProcessing,|{REPLACE "; layer" "M117 Layer"},|{REPLACE ", Z = " " "Z="}
;   defaultSpeed,2700
;   outlineUnderspeed,0.55
;   solidInfillUnderspeed,0.55
;   supportUnderspeed,0.9
;   rapidXYspeed,7200
;   rapidZspeed,420
;   minBridgingArea,50
;   bridgingExtraInflation,0.3
;   bridgingExtrusionMultiplier,1
;   bridgingSpeedMultiplier,1
;   filamentDiameter,1.75
;   filamentPricePerKg,30
;   filamentDensity,1.38
;   useMinPrintHeight,0
;   minPrintHeight,30
;   useMaxPrintHeight,0
;   maxPrintHeight,40
;   useDiaphragm,0
;   diaphragmLayerInterval,20
;   robustSlicing,1
;   mergeAllIntoSolid,0
;   onlyRetractWhenCrossingOutline,1
;   retractBetweenLayers,1
;   useRetractionMinTravel,1
;   retractionMinTravel,1
;   retractWhileWiping,1
;   onlyWipeOutlines,1
;   avoidCrossingOutline,1
;   maxMovementDetourFactor,2.5
;   toolChangeRetractionDistance,1.3
;   toolChangeExtraRestartDistance,0
;   toolChangeRetractionSpeed,600
;   allowThinWallGapFill,1
;   thinWallAllowedOverlapPercentage,15
;   horizontalSizeCompensation,0
G90
M82
M106 S0
M140 S65
M190 S65
M104 S240 T0
M109 S240 T0
;---------------------------------------
; ; ; Jellybox Start Script Begin ; ; ;
;_______________________________________
M117 Preparing        ; write Preparing
; M92 E140            ; optionally adjust E steps/mm
M207 S1.5 F600 Z0     ; optionally adjust retract settings
M208 S-0.00 F600      ; optionally adjust unretract = recover settings
M206 X10.0 Y0.0       ; set x homing offset for default bed leveling
G21                   ; metric values
G90                   ; absolute positioning
M107                  ; start with the fan off
M82                   ; set extruder to absolute mode
G28                   ; home all axes
M203 Z4               ; slow Z speed down for greater accuracy when probing
G29                   ; auto bed leveling procedure
M203 Z7               ; pick up z speed again for printing
G92 E0                ; reset the extruder position
G1 F1500 E15          ; extrude 15mm of feed stock
G92 E0                ; reset the extruder position again
M117 Print starting   ; write Print starting
;---------------------------------------------
; ; ; Jellybox Printer Start Script End ; ; ;
;_____________________________________________
G92 E0
G1 E-1.4000 F4200
G1 Z0.400 F420
M117 Layer 1 0.3
T0
; tool H0.300 W0.480
; skirt
G1 X40.903 Y35.804 F7200
G1 Z0.300 F420
G1 E-0.1000 F1260
G92 E0
G1 X41.420 Y35.313 E0.0406 F945
G1 X41.452 Y35.285 E0.0430
G1 X41.650 Y35.123 E0.0575
G1 X41.683 Y35.097 E0.0600
G1 X42.382 Y34.601 E0.1087
G1 X42.430 Y34.571 E0.1119
G1 X42.720 Y34.403 E0.1310
G1 X42.770 Y34.377 E0.1342
G1 X43.781 Y33.912 E0.1975
G1 X43.831 Y33.892 E0.2005
G1 X44.134 Y33.785 E0.2188
G1 X44.185 Y33.769 E0.2218
G1 X45.106 Y33.532 E0.2759
G1 X45.152 Y33.522 E0.2786
G1 X45.434 Y33.472 E0.2949
G1 X45.482 Y33.466 E0.2976
G1 X46.687 Y33.354 E0.3665
G1 X46.717 Y33.351 E0.3682
G1 X46.894 Y33.344 E0.3783
G1 X46.924 Y33.343 E0.3800
G1 X48.052 Y33.350 E0.4441
G1 X48.101 Y33.352 E0.4469
G1 X48.393 Y33.378 E0.4636
G1 X48.442 Y33.384 E0.4664
G1 X49.001 Y33.479 E0.4987
G1 X49.078 Y33.498 E0.5031
G1 X49.531 Y33.638 E0.5301
G1 X49.605 Y33.666 E0.5346
G1 X50.208 Y33.945 E0.5724
G1 X50.273 Y33.979 E0.5766
G1 X50.644 Y34.209 E0.6014
G1 X50.704 Y34.251 E0.6055
G1 X51.629 Y34.990 E0.6729
G1 X51.797 Y35.201 E0.6883
G1 X52.506 Y36.677 E0.7814
G1 X52.566 Y36.940 E0.7967
G1 X52.566 Y40.060 E0.9742
G1 X52.506 Y40.325 E0.9896
G1 X51.786 Y41.810 E1.0835
G1 X51.615 Y42.022 E1.0989
G1 X50.695 Y42.748 E1.1656
G1 X50.634 Y42.790 E1.1699
G1 X50.246 Y43.024 E1.1956
G1 X50.179 Y43.059 E1.1999
G1 X49.478 Y43.369 E1.2435
G1 X49.393 Y43.400 E1.2486
G1 X48.868 Y43.543 E1.2796
G1 X48.780 Y43.560 E1.2847
G1 X48.648 Y43.575 E1.2922
G1 X48.641 Y54.162 E1.8944
G1 X48.652 Y55.522 E1.9717
G1 X60.612 Y55.537 E2.6519
G1 X60.653 Y55.274 E2.6671
G1 X60.678 Y55.171 E2.6731
G1 X60.964 Y54.332 E2.7235
G1 X61.001 Y54.247 E2.7288
G1 X61.261 Y53.752 E2.7606
G1 X61.311 Y53.673 E2.7659
G1 X62.086 Y52.630 E2.8398
G1 X62.301 Y52.449 E2.8558
G1 X63.824 Y51.683 E2.9528
G1 X64.097 Y51.618 E2.9687
G1 X67.244 Y51.618 E3.1477
G1 X67.508 Y51.678 E3.1631
G1 X68.764 Y52.283 E3.2424
G1 X68.764 Y52.237 E3.2450
G1 X68.764 Y52.226 E3.2456
G1 X68.764 Y48.326 E3.4674
G1 X68.764 Y48.318 E3.4679
G1 X68.764 Y48.273 E3.4705
G1 X68.764 Y48.265 E3.4709
G1 X68.827 Y45.785 E3.6120
G1 X68.827 Y45.780 E3.6123
G1 X68.828 Y45.752 E3.6139
G1 X68.828 Y45.747 E3.6142
G1 X68.941 Y43.004 E3.7703
G1 X68.942 Y42.998 E3.7706
G1 X68.943 Y42.966 E3.7725
G1 X68.944 Y42.961 E3.7728
G1 X69.073 Y40.773 E3.8974
G1 X69.077 Y40.732 E3.8997
G1 X69.108 Y40.490 E3.9136
G1 X69.115 Y40.450 E3.9160
G1 X69.320 Y39.409 E3.9763
G1 X69.329 Y39.368 E3.9787
G1 X69.395 Y39.127 E3.9929
G1 X69.407 Y39.088 E3.9952
G1 X69.639 Y38.417 E4.0356
G1 X69.652 Y38.383 E4.0376
G1 X69.736 Y38.182 E4.0500
G1 X69.751 Y38.149 E4.0521
G1 X70.072 Y37.491 E4.0938
G1 X70.090 Y37.457 E4.0959
G1 X70.204 Y37.258 E4.1090
G1 X70.224 Y37.225 E4.1112
G1 X70.599 Y36.654 E4.1500
G1 X70.619 Y36.626 E4.1520
G1 X70.742 Y36.460 E4.1637
G1 X70.763 Y36.433 E4.1657
G1 X71.121 Y36.006 E4.1974
G1 X71.143 Y35.980 E4.1993
G1 X71.286 Y35.829 E4.2111
G1 X71.310 Y35.804 E4.2131
G1 X71.828 Y35.313 E4.2537
G1 X71.860 Y35.285 E4.2561
G1 X72.057 Y35.123 E4.2707
G1 X72.091 Y35.097 E4.2731
G1 X72.790 Y34.601 E4.3218
G1 X72.837 Y34.571 E4.3250
G1 X73.128 Y34.403 E4.3441
G1 X73.178 Y34.377 E4.3473
G1 X74.189 Y33.912 E4.4106
G1 X74.239 Y33.892 E4.4136
G1 X74.541 Y33.785 E4.4319
G1 X74.593 Y33.769 E4.4349
G1 X75.513 Y33.532 E4.4890
G1 X75.560 Y33.522 E4.4917
G1 X75.842 Y33.472 E4.5080
G1 X75.889 Y33.466 E4.5107
G1 X77.095 Y33.354 E4.5796
G1 X77.124 Y33.351 E4.5813
G1 X77.302 Y33.344 E4.5914
G1 X77.332 Y33.343 E4.5931
G1 X78.459 Y33.350 E4.6572
G1 X78.508 Y33.352 E4.6600
G1 X78.801 Y33.378 E4.6767
G1 X78.850 Y33.384 E4.6795
G1 X79.409 Y33.479 E4.7118
G1 X79.486 Y33.498 E4.7163
G1 X79.939 Y33.638 E4.7432
G1 X80.013 Y33.666 E4.7477
G1 X80.616 Y33.945 E4.7856
G1 X80.680 Y33.979 E4.7897
G1 X81.052 Y34.209 E4.8145
G1 X81.111 Y34.251 E4.8187
G1 X82.036 Y34.990 E4.8860
G1 X82.204 Y35.201 E4.9014
G1 X82.914 Y36.677 E4.9945
G1 X82.974 Y36.940 E5.0098
G1 X82.974 Y40.060 E5.1873
G1 X82.913 Y40.325 E5.2028
G1 X82.193 Y41.810 E5.2966
G1 X82.023 Y42.022 E5.3121
G1 X81.103 Y42.748 E5.3787
G1 X81.041 Y42.790 E5.3830
G1 X80.654 Y43.024 E5.4087
G1 X80.587 Y43.059 E5.4130
G1 X79.886 Y43.369 E5.4566
G1 X79.801 Y43.400 E5.4618
G1 X79.276 Y43.543 E5.4927
G1 X79.187 Y43.560 E5.4978
G1 X79.054 Y43.575 E5.5055
G1 X79.059 Y55.534 E6.1856
G1 X80.019 Y55.543 E6.2402
G1 X91.020 Y55.540 E6.8659
G1 X91.060 Y55.275 E6.8811
G1 X91.086 Y55.171 E6.8872
G1 X91.372 Y54.332 E6.9376
G1 X91.409 Y54.247 E6.9429
G1 X91.669 Y53.752 E6.9747
G1 X91.718 Y53.674 E6.9800
G1 X92.494 Y52.630 E7.0539
G1 X92.709 Y52.449 E7.0699
G1 X94.232 Y51.683 E7.1669
G1 X94.505 Y51.618 E7.1828
G1 X97.652 Y51.618 E7.3618
G1 X97.915 Y51.678 E7.3772
G1 X99.172 Y52.283 E7.4565
G1 X99.171 Y52.237 E7.4591
G1 X99.171 Y52.226 E7.4597
G1 X99.171 Y48.326 E7.6815
G1 X99.171 Y48.318 E7.6820
G1 X99.172 Y48.273 E7.6846
G1 X99.172 Y48.265 E7.6850
G1 X99.235 Y45.785 E7.8261
G1 X99.235 Y45.780 E7.8264
G1 X99.236 Y45.752 E7.8280
G1 X99.236 Y45.747 E7.8283
G1 X99.349 Y43.004 E7.9844
G1 X99.349 Y42.999 E7.9847
G1 X99.351 Y42.967 E7.9865
G1 X99.351 Y42.961 E7.9868
G1 X99.481 Y40.773 E8.1115
G1 X99.485 Y40.732 E8.1138
G1 X99.516 Y40.490 E8.1277
G1 X99.522 Y40.450 E8.1301
G1 X99.728 Y39.409 E8.1904
G1 X99.737 Y39.368 E8.1928
G1 X99.802 Y39.127 E8.2070
G1 X99.815 Y39.088 E8.2093
G1 X100.047 Y38.417 E8.2497
G1 X100.060 Y38.383 E8.2517
G1 X100.143 Y38.182 E8.2641
G1 X100.158 Y38.149 E8.2662
G1 X100.480 Y37.491 E8.3079
G1 X100.498 Y37.457 E8.3100
G1 X100.611 Y37.258 E8.3231
G1 X100.631 Y37.225 E8.3253
G1 X101.007 Y36.654 E8.3641
G1 X101.027 Y36.626 E8.3661
G1 X101.150 Y36.460 E8.3778
G1 X101.171 Y36.433 E8.3798
G1 X101.528 Y36.006 E8.4115
G1 X101.551 Y35.980 E8.4134
G1 X101.693 Y35.829 E8.4252
G1 X101.718 Y35.804 E8.4272
G1 X102.236 Y35.313 E8.4678
G1 X102.267 Y35.285 E8.4702
G1 X102.465 Y35.123 E8.4848
G1 X102.499 Y35.097 E8.4872
G1 X103.198 Y34.601 E8.5359
G1 X103.245 Y34.571 E8.5391
G1 X103.536 Y34.403 E8.5582
G1 X103.585 Y34.377 E8.5614
G1 X104.597 Y33.912 E8.6247
G1 X104.646 Y33.892 E8.6277
G1 X104.949 Y33.785 E8.6460
G1 X105.000 Y33.769 E8.6490
G1 X105.921 Y33.532 E8.7031
G1 X105.968 Y33.522 E8.7058
G1 X106.250 Y33.472 E8.7221
G1 X106.297 Y33.466 E8.7248
G1 X107.502 Y33.354 E8.7937
G1 X107.532 Y33.351 E8.7954
G1 X107.710 Y33.344 E8.8055
G1 X107.739 Y33.343 E8.8072
G1 X108.867 Y33.350 E8.8713
G1 X108.916 Y33.352 E8.8741
G1 X109.209 Y33.378 E8.8908
G1 X109.257 Y33.384 E8.8936
G1 X109.816 Y33.479 E8.9259
G1 X109.893 Y33.498 E8.9304
G1 X110.346 Y33.638 E8.9573
G1 X110.420 Y33.666 E8.9618
G1 X111.024 Y33.945 E8.9996
G1 X111.088 Y33.979 E9.0038
G1 X111.460 Y34.209 E9.0286
G1 X111.519 Y34.251 E9.0328
G1 X112.444 Y34.990 E9.1001
G1 X112.612 Y35.201 E9.1155
G1 X113.322 Y36.677 E9.2086
G1 X113.382 Y36.940 E9.2239
G1 X113.382 Y40.060 E9.4014
G1 X113.321 Y40.325 E9.4169
G1 X112.601 Y41.810 E9.5107
G1 X112.431 Y42.022 E9.5262
G1 X111.511 Y42.748 E9.5928
G1 X111.449 Y42.790 E9.5971
G1 X111.062 Y43.024 E9.6228
G1 X110.995 Y43.059 E9.6271
G1 X110.294 Y43.369 E9.6707
G1 X110.208 Y43.400 E9.6759
G1 X109.684 Y43.543 E9.7068
G1 X109.595 Y43.560 E9.7119
G1 X109.465 Y43.575 E9.7193
G1 X109.467 Y55.534 E10.3995
G1 X110.427 Y55.543 E10.4541
G1 X121.427 Y55.540 E11.0798
G1 X121.468 Y55.275 E11.0950
G1 X121.493 Y55.171 E11.1011
G1 X121.780 Y54.332 E11.1515
G1 X121.816 Y54.247 E11.1568
G1 X122.076 Y53.752 E11.1886
G1 X122.126 Y53.673 E11.1939
G1 X122.902 Y52.629 E11.2678
G1 X123.117 Y52.449 E11.2838
G1 X124.639 Y51.683 E11.3807
G1 X124.913 Y51.618 E11.3967
