; G-Code generated by Simplify3D(R) Version 3.1.0
; Mar 22, 2017 at 4:18:45 PM
; Settings Summary
;   processName,Process1
;   applyToModels,extruder 7mm 1.5 pink
;   profileName,PETG 0.3 he.20 bt50 (modified)
;   profileVersion,2017-02-27 16:30:54
;   baseProfile,Default (modified)
;   printMaterial,
;   printQuality,
;   printExtruders,
;   extruderName,Primary Extruder
;   extruderToolheadNumber,0
;   extruderDiameter,0.4
;   extruderAutoWidth,0
;   extruderWidth,0.46
;   extrusionMultiplier,0.95
;   extruderUseRetract,1
;   extruderRetractionDistance,1.4
;   extruderExtraRestartDistance,-0.1
;   extruderRetractionZLift,0.1
;   extruderRetractionSpeed,4200
;   extruderUseCoasting,1
;   extruderCoastingDistance,0.2
;   extruderUseWipe,1
;   extruderWipeDistance,0.2
;   primaryExtruder,0
;   layerHeight,0.3
;   topSolidLayers,3
;   bottomSolidLayers,2
;   perimeterOutlines,2
;   printPerimetersInsideOut,1
;   startPointOption,2
;   startPointOriginX,80
;   startPointOriginY,0
;   startPointOriginZ,5
;   sequentialIslands,0
;   spiralVaseMode,0
;   firstLayerHeightPercentage,100
;   firstLayerWidthPercentage,120
;   firstLayerUnderspeed,0.35
;   useRaft,0
;   raftExtruder,0
;   raftLayers,3
;   raftOffset,3
;   raftSeparationDistance,0.14
;   raftInfill,85
;   disableRaftBaseLayers,0
;   useSkirt,1
;   skirtExtruder,0
;   skirtLayers,1
;   skirtOutlines,3
;   skirtOffset,3
;   usePrimePillar,0
;   primePillarExtruder,999
;   primePillarWidth,12
;   primePillarLocation,7
;   primePillarSpeedMultiplier,1
;   useOozeShield,0
;   oozeShieldExtruder,999
;   oozeShieldOffset,2
;   oozeShieldOutlines,1
;   oozeShieldSidewallShape,1
;   oozeShieldSidewallAngle,30
;   oozeShieldSpeedMultiplier,1
;   infillExtruder,0
;   internalInfillPattern,Rectilinear
;   externalInfillPattern,Rectilinear
;   infillPercentage,25
;   outlineOverlapPercentage,30
;   infillExtrusionWidthPercentage,150
;   minInfillLength,2
;   infillLayerInterval,1
;   infillAngles,45,-45
;   overlapInfillAngles,0
;   generateSupport,1
;   supportExtruder,0
;   supportInfillPercentage,33
;   supportExtraInflation,0.5
;   denseSupportLayers,0
;   denseSupportInfillPercentage,70
;   supportLayerInterval,1
;   supportHorizontalPartOffset,0.8
;   supportUpperSeparationLayers,1
;   supportLowerSeparationLayers,1
;   supportType,0
;   supportGridSpacing,1.5
;   maxOverhangAngle,55
;   supportAngles,15
;   temperatureName,Primary Extruder,bed
;   temperatureNumber,0,0
;   temperatureSetpointCount,2,2
;   temperatureSetpointLayers,1,2,1,2
;   temperatureSetpointTemperatures,240,235,65,60
;   temperatureStabilizeAtStartup,1,1
;   temperatureHeatedBed,0,1
;   temperatureRelayBetweenLayers,0,0
;   temperatureRelayBetweenLoops,0,0
;   fanLayers,1,4
;   fanSpeeds,0,20
;   blipFanToFullPower,1
;   adjustSpeedForCooling,0
;   minSpeedLayerTime,15
;   minCoolingSpeedSlowdown,65
;   increaseFanForCooling,1
;   minFanLayerTime,15
;   maxCoolingFanSpeed,60
;   increaseFanForBridging,1
;   bridgingFanSpeed,100
;   use5D,1
;   relativeEdistances,0
;   allowEaxisZeroing,1
;   independentExtruderAxes,0
;   includeM10123,0
;   stickySupport,1
;   applyToolheadOffsets,0
;   gcodeXoffset,0
;   gcodeYoffset,0
;   gcodeZoffset,0
;   overrideMachineDefinition,1
;   machineTypeOverride,0
;   strokeXoverride,170
;   strokeYoverride,160
;   strokeZoverride,145
;   originOffsetXoverride,0
;   originOffsetYoverride,0
;   originOffsetZoverride,0
;   homeXdirOverride,-1
;   homeYdirOverride,-1
;   homeZdirOverride,-1
;   flipXoverride,1
;   flipYoverride,-1
;   flipZoverride,1
;   toolheadOffsets,0,0|0,0|0,0|0,0|0,0|0,0
;   overrideFirmwareConfiguration,1
;   firmwareTypeOverride,RepRap (Marlin/Repetier/Sprinter)
;   GPXconfigOverride,r2
;   baudRateOverride,250000
;   overridePrinterModels,0
;   printerModelsOverride
;   startingGcode,;---------------------------------------,; ; ; Jellybox Start Script Begin ; ; ;,;_______________________________________,M117 Preparing        ; write Preparing,; M92 E140            ; optionally adjust E steps/mm,M207 S1.5 F600 Z0     ; optionally adjust retract settings,M208 S-0.00 F600      ; optionally adjust unretract = recover settings,M206 X10.0 Y0.0       ; set x homing offset for default bed leveling,G21                   ; metric values,G90                   ; absolute positioning,M107                  ; start with the fan off,M82                   ; set extruder to absolute mode,G28                   ; home all axes,M203 Z4               ; slow Z speed down for greater accuracy when probing,G29                   ; auto bed leveling procedure,M203 Z7               ; pick up z speed again for printing,G92 E0                ; reset the extruder position,G1 F1500 E15          ; extrude 15mm of feed stock,G92 E0                ; reset the extruder position again,M117 Print starting   ; write Print starting,;---------------------------------------------,; ; ; Jellybox Printer Start Script End ; ; ;,;_____________________________________________
;   layerChangeGcode,
;   retractionGcode,
;   toolChangeGcode,
;   endingGcode,; ---------------------------------,; ; ;  Jellybox End Script Begin ; ; ;,; _________________________________,M117 Finishing Up ; write Finishing Up,M107                  ; sfan off,M104 S0            ; extruder heater off,M140 S0            ; bed heater off (if you have it),G91                ; relative positioning,G1 E-1 F300        ; retract the filament a bit before lifting the nozzle to release some of the pressure,G1 Z+0.5 E-5 X-20 Y-20 F9000 ; move Z up a bit and retract filament even more,G90                ; absolute positioning,G28 X              ; home x so the head is out of the way,G1 Y100            ; move Y forward so the print is more accessible,M84                ; steppers off,M117 Print finished ; write Print finisheds,; ---------------------------------------,; ; ;  Jellybox End Script End ; ; ;,; _______________________________________
;   exportFileFormat,gcode
;   celebration,0
;   celebrationSong,Random Song
;   postProcessing,|{REPLACE "; layer" "M117 Layer"},|{REPLACE ", Z = " " "Z="}
;   defaultSpeed,2700
;   outlineUnderspeed,0.55
;   solidInfillUnderspeed,0.55
;   supportUnderspeed,0.9
;   rapidXYspeed,7200
;   rapidZspeed,420
;   minBridgingArea,50
;   bridgingExtraInflation,0.3
;   bridgingExtrusionMultiplier,1
;   bridgingSpeedMultiplier,1
;   filamentDiameter,1.75
;   filamentPricePerKg,30
;   filamentDensity,1.38
;   useMinPrintHeight,0
;   minPrintHeight,30
;   useMaxPrintHeight,0
;   maxPrintHeight,40
;   useDiaphragm,0
;   diaphragmLayerInterval,20
;   robustSlicing,1
;   mergeAllIntoSolid,0
;   onlyRetractWhenCrossingOutline,1
;   retractBetweenLayers,1
;   useRetractionMinTravel,1
;   retractionMinTravel,1
;   retractWhileWiping,1
;   onlyWipeOutlines,1
;   avoidCrossingOutline,1
;   maxMovementDetourFactor,2.5
;   toolChangeRetractionDistance,1.3
;   toolChangeExtraRestartDistance,0
;   toolChangeRetractionSpeed,600
;   allowThinWallGapFill,1
;   thinWallAllowedOverlapPercentage,15
;   horizontalSizeCompensation,0
G90
M82
M106 S0
M140 S65
M190 S65
M104 S240 T0
M109 S240 T0
;---------------------------------------
; ; ; Jellybox Start Script Begin ; ; ;
;_______________________________________
M117 Preparing        ; write Preparing
; M92 E140            ; optionally adjust E steps/mm
M207 S1.5 F600 Z0     ; optionally adjust retract settings
M208 S-0.00 F600      ; optionally adjust unretract = recover settings
M206 X10.0 Y0.0       ; set x homing offset for default bed leveling
G21                   ; metric values
G90                   ; absolute positioning
M107                  ; start with the fan off
M82                   ; set extruder to absolute mode
G28                   ; home all axes
M203 Z4               ; slow Z speed down for greater accuracy when probing
G29                   ; auto bed leveling procedure
M203 Z7               ; pick up z speed again for printing
G92 E0                ; reset the extruder position
G1 F1500 E15          ; extrude 15mm of feed stock
G92 E0                ; reset the extruder position again
M117 Print starting   ; write Print starting
;---------------------------------------------
; ; ; Jellybox Printer Start Script End ; ; ;
;_____________________________________________
G92 E0
G1 E-1.4000 F4200
G1 Z0.400 F420
M117 Layer 1 0.3
T0
; tool H0.300 W0.552
; skirt
G1 X51.081 Y58.660 F7200
G1 Z0.300 F420
G1 E-0.1000 F1260
G92 E0
G1 X51.101 Y58.643 E0.0017 F945
G1 X52.257 Y57.707 E0.0990
G1 X52.277 Y57.691 E0.1007
G1 X52.407 Y57.595 E0.1113
G1 X52.428 Y57.581 E0.1129
G1 X53.666 Y56.751 E0.2104
G1 X53.688 Y56.737 E0.2121
G1 X53.825 Y56.654 E0.2226
G1 X53.847 Y56.641 E0.2242
G1 X55.157 Y55.924 E0.3219
G1 X55.180 Y55.913 E0.3236
G1 X55.321 Y55.843 E0.3339
G1 X55.344 Y55.833 E0.3355
G1 X56.715 Y55.232 E0.4334
G1 X56.738 Y55.223 E0.4350
G1 X56.882 Y55.167 E0.4452
G1 X56.906 Y55.159 E0.4468
G1 X58.326 Y54.678 E0.5449
G1 X58.350 Y54.671 E0.5465
G1 X58.496 Y54.628 E0.5565
G1 X58.520 Y54.622 E0.5581
G1 X59.979 Y54.264 E0.6563
G1 X60.002 Y54.258 E0.6579
G1 X60.151 Y54.229 E0.6678
G1 X60.175 Y54.224 E0.6694
G1 X61.661 Y53.990 E0.7678
G1 X61.685 Y53.987 E0.7694
G1 X61.835 Y53.970 E0.7793
G1 X61.859 Y53.968 E0.7809
G1 X63.082 Y53.880 E0.8610
G1 X63.807 Y51.375 E1.0316
G1 X63.964 Y51.116 E1.0514
G1 X65.342 Y49.793 E1.1763
G1 X65.607 Y49.647 E1.1961
G1 X96.457 Y42.045 E3.2743
G1 X96.607 Y42.028 E3.2841
G1 X97.547 Y42.047 E3.3457
G1 X97.696 Y42.070 E3.3555
G1 X103.663 Y43.798 E3.7618
G1 X103.801 Y43.859 E3.7716
G1 X104.606 Y44.345 E3.8332
G1 X104.723 Y44.440 E3.8430
G1 X124.745 Y65.287 E5.7336
G1 X124.891 Y65.552 E5.7534
G1 X125.348 Y67.407 E5.8783
G1 X125.342 Y67.710 E5.8981
G1 X122.309 Y78.179 E6.6110
G1 X122.205 Y78.380 E6.6259
G1 X121.315 Y79.491 E6.7190
G1 X121.141 Y79.637 E6.7338
G1 X117.208 Y81.794 E7.0272
G1 X113.521 Y94.519 E7.8937
G1 X115.692 Y98.445 E8.1871
G1 X115.761 Y98.661 E8.2020
G1 X115.919 Y100.075 E8.2951
G1 X115.900 Y100.301 E8.3099
G1 X113.256 Y109.426 E8.9312
G1 X113.100 Y109.685 E8.9510
G1 X111.722 Y111.008 E9.0760
G1 X111.457 Y111.154 E9.0958
G1 X83.391 Y118.070 E10.9864
G1 X83.241 Y118.087 E10.9962
G1 X82.301 Y118.068 E11.0577
G1 X82.152 Y118.045 E11.0676
G1 X76.186 Y116.317 E11.4738
G1 X76.048 Y116.256 E11.4837
G1 X75.243 Y115.769 E11.5452
G1 X75.126 Y115.675 E11.5551
G1 X53.117 Y92.759 E13.6332
G1 X52.971 Y92.494 E13.6531
G1 X52.513 Y90.639 E13.7780
G1 X52.520 Y90.336 E13.7978
G1 X53.245 Y87.832 E13.9684
G1 X52.259 Y87.104 E14.0485
G1 X52.240 Y87.089 E14.0501
G1 X52.123 Y86.994 E14.0600
G1 X52.104 Y86.979 E14.0615
G1 X50.973 Y85.986 E14.1600
G1 X50.955 Y85.970 E14.1616
G1 X50.845 Y85.865 E14.1715
G1 X50.828 Y85.848 E14.1731
G1 X49.787 Y84.766 E14.2713
G1 X49.770 Y84.748 E14.2729
G1 X49.669 Y84.633 E14.2829
G1 X49.653 Y84.615 E14.2845
G1 X48.709 Y83.449 E14.3826
G1 X48.694 Y83.430 E14.3842
G1 X48.602 Y83.305 E14.3943
G1 X48.588 Y83.285 E14.3960
G1 X47.750 Y82.045 E14.4938
G1 X47.736 Y82.024 E14.4955
G1 X47.654 Y81.889 E14.5058
G1 X47.641 Y81.867 E14.5075
G1 X46.917 Y80.561 E14.6051
G1 X46.905 Y80.538 E14.6068
G1 X46.834 Y80.395 E14.6173
G1 X46.823 Y80.372 E14.6190
G1 X46.220 Y79.009 E14.7164
G1 X46.210 Y78.985 E14.7181
G1 X46.152 Y78.835 E14.7287
G1 X46.143 Y78.810 E14.7304
G1 X45.666 Y77.401 E14.8277
G1 X45.658 Y77.376 E14.8294
G1 X45.613 Y77.220 E14.8400
G1 X45.606 Y77.195 E14.8417
G1 X45.260 Y75.751 E14.9388
G1 X45.255 Y75.725 E14.9406
G1 X45.224 Y75.563 E14.9514
G1 X45.219 Y75.537 E14.9531
G1 X45.008 Y74.071 E15.0500
G1 X45.005 Y74.044 E15.0517
G1 X44.989 Y73.878 E15.0627
G1 X44.987 Y73.851 E15.0644
G1 X44.913 Y72.363 E15.1618
G1 X44.912 Y72.333 E15.1638
G1 X44.913 Y72.145 E15.1761
G1 X44.914 Y72.115 E15.1781
G1 X45.010 Y70.381 E15.2917
G1 X45.012 Y70.355 E15.2934
G1 X45.028 Y70.194 E15.3040
G1 X45.032 Y70.168 E15.3056
G1 X45.208 Y68.965 E15.3852
G1 X45.213 Y68.940 E15.3869
G1 X45.242 Y68.785 E15.3972
G1 X45.248 Y68.760 E15.3989
G1 X45.589 Y67.330 E15.4950
G1 X45.596 Y67.303 E15.4968
G1 X45.644 Y67.140 E15.5080
G1 X45.652 Y67.114 E15.5098
G1 X46.130 Y65.717 E15.6063
G1 X46.139 Y65.692 E15.6081
G1 X46.202 Y65.534 E15.6192
G1 X46.212 Y65.509 E15.6210
G1 X46.821 Y64.162 E15.7176
G1 X46.833 Y64.137 E15.7194
G1 X46.910 Y63.987 E15.7305
G1 X46.923 Y63.963 E15.7323
G1 X47.657 Y62.678 E15.8290
G1 X47.671 Y62.655 E15.8308
G1 X47.761 Y62.513 E15.8418
G1 X47.777 Y62.490 E15.8436
G1 X48.629 Y61.280 E15.9404
G1 X48.645 Y61.259 E15.9422
G1 X48.747 Y61.127 E15.9531
G1 X48.764 Y61.106 E15.9548
G1 X49.727 Y59.980 E16.0517
G1 X49.744 Y59.960 E16.0535
G1 X49.857 Y59.840 E16.0642
G1 X49.875 Y59.821 E16.0660
G1 X50.932 Y58.794 E16.1623
G1 X50.940 Y58.786 F945
G1 X50.959 Y58.768 F945
G1 X51.081 Y58.660 F945
G1 X51.382 Y59.007 F7200
G92 E0
G1 X51.394 Y58.997 E0.0010 F945
G1 X52.542 Y58.068 E0.0976
G1 X52.555 Y58.058 E0.0987
G1 X52.676 Y57.969 E0.1085
G1 X52.689 Y57.960 E0.1095
G1 X53.918 Y57.136 E0.2063
G1 X53.931 Y57.128 E0.2073
G1 X54.059 Y57.050 E0.2171
G1 X54.072 Y57.042 E0.2181
G1 X55.373 Y56.330 E0.3152
G1 X55.387 Y56.323 E0.3161
G1 X55.519 Y56.258 E0.3258
G1 X55.533 Y56.252 E0.3268
G1 X56.895 Y55.656 E0.4240
G1 X56.909 Y55.650 E0.4250
G1 X57.044 Y55.598 E0.4345
G1 X57.058 Y55.593 E0.4354
G1 X58.469 Y55.116 E0.5329
G1 X58.483 Y55.111 E0.5338
G1 X58.620 Y55.071 E0.5432
G1 X58.634 Y55.067 E0.5441
G1 X60.084 Y54.712 E0.6417
G1 X60.098 Y54.708 E0.6427
G1 X60.237 Y54.681 E0.6520
G1 X60.251 Y54.678 E0.6529
G1 X61.728 Y54.445 E0.7507
G1 X61.742 Y54.443 E0.7517
G1 X61.883 Y54.427 E0.7609
G1 X61.897 Y54.426 E0.7618
G1 X63.390 Y54.319 E0.8597
G1 X63.404 Y54.318 E0.8607
G1 X63.434 Y54.317 E0.8626
G1 X64.232 Y51.561 E1.0502
G1 X64.326 Y51.406 E1.0621
G1 X65.617 Y50.166 E1.1792
G1 X65.776 Y50.079 E1.1911
G1 X96.538 Y42.498 E3.2633
G1 X96.628 Y42.489 E3.2692
G1 X97.508 Y42.506 E3.3268
G1 X97.597 Y42.520 E3.3327
G1 X103.506 Y44.232 E3.7350
G1 X103.588 Y44.268 E3.7409
G1 X104.342 Y44.723 E3.7985
G1 X104.412 Y44.780 E3.8044
G1 X124.371 Y65.562 E5.6890
G1 X124.459 Y65.721 E5.7009
G1 X124.887 Y67.458 E5.8179
G1 X124.883 Y67.640 E5.8298
G1 X121.880 Y78.007 E6.5358
G1 X121.817 Y78.128 E6.5447
G1 X120.984 Y79.168 E6.6318
G1 X120.880 Y79.255 E6.6407
G1 X116.819 Y81.482 E6.9437
G1 X113.026 Y94.574 E7.8352
G1 X115.267 Y98.627 E8.1381
G1 X115.309 Y98.757 E8.1470
G1 X115.457 Y100.081 E8.2342
G1 X115.445 Y100.217 E8.2431
G1 X112.832 Y109.239 E8.8574
G1 X112.738 Y109.395 E8.8693
G1 X111.447 Y110.634 E8.9864
G1 X111.288 Y110.722 E8.9982
G1 X83.310 Y117.616 E10.8829
G1 X83.220 Y117.626 E10.8888
G1 X82.340 Y117.608 E10.9464
G1 X82.251 Y117.595 E10.9523
G1 X76.343 Y115.883 E11.3546
G1 X76.260 Y115.847 E11.3605
G1 X75.507 Y115.391 E11.4181
G1 X75.436 Y115.335 E11.4240
G1 X53.490 Y92.484 E13.4962
G1 X53.403 Y92.325 E13.5081
G1 X52.975 Y90.587 E13.6251
G1 X52.978 Y90.406 E13.6370
G1 X53.777 Y87.650 E13.8247
G1 X53.752 Y87.634 E13.8266
G1 X53.740 Y87.625 E13.8275
G1 X52.536 Y86.737 E13.9254
G1 X52.525 Y86.728 E13.9264
G1 X52.415 Y86.639 E13.9356
G1 X52.404 Y86.630 E13.9366
G1 X51.280 Y85.644 E14.0344
G1 X51.269 Y85.634 E14.0353
G1 X51.167 Y85.536 E14.0446
G1 X51.156 Y85.526 E14.0455
G1 X50.121 Y84.450 E14.1431
G1 X50.111 Y84.440 E14.1441
G1 X50.017 Y84.333 E14.1534
G1 X50.008 Y84.321 E14.1544
G1 X49.070 Y83.164 E14.2518
G1 X49.061 Y83.152 E14.2528
G1 X48.975 Y83.035 E14.2623
G1 X48.966 Y83.023 E14.2633
G1 X48.134 Y81.792 E14.3605
G1 X48.126 Y81.779 E14.3615
G1 X48.049 Y81.653 E14.3711
G1 X48.041 Y81.640 E14.3721
G1 X47.322 Y80.343 E14.4691
G1 X47.315 Y80.329 E14.4701
G1 X47.248 Y80.195 E14.4799
G1 X47.242 Y80.181 E14.4809
G1 X46.643 Y78.828 E14.5777
G1 X46.637 Y78.813 E14.5787
G1 X46.582 Y78.673 E14.5886
G1 X46.577 Y78.658 E14.5896
G1 X46.103 Y77.259 E14.6862
G1 X46.099 Y77.244 E14.6873
G1 X46.057 Y77.098 E14.6972
G1 X46.053 Y77.082 E14.6983
G1 X45.709 Y75.649 E14.7947
G1 X45.706 Y75.633 E14.7957
G1 X45.677 Y75.482 E14.8058
G1 X45.674 Y75.466 E14.8068
G1 X45.464 Y74.011 E14.9030
G1 X45.462 Y73.995 E14.9041
G1 X45.447 Y73.839 E14.9143
G1 X45.446 Y73.823 E14.9154
