; G-Code generated by Simplify3D(R) Version 3.1.0
; Mar 27, 2017 at 2:23:43 AM
; Settings Summary
;   processName,Process1
;   applyToModels,feeder arm 2.0.1 green,ear,feeder arm 2.0.1 green(2),ear(2)
;   profileName,PETG 0.2 he.20 bt50 (modified)
;   profileVersion,2017-02-27 13:22:29
;   baseProfile,Default (modified)
;   printMaterial,
;   printQuality,
;   printExtruders,
;   extruderName,Primary Extruder
;   extruderToolheadNumber,0
;   extruderDiameter,0.4
;   extruderAutoWidth,0
;   extruderWidth,0.48
;   extrusionMultiplier,1
;   extruderUseRetract,1
;   extruderRetractionDistance,1.4
;   extruderExtraRestartDistance,-0.1
;   extruderRetractionZLift,0
;   extruderRetractionSpeed,4200
;   extruderUseCoasting,1
;   extruderCoastingDistance,0.2
;   extruderUseWipe,1
;   extruderWipeDistance,0.2
;   primaryExtruder,0
;   layerHeight,0.2
;   topSolidLayers,5
;   bottomSolidLayers,3
;   perimeterOutlines,2
;   printPerimetersInsideOut,1
;   startPointOption,2
;   startPointOriginX,85
;   startPointOriginY,0
;   startPointOriginZ,80
;   sequentialIslands,0
;   spiralVaseMode,0
;   firstLayerHeightPercentage,150
;   firstLayerWidthPercentage,100
;   firstLayerUnderspeed,0.35
;   useRaft,0
;   raftExtruder,0
;   raftLayers,2
;   raftOffset,2
;   raftSeparationDistance,0.14
;   raftInfill,85
;   disableRaftBaseLayers,1
;   useSkirt,1
;   skirtExtruder,0
;   skirtLayers,1
;   skirtOutlines,3
;   skirtOffset,3
;   usePrimePillar,0
;   primePillarExtruder,999
;   primePillarWidth,12
;   primePillarLocation,7
;   primePillarSpeedMultiplier,1
;   useOozeShield,0
;   oozeShieldExtruder,999
;   oozeShieldOffset,2
;   oozeShieldOutlines,1
;   oozeShieldSidewallShape,1
;   oozeShieldSidewallAngle,30
;   oozeShieldSpeedMultiplier,1
;   infillExtruder,0
;   internalInfillPattern,Rectilinear
;   externalInfillPattern,Rectilinear
;   infillPercentage,22
;   outlineOverlapPercentage,30
;   infillExtrusionWidthPercentage,145
;   minInfillLength,4
;   infillLayerInterval,1
;   infillAngles,45,-45
;   overlapInfillAngles,0
;   generateSupport,1
;   supportExtruder,0
;   supportInfillPercentage,36
;   supportExtraInflation,0.5
;   denseSupportLayers,0
;   denseSupportInfillPercentage,70
;   supportLayerInterval,1
;   supportHorizontalPartOffset,0.8
;   supportUpperSeparationLayers,1
;   supportLowerSeparationLayers,1
;   supportType,0
;   supportGridSpacing,1.5
;   maxOverhangAngle,55
;   supportAngles,0
;   temperatureName,Primary Extruder,bed
;   temperatureNumber,0,0
;   temperatureSetpointCount,2,2
;   temperatureSetpointLayers,1,2,1,2
;   temperatureSetpointTemperatures,240,235,65,60
;   temperatureStabilizeAtStartup,1,1
;   temperatureHeatedBed,0,1
;   temperatureRelayBetweenLayers,0,0
;   temperatureRelayBetweenLoops,0,0
;   fanLayers,1,4
;   fanSpeeds,0,20
;   blipFanToFullPower,1
;   adjustSpeedForCooling,0
;   minSpeedLayerTime,15
;   minCoolingSpeedSlowdown,65
;   increaseFanForCooling,1
;   minFanLayerTime,15
;   maxCoolingFanSpeed,60
;   increaseFanForBridging,1
;   bridgingFanSpeed,100
;   use5D,1
;   relativeEdistances,0
;   allowEaxisZeroing,1
;   independentExtruderAxes,0
;   includeM10123,0
;   stickySupport,1
;   applyToolheadOffsets,0
;   gcodeXoffset,0
;   gcodeYoffset,0
;   gcodeZoffset,0
;   overrideMachineDefinition,1
;   machineTypeOverride,0
;   strokeXoverride,170
;   strokeYoverride,160
;   strokeZoverride,145
;   originOffsetXoverride,0
;   originOffsetYoverride,0
;   originOffsetZoverride,0
;   homeXdirOverride,-1
;   homeYdirOverride,-1
;   homeZdirOverride,-1
;   flipXoverride,1
;   flipYoverride,-1
;   flipZoverride,1
;   toolheadOffsets,0,0|0,0|0,0|0,0|0,0|0,0
;   overrideFirmwareConfiguration,1
;   firmwareTypeOverride,RepRap (Marlin/Repetier/Sprinter)
;   GPXconfigOverride,r2
;   baudRateOverride,250000
;   overridePrinterModels,0
;   printerModelsOverride
;   startingGcode,;---------------------------------------,; ; ; Jellybox Start Script Begin ; ; ;,;_______________________________________,M117 Preparing        ; write Preparing,; M92 E140            ; optionally adjust E steps/mm,M207 S1.5 F600 Z0     ; optionally adjust retract settings,M208 S-0.00 F600      ; optionally adjust unretract = recover settings,M206 X10.0 Y0.0       ; set x homing offset for default bed leveling,G21                   ; metric values,G90                   ; absolute positioning,M107                  ; start with the fan off,M82                   ; set extruder to absolute mode,G28                   ; home all axes,M203 Z4               ; slow Z speed down for greater accuracy when probing,G29                   ; auto bed leveling procedure,M203 Z7               ; pick up z speed again for printing,G92 E0                ; reset the extruder position,G1 F1500 E15          ; extrude 15mm of feed stock,G92 E0                ; reset the extruder position again,M117 Print starting   ; write Print starting,;---------------------------------------------,; ; ; Jellybox Printer Start Script End ; ; ;,;_____________________________________________
;   layerChangeGcode,
;   retractionGcode,
;   toolChangeGcode,
;   endingGcode,; ---------------------------------,; ; ;  Jellybox End Script Begin ; ; ;,; _________________________________,M117 Finishing Up ; write Finishing Up,M104 S0            ; extruder heater off,M140 S0            ; bed heater off (if you have it),G91                ; relative positioning,G1 E-1 F300        ; retract the filament a bit before lifting the nozzle to release some of the pressure,G1 Z+0.5 E-5 X-20 Y-20 F9000 ; move Z up a bit and retract filament even more,G90                ; absolute positioning,G28 X              ; home x so the head is out of the way,G1 Y100            ; move Y forward so the print is more accessible,M84                ; steppers off,M117 Print finished ; write Print finisheds,; ---------------------------------------,; ; ;  Jellybox End Script End ; ; ;,; _______________________________________
;   exportFileFormat,gcode
;   celebration,0
;   celebrationSong,Random Song
;   postProcessing,|{REPLACE "; layer" "M117 Layer"},|{REPLACE ", Z = " " "Z="}|
;   defaultSpeed,2700
;   outlineUnderspeed,0.55
;   solidInfillUnderspeed,0.55
;   supportUnderspeed,0.9
;   rapidXYspeed,7200
;   rapidZspeed,420
;   minBridgingArea,50
;   bridgingExtraInflation,0.3
;   bridgingExtrusionMultiplier,1
;   bridgingSpeedMultiplier,1
;   filamentDiameter,1.75
;   filamentPricePerKg,30
;   filamentDensity,1.38
;   useMinPrintHeight,0
;   minPrintHeight,0
;   useMaxPrintHeight,0
;   maxPrintHeight,1
;   useDiaphragm,0
;   diaphragmLayerInterval,20
;   robustSlicing,1
;   mergeAllIntoSolid,0
;   onlyRetractWhenCrossingOutline,1
;   retractBetweenLayers,1
;   useRetractionMinTravel,1
;   retractionMinTravel,0.5
;   retractWhileWiping,1
;   onlyWipeOutlines,1
;   avoidCrossingOutline,1
;   maxMovementDetourFactor,2.5
;   toolChangeRetractionDistance,1.3
;   toolChangeExtraRestartDistance,0
;   toolChangeRetractionSpeed,600
;   allowThinWallGapFill,1
;   thinWallAllowedOverlapPercentage,15
;   horizontalSizeCompensation,0
G90
M82
M106 S0
M140 S65
M190 S65
M104 S240 T0
M109 S240 T0
;---------------------------------------
; ; ; Jellybox Start Script Begin ; ; ;
;_______________________________________
M117 Preparing        ; write Preparing
; M92 E140            ; optionally adjust E steps/mm
M207 S1.5 F600 Z0     ; optionally adjust retract settings
M208 S-0.00 F600      ; optionally adjust unretract = recover settings
M206 X10.0 Y0.0       ; set x homing offset for default bed leveling
G21                   ; metric values
G90                   ; absolute positioning
M107                  ; start with the fan off
M82                   ; set extruder to absolute mode
G28                   ; home all axes
M203 Z4               ; slow Z speed down for greater accuracy when probing
G29                   ; auto bed leveling procedure
M203 Z7               ; pick up z speed again for printing
G92 E0                ; reset the extruder position
G1 F1500 E15          ; extrude 15mm of feed stock
G92 E0                ; reset the extruder position again
M117 Print starting   ; write Print starting
;---------------------------------------------
; ; ; Jellybox Printer Start Script End ; ; ;
;_____________________________________________
G92 E0
G1 E-1.4000 F4200
G1 Z0.300 F420
M117 Layer 1 0.3
T0
; tool H0.300 W0.480
; skirt
G1 X60.920 Y77.485 F7200
G1 E-0.1000 F1260
G92 E0
G1 X62.425 Y76.740 E0.1005 F945
G1 X62.695 Y76.677 E0.1171
G1 X68.165 Y76.677 E0.4446
G1 X68.606 Y76.860 E0.4732
G1 X70.034 Y78.288 E0.5941
G1 X71.462 Y76.860 E0.7149
G1 X71.903 Y76.677 E0.7435
G1 X77.374 Y76.677 E1.0711
G1 X77.643 Y76.740 E1.0876
G1 X79.148 Y77.485 E1.1882
G1 X79.362 Y77.661 E1.2047
G1 X79.661 Y78.051 E1.2342
G1 X80.246 Y78.229 E1.2708
G1 X80.301 Y78.249 E1.2743
G1 X80.628 Y78.384 E1.2955
G1 X80.681 Y78.409 E1.2990
G1 X81.598 Y78.899 E1.3613
G1 X81.649 Y78.930 E1.3648
G1 X81.944 Y79.127 E1.3860
G1 X81.991 Y79.162 E1.3895
G1 X82.794 Y79.822 E1.4518
G1 X82.838 Y79.861 E1.4553
G1 X83.087 Y80.111 E1.4764
G1 X83.127 Y80.154 E1.4799
G1 X83.786 Y80.957 E1.5422
G1 X83.822 Y81.005 E1.5457
G1 X84.018 Y81.299 E1.5669
G1 X84.049 Y81.350 E1.5704
G1 X84.539 Y82.267 E1.6327
G1 X84.564 Y82.321 E1.6362
G1 X84.699 Y82.647 E1.6574
G1 X84.719 Y82.703 E1.6609
G1 X85.021 Y83.698 E1.7232
G1 X85.035 Y83.755 E1.7267
G1 X85.104 Y84.102 E1.7479
G1 X85.113 Y84.160 E1.7514
G1 X85.215 Y85.195 E1.8137
G1 X85.218 Y85.254 E1.8172
G1 X85.218 Y85.607 E1.8383
G1 X85.215 Y85.666 E1.8419
G1 X85.113 Y86.700 E1.9041
G1 X85.104 Y86.759 E1.9076
G1 X85.035 Y87.106 E1.9288
G1 X85.021 Y87.163 E1.9323
G1 X84.719 Y88.158 E1.9946
G1 X84.699 Y88.213 E1.9981
G1 X84.564 Y88.540 E2.0193
G1 X84.539 Y88.593 E2.0228
G1 X84.049 Y89.510 E2.0851
G1 X84.018 Y89.561 E2.0886
G1 X83.822 Y89.856 E2.1098
G1 X83.786 Y89.903 E2.1133
G1 X83.127 Y90.706 E2.1756
G1 X83.087 Y90.750 E2.1791
G1 X82.838 Y90.999 E2.2002
G1 X82.794 Y91.039 E2.2037
G1 X81.991 Y91.698 E2.2660
G1 X81.944 Y91.734 E2.2695
G1 X81.649 Y91.931 E2.2907
G1 X81.598 Y91.961 E2.2942
G1 X80.681 Y92.451 E2.3565
G1 X80.628 Y92.476 E2.3600
G1 X80.301 Y92.612 E2.3812
G1 X80.246 Y92.632 E2.3847
G1 X79.897 Y92.737 E2.4066
G1 X78.998 Y93.636 E2.4826
G1 X78.802 Y93.767 E2.4968
G1 X77.481 Y94.314 E2.5824
G1 X77.249 Y94.360 E2.5965
G1 X71.903 Y94.360 E2.9166
G1 X71.461 Y94.178 E2.9452
G1 X70.034 Y92.750 E3.0661
G1 X68.606 Y94.178 E3.1869
G1 X68.165 Y94.360 E3.2155
G1 X62.819 Y94.360 E3.5356
G1 X62.587 Y94.314 E3.5497
G1 X61.266 Y93.767 E3.6353
G1 X61.070 Y93.636 E3.6495
G1 X59.909 Y92.475 E3.7478
G1 X59.777 Y92.278 E3.7619
G1 X59.230 Y90.957 E3.8475
G1 X59.184 Y90.725 E3.8617
G1 X59.184 Y80.482 E4.4749
G1 X59.216 Y80.289 E4.4867
G1 X59.595 Y79.167 E4.5575
G1 X59.687 Y78.994 E4.5693
G1 X60.706 Y77.661 E4.6697
G1 X60.766 Y77.612 E4.6743
G1 X60.920 Y77.485 F945
G1 X79.639 Y69.685 F7200
G92 E0
G1 X79.619 Y69.630 E0.0035 F945
G1 X79.317 Y68.635 E0.0658
G1 X79.303 Y68.578 E0.0693
G1 X79.234 Y68.231 E0.0905
G1 X79.225 Y68.172 E0.0940
G1 X79.124 Y67.138 E0.1562
G1 X79.121 Y67.079 E0.1598
G1 X79.121 Y66.726 E0.1809
G1 X79.124 Y66.667 E0.1844
G1 X79.225 Y65.632 E0.2467
G1 X79.234 Y65.574 E0.2502
G1 X79.303 Y65.227 E0.2714
G1 X79.317 Y65.170 E0.2749
G1 X79.619 Y64.175 E0.3372
G1 X79.639 Y64.119 E0.3407
G1 X79.774 Y63.793 E0.3619
G1 X79.799 Y63.739 E0.3654
G1 X80.290 Y62.822 E0.4277
G1 X80.320 Y62.772 E0.4312
G1 X80.517 Y62.477 E0.4524
G1 X80.552 Y62.430 E0.4559
G1 X81.212 Y61.626 E0.5182
G1 X81.251 Y61.583 E0.5217
G1 X81.500 Y61.333 E0.5428
G1 X81.544 Y61.294 E0.5463
G1 X82.347 Y60.634 E0.6086
G1 X82.395 Y60.599 E0.6121
G1 X82.689 Y60.402 E0.6333
G1 X82.740 Y60.372 E0.6368
G1 X83.657 Y59.881 E0.6991
G1 X83.710 Y59.856 E0.7026
G1 X84.037 Y59.721 E0.7238
G1 X84.093 Y59.701 E0.7273
G1 X84.441 Y59.595 E0.7492
G1 X85.340 Y58.697 E0.8252
G1 X85.536 Y58.566 E0.8394
G1 X86.857 Y58.018 E0.9250
G1 X87.089 Y57.972 E0.9391
G1 X92.436 Y57.972 E1.2592
G1 X92.877 Y58.155 E1.2878
G1 X94.304 Y59.583 E1.4087
G1 X95.732 Y58.155 E1.5295
G1 X96.173 Y57.972 E1.5581
G1 X101.519 Y57.972 E1.8782
G1 X101.751 Y58.018 E1.8923
G1 X103.072 Y58.566 E1.9779
G1 X103.269 Y58.697 E1.9921
G1 X104.430 Y59.858 E2.0904
G1 X104.561 Y60.055 E2.1045
G1 X105.108 Y61.376 E2.1901
G1 X105.154 Y61.607 E2.2043
G1 X105.154 Y71.850 E2.8175
G1 X105.122 Y72.044 E2.8293
G1 X104.743 Y73.165 E2.9001
G1 X104.651 Y73.338 E2.9119
G1 X103.632 Y74.672 E3.0123
G1 X103.418 Y74.848 E3.0289
G1 X101.913 Y75.592 E3.1294
G1 X101.644 Y75.655 E3.1460
G1 X96.173 Y75.655 E3.4735
G1 X95.732 Y75.472 E3.5021
G1 X94.304 Y74.045 E3.6230
G1 X92.877 Y75.472 E3.7438
G1 X92.436 Y75.655 E3.7724
G1 X86.965 Y75.655 E4.1000
G1 X86.695 Y75.592 E4.1165
G1 X85.190 Y74.848 E4.2171
G1 X84.976 Y74.672 E4.2336
G1 X84.678 Y74.281 E4.2631
G1 X84.093 Y74.104 E4.2997
G1 X84.037 Y74.084 E4.3032
G1 X83.710 Y73.949 E4.3244
G1 X83.657 Y73.923 E4.3279
G1 X82.740 Y73.433 E4.3902
G1 X82.689 Y73.403 E4.3937
G1 X82.395 Y73.206 E4.4149
G1 X82.347 Y73.171 E4.4184
G1 X81.544 Y72.511 E4.4807
G1 X81.500 Y72.472 E4.4842
G1 X81.251 Y72.222 E4.5053
G1 X81.212 Y72.179 E4.5088
G1 X80.552 Y71.375 E4.5711
G1 X80.517 Y71.328 E4.5746
G1 X80.320 Y71.033 E4.5958
G1 X80.290 Y70.983 E4.5993
G1 X79.799 Y70.065 E4.6616
G1 X79.774 Y70.012 E4.6651
G1 X79.715 Y69.870 E4.6743
G1 X79.639 Y69.685 F945
G1 X80.087 Y69.513 F7200
G92 E0
G1 X80.075 Y69.479 E0.0021 F945
G1 X79.780 Y68.507 E0.0630
G1 X79.771 Y68.473 E0.0651
G1 X79.707 Y68.149 E0.0848
G1 X79.702 Y68.114 E0.0869
G1 X79.602 Y67.103 E0.1478
G1 X79.601 Y67.067 E0.1499
G1 X79.601 Y66.737 E0.1696
G1 X79.602 Y66.702 E0.1718
G1 X79.702 Y65.691 E0.2326
G1 X79.707 Y65.656 E0.2347
G1 X79.771 Y65.332 E0.2545
G1 X79.780 Y65.298 E0.2566
G1 X80.075 Y64.325 E0.3174
G1 X80.087 Y64.292 E0.3195
G1 X80.213 Y63.987 E0.3393
G1 X80.228 Y63.955 E0.3414
G1 X80.707 Y63.059 E0.4023
G1 X80.726 Y63.028 E0.4044
G1 X80.909 Y62.754 E0.4242
G1 X80.930 Y62.725 E0.4263
G1 X81.575 Y61.940 E0.4871
G1 X81.599 Y61.914 E0.4892
G1 X81.832 Y61.681 E0.5090
G1 X81.858 Y61.657 E0.5111
G1 X82.643 Y61.012 E0.5719
G1 X82.671 Y60.991 E0.5740
G1 X82.946 Y60.808 E0.5938
G1 X82.977 Y60.789 E0.5959
G1 X83.873 Y60.310 E0.6568
G1 X83.905 Y60.295 E0.6589
G1 X84.210 Y60.169 E0.6787
G1 X84.243 Y60.157 E0.6808
G1 X84.696 Y60.020 E0.7091
G1 X85.646 Y59.070 E0.7895
G1 X85.764 Y58.991 E0.7980
G1 X86.997 Y58.480 E0.8779
G1 X87.136 Y58.452 E0.8864
G1 X92.340 Y58.452 E1.1980
G1 X92.605 Y58.562 E1.2151
G1 X94.304 Y60.261 E1.3590
G1 X96.004 Y58.562 E1.5029
G1 X96.269 Y58.452 E1.5201
G1 X101.472 Y58.452 E1.8316
G1 X101.611 Y58.480 E1.8401
G1 X102.845 Y58.991 E1.9200
G1 X102.963 Y59.070 E1.9285
G1 X104.057 Y60.164 E2.0211
G1 X104.135 Y60.282 E2.0296
G1 X104.646 Y61.516 E2.1096
G1 X104.674 Y61.655 E2.1181
G1 X104.674 Y71.811 E2.7261
G1 X104.655 Y71.927 E2.7332
G1 X104.301 Y72.974 E2.7993
G1 X104.246 Y73.078 E2.8064
G1 X103.284 Y74.337 E2.9012
G1 X103.156 Y74.442 E2.9111
G1 X101.750 Y75.137 E3.0050
G1 X101.588 Y75.175 E3.0150
G1 X96.269 Y75.175 E3.3334
G1 X96.004 Y75.065 E3.3506
G1 X94.304 Y73.366 E3.4945
G1 X92.605 Y75.065 E3.6384
G1 X92.340 Y75.175 E3.6555
G1 X87.020 Y75.175 E3.9741
G1 X86.858 Y75.137 E3.9840
G1 X85.452 Y74.442 E4.0779
G1 X85.324 Y74.337 E4.0878
G1 X84.965 Y73.867 E4.1232
G1 X84.243 Y73.648 E4.1684
G1 X84.210 Y73.636 E4.1705
G1 X83.905 Y73.510 E4.1903
G1 X83.873 Y73.494 E4.1924
G1 X82.977 Y73.015 E4.2532
G1 X82.946 Y72.997 E4.2554
G1 X82.671 Y72.813 E4.2752
G1 X82.643 Y72.792 E4.2773
G1 X81.858 Y72.148 E4.3381
G1 X81.832 Y72.124 E4.3402
G1 X81.599 Y71.891 E4.3599
G1 X81.575 Y71.865 E4.3620
G1 X80.930 Y71.080 E4.4229
G1 X80.909 Y71.051 E4.4250
G1 X80.725 Y70.776 E4.4448
G1 X80.707 Y70.746 E4.4469
G1 X80.228 Y69.849 E4.5078
G1 X80.213 Y69.817 E4.5099
G1 X80.163 Y69.697 E4.5177
G1 X80.087 Y69.513 F945
G1 X77.480 Y77.195 F7200
G92 E0
G1 X78.886 Y77.890 E0.0939 F945
G1 X79.014 Y77.996 E0.1038
G1 X79.373 Y78.466 E0.1392
G1 X80.095 Y78.685 E0.1844
G1 X80.128 Y78.697 E0.1865
G1 X80.433 Y78.823 E0.2063
G1 X80.465 Y78.838 E0.2084
G1 X81.362 Y79.317 E0.2692
