; G-Code generated by Simplify3D(R) Version 3.1.0
; Mar 27, 2017 at 2:19:18 AM
; Settings Summary
;   processName,Process1
;   applyToModels,feeder latch 1.2.1 green,feeder latch 1.2.1 green(2),feeder latch 1.2.1 green(3),feeder latch 1.2.1 green(4),feeder latch 1.2.1 green(5),feeder latch 1.2.1 green(6)
;   profileName,PETG 0.3 he.20 bt50 (modified)
;   profileVersion,2017-02-27 23:31:17
;   baseProfile,Default (modified)
;   printMaterial,
;   printQuality,
;   printExtruders,
;   extruderName,Primary Extruder
;   extruderToolheadNumber,0
;   extruderDiameter,0.4
;   extruderAutoWidth,0
;   extruderWidth,0.48
;   extrusionMultiplier,1
;   extruderUseRetract,1
;   extruderRetractionDistance,1.4
;   extruderExtraRestartDistance,-0.1
;   extruderRetractionZLift,0.1
;   extruderRetractionSpeed,4200
;   extruderUseCoasting,1
;   extruderCoastingDistance,0.2
;   extruderUseWipe,1
;   extruderWipeDistance,0.2
;   primaryExtruder,0
;   layerHeight,0.3
;   topSolidLayers,3
;   bottomSolidLayers,2
;   perimeterOutlines,2
;   printPerimetersInsideOut,1
;   startPointOption,2
;   startPointOriginX,80
;   startPointOriginY,0
;   startPointOriginZ,5
;   sequentialIslands,0
;   spiralVaseMode,0
;   firstLayerHeightPercentage,100
;   firstLayerWidthPercentage,100
;   firstLayerUnderspeed,0.35
;   useRaft,0
;   raftExtruder,0
;   raftLayers,3
;   raftOffset,3
;   raftSeparationDistance,0.14
;   raftInfill,85
;   disableRaftBaseLayers,0
;   useSkirt,1
;   skirtExtruder,0
;   skirtLayers,1
;   skirtOutlines,2
;   skirtOffset,3
;   usePrimePillar,0
;   primePillarExtruder,999
;   primePillarWidth,12
;   primePillarLocation,7
;   primePillarSpeedMultiplier,1
;   useOozeShield,0
;   oozeShieldExtruder,999
;   oozeShieldOffset,2
;   oozeShieldOutlines,1
;   oozeShieldSidewallShape,1
;   oozeShieldSidewallAngle,30
;   oozeShieldSpeedMultiplier,1
;   infillExtruder,0
;   internalInfillPattern,Rectilinear
;   externalInfillPattern,Rectilinear
;   infillPercentage,45
;   outlineOverlapPercentage,30
;   infillExtrusionWidthPercentage,150
;   minInfillLength,5
;   infillLayerInterval,1
;   infillAngles,45,-45
;   overlapInfillAngles,0
;   generateSupport,1
;   supportExtruder,0
;   supportInfillPercentage,33
;   supportExtraInflation,0.5
;   denseSupportLayers,0
;   denseSupportInfillPercentage,70
;   supportLayerInterval,1
;   supportHorizontalPartOffset,0.8
;   supportUpperSeparationLayers,1
;   supportLowerSeparationLayers,1
;   supportType,0
;   supportGridSpacing,1.5
;   maxOverhangAngle,55
;   supportAngles,90
;   temperatureName,Primary Extruder,bed
;   temperatureNumber,0,0
;   temperatureSetpointCount,2,2
;   temperatureSetpointLayers,1,2,1,2
;   temperatureSetpointTemperatures,240,235,65,60
;   temperatureStabilizeAtStartup,1,1
;   temperatureHeatedBed,0,1
;   temperatureRelayBetweenLayers,0,0
;   temperatureRelayBetweenLoops,0,0
;   fanLayers,1,4
;   fanSpeeds,0,20
;   blipFanToFullPower,1
;   adjustSpeedForCooling,0
;   minSpeedLayerTime,15
;   minCoolingSpeedSlowdown,65
;   increaseFanForCooling,1
;   minFanLayerTime,15
;   maxCoolingFanSpeed,60
;   increaseFanForBridging,1
;   bridgingFanSpeed,100
;   use5D,1
;   relativeEdistances,0
;   allowEaxisZeroing,1
;   independentExtruderAxes,0
;   includeM10123,0
;   stickySupport,1
;   applyToolheadOffsets,0
;   gcodeXoffset,0
;   gcodeYoffset,0
;   gcodeZoffset,0
;   overrideMachineDefinition,1
;   machineTypeOverride,0
;   strokeXoverride,170
;   strokeYoverride,160
;   strokeZoverride,145
;   originOffsetXoverride,0
;   originOffsetYoverride,0
;   originOffsetZoverride,0
;   homeXdirOverride,-1
;   homeYdirOverride,-1
;   homeZdirOverride,-1
;   flipXoverride,1
;   flipYoverride,-1
;   flipZoverride,1
;   toolheadOffsets,0,0|0,0|0,0|0,0|0,0|0,0
;   overrideFirmwareConfiguration,1
;   firmwareTypeOverride,RepRap (Marlin/Repetier/Sprinter)
;   GPXconfigOverride,r2
;   baudRateOverride,250000
;   overridePrinterModels,0
;   printerModelsOverride
;   startingGcode,;---------------------------------------,; ; ; Jellybox Start Script Begin ; ; ;,;_______________________________________,M117 Preparing        ; write Preparing,; M92 E140            ; optionally adjust E steps/mm,M207 S1.5 F600 Z0     ; optionally adjust retract settings,M208 S-0.00 F600      ; optionally adjust unretract = recover settings,M206 X10.0 Y0.0       ; set x homing offset for default bed leveling,G21                   ; metric values,G90                   ; absolute positioning,M107                  ; start with the fan off,M82                   ; set extruder to absolute mode,G28                   ; home all axes,M203 Z4               ; slow Z speed down for greater accuracy when probing,G29                   ; auto bed leveling procedure,M203 Z7               ; pick up z speed again for printing,G92 E0                ; reset the extruder position,G1 F1500 E15          ; extrude 15mm of feed stock,G92 E0                ; reset the extruder position again,M117 Print starting   ; write Print starting,;---------------------------------------------,; ; ; Jellybox Printer Start Script End ; ; ;,;_____________________________________________
;   layerChangeGcode,
;   retractionGcode,
;   toolChangeGcode,
;   endingGcode,; ---------------------------------,; ; ;  Jellybox End Script Begin ; ; ;,; _________________________________,M117 Finishing Up ; write Finishing Up,M107                  ; sfan off,M104 S0            ; extruder heater off,M140 S0            ; bed heater off (if you have it),G91                ; relative positioning,G1 E-1 F300        ; retract the filament a bit before lifting the nozzle to release some of the pressure,G1 Z+0.5 E-5 X-20 Y-20 F9000 ; move Z up a bit and retract filament even more,G90                ; absolute positioning,G28 X              ; home x so the head is out of the way,G1 Y100            ; move Y forward so the print is more accessible,M84                ; steppers off,M117 Print finished ; write Print finisheds,; ---------------------------------------,; ; ;  Jellybox End Script End ; ; ;,; _______________________________________
;   exportFileFormat,gcode
;   celebration,0
;   celebrationSong,Random Song
;   postProcessing,|{REPLACE "; layer" "M117 Layer"},|{REPLACE ", Z = " " "Z="}
;   defaultSpeed,2700
;   outlineUnderspeed,0.55
;   solidInfillUnderspeed,0.55
;   supportUnderspeed,0.9
;   rapidXYspeed,7200
;   rapidZspeed,420
;   minBridgingArea,50
;   bridgingExtraInflation,0.3
;   bridgingExtrusionMultiplier,1
;   bridgingSpeedMultiplier,1
;   filamentDiameter,1.75
;   filamentPricePerKg,30
;   filamentDensity,1.38
;   useMinPrintHeight,0
;   minPrintHeight,30
;   useMaxPrintHeight,0
;   maxPrintHeight,40
;   useDiaphragm,0
;   diaphragmLayerInterval,20
;   robustSlicing,1
;   mergeAllIntoSolid,0
;   onlyRetractWhenCrossingOutline,1
;   retractBetweenLayers,1
;   useRetractionMinTravel,1
;   retractionMinTravel,1
;   retractWhileWiping,1
;   onlyWipeOutlines,1
;   avoidCrossingOutline,1
;   maxMovementDetourFactor,2.5
;   toolChangeRetractionDistance,1.3
;   toolChangeExtraRestartDistance,0
;   toolChangeRetractionSpeed,600
;   allowThinWallGapFill,1
;   thinWallAllowedOverlapPercentage,15
;   horizontalSizeCompensation,0
G90
M82
M106 S0
M140 S65
M190 S65
M104 S240 T0
M109 S240 T0
;---------------------------------------
; ; ; Jellybox Start Script Begin ; ; ;
;_______________________________________
M117 Preparing        ; write Preparing
; M92 E140            ; optionally adjust E steps/mm
M207 S1.5 F600 Z0     ; optionally adjust retract settings
M208 S-0.00 F600      ; optionally adjust unretract = recover settings
M206 X10.0 Y0.0       ; set x homing offset for default bed leveling
G21                   ; metric values
G90                   ; absolute positioning
M107                  ; start with the fan off
M82                   ; set extruder to absolute mode
G28                   ; home all axes
M203 Z4               ; slow Z speed down for greater accuracy when probing
G29                   ; auto bed leveling procedure
M203 Z7               ; pick up z speed again for printing
G92 E0                ; reset the extruder position
G1 F1500 E15          ; extrude 15mm of feed stock
G92 E0                ; reset the extruder position again
M117 Print starting   ; write Print starting
;---------------------------------------------
; ; ; Jellybox Printer Start Script End ; ; ;
;_____________________________________________
G92 E0
G1 E-1.4000 F4200
G1 Z0.400 F420
M117 Layer 1 0.3
T0
; tool H0.300 W0.480
; skirt
G1 X39.606 Y19.270 F7200
G1 Z0.300 F420
G1 E-0.1000 F1260
G92 E0
G1 X39.724 Y19.247 E0.0072 F945
G1 X41.561 Y19.206 E0.1172
G1 X41.595 Y19.207 E0.1192
G1 X41.920 Y19.231 E0.1387
G1 X41.955 Y19.235 E0.1408
G1 X42.557 Y19.339 E0.1774
G1 X42.616 Y19.355 E0.1811
G1 X43.155 Y19.546 E0.2153
G1 X43.210 Y19.572 E0.2190
G1 X43.962 Y19.993 E0.2706
G1 X44.034 Y20.046 E0.2759
G1 X44.636 Y20.615 E0.3255
G1 X44.693 Y20.683 E0.3308
G1 X45.307 Y21.644 E0.3991
G1 X45.348 Y21.733 E0.4049
G1 X45.616 Y22.610 E0.4599
G1 X45.621 Y22.641 E0.4617
G1 X47.475 Y22.641 E0.5727
G1 X47.650 Y22.062 E0.6089
G1 X48.128 Y20.026 E0.7341
G1 X48.290 Y19.068 E0.7923
G1 X48.390 Y17.994 E0.8568
G1 X48.386 Y17.766 E0.8705
G1 X48.248 Y16.959 E0.9195
G1 X48.246 Y16.943 E0.9205
G1 X48.227 Y16.795 E0.9294
G1 X48.225 Y16.779 E0.9303
G1 X48.178 Y16.204 E0.9649
G1 X48.177 Y16.183 E0.9661
G1 X48.173 Y15.995 E0.9774
G1 X48.173 Y15.975 E0.9786
G1 X48.191 Y15.378 E1.0144
G1 X48.193 Y15.358 E1.0156
G1 X48.209 Y15.170 E1.0268
G1 X48.211 Y15.150 E1.0281
G1 X48.303 Y14.512 E1.0666
G1 X48.309 Y14.483 E1.0684
G1 X48.372 Y14.207 E1.0854
G1 X48.380 Y14.178 E1.0872
G1 X48.717 Y13.132 E1.1530
G1 X48.728 Y13.104 E1.1548
G1 X48.836 Y12.843 E1.1717
G1 X48.849 Y12.816 E1.1735
G1 X49.146 Y12.244 E1.2121
G1 X49.156 Y12.226 E1.2133
G1 X49.252 Y12.064 E1.2246
G1 X49.263 Y12.047 E1.2258
G1 X49.596 Y11.552 E1.2615
G1 X49.608 Y11.535 E1.2627
G1 X49.722 Y11.385 E1.2740
G1 X49.734 Y11.369 E1.2752
G1 X50.130 Y10.903 E1.3118
G1 X50.145 Y10.886 E1.3132
G1 X50.295 Y10.731 E1.3261
G1 X50.312 Y10.714 E1.3275
G1 X50.871 Y10.206 E1.3727
G1 X50.888 Y10.191 E1.3741
G1 X51.059 Y10.055 E1.3872
G1 X51.077 Y10.041 E1.3886
G1 X51.579 Y9.691 E1.4252
G1 X51.596 Y9.680 E1.4264
G1 X51.757 Y9.581 E1.4377
G1 X51.774 Y9.571 E1.4389
G1 X52.299 Y9.287 E1.4746
G1 X52.317 Y9.278 E1.4759
G1 X52.488 Y9.197 E1.4871
G1 X52.506 Y9.189 E1.4883
G1 X53.093 Y8.952 E1.5262
G1 X53.119 Y8.942 E1.5279
G1 X53.367 Y8.864 E1.5435
G1 X53.394 Y8.856 E1.5452
G1 X54.319 Y8.640 E1.6020
G1 X54.347 Y8.635 E1.6037
G1 X54.610 Y8.595 E1.6196
G1 X54.638 Y8.592 E1.6213
G1 X55.420 Y8.536 E1.6683
G1 X55.445 Y8.535 E1.6698
G1 X55.673 Y8.534 E1.6834
G1 X55.697 Y8.535 E1.6849
G1 X56.313 Y8.575 E1.7218
G1 X56.333 Y8.576 E1.7230
G1 X56.520 Y8.599 E1.7343
G1 X56.540 Y8.602 E1.7355
G1 X57.128 Y8.707 E1.7713
G1 X57.148 Y8.711 E1.7725
G1 X57.331 Y8.754 E1.7837
G1 X57.350 Y8.759 E1.7849
G1 X57.923 Y8.929 E1.8207
G1 X57.942 Y8.935 E1.8219
G1 X58.119 Y8.999 E1.8332
G1 X58.138 Y9.006 E1.8344
G1 X58.732 Y9.257 E1.8730
G1 X58.759 Y9.270 E1.8748
G1 X59.009 Y9.402 E1.8917
G1 X59.035 Y9.417 E1.8935
G1 X59.961 Y10.009 E1.9593
G1 X59.986 Y10.026 E1.9611
G1 X60.211 Y10.198 E1.9780
G1 X60.234 Y10.217 E1.9798
G1 X60.711 Y10.650 E2.0184
G1 X60.726 Y10.664 E2.0196
G1 X60.858 Y10.799 E2.0309
G1 X60.872 Y10.813 E2.0321
G1 X61.266 Y11.261 E2.0679
G1 X61.279 Y11.277 E2.0691
G1 X61.395 Y11.425 E2.0803
G1 X61.407 Y11.441 E2.0816
G1 X61.749 Y11.931 E2.1173
G1 X61.760 Y11.948 E2.1185
G1 X61.859 Y12.108 E2.1298
G1 X61.870 Y12.125 E2.1310
G1 X62.162 Y12.663 E2.1676
G1 X62.172 Y12.684 E2.1690
G1 X62.264 Y12.882 E2.1821
G1 X62.273 Y12.903 E2.1835
G1 X62.544 Y13.608 E2.2287
G1 X62.552 Y13.630 E2.2301
G1 X62.617 Y13.836 E2.2430
G1 X62.623 Y13.859 E2.2444
G1 X62.768 Y14.452 E2.2810
G1 X62.772 Y14.472 E2.2822
G1 X62.806 Y14.657 E2.2935
G1 X62.809 Y14.677 E2.2947
G1 X62.885 Y15.269 E2.3304
G1 X62.887 Y15.289 E2.3316
G1 X62.900 Y15.477 E2.3429
G1 X62.901 Y15.498 E2.3441
G1 X62.910 Y16.095 E2.3799
G1 X62.910 Y16.115 E2.3811
G1 X62.902 Y16.303 E2.3924
G1 X62.901 Y16.323 E2.3936
G1 X62.843 Y16.917 E2.4293
G1 X62.840 Y16.937 E2.4305
G1 X62.811 Y17.123 E2.4418
G1 X62.808 Y17.143 E2.4430
G1 X62.684 Y17.727 E2.4788
G1 X62.679 Y17.747 E2.4800
G1 X62.630 Y17.929 E2.4913
G1 X62.624 Y17.948 E2.4925
G1 X62.435 Y18.515 E2.5282
G1 X62.428 Y18.534 E2.5294
G1 X62.359 Y18.709 E2.5407
G1 X62.351 Y18.728 E2.5419
G1 X62.100 Y19.269 E2.5777
G1 X62.091 Y19.287 E2.5789
G1 X62.002 Y19.454 E2.5901
G1 X61.992 Y19.471 E2.5913
G1 X61.676 Y19.993 E2.6279
G1 X61.663 Y20.012 E2.6293
G1 X61.540 Y20.189 E2.6422
G1 X61.526 Y20.207 E2.6435
G1 X60.722 Y21.214 E2.7207
G1 X60.112 Y22.067 E2.7834
G1 X59.735 Y22.651 E2.8251
G1 X60.421 Y23.174 E2.8768
G1 X60.514 Y23.280 E2.8852
G1 X61.310 Y24.637 E2.9794
G1 X63.904 Y24.637 E3.1347
G1 X64.087 Y24.686 E3.1460
G1 X65.644 Y25.585 E3.2536
G1 X65.778 Y25.719 E3.2650
G1 X68.371 Y30.211 E3.5755
G1 X68.392 Y30.287 E3.5802
G1 X71.815 Y30.287 E3.7852
G1 X71.908 Y30.299 E3.7908
G1 X72.763 Y30.528 E3.8438
G1 X72.850 Y30.564 E3.8494
G1 X73.841 Y31.136 E3.9179
G1 X73.916 Y31.194 E3.9235
G1 X74.541 Y31.819 E3.9765
G1 X74.598 Y31.894 E3.9821
G1 X75.669 Y33.748 E4.1103
G1 X75.697 Y33.809 E4.1143
G1 X75.904 Y34.397 E4.1517
G1 X75.920 Y34.462 E4.1556
G1 X76.058 Y35.355 E4.2097
G1 X76.062 Y35.421 E4.2137
G1 X76.042 Y36.045 E4.2511
G1 X76.034 Y36.111 E4.2551
G1 X74.975 Y40.916 E4.5496
G1 X74.930 Y41.027 E4.5568
G1 X74.341 Y41.989 E4.6244
G1 X74.262 Y42.080 E4.6315
G1 X73.201 Y42.952 E4.7138
G1 X73.095 Y43.012 E4.7211
G1 X72.018 Y43.405 E4.7897
G1 X71.898 Y43.427 E4.7970
G1 X69.707 Y43.453 E4.9282
G1 X69.623 Y43.444 E4.9333
G1 X68.843 Y43.265 E4.9812
G1 X68.763 Y43.236 E4.9863
G1 X67.804 Y42.758 E5.0504
G1 X67.724 Y42.704 E5.0562
G1 X67.045 Y42.094 E5.1108
G1 X66.982 Y42.020 E5.1166
G1 X66.346 Y41.024 E5.1874
G1 X66.305 Y40.935 E5.1933
G1 X66.036 Y40.058 E5.2482
G1 X66.031 Y40.027 E5.2500
G1 X64.189 Y40.027 E5.3604
G1 X63.875 Y41.087 E5.4266
G1 X63.528 Y42.625 E5.5209
G1 X63.363 Y43.600 E5.5802
G1 X63.263 Y44.674 E5.6447
G1 X63.267 Y44.902 E5.6583
G1 X63.405 Y45.709 E5.7074
G1 X63.407 Y45.725 E5.7083
G1 X63.426 Y45.873 E5.7173
G1 X63.428 Y45.889 E5.7182
G1 X63.476 Y46.484 E5.7540
G1 X63.477 Y46.508 E5.7554
G1 X63.480 Y46.736 E5.7691
G1 X63.480 Y46.761 E5.7705
G1 X63.437 Y47.544 E5.8175
G1 X63.434 Y47.572 E5.8192
G1 X63.399 Y47.835 E5.8351
G1 X63.394 Y47.863 E5.8368
G1 X63.194 Y48.792 E5.8937
G1 X63.187 Y48.819 E5.8953
G1 X63.112 Y49.068 E5.9109
G1 X63.103 Y49.095 E5.9126
G1 X62.876 Y49.685 E5.9505
G1 X62.868 Y49.704 E5.9517
G1 X62.791 Y49.876 E5.9630
G1 X62.782 Y49.894 E5.9642
G1 X62.506 Y50.424 E5.9999
G1 X62.497 Y50.441 E6.0012
G1 X62.400 Y50.603 E6.0124
G1 X62.390 Y50.621 E6.0136
G1 X62.048 Y51.128 E6.0503
G1 X62.035 Y51.147 E6.0517
G1 X61.902 Y51.320 E6.0647
G1 X61.887 Y51.338 E6.0661
G1 X61.388 Y51.905 E6.1113
G1 X61.372 Y51.922 E6.1127
G1 X61.219 Y52.075 E6.1257
G1 X61.202 Y52.091 E6.1271
G1 X60.743 Y52.494 E6.1636
G1 X60.728 Y52.507 E6.1648
G1 X60.579 Y52.623 E6.1761
G1 X60.563 Y52.635 E6.1773
G1 X60.035 Y53.003 E6.2159
G1 X60.009 Y53.020 E6.2177
G1 X59.978 Y53.038 E6.2199
G1 X61.118 Y55.012 E6.3563
G1 X61.138 Y55.088 E6.3610
G1 X64.562 Y55.088 E6.5660
G1 X64.655 Y55.100 E6.5716
G1 X65.509 Y55.329 E6.6246
G1 X65.596 Y55.365 E6.6302
G1 X66.587 Y55.937 E6.6987
G1 X66.662 Y55.994 E6.7044
G1 X67.287 Y56.620 E6.7573
G1 X67.345 Y56.695 E6.7630
G1 X68.415 Y58.549 E6.8911
G1 X68.443 Y58.610 E6.8951
G1 X68.650 Y59.198 E6.9325
G1 X68.667 Y59.263 E6.9365
G1 X68.805 Y60.155 E6.9905
G1 X68.809 Y60.222 E6.9945
G1 X68.789 Y60.845 E7.0319
G1 X68.781 Y60.911 E7.0359
G1 X67.722 Y65.716 E7.3304
G1 X67.677 Y65.828 E7.3376
G1 X67.087 Y66.790 E7.4052
G1 X67.009 Y66.880 E7.4124
G1 X65.948 Y67.752 E7.4946
G1 X65.842 Y67.813 E7.5019
G1 X64.765 Y68.206 E7.5705
G1 X64.645 Y68.228 E7.5778
G1 X62.454 Y68.253 E7.7090
G1 X62.369 Y68.244 E7.7141
G1 X61.590 Y68.066 E7.7620
G1 X61.509 Y68.037 E7.7671
G1 X60.551 Y67.559 E7.8312
