; G-Code generated by Simplify3D(R) Version 3.1.0
; Apr 6, 2017 at 2:59:23 PM
; Settings Summary
;   processName,Process1
;   applyToModels,feeder yoke 2.0 pink,feeder yoke 2.0 pink(2),feeder yoke 2.0 pink(3),feeder yoke 2.0 pink(4),feeder yoke 2.0 pink(5),feeder yoke 2.0 pink(6)
;   profileName,PETG 0.2 he.20 bt50 (modified)
;   profileVersion,2017-03-22 16:13:03
;   baseProfile,Default (modified)
;   printMaterial,
;   printQuality,
;   printExtruders,
;   extruderName,Primary Extruder
;   extruderToolheadNumber,0
;   extruderDiameter,0.4
;   extruderAutoWidth,0
;   extruderWidth,0.48
;   extrusionMultiplier,1
;   extruderUseRetract,1
;   extruderRetractionDistance,1.4
;   extruderExtraRestartDistance,-0.1
;   extruderRetractionZLift,0.1
;   extruderRetractionSpeed,2700
;   extruderUseCoasting,1
;   extruderCoastingDistance,0.2
;   extruderUseWipe,1
;   extruderWipeDistance,0.2
;   primaryExtruder,0
;   layerHeight,0.2
;   topSolidLayers,4
;   bottomSolidLayers,2
;   perimeterOutlines,2
;   printPerimetersInsideOut,1
;   startPointOption,2
;   startPointOriginX,85
;   startPointOriginY,0
;   startPointOriginZ,5
;   sequentialIslands,0
;   spiralVaseMode,0
;   firstLayerHeightPercentage,150
;   firstLayerWidthPercentage,100
;   firstLayerUnderspeed,0.3
;   useRaft,0
;   raftExtruder,0
;   raftLayers,3
;   raftOffset,3
;   raftSeparationDistance,0.14
;   raftInfill,85
;   disableRaftBaseLayers,0
;   useSkirt,1
;   skirtExtruder,0
;   skirtLayers,1
;   skirtOutlines,2
;   skirtOffset,5
;   usePrimePillar,0
;   primePillarExtruder,999
;   primePillarWidth,12
;   primePillarLocation,7
;   primePillarSpeedMultiplier,1
;   useOozeShield,0
;   oozeShieldExtruder,999
;   oozeShieldOffset,2
;   oozeShieldOutlines,1
;   oozeShieldSidewallShape,1
;   oozeShieldSidewallAngle,30
;   oozeShieldSpeedMultiplier,1
;   infillExtruder,0
;   internalInfillPattern,Rectilinear
;   externalInfillPattern,Rectilinear
;   infillPercentage,22
;   outlineOverlapPercentage,30
;   infillExtrusionWidthPercentage,125
;   minInfillLength,5
;   infillLayerInterval,1
;   infillAngles,45,-45
;   overlapInfillAngles,0
;   generateSupport,0
;   supportExtruder,0
;   supportInfillPercentage,20
;   supportExtraInflation,0.5
;   denseSupportLayers,0
;   denseSupportInfillPercentage,70
;   supportLayerInterval,1
;   supportHorizontalPartOffset,0.8
;   supportUpperSeparationLayers,1
;   supportLowerSeparationLayers,1
;   supportType,0
;   supportGridSpacing,1.5
;   maxOverhangAngle,55
;   supportAngles,0
;   temperatureName,Primary Extruder,bed
;   temperatureNumber,0,0
;   temperatureSetpointCount,2,2
;   temperatureSetpointLayers,1,2,1,2
;   temperatureSetpointTemperatures,240,235,65,60
;   temperatureStabilizeAtStartup,1,1
;   temperatureHeatedBed,0,1
;   temperatureRelayBetweenLayers,0,0
;   temperatureRelayBetweenLoops,0,0
;   fanLayers,1,4
;   fanSpeeds,0,20
;   blipFanToFullPower,1
;   adjustSpeedForCooling,0
;   minSpeedLayerTime,15
;   minCoolingSpeedSlowdown,65
;   increaseFanForCooling,1
;   minFanLayerTime,15
;   maxCoolingFanSpeed,60
;   increaseFanForBridging,1
;   bridgingFanSpeed,100
;   use5D,1
;   relativeEdistances,0
;   allowEaxisZeroing,1
;   independentExtruderAxes,0
;   includeM10123,0
;   stickySupport,1
;   applyToolheadOffsets,0
;   gcodeXoffset,0
;   gcodeYoffset,0
;   gcodeZoffset,0
;   overrideMachineDefinition,1
;   machineTypeOverride,0
;   strokeXoverride,170
;   strokeYoverride,160
;   strokeZoverride,145
;   originOffsetXoverride,0
;   originOffsetYoverride,0
;   originOffsetZoverride,0
;   homeXdirOverride,-1
;   homeYdirOverride,-1
;   homeZdirOverride,-1
;   flipXoverride,1
;   flipYoverride,-1
;   flipZoverride,1
;   toolheadOffsets,0,0|0,0|0,0|0,0|0,0|0,0
;   overrideFirmwareConfiguration,1
;   firmwareTypeOverride,RepRap (Marlin/Repetier/Sprinter)
;   GPXconfigOverride,r2
;   baudRateOverride,250000
;   overridePrinterModels,0
;   printerModelsOverride
;   startingGcode,;---------------------------------------,; ; ; Jellybox Start Script Begin ; ; ;,;_______________________________________,; M92 E140            ;optionally adjust steps per mm for your filament,M117 Preparing        ;write Preparing,M206 X10.0 Y0.0       ;set x homing offset for default bed leveling,G21                   ;metric values,G90                   ;absolute positioning,M107                  ;start with the fan off,M82                   ;set extruder to absolute mode,G28                   ;home all axes,M203 Z4               ;slow Z speed down for greater accuracy when probing,G29                   ;auto bed leveling procedure,M203 Z7               ;pick up z speed again for printing,G92 E0                ;reset the extruder position,G1 F1500 E15          ;extrude 15mm of feed stock,G92 E0                ;reset the extruder position again,M117 Print starting   ;write Print starting,;---------------------------------------------,; ; ; Jellybox Printer Start Script End ; ; ;,;_____________________________________________
;   layerChangeGcode,
;   retractionGcode,
;   toolChangeGcode,
;   endingGcode,; ---------------------------------,; ; ;  Jellybox End Script Begin ; ; ;,; _________________________________,M117 Finishing Up  ; write Finishing Up,M104 S0            ; extruder heater off,M140 S0            ; bed heater off (if you have it),G91                ; relative positioning,G1 E-1 F300        ; retract the filament a bit before lifting the nozzle to release some of the pressure,G1 Z+0.5 E-5 X-20 Y-20 F9000 ; move Z up a bit and retract filament even more,G90                ; absolute positioning,G28 X              ; home x so the head is out of the way,G1 Y100            ; move Y forward so the print is more accessible,M84                ; steppers off,M117 Print finished ; write Print finished,; ---------------------------------------,; ; ;  Jellybox End Script End ; ; ;,; _______________________________________
;   exportFileFormat,gcode
;   celebration,0
;   celebrationSong,Random Song
;   postProcessing,|{REPLACE "; layer" "M117 Layer"} ,{REPLACE ", Z = " " | Z="}
;   defaultSpeed,2700
;   outlineUnderspeed,0.55
;   solidInfillUnderspeed,0.55
;   supportUnderspeed,0.9
;   rapidXYspeed,7800
;   rapidZspeed,420
;   minBridgingArea,50
;   bridgingExtraInflation,0.2
;   bridgingExtrusionMultiplier,0.8
;   bridgingSpeedMultiplier,1.3
;   filamentDiameter,1.75
;   filamentPricePerKg,30
;   filamentDensity,1.38
;   useMinPrintHeight,0
;   minPrintHeight,0
;   useMaxPrintHeight,0
;   maxPrintHeight,1
;   useDiaphragm,0
;   diaphragmLayerInterval,20
;   robustSlicing,1
;   mergeAllIntoSolid,0
;   onlyRetractWhenCrossingOutline,1
;   retractBetweenLayers,1
;   useRetractionMinTravel,1
;   retractionMinTravel,1
;   retractWhileWiping,1
;   onlyWipeOutlines,1
;   avoidCrossingOutline,1
;   maxMovementDetourFactor,2.5
;   toolChangeRetractionDistance,1.3
;   toolChangeExtraRestartDistance,0
;   toolChangeRetractionSpeed,600
;   allowThinWallGapFill,1
;   thinWallAllowedOverlapPercentage,15
;   horizontalSizeCompensation,0
G90
M82
M106 S0
M140 S65
M190 S65
M104 S240 T0
M109 S240 T0
;---------------------------------------
; ; ; Jellybox Start Script Begin ; ; ;
;_______________________________________
; M92 E140            ;optionally adjust steps per mm for your filament
M117 Preparing        ;write Preparing
M206 X10.0 Y0.0       ;set x homing offset for default bed leveling
G21                   ;metric values
G90                   ;absolute positioning
M107                  ;start with the fan off
M82                   ;set extruder to absolute mode
G28                   ;home all axes
M203 Z4               ;slow Z speed down for greater accuracy when probing
G29                   ;auto bed leveling procedure
M203 Z7               ;pick up z speed again for printing
G92 E0                ;reset the extruder position
G1 F1500 E15          ;extrude 15mm of feed stock
G92 E0                ;reset the extruder position again
M117 Print starting   ;write Print starting
;---------------------------------------------
; ; ; Jellybox Printer Start Script End ; ; ;
;_____________________________________________
G92 E0
G1 E-1.4000 F2700
G1 Z0.400 F420
M117 Layer 1, Z = 0.3
T0
; tool H0.300 W0.480
; skirt
G1 X19.281 Y17.150 F7800
G1 Z0.300 F420
G1 E-0.1000 F810
G92 E0
G1 X19.293 Y17.133 E0.0013 F810
G1 X19.747 Y16.516 E0.0471
G1 X19.761 Y16.499 E0.0484
G1 X19.966 Y16.253 E0.0676
G1 X19.980 Y16.237 E0.0689
G1 X20.847 Y15.317 E0.1446
G1 X20.867 Y15.296 E0.1463
G1 X21.186 Y15.008 E0.1720
G1 X21.208 Y14.989 E0.1738
G1 X22.253 Y14.187 E0.2526
G1 X22.276 Y14.170 E0.2544
G1 X22.639 Y13.935 E0.2803
G1 X22.664 Y13.920 E0.2820
G1 X23.776 Y13.322 E0.3576
G1 X23.796 Y13.312 E0.3589
G1 X24.092 Y13.175 E0.3784
G1 X24.112 Y13.166 E0.3797
G1 X24.827 Y12.887 E0.4257
G1 X24.847 Y12.880 E0.4270
G1 X25.159 Y12.780 E0.4466
G1 X25.180 Y12.773 E0.4479
G1 X26.350 Y12.474 E0.5202
G1 X26.371 Y12.469 E0.5215
G1 X26.693 Y12.408 E0.5411
G1 X26.715 Y12.404 E0.5424
G1 X27.422 Y12.313 E0.5851
G1 X27.437 Y12.312 E0.5860
G1 X27.655 Y12.292 E0.5991
G1 X27.669 Y12.291 E0.6000
G1 X28.382 Y12.258 E0.6427
G1 X28.404 Y12.258 E0.6440
G1 X28.732 Y12.263 E0.6637
G1 X28.754 Y12.264 E0.6650
G1 X30.013 Y12.359 E0.7405
G1 X30.042 Y12.363 E0.7423
G1 X30.474 Y12.431 E0.7685
G1 X30.503 Y12.437 E0.7703
G1 X31.782 Y12.749 E0.8491
G1 X31.810 Y12.757 E0.8508
G1 X32.224 Y12.894 E0.8769
G1 X32.251 Y12.905 E0.8787
G1 X33.447 Y13.412 E0.9565
G1 X33.471 Y13.424 E0.9581
G1 X33.826 Y13.607 E0.9820
G1 X33.849 Y13.620 E0.9836
G1 X34.735 Y14.163 E1.0458
G1 X34.752 Y14.174 E1.0470
G1 X34.997 Y14.344 E1.0648
G1 X35.013 Y14.356 E1.0660
G1 X35.785 Y14.957 E1.1246
G1 X35.804 Y14.973 E1.1261
G1 X36.089 Y15.229 E1.1490
G1 X36.108 Y15.247 E1.1506
G1 X37.005 Y16.179 E1.2280
G1 X37.024 Y16.201 E1.2297
G1 X37.295 Y16.531 E1.2553
G1 X37.312 Y16.554 E1.2571
G1 X37.562 Y16.915 E1.2833
G1 X49.406 Y16.915 E1.9924
G1 X49.411 Y16.902 E1.9932
G1 X49.782 Y15.922 E2.0560
G1 X49.790 Y15.902 E2.0572
G1 X49.917 Y15.619 E2.0758
G1 X49.926 Y15.600 E2.0770
G1 X50.380 Y14.723 E2.1362
G1 X50.389 Y14.707 E2.1373
G1 X50.526 Y14.472 E2.1536
G1 X50.536 Y14.457 E2.1547
G1 X51.095 Y13.603 E2.2158
G1 X51.105 Y13.588 E2.2168
G1 X51.258 Y13.378 E2.2324
G1 X51.268 Y13.364 E2.2334
G1 X51.744 Y12.772 E2.2789
G1 X51.757 Y12.757 E2.2801
G1 X51.953 Y12.538 E2.2977
G1 X51.967 Y12.524 E2.2989
G1 X52.892 Y11.601 E2.3771
G1 X52.911 Y11.583 E2.3787
G1 X53.210 Y11.325 E2.4023
G1 X53.231 Y11.309 E2.4039
G1 X54.302 Y10.516 E2.4837
G1 X54.322 Y10.502 E2.4851
G1 X54.618 Y10.312 E2.5062
G1 X54.639 Y10.299 E2.5076
G1 X55.516 Y9.814 E2.5677
G1 X55.533 Y9.805 E2.5688
G1 X55.781 Y9.684 E2.5853
G1 X55.798 Y9.676 E2.5864
G1 X56.780 Y9.258 E2.6504
G1 X56.803 Y9.249 E2.6518
G1 X57.149 Y9.129 E2.6738
G1 X57.173 Y9.121 E2.6752
G1 X58.463 Y8.770 E2.7553
G1 X58.489 Y8.764 E2.7569
G1 X58.883 Y8.688 E2.7809
G1 X58.909 Y8.684 E2.7825
G1 X60.204 Y8.532 E2.8606
G1 X60.224 Y8.530 E2.8618
G1 X60.525 Y8.512 E2.8798
G1 X60.545 Y8.511 E2.8810
G1 X61.272 Y8.508 E2.9246
G1 X61.286 Y8.508 E2.9254
G1 X61.486 Y8.515 E2.9374
G1 X61.500 Y8.516 E2.9382
G1 X62.225 Y8.567 E2.9817
G1 X62.245 Y8.569 E2.9829
G1 X62.543 Y8.607 E3.0009
G1 X62.563 Y8.610 E3.0021
G1 X63.796 Y8.838 E3.0772
G1 X63.816 Y8.842 E3.0784
G1 X64.108 Y8.913 E3.0964
G1 X64.127 Y8.918 E3.0976
G1 X64.871 Y9.144 E3.1441
G1 X64.890 Y9.151 E3.1453
G1 X65.171 Y9.253 E3.1633
G1 X65.190 Y9.261 E3.1645
G1 X66.388 Y9.777 E3.2426
G1 X66.412 Y9.788 E3.2442
G1 X66.765 Y9.972 E3.2680
G1 X66.788 Y9.985 E3.2696
G1 X67.940 Y10.699 E3.3507
G1 X67.962 Y10.714 E3.3523
G1 X68.282 Y10.947 E3.3760
G1 X68.303 Y10.963 E3.3776
G1 X69.300 Y11.807 E3.4558
G1 X69.315 Y11.820 E3.4570
G1 X69.529 Y12.023 E3.4746
G1 X69.543 Y12.037 E3.4758
G1 X70.077 Y12.601 E3.5223
G1 X70.090 Y12.615 E3.5235
G1 X70.281 Y12.840 E3.5411
G1 X70.293 Y12.855 E3.5423
G1 X70.456 Y13.070 E3.5584
G1 X71.193 Y12.816 E3.6051
G1 X71.221 Y12.808 E3.6069
G1 X71.645 Y12.699 E3.6330
G1 X71.673 Y12.693 E3.6348
G1 X72.917 Y12.481 E3.7103
G1 X72.939 Y12.478 E3.7117
G1 X73.265 Y12.443 E3.7313
G1 X73.287 Y12.441 E3.7326
G1 X74.000 Y12.408 E3.7753
G1 X74.015 Y12.408 E3.7762
G1 X74.233 Y12.406 E3.7893
G1 X74.248 Y12.407 E3.7902
G1 X74.944 Y12.431 E3.8318
G1 X74.963 Y12.432 E3.8330
G1 X75.255 Y12.458 E3.8506
G1 X75.275 Y12.461 E3.8518
G1 X76.248 Y12.602 E3.9107
G1 X76.268 Y12.606 E3.9119
G1 X76.562 Y12.666 E3.9298
G1 X76.582 Y12.670 E3.9310
G1 X77.475 Y12.904 E3.9863
G1 X77.493 Y12.910 E3.9874
G1 X77.760 Y12.995 E4.0042
G1 X77.778 Y13.001 E4.0053
G1 X78.474 Y13.264 E4.0499
G1 X78.494 Y13.272 E4.0512
G1 X78.792 Y13.406 E4.0707
G1 X78.811 Y13.415 E4.0720
G1 X79.930 Y14.001 E4.1476
G1 X79.955 Y14.016 E4.1494
G1 X80.321 Y14.247 E4.1753
G1 X80.345 Y14.263 E4.1770
G1 X81.398 Y15.054 E4.2559
G1 X81.420 Y15.072 E4.2576
G1 X81.743 Y15.357 E4.2834
G1 X81.764 Y15.377 E4.2851
G1 X82.677 Y16.326 E4.3639
G1 X82.696 Y16.348 E4.3657
G1 X82.967 Y16.679 E4.3913
G1 X82.984 Y16.701 E4.3930
G1 X83.234 Y17.062 E4.4192
G1 X95.079 Y17.062 E5.1283
G1 X95.083 Y17.049 E5.1291
G1 X95.463 Y16.048 E5.1932
G1 X95.472 Y16.026 E5.1946
G1 X95.619 Y15.703 E5.2159
G1 X95.630 Y15.682 E5.2173
G1 X96.266 Y14.502 E5.2975
G1 X96.279 Y14.480 E5.2991
G1 X96.489 Y14.151 E5.3225
G1 X96.504 Y14.129 E5.3240
G1 X97.313 Y13.042 E5.4052
G1 X97.330 Y13.021 E5.4068
G1 X97.587 Y12.725 E5.4303
G1 X97.605 Y12.705 E5.4318
G1 X98.564 Y11.748 E5.5130
G1 X98.583 Y11.730 E5.5146
G1 X98.883 Y11.472 E5.5382
G1 X98.903 Y11.456 E5.5398
G1 X99.992 Y10.650 E5.6209
G1 X100.014 Y10.635 E5.6225
G1 X100.350 Y10.423 E5.6463
G1 X100.373 Y10.409 E5.6479
G1 X101.569 Y9.773 E5.7290
G1 X101.593 Y9.761 E5.7306
G1 X101.958 Y9.600 E5.7544
G1 X101.983 Y9.591 E5.7560
G1 X103.238 Y9.146 E5.8358
G1 X103.261 Y9.138 E5.8372
G1 X103.604 Y9.042 E5.8586
G1 X103.627 Y9.036 E5.8600
G1 X104.608 Y8.830 E5.9200
G1 X104.627 Y8.826 E5.9211
G1 X104.900 Y8.783 E5.9377
G1 X104.918 Y8.781 E5.9388
G1 X105.980 Y8.670 E6.0027
G1 X106.004 Y8.668 E6.0042
G1 X106.373 Y8.655 E6.0262
G1 X106.397 Y8.655 E6.0277
G1 X107.734 Y8.699 E6.1078
G1 X107.761 Y8.701 E6.1094
G1 X108.160 Y8.744 E6.1334
G1 X108.186 Y8.748 E6.1350
G1 X109.518 Y8.994 E6.2161
G1 X109.544 Y9.000 E6.2177
G1 X109.931 Y9.102 E6.2417
G1 X109.957 Y9.110 E6.2433
G1 X111.237 Y9.551 E6.3243
G1 X111.262 Y9.561 E6.3259
G1 X111.628 Y9.718 E6.3498
G1 X111.653 Y9.730 E6.3514
G1 X112.810 Y10.333 E6.4295
G1 X112.827 Y10.343 E6.4307
G1 X113.083 Y10.495 E6.4486
G1 X113.100 Y10.506 E6.4498
G1 X113.704 Y10.912 E6.4933
G1 X113.715 Y10.919 E6.4941
G1 X113.875 Y11.036 E6.5060
G1 X113.885 Y11.044 E6.5068
G1 X114.457 Y11.493 E6.5503
G1 X114.472 Y11.505 E6.5515
G1 X114.695 Y11.701 E6.5692
G1 X114.709 Y11.714 E6.5704
G1 X115.642 Y12.629 E6.6486
G1 X115.660 Y12.648 E6.6502
G1 X115.919 Y12.943 E6.6737
G1 X115.936 Y12.963 E6.6752
G1 X116.755 Y14.044 E6.7564
G1 X116.770 Y14.065 E6.7580
G1 X116.982 Y14.393 E6.7813
G1 X116.996 Y14.415 E6.7829
G1 X117.650 Y15.604 E6.8641
G1 X117.661 Y15.627 E6.8657
G1 X117.823 Y15.980 E6.8890
G1 X117.833 Y16.004 E6.8905
G1 X118.292 Y17.230 E6.9689
G1 X118.298 Y17.248 E6.9700
G1 X118.385 Y17.525 E6.9874
G1 X118.390 Y17.544 E6.9886
G1 X118.570 Y18.249 E7.0321
G1 X118.573 Y18.261 E7.0329
G1 X118.614 Y18.450 E7.0444
G1 X118.617 Y18.463 E7.0452
G1 X118.745 Y19.178 E7.0888
G1 X118.748 Y19.198 E7.0899
G1 X118.784 Y19.485 E7.1073
G1 X118.786 Y19.505 E7.1084
G1 X118.874 Y20.762 E7.1839
G1 X118.875 Y20.782 E7.1851
G1 X118.879 Y21.070 E7.2024
G1 X118.879 Y21.090 E7.2035
G1 X118.849 Y21.865 E7.2500
G1 X118.848 Y21.884 E7.2511
G1 X118.822 Y22.173 E7.2685
G1 X118.819 Y22.192 E7.2696
G1 X118.636 Y23.440 E7.3451
G1 X118.632 Y23.459 E7.3463
G1 X118.575 Y23.742 E7.3636
G1 X118.570 Y23.761 E7.3648
G1 X118.375 Y24.512 E7.4112
G1 X118.370 Y24.531 E7.4124
G1 X118.282 Y24.807 E7.4298
G1 X118.276 Y24.826 E7.4309
G1 X117.812 Y26.050 E7.5093
G1 X117.801 Y26.074 E7.5108
G1 X117.638 Y26.426 E7.5341
G1 X117.626 Y26.449 E7.5357
G1 X116.991 Y27.592 E7.6139
G1 X116.981 Y27.609 E7.6151
G1 X116.825 Y27.857 E7.6327
G1 X116.814 Y27.873 E7.6338
