; G-Code generated by Simplify3D(R) Version 3.1.0
; Mar 22, 2017 at 4:24:14 PM
; Settings Summary
;   processName,Process1
;   applyToModels,feeder yoke 2.0 pink,feeder yoke 2.0 pink(2),feeder yoke 2.0 pink(3),feeder yoke 2.0 pink(4),feeder yoke 2.0 pink(5),feeder yoke 2.0 pink(6)
;   profileName,PETG 0.2 he.20 bt50
;   profileVersion,2017-03-22 16:13:03
;   baseProfile,Default (modified)
;   printMaterial,
;   printQuality,
;   printExtruders,
;   extruderName,Primary Extruder
;   extruderToolheadNumber,0
;   extruderDiameter,0.4
;   extruderAutoWidth,0
;   extruderWidth,0.48
;   extrusionMultiplier,0.9
;   extruderUseRetract,1
;   extruderRetractionDistance,1.4
;   extruderExtraRestartDistance,-0.1
;   extruderRetractionZLift,0.1
;   extruderRetractionSpeed,2700
;   extruderUseCoasting,1
;   extruderCoastingDistance,0.2
;   extruderUseWipe,1
;   extruderWipeDistance,0.2
;   primaryExtruder,0
;   layerHeight,0.2
;   topSolidLayers,4
;   bottomSolidLayers,2
;   perimeterOutlines,2
;   printPerimetersInsideOut,1
;   startPointOption,2
;   startPointOriginX,85
;   startPointOriginY,0
;   startPointOriginZ,5
;   sequentialIslands,0
;   spiralVaseMode,0
;   firstLayerHeightPercentage,150
;   firstLayerWidthPercentage,100
;   firstLayerUnderspeed,0.3
;   useRaft,0
;   raftExtruder,0
;   raftLayers,3
;   raftOffset,3
;   raftSeparationDistance,0.14
;   raftInfill,85
;   disableRaftBaseLayers,0
;   useSkirt,1
;   skirtExtruder,0
;   skirtLayers,1
;   skirtOutlines,3
;   skirtOffset,3
;   usePrimePillar,0
;   primePillarExtruder,999
;   primePillarWidth,12
;   primePillarLocation,7
;   primePillarSpeedMultiplier,1
;   useOozeShield,0
;   oozeShieldExtruder,999
;   oozeShieldOffset,2
;   oozeShieldOutlines,1
;   oozeShieldSidewallShape,1
;   oozeShieldSidewallAngle,30
;   oozeShieldSpeedMultiplier,1
;   infillExtruder,0
;   internalInfillPattern,Rectilinear
;   externalInfillPattern,Rectilinear
;   infillPercentage,22
;   outlineOverlapPercentage,30
;   infillExtrusionWidthPercentage,125
;   minInfillLength,5
;   infillLayerInterval,1
;   infillAngles,45,-45
;   overlapInfillAngles,0
;   generateSupport,0
;   supportExtruder,0
;   supportInfillPercentage,20
;   supportExtraInflation,0.5
;   denseSupportLayers,0
;   denseSupportInfillPercentage,70
;   supportLayerInterval,1
;   supportHorizontalPartOffset,0.8
;   supportUpperSeparationLayers,1
;   supportLowerSeparationLayers,1
;   supportType,0
;   supportGridSpacing,1.5
;   maxOverhangAngle,55
;   supportAngles,0
;   temperatureName,Primary Extruder,bed
;   temperatureNumber,0,0
;   temperatureSetpointCount,2,2
;   temperatureSetpointLayers,1,2,1,2
;   temperatureSetpointTemperatures,240,235,65,60
;   temperatureStabilizeAtStartup,1,1
;   temperatureHeatedBed,0,1
;   temperatureRelayBetweenLayers,0,0
;   temperatureRelayBetweenLoops,0,0
;   fanLayers,1,4
;   fanSpeeds,0,20
;   blipFanToFullPower,1
;   adjustSpeedForCooling,0
;   minSpeedLayerTime,15
;   minCoolingSpeedSlowdown,65
;   increaseFanForCooling,1
;   minFanLayerTime,15
;   maxCoolingFanSpeed,60
;   increaseFanForBridging,1
;   bridgingFanSpeed,100
;   use5D,1
;   relativeEdistances,0
;   allowEaxisZeroing,1
;   independentExtruderAxes,0
;   includeM10123,0
;   stickySupport,1
;   applyToolheadOffsets,0
;   gcodeXoffset,0
;   gcodeYoffset,0
;   gcodeZoffset,0
;   overrideMachineDefinition,1
;   machineTypeOverride,0
;   strokeXoverride,170
;   strokeYoverride,160
;   strokeZoverride,145
;   originOffsetXoverride,0
;   originOffsetYoverride,0
;   originOffsetZoverride,0
;   homeXdirOverride,-1
;   homeYdirOverride,-1
;   homeZdirOverride,-1
;   flipXoverride,1
;   flipYoverride,-1
;   flipZoverride,1
;   toolheadOffsets,0,0|0,0|0,0|0,0|0,0|0,0
;   overrideFirmwareConfiguration,1
;   firmwareTypeOverride,RepRap (Marlin/Repetier/Sprinter)
;   GPXconfigOverride,r2
;   baudRateOverride,250000
;   overridePrinterModels,0
;   printerModelsOverride
;   startingGcode,;---------------------------------------,; ; ; Jellybox Start Script Begin ; ; ;,;_______________________________________,; M92 E140            ;optionally adjust steps per mm for your filament,M117 Preparing        ;write Preparing,M206 X10.0 Y0.0       ;set x homing offset for default bed leveling,G21                   ;metric values,G90                   ;absolute positioning,M107                  ;start with the fan off,M82                   ;set extruder to absolute mode,G28                   ;home all axes,M203 Z4               ;slow Z speed down for greater accuracy when probing,G29                   ;auto bed leveling procedure,M203 Z7               ;pick up z speed again for printing,G92 E0                ;reset the extruder position,G1 F1500 E15          ;extrude 15mm of feed stock,G92 E0                ;reset the extruder position again,M117 Print starting   ;write Print starting,;---------------------------------------------,; ; ; Jellybox Printer Start Script End ; ; ;,;_____________________________________________
;   layerChangeGcode,
;   retractionGcode,
;   toolChangeGcode,
;   endingGcode,; ---------------------------------,; ; ;  Jellybox End Script Begin ; ; ;,; _________________________________,M117 Finishing Up  ; write Finishing Up,M104 S0            ; extruder heater off,M140 S0            ; bed heater off (if you have it),G91                ; relative positioning,G1 E-1 F300        ; retract the filament a bit before lifting the nozzle to release some of the pressure,G1 Z+0.5 E-5 X-20 Y-20 F9000 ; move Z up a bit and retract filament even more,G90                ; absolute positioning,G28 X              ; home x so the head is out of the way,G1 Y100            ; move Y forward so the print is more accessible,M84                ; steppers off,M117 Print finished ; write Print finished,; ---------------------------------------,; ; ;  Jellybox End Script End ; ; ;,; _______________________________________
;   exportFileFormat,gcode
;   celebration,0
;   celebrationSong,Random Song
;   postProcessing,|{REPLACE "; layer" "M117 Layer"} ,{REPLACE ", Z = " " | Z="}
;   defaultSpeed,2700
;   outlineUnderspeed,0.55
;   solidInfillUnderspeed,0.55
;   supportUnderspeed,0.9
;   rapidXYspeed,7800
;   rapidZspeed,420
;   minBridgingArea,50
;   bridgingExtraInflation,0.2
;   bridgingExtrusionMultiplier,0.8
;   bridgingSpeedMultiplier,1.3
;   filamentDiameter,1.75
;   filamentPricePerKg,30
;   filamentDensity,1.38
;   useMinPrintHeight,0
;   minPrintHeight,0
;   useMaxPrintHeight,0
;   maxPrintHeight,1
;   useDiaphragm,0
;   diaphragmLayerInterval,20
;   robustSlicing,1
;   mergeAllIntoSolid,0
;   onlyRetractWhenCrossingOutline,1
;   retractBetweenLayers,1
;   useRetractionMinTravel,1
;   retractionMinTravel,1
;   retractWhileWiping,1
;   onlyWipeOutlines,1
;   avoidCrossingOutline,1
;   maxMovementDetourFactor,2.5
;   toolChangeRetractionDistance,1.3
;   toolChangeExtraRestartDistance,0
;   toolChangeRetractionSpeed,600
;   allowThinWallGapFill,1
;   thinWallAllowedOverlapPercentage,15
;   horizontalSizeCompensation,0
G90
M82
M106 S0
M140 S65
M190 S65
M104 S240 T0
M109 S240 T0
;---------------------------------------
; ; ; Jellybox Start Script Begin ; ; ;
;_______________________________________
; M92 E140            ;optionally adjust steps per mm for your filament
M117 Preparing        ;write Preparing
M206 X10.0 Y0.0       ;set x homing offset for default bed leveling
G21                   ;metric values
G90                   ;absolute positioning
M107                  ;start with the fan off
M82                   ;set extruder to absolute mode
G28                   ;home all axes
M203 Z4               ;slow Z speed down for greater accuracy when probing
G29                   ;auto bed leveling procedure
M203 Z7               ;pick up z speed again for printing
G92 E0                ;reset the extruder position
G1 F1500 E15          ;extrude 15mm of feed stock
G92 E0                ;reset the extruder position again
M117 Print starting   ;write Print starting
;---------------------------------------------
; ; ; Jellybox Printer Start Script End ; ; ;
;_____________________________________________
G92 E0
G1 E-1.4000 F2700
G1 Z0.400 F420
M117 Layer 1, Z = 0.3
T0
; tool H0.300 W0.480
; skirt
G1 X36.949 Y31.917 F7800
G1 Z0.300 F420
G1 E-0.1000 F810
G92 E0
G1 X36.984 Y31.883 E0.0026 F810
G1 X37.199 Y31.692 E0.0181
G1 X37.236 Y31.662 E0.0207
G1 X38.140 Y30.981 E0.0817
G1 X38.169 Y30.960 E0.0836
G1 X38.349 Y30.840 E0.0952
G1 X38.380 Y30.821 E0.0972
G1 X38.916 Y30.510 E0.1306
G1 X38.937 Y30.499 E0.1319
G1 X39.065 Y30.431 E0.1397
G1 X39.086 Y30.420 E0.1409
G1 X39.646 Y30.153 E0.1744
G1 X39.678 Y30.139 E0.1763
G1 X39.879 Y30.057 E0.1879
G1 X39.912 Y30.045 E0.1899
G1 X40.984 Y29.683 E0.2508
G1 X41.030 Y29.669 E0.2534
G1 X41.310 Y29.599 E0.2690
G1 X41.357 Y29.589 E0.2715
G1 X42.508 Y29.397 E0.3344
G1 X42.556 Y29.391 E0.3370
G1 X42.843 Y29.366 E0.3526
G1 X42.891 Y29.364 E0.3551
G1 X44.023 Y29.357 E0.4161
G1 X44.058 Y29.358 E0.4180
G1 X44.274 Y29.370 E0.4297
G1 X44.310 Y29.373 E0.4316
G1 X44.962 Y29.448 E0.4670
G1 X44.998 Y29.453 E0.4689
G1 X45.210 Y29.491 E0.4806
G1 X45.246 Y29.498 E0.4825
G1 X46.346 Y29.761 E0.5435
G1 X46.392 Y29.774 E0.5461
G1 X46.666 Y29.863 E0.5616
G1 X46.711 Y29.879 E0.5642
G1 X47.779 Y30.324 E0.6265
G1 X47.819 Y30.342 E0.6288
G1 X48.056 Y30.462 E0.6431
G1 X48.094 Y30.483 E0.6455
G1 X48.885 Y30.959 E0.6952
G1 X48.913 Y30.977 E0.6970
G1 X49.077 Y31.089 E0.7077
G1 X49.104 Y31.108 E0.7095
G1 X49.785 Y31.628 E0.7557
G1 X49.818 Y31.655 E0.7580
G1 X50.010 Y31.824 E0.7718
G1 X50.041 Y31.854 E0.7741
G1 X50.847 Y32.675 E0.8361
G1 X50.880 Y32.711 E0.8387
G1 X51.064 Y32.932 E0.8542
G1 X51.094 Y32.970 E0.8568
G1 X51.759 Y33.909 E0.9188
G1 X65.589 Y33.909 E1.6640
G1 X65.793 Y33.159 E1.7059
G1 X65.802 Y33.130 E1.7076
G1 X65.860 Y32.954 E1.7175
G1 X65.870 Y32.925 E1.7192
G1 X66.211 Y32.042 E1.7702
G1 X66.225 Y32.009 E1.7721
G1 X66.313 Y31.817 E1.7835
G1 X66.328 Y31.785 E1.7854
G1 X66.739 Y31.008 E1.8327
G1 X66.754 Y30.981 E1.8344
G1 X66.848 Y30.823 E1.8444
G1 X66.865 Y30.797 E1.8460
G1 X67.380 Y30.024 E1.8961
G1 X67.397 Y30.000 E1.8976
G1 X67.502 Y29.859 E1.9071
G1 X67.520 Y29.835 E1.9087
G1 X67.941 Y29.322 E1.9445
G1 X67.962 Y29.297 E1.9463
G1 X68.096 Y29.151 E1.9569
G1 X68.119 Y29.127 E1.9587
G1 X68.966 Y28.300 E2.0225
G1 X68.998 Y28.270 E2.0249
G1 X69.200 Y28.100 E2.0391
G1 X69.235 Y28.072 E2.0415
G1 X70.207 Y27.367 E2.1062
G1 X70.240 Y27.345 E2.1083
G1 X70.438 Y27.220 E2.1210
G1 X70.472 Y27.200 E2.1231
G1 X71.254 Y26.775 E2.1710
G1 X71.281 Y26.761 E2.1727
G1 X71.446 Y26.682 E2.1825
G1 X71.474 Y26.670 E2.1842
G1 X72.331 Y26.312 E2.2342
G1 X72.358 Y26.301 E2.2358
G1 X72.524 Y26.241 E2.2453
G1 X72.552 Y26.232 E2.2469
G1 X73.187 Y26.037 E2.2827
G1 X73.219 Y26.028 E2.2845
G1 X73.411 Y25.981 E2.2951
G1 X73.444 Y25.974 E2.2969
G1 X74.607 Y25.753 E2.3607
G1 X74.650 Y25.747 E2.3631
G1 X74.913 Y25.716 E2.3773
G1 X74.957 Y25.713 E2.3797
G1 X76.158 Y25.664 E2.4445
G1 X76.197 Y25.664 E2.4466
G1 X76.432 Y25.669 E2.4592
G1 X76.471 Y25.672 E2.4613
G1 X77.357 Y25.751 E2.5093
G1 X77.387 Y25.755 E2.5109
G1 X77.567 Y25.780 E2.5207
G1 X77.597 Y25.785 E2.5223
G1 X78.541 Y25.967 E2.5741
G1 X78.580 Y25.976 E2.5763
G1 X78.816 Y26.039 E2.5894
G1 X78.854 Y26.050 E2.5916
G1 X79.997 Y26.437 E2.6566
G1 X80.039 Y26.452 E2.6590
G1 X80.282 Y26.555 E2.6732
G1 X80.322 Y26.574 E2.6756
G1 X81.405 Y27.128 E2.7412
G1 X81.444 Y27.149 E2.7435
G1 X81.670 Y27.286 E2.7578
G1 X81.706 Y27.311 E2.7601
G1 X82.697 Y28.017 E2.8257
G1 X82.732 Y28.044 E2.8281
G1 X82.935 Y28.213 E2.8423
G1 X82.968 Y28.242 E2.8447
G1 X83.821 Y29.063 E2.9085
G1 X83.844 Y29.086 E2.9103
G1 X83.980 Y29.231 E2.9209
G1 X84.001 Y29.256 E2.9227
G1 X84.433 Y29.775 E2.9591
G1 X84.454 Y29.801 E2.9609
G1 X84.572 Y29.960 E2.9715
G1 X84.591 Y29.987 E2.9733
G1 X85.244 Y30.974 E3.0371
G1 X85.267 Y31.011 E3.0395
G1 X85.396 Y31.242 E3.0537
G1 X85.417 Y31.281 E3.0561
G1 X85.919 Y32.353 E3.1199
G1 X85.932 Y32.383 E3.1216
G1 X85.935 Y32.392 E3.1221
G1 X86.099 Y32.221 E3.1348
G1 X86.133 Y32.188 E3.1374
G1 X87.006 Y31.413 E3.2003
G1 X87.044 Y31.383 E3.2029
G1 X87.274 Y31.209 E3.2184
G1 X87.313 Y31.182 E3.2210
G1 X88.299 Y30.556 E3.2839
G1 X88.340 Y30.532 E3.2865
G1 X88.595 Y30.398 E3.3021
G1 X88.638 Y30.377 E3.3046
G1 X89.678 Y29.930 E3.3656
G1 X89.711 Y29.917 E3.3675
G1 X89.915 Y29.844 E3.3792
G1 X89.949 Y29.833 E3.3811
G1 X90.544 Y29.658 E3.4145
G1 X90.567 Y29.652 E3.4158
G1 X90.707 Y29.617 E3.4236
G1 X90.730 Y29.611 E3.4249
G1 X91.337 Y29.485 E3.4583
G1 X91.372 Y29.478 E3.4602
G1 X91.586 Y29.447 E3.4719
G1 X91.622 Y29.443 E3.4738
G1 X92.749 Y29.346 E3.5348
G1 X92.797 Y29.344 E3.5374
G1 X93.085 Y29.342 E3.5529
G1 X93.133 Y29.344 E3.5555
G1 X94.262 Y29.428 E3.6164
G1 X94.297 Y29.431 E3.6184
G1 X94.512 Y29.460 E3.6300
G1 X94.547 Y29.466 E3.6320
G1 X95.191 Y29.593 E3.6673
G1 X95.226 Y29.601 E3.6693
G1 X95.435 Y29.655 E3.6809
G1 X95.470 Y29.666 E3.6828
G1 X96.511 Y30.004 E3.7419
G1 X96.545 Y30.016 E3.7438
G1 X96.746 Y30.095 E3.7554
G1 X96.779 Y30.110 E3.7574
G1 X97.364 Y30.381 E3.7921
G1 X97.393 Y30.395 E3.7938
G1 X97.564 Y30.486 E3.8043
G1 X97.592 Y30.502 E3.8060
G1 X98.351 Y30.959 E3.8538
G1 X98.379 Y30.977 E3.8555
G1 X98.544 Y31.089 E3.8663
G1 X98.571 Y31.108 E3.8681
G1 X99.223 Y31.606 E3.9123
G1 X99.247 Y31.625 E3.9139
G1 X99.387 Y31.744 E3.9238
G1 X99.410 Y31.765 E3.9255
G1 X99.876 Y32.203 E3.9600
G1 X99.902 Y32.228 E3.9619
G1 X100.050 Y32.385 E3.9735
G1 X100.074 Y32.412 E3.9755
G1 X100.776 Y33.253 E4.0345
G1 X100.799 Y33.281 E4.0364
G1 X100.927 Y33.455 E4.0481
G1 X100.948 Y33.485 E4.0500
G1 X101.224 Y33.909 E4.0773
G1 X115.055 Y33.909 E4.8226
G1 X115.370 Y32.827 E4.8834
G1 X115.380 Y32.795 E4.8851
G1 X115.446 Y32.608 E4.8958
G1 X115.457 Y32.577 E4.8976
G1 X115.716 Y31.954 E4.9339
G1 X115.729 Y31.924 E4.9357
G1 X115.815 Y31.745 E4.9464
G1 X115.830 Y31.716 E4.9482
G1 X116.401 Y30.679 E5.0120
G1 X116.424 Y30.641 E5.0143
G1 X116.568 Y30.419 E5.0286
G1 X116.593 Y30.383 E5.0309
G1 X117.320 Y29.427 E5.0957
G1 X117.345 Y29.396 E5.0978
G1 X117.498 Y29.220 E5.1104
G1 X117.524 Y29.191 E5.1125
G1 X118.150 Y28.558 E5.1605
G1 X118.172 Y28.537 E5.1621
G1 X118.308 Y28.413 E5.1720
G1 X118.331 Y28.393 E5.1737
G1 X119.048 Y27.802 E5.2237
G1 X119.071 Y27.784 E5.2253
G1 X119.213 Y27.679 E5.2348
G1 X119.237 Y27.662 E5.2364
G1 X119.775 Y27.300 E5.2713
G1 X119.799 Y27.285 E5.2729
G1 X119.943 Y27.198 E5.2819
G1 X119.967 Y27.184 E5.2834
G1 X120.720 Y26.775 E5.3296
G1 X120.748 Y26.761 E5.3312
G1 X120.913 Y26.682 E5.3411
G1 X120.941 Y26.670 E5.3428
G1 X121.797 Y26.312 E5.3928
G1 X121.825 Y26.301 E5.3944
G1 X121.991 Y26.241 E5.4039
G1 X122.019 Y26.232 E5.4055
G1 X122.640 Y26.042 E5.4405
G1 X122.667 Y26.034 E5.4420
G1 X122.830 Y25.992 E5.4511
G1 X122.857 Y25.986 E5.4526
G1 X123.696 Y25.812 E5.4987
G1 X123.726 Y25.807 E5.5004
G1 X123.907 Y25.779 E5.5102
G1 X123.937 Y25.775 E5.5118
G1 X124.860 Y25.680 E5.5619
G1 X124.889 Y25.678 E5.5634
G1 X125.066 Y25.669 E5.5730
G1 X125.096 Y25.668 E5.5746
G1 X125.746 Y25.665 E5.6096
G1 X125.774 Y25.666 E5.6111
G1 X125.942 Y25.673 E5.6202
G1 X125.971 Y25.675 E5.6217
G1 X126.824 Y25.751 E5.6679
G1 X126.854 Y25.755 E5.6695
G1 X127.034 Y25.780 E5.6793
G1 X127.064 Y25.785 E5.6809
G1 X127.975 Y25.961 E5.7309
G1 X128.004 Y25.967 E5.7325
G1 X128.176 Y26.010 E5.7421
G1 X128.205 Y26.017 E5.7437
G1 X128.841 Y26.207 E5.7795
G1 X128.873 Y26.217 E5.7813
G1 X129.059 Y26.284 E5.7919
G1 X129.090 Y26.296 E5.7937
G1 X130.150 Y26.744 E5.8557
G1 X130.180 Y26.757 E5.8575
G1 X130.358 Y26.844 E5.8682
G1 X130.388 Y26.859 E5.8700
G1 X130.977 Y27.189 E5.9063
G1 X131.005 Y27.205 E5.9081
G1 X131.173 Y27.311 E5.9188
G1 X131.200 Y27.330 E5.9205
G1 X132.164 Y28.017 E5.9843
G1 X132.199 Y28.044 E5.9867
G1 X132.402 Y28.213 E6.0009
G1 X132.435 Y28.242 E6.0033
G1 X133.288 Y29.063 E6.0671
G1 X133.311 Y29.086 E6.0689
G1 X133.446 Y29.231 E6.0796
G1 X133.468 Y29.256 E6.0813
G1 X133.900 Y29.775 E6.1177
G1 X133.920 Y29.801 E6.1195
G1 X134.039 Y29.959 E6.1301
G1 X134.057 Y29.987 E6.1319
G1 X134.711 Y30.974 E6.1957
G1 X134.734 Y31.011 E6.1981
