; G-Code generated by Simplify3D(R) Version 3.1.0
; Mar 3, 2017 at 2:27:20 PM
; Settings Summary
;   processName,Process1
;   applyToModels,feeder latch 1.2.1 green,feeder latch 1.2.1 green(2),feeder latch 1.2.1 green(3),feeder latch 1.2.1 green(4),feeder latch 1.2.1 green(5),feeder latch 1.2.1 green(6)
;   profileName,PETG 0.3 he.20 bt50 (modified)
;   profileVersion,2017-02-27 23:31:17
;   baseProfile,Default (modified)
;   printMaterial,
;   printQuality,
;   printExtruders,
;   extruderName,Primary Extruder
;   extruderToolheadNumber,0
;   extruderDiameter,0.4
;   extruderAutoWidth,0
;   extruderWidth,0.48
;   extrusionMultiplier,0.95
;   extruderUseRetract,1
;   extruderRetractionDistance,1.4
;   extruderExtraRestartDistance,-0.1
;   extruderRetractionZLift,0.1
;   extruderRetractionSpeed,4200
;   extruderUseCoasting,1
;   extruderCoastingDistance,0.2
;   extruderUseWipe,1
;   extruderWipeDistance,0.2
;   primaryExtruder,0
;   layerHeight,0.3
;   topSolidLayers,3
;   bottomSolidLayers,2
;   perimeterOutlines,2
;   printPerimetersInsideOut,1
;   startPointOption,2
;   startPointOriginX,80
;   startPointOriginY,0
;   startPointOriginZ,5
;   sequentialIslands,0
;   spiralVaseMode,0
;   firstLayerHeightPercentage,100
;   firstLayerWidthPercentage,100
;   firstLayerUnderspeed,0.35
;   useRaft,0
;   raftExtruder,0
;   raftLayers,3
;   raftOffset,3
;   raftSeparationDistance,0.14
;   raftInfill,85
;   disableRaftBaseLayers,0
;   useSkirt,1
;   skirtExtruder,0
;   skirtLayers,1
;   skirtOutlines,3
;   skirtOffset,3
;   usePrimePillar,0
;   primePillarExtruder,999
;   primePillarWidth,12
;   primePillarLocation,7
;   primePillarSpeedMultiplier,1
;   useOozeShield,0
;   oozeShieldExtruder,999
;   oozeShieldOffset,2
;   oozeShieldOutlines,1
;   oozeShieldSidewallShape,1
;   oozeShieldSidewallAngle,30
;   oozeShieldSpeedMultiplier,1
;   infillExtruder,0
;   internalInfillPattern,Rectilinear
;   externalInfillPattern,Rectilinear
;   infillPercentage,45
;   outlineOverlapPercentage,30
;   infillExtrusionWidthPercentage,150
;   minInfillLength,5
;   infillLayerInterval,1
;   infillAngles,45,-45
;   overlapInfillAngles,0
;   generateSupport,1
;   supportExtruder,0
;   supportInfillPercentage,33
;   supportExtraInflation,0.5
;   denseSupportLayers,0
;   denseSupportInfillPercentage,70
;   supportLayerInterval,1
;   supportHorizontalPartOffset,0.8
;   supportUpperSeparationLayers,1
;   supportLowerSeparationLayers,1
;   supportType,0
;   supportGridSpacing,1.5
;   maxOverhangAngle,55
;   supportAngles,90
;   temperatureName,Primary Extruder,bed
;   temperatureNumber,0,0
;   temperatureSetpointCount,2,2
;   temperatureSetpointLayers,1,2,1,2
;   temperatureSetpointTemperatures,240,235,55,50
;   temperatureStabilizeAtStartup,1,0
;   temperatureHeatedBed,0,1
;   temperatureRelayBetweenLayers,0,0
;   temperatureRelayBetweenLoops,0,0
;   fanLayers,1,4
;   fanSpeeds,0,20
;   blipFanToFullPower,1
;   adjustSpeedForCooling,0
;   minSpeedLayerTime,15
;   minCoolingSpeedSlowdown,65
;   increaseFanForCooling,1
;   minFanLayerTime,15
;   maxCoolingFanSpeed,60
;   increaseFanForBridging,1
;   bridgingFanSpeed,100
;   use5D,1
;   relativeEdistances,0
;   allowEaxisZeroing,1
;   independentExtruderAxes,0
;   includeM10123,0
;   stickySupport,1
;   applyToolheadOffsets,0
;   gcodeXoffset,0
;   gcodeYoffset,0
;   gcodeZoffset,0
;   overrideMachineDefinition,1
;   machineTypeOverride,0
;   strokeXoverride,170
;   strokeYoverride,160
;   strokeZoverride,145
;   originOffsetXoverride,0
;   originOffsetYoverride,0
;   originOffsetZoverride,0
;   homeXdirOverride,-1
;   homeYdirOverride,-1
;   homeZdirOverride,-1
;   flipXoverride,1
;   flipYoverride,-1
;   flipZoverride,1
;   toolheadOffsets,0,0|0,0|0,0|0,0|0,0|0,0
;   overrideFirmwareConfiguration,1
;   firmwareTypeOverride,RepRap (Marlin/Repetier/Sprinter)
;   GPXconfigOverride,r2
;   baudRateOverride,250000
;   overridePrinterModels,0
;   printerModelsOverride
;   startingGcode,;---------------------------------------,; ; ; Jellybox Start Script Begin ; ; ;,;_______________________________________,M117 Preparing        ; write Preparing,; M92 E140            ; optionally adjust E steps/mm,M207 S1.5 F600 Z0     ; optionally adjust retract settings,M208 S-0.00 F600      ; optionally adjust unretract = recover settings,M206 X10.0 Y0.0       ; set x homing offset for default bed leveling,G21                   ; metric values,G90                   ; absolute positioning,M107                  ; start with the fan off,M82                   ; set extruder to absolute mode,G28                   ; home all axes,M203 Z4               ; slow Z speed down for greater accuracy when probing,G29                   ; auto bed leveling procedure,M203 Z7               ; pick up z speed again for printing,G92 E0                ; reset the extruder position,G1 F1500 E15          ; extrude 15mm of feed stock,G92 E0                ; reset the extruder position again,M117 Print starting   ; write Print starting,;---------------------------------------------,; ; ; Jellybox Printer Start Script End ; ; ;,;_____________________________________________
;   layerChangeGcode,
;   retractionGcode,
;   toolChangeGcode,
;   endingGcode,; ---------------------------------,; ; ;  Jellybox End Script Begin ; ; ;,; _________________________________,M117 Finishing Up ; write Finishing Up,M107                  ; sfan off,M104 S0            ; extruder heater off,M140 S0            ; bed heater off (if you have it),G91                ; relative positioning,G1 E-1 F300        ; retract the filament a bit before lifting the nozzle to release some of the pressure,G1 Z+0.5 E-5 X-20 Y-20 F9000 ; move Z up a bit and retract filament even more,G90                ; absolute positioning,G28 X              ; home x so the head is out of the way,G1 Y100            ; move Y forward so the print is more accessible,M84                ; steppers off,M117 Print finished ; write Print finisheds,; ---------------------------------------,; ; ;  Jellybox End Script End ; ; ;,; _______________________________________
;   exportFileFormat,gcode
;   celebration,0
;   celebrationSong,Random Song
;   postProcessing,|{REPLACE "; layer" "M117 Layer"},|{REPLACE ", Z = " " "Z="}
;   defaultSpeed,2700
;   outlineUnderspeed,0.55
;   solidInfillUnderspeed,0.55
;   supportUnderspeed,0.9
;   rapidXYspeed,7200
;   rapidZspeed,420
;   minBridgingArea,50
;   bridgingExtraInflation,0.3
;   bridgingExtrusionMultiplier,1
;   bridgingSpeedMultiplier,1
;   filamentDiameter,1.75
;   filamentPricePerKg,30
;   filamentDensity,1.38
;   useMinPrintHeight,0
;   minPrintHeight,30
;   useMaxPrintHeight,0
;   maxPrintHeight,40
;   useDiaphragm,0
;   diaphragmLayerInterval,20
;   robustSlicing,1
;   mergeAllIntoSolid,0
;   onlyRetractWhenCrossingOutline,1
;   retractBetweenLayers,1
;   useRetractionMinTravel,1
;   retractionMinTravel,1
;   retractWhileWiping,1
;   onlyWipeOutlines,1
;   avoidCrossingOutline,1
;   maxMovementDetourFactor,2.5
;   toolChangeRetractionDistance,1.3
;   toolChangeExtraRestartDistance,0
;   toolChangeRetractionSpeed,600
;   allowThinWallGapFill,1
;   thinWallAllowedOverlapPercentage,15
;   horizontalSizeCompensation,0
G90
M82
M106 S0
M140 S55
M104 S240 T0
M109 S240 T0
;---------------------------------------
; ; ; Jellybox Start Script Begin ; ; ;
;_______________________________________
M117 Preparing        ; write Preparing
; M92 E140            ; optionally adjust E steps/mm
M207 S1.5 F600 Z0     ; optionally adjust retract settings
M208 S-0.00 F600      ; optionally adjust unretract = recover settings
M206 X10.0 Y0.0       ; set x homing offset for default bed leveling
G21                   ; metric values
G90                   ; absolute positioning
M107                  ; start with the fan off
M82                   ; set extruder to absolute mode
G28                   ; home all axes
M203 Z4               ; slow Z speed down for greater accuracy when probing
G29                   ; auto bed leveling procedure
M203 Z7               ; pick up z speed again for printing
G92 E0                ; reset the extruder position
G1 F1500 E15          ; extrude 15mm of feed stock
G92 E0                ; reset the extruder position again
M117 Print starting   ; write Print starting
;---------------------------------------------
; ; ; Jellybox Printer Start Script End ; ; ;
;_____________________________________________
G92 E0
G1 E-1.4000 F4200
G1 Z0.400 F420
M117 Layer 1 0.3
T0
; tool H0.300 W0.480
; skirt
G1 X60.016 Y45.237 F7200
G1 Z0.300 F420
G1 E-0.1000 F1260
G92 E0
G1 X61.132 Y44.320 E0.0821 F945
G1 X61.305 Y44.220 E0.0935
G1 X62.438 Y43.800 E0.1622
G1 X62.634 Y43.762 E0.1736
G1 X64.522 Y43.720 E0.2810
G1 X64.580 Y43.721 E0.2843
G1 X64.928 Y43.747 E0.3042
G1 X64.986 Y43.754 E0.3075
G1 X65.619 Y43.864 E0.3440
G1 X65.718 Y43.890 E0.3498
G1 X66.295 Y44.095 E0.3847
G1 X66.388 Y44.137 E0.3905
G1 X67.184 Y44.583 E0.4423
G1 X67.302 Y44.670 E0.4507
G1 X67.948 Y45.280 E0.5012
G1 X68.042 Y45.393 E0.5096
G1 X68.690 Y46.407 E0.5780
G1 X68.758 Y46.555 E0.5873
G1 X68.942 Y47.154 E0.6230
G1 X70.079 Y47.154 E0.6877
G1 X70.146 Y46.932 E0.7009
G1 X70.618 Y44.925 E0.8181
G1 X70.774 Y43.999 E0.8715
G1 X70.870 Y42.969 E0.9304
G1 X70.868 Y42.805 E0.9397
G1 X70.735 Y42.029 E0.9845
G1 X70.731 Y42.002 E0.9860
G1 X70.711 Y41.844 E0.9951
G1 X70.708 Y41.817 E0.9966
G1 X70.660 Y41.230 E1.0302
G1 X70.659 Y41.196 E1.0321
G1 X70.654 Y40.994 E1.0435
G1 X70.654 Y40.961 E1.0455
G1 X70.673 Y40.350 E1.0802
G1 X70.675 Y40.317 E1.0821
G1 X70.692 Y40.116 E1.0936
G1 X70.696 Y40.082 E1.0955
G1 X70.790 Y39.428 E1.1331
G1 X70.800 Y39.378 E1.1360
G1 X70.868 Y39.083 E1.1532
G1 X70.881 Y39.035 E1.1561
G1 X71.224 Y37.969 E1.2197
G1 X71.242 Y37.922 E1.2226
G1 X71.358 Y37.643 E1.2398
G1 X71.380 Y37.597 E1.2427
G1 X71.685 Y37.010 E1.2803
G1 X71.701 Y36.981 E1.2822
G1 X71.804 Y36.807 E1.2937
G1 X71.822 Y36.779 E1.2956
G1 X72.162 Y36.272 E1.3303
G1 X72.182 Y36.245 E1.3322
G1 X72.304 Y36.084 E1.3437
G1 X72.325 Y36.058 E1.3456
G1 X72.729 Y35.581 E1.3812
G1 X72.755 Y35.552 E1.3834
G1 X72.916 Y35.385 E1.3966
G1 X72.944 Y35.358 E1.3988
G1 X73.514 Y34.840 E1.4426
G1 X73.544 Y34.815 E1.4448
G1 X73.726 Y34.669 E1.4581
G1 X73.757 Y34.646 E1.4603
G1 X74.271 Y34.287 E1.4959
G1 X74.300 Y34.269 E1.4978
G1 X74.471 Y34.163 E1.5093
G1 X74.500 Y34.146 E1.5112
G1 X75.037 Y33.855 E1.5459
G1 X75.067 Y33.840 E1.5479
G1 X75.250 Y33.754 E1.5593
G1 X75.281 Y33.741 E1.5613
G1 X75.882 Y33.497 E1.5982
G1 X75.926 Y33.482 E1.6008
G1 X76.192 Y33.397 E1.6167
G1 X76.237 Y33.385 E1.6193
G1 X77.180 Y33.165 E1.6744
G1 X77.227 Y33.156 E1.6771
G1 X77.508 Y33.113 E1.6933
G1 X77.555 Y33.108 E1.6960
G1 X78.355 Y33.050 E1.7416
G1 X78.396 Y33.049 E1.7439
G1 X78.640 Y33.048 E1.7578
G1 X78.681 Y33.049 E1.7601
G1 X79.311 Y33.090 E1.7961
G1 X79.345 Y33.093 E1.7980
G1 X79.545 Y33.117 E1.8095
G1 X79.578 Y33.122 E1.8114
G1 X80.179 Y33.229 E1.8461
G1 X80.212 Y33.236 E1.8480
G1 X80.409 Y33.282 E1.8595
G1 X80.441 Y33.291 E1.8614
G1 X81.027 Y33.465 E1.8961
G1 X81.059 Y33.475 E1.8980
G1 X81.249 Y33.543 E1.9095
G1 X81.280 Y33.555 E1.9114
G1 X81.889 Y33.813 E1.9490
G1 X81.934 Y33.835 E1.9519
G1 X82.202 Y33.976 E1.9691
G1 X82.246 Y34.001 E1.9720
G1 X83.189 Y34.604 E2.0356
G1 X83.230 Y34.633 E2.0385
G1 X83.471 Y34.817 E2.0557
G1 X83.510 Y34.849 E2.0586
G1 X83.999 Y35.293 E2.0962
G1 X84.024 Y35.317 E2.0981
G1 X84.165 Y35.460 E2.1096
G1 X84.188 Y35.485 E2.1115
G1 X84.592 Y35.943 E2.1462
G1 X84.613 Y35.969 E2.1481
G1 X84.738 Y36.128 E2.1596
G1 X84.758 Y36.155 E2.1615
G1 X85.107 Y36.655 E2.1963
G1 X85.126 Y36.683 E2.1982
G1 X85.232 Y36.855 E2.2097
G1 X85.249 Y36.884 E2.2116
G1 X85.548 Y37.435 E2.2472
G1 X85.565 Y37.469 E2.2494
G1 X85.663 Y37.681 E2.2627
G1 X85.679 Y37.717 E2.2649
G1 X85.956 Y38.436 E2.3087
G1 X85.969 Y38.473 E2.3109
G1 X86.038 Y38.694 E2.3241
G1 X86.048 Y38.731 E2.3263
G1 X86.196 Y39.339 E2.3619
G1 X86.203 Y39.372 E2.3638
G1 X86.240 Y39.570 E2.3753
G1 X86.245 Y39.603 E2.3772
G1 X86.323 Y40.209 E2.4119
G1 X86.326 Y40.243 E2.4138
G1 X86.340 Y40.444 E2.4253
G1 X86.342 Y40.477 E2.4272
G1 X86.351 Y41.088 E2.4619
G1 X86.350 Y41.121 E2.4639
G1 X86.342 Y41.323 E2.4753
G1 X86.340 Y41.357 E2.4773
G1 X86.281 Y41.965 E2.5120
G1 X86.276 Y41.998 E2.5139
G1 X86.246 Y42.197 E2.5254
G1 X86.240 Y42.230 E2.5273
G1 X86.113 Y42.828 E2.5620
G1 X86.105 Y42.860 E2.5639
G1 X86.052 Y43.055 E2.5754
G1 X86.042 Y43.087 E2.5773
G1 X85.849 Y43.667 E2.6121
G1 X85.838 Y43.698 E2.6140
G1 X85.763 Y43.886 E2.6254
G1 X85.750 Y43.917 E2.6274
G1 X85.494 Y44.471 E2.6621
G1 X85.479 Y44.501 E2.6640
G1 X85.384 Y44.679 E2.6755
G1 X85.367 Y44.708 E2.6774
G1 X85.043 Y45.243 E2.7129
G1 X85.022 Y45.275 E2.7151
G1 X84.890 Y45.464 E2.7282
G1 X84.867 Y45.495 E2.7304
G1 X84.066 Y46.498 E2.8034
G1 X83.470 Y47.330 E2.8616
G1 X83.008 Y48.047 E2.9102
G1 X82.471 Y48.967 E2.9707
G1 X82.001 Y49.882 E3.0292
G1 X81.692 Y50.596 E3.0735
G1 X81.537 Y51.042 E3.1003
G1 X81.444 Y51.401 E3.1214
G1 X81.416 Y51.561 E3.1307
G1 X81.399 Y51.791 E3.1438
G1 X81.399 Y62.036 E3.7265
G1 X81.394 Y62.114 E3.7309
G1 X81.332 Y62.582 E3.7578
G1 X81.317 Y62.659 E3.7622
G1 X81.113 Y63.419 E3.8070
G1 X81.053 Y63.564 E3.8159
G1 X80.901 Y63.828 E3.8332
G1 X81.027 Y63.865 E3.8407
G1 X81.059 Y63.876 E3.8426
G1 X81.249 Y63.944 E3.8541
G1 X81.280 Y63.956 E3.8560
G1 X81.889 Y64.214 E3.8936
G1 X81.934 Y64.236 E3.8965
G1 X82.203 Y64.377 E3.9137
G1 X82.246 Y64.402 E3.9166
G1 X83.189 Y65.005 E3.9802
G1 X83.230 Y65.034 E3.9831
G1 X83.471 Y65.217 E4.0003
G1 X83.510 Y65.250 E4.0032
G1 X83.999 Y65.694 E4.0408
G1 X84.024 Y65.717 E4.0427
G1 X84.165 Y65.861 E4.0542
G1 X84.188 Y65.886 E4.0561
G1 X84.592 Y66.344 E4.0908
G1 X84.613 Y66.370 E4.0928
G1 X84.738 Y66.529 E4.1042
G1 X84.758 Y66.556 E4.1062
G1 X85.108 Y67.056 E4.1409
G1 X85.126 Y67.084 E4.1428
G1 X85.232 Y67.256 E4.1543
G1 X85.249 Y67.285 E4.1562
G1 X85.548 Y67.835 E4.1918
G1 X85.565 Y67.870 E4.1940
G1 X85.663 Y68.082 E4.2073
G1 X85.679 Y68.118 E4.2095
G1 X85.956 Y68.837 E4.2533
G1 X85.969 Y68.874 E4.2555
G1 X86.038 Y69.095 E4.2687
G1 X86.048 Y69.132 E4.2709
G1 X86.196 Y69.740 E4.3065
G1 X86.203 Y69.773 E4.3084
G1 X86.240 Y69.971 E4.3199
G1 X86.245 Y70.004 E4.3218
G1 X86.323 Y70.610 E4.3565
G1 X86.326 Y70.643 E4.3584
G1 X86.340 Y70.845 E4.3699
G1 X86.342 Y70.878 E4.3718
G1 X86.351 Y71.489 E4.4066
G1 X86.350 Y71.522 E4.4085
G1 X86.342 Y71.724 E4.4199
G1 X86.340 Y71.758 E4.4219
G1 X86.281 Y72.365 E4.4566
G1 X86.276 Y72.399 E4.4585
G1 X86.246 Y72.598 E4.4700
G1 X86.240 Y72.631 E4.4719
G1 X86.113 Y73.228 E4.5066
G1 X86.105 Y73.261 E4.5085
G1 X86.052 Y73.456 E4.5200
G1 X86.042 Y73.488 E4.5219
G1 X85.849 Y74.067 E4.5567
G1 X85.838 Y74.099 E4.5586
G1 X85.763 Y74.287 E4.5700
G1 X85.750 Y74.318 E4.5720
G1 X85.494 Y74.872 E4.6067
G1 X85.479 Y74.902 E4.6086
G1 X85.384 Y75.080 E4.6201
G1 X85.367 Y75.109 E4.6220
G1 X85.043 Y75.643 E4.6575
G1 X85.022 Y75.676 E4.6597
G1 X84.890 Y75.865 E4.6728
G1 X84.867 Y75.895 E4.6750
G1 X84.066 Y76.898 E4.7480
G1 X83.470 Y77.731 E4.8062
G1 X83.008 Y78.448 E4.8548
G1 X82.471 Y79.368 E4.9153
G1 X82.001 Y80.283 E4.9738
G1 X81.692 Y80.997 E5.0181
G1 X81.537 Y81.443 E5.0450
G1 X81.444 Y81.801 E5.0660
G1 X81.416 Y81.961 E5.0753
G1 X81.399 Y82.192 E5.0884
G1 X81.399 Y92.437 E5.6711
G1 X81.394 Y92.515 E5.6755
G1 X81.332 Y92.983 E5.7024
G1 X81.317 Y93.060 E5.7068
G1 X81.113 Y93.820 E5.7516
G1 X81.053 Y93.965 E5.7605
G1 X80.901 Y94.229 E5.7779
G1 X81.027 Y94.266 E5.7853
G1 X81.059 Y94.277 E5.7872
G1 X81.249 Y94.345 E5.7987
G1 X81.280 Y94.357 E5.8006
G1 X81.889 Y94.615 E5.8382
G1 X81.934 Y94.636 E5.8411
G1 X82.202 Y94.777 E5.8583
G1 X82.246 Y94.803 E5.8612
G1 X83.189 Y95.405 E5.9249
G1 X83.230 Y95.434 E5.9277
G1 X83.471 Y95.618 E5.9449
G1 X83.510 Y95.651 E5.9478
G1 X83.999 Y96.095 E5.9854
G1 X84.024 Y96.118 E5.9873
G1 X84.165 Y96.262 E5.9988
G1 X84.188 Y96.286 E6.0007
G1 X84.592 Y96.745 E6.0354
G1 X84.613 Y96.771 E6.0374
G1 X84.738 Y96.929 E6.0488
G1 X84.758 Y96.956 E6.0508
G1 X85.108 Y97.457 E6.0855
G1 X85.126 Y97.485 E6.0874
G1 X85.232 Y97.657 E6.0989
