; G-Code generated by Simplify3D(R) Version 3.1.0
; Mar 27, 2017 at 2:16:40 AM
; Settings Summary
;   processName,Process1
;   applyToModels,feeder yoke 2.0 pink,feeder yoke 2.0 pink(2),feeder yoke 2.0 pink(3),feeder yoke 2.0 pink(4),feeder yoke 2.0 pink(5),feeder yoke 2.0 pink(6)
;   profileName,PETG 0.2 he.20 bt50 (modified)
;   profileVersion,2017-03-22 16:13:03
;   baseProfile,Default (modified)
;   printMaterial,
;   printQuality,
;   printExtruders,
;   extruderName,Primary Extruder
;   extruderToolheadNumber,0
;   extruderDiameter,0.4
;   extruderAutoWidth,0
;   extruderWidth,0.48
;   extrusionMultiplier,1
;   extruderUseRetract,1
;   extruderRetractionDistance,1.4
;   extruderExtraRestartDistance,-0.1
;   extruderRetractionZLift,0.1
;   extruderRetractionSpeed,2700
;   extruderUseCoasting,1
;   extruderCoastingDistance,0.2
;   extruderUseWipe,1
;   extruderWipeDistance,0.2
;   primaryExtruder,0
;   layerHeight,0.2
;   topSolidLayers,4
;   bottomSolidLayers,2
;   perimeterOutlines,2
;   printPerimetersInsideOut,1
;   startPointOption,2
;   startPointOriginX,85
;   startPointOriginY,0
;   startPointOriginZ,5
;   sequentialIslands,0
;   spiralVaseMode,0
;   firstLayerHeightPercentage,150
;   firstLayerWidthPercentage,100
;   firstLayerUnderspeed,0.3
;   useRaft,0
;   raftExtruder,0
;   raftLayers,3
;   raftOffset,3
;   raftSeparationDistance,0.14
;   raftInfill,85
;   disableRaftBaseLayers,0
;   useSkirt,1
;   skirtExtruder,0
;   skirtLayers,1
;   skirtOutlines,2
;   skirtOffset,5
;   usePrimePillar,0
;   primePillarExtruder,999
;   primePillarWidth,12
;   primePillarLocation,7
;   primePillarSpeedMultiplier,1
;   useOozeShield,0
;   oozeShieldExtruder,999
;   oozeShieldOffset,2
;   oozeShieldOutlines,1
;   oozeShieldSidewallShape,1
;   oozeShieldSidewallAngle,30
;   oozeShieldSpeedMultiplier,1
;   infillExtruder,0
;   internalInfillPattern,Rectilinear
;   externalInfillPattern,Rectilinear
;   infillPercentage,22
;   outlineOverlapPercentage,30
;   infillExtrusionWidthPercentage,125
;   minInfillLength,5
;   infillLayerInterval,1
;   infillAngles,45,-45
;   overlapInfillAngles,0
;   generateSupport,0
;   supportExtruder,0
;   supportInfillPercentage,20
;   supportExtraInflation,0.5
;   denseSupportLayers,0
;   denseSupportInfillPercentage,70
;   supportLayerInterval,1
;   supportHorizontalPartOffset,0.8
;   supportUpperSeparationLayers,1
;   supportLowerSeparationLayers,1
;   supportType,0
;   supportGridSpacing,1.5
;   maxOverhangAngle,55
;   supportAngles,0
;   temperatureName,Primary Extruder,bed
;   temperatureNumber,0,0
;   temperatureSetpointCount,2,2
;   temperatureSetpointLayers,1,2,1,2
;   temperatureSetpointTemperatures,240,235,65,60
;   temperatureStabilizeAtStartup,1,1
;   temperatureHeatedBed,0,1
;   temperatureRelayBetweenLayers,0,0
;   temperatureRelayBetweenLoops,0,0
;   fanLayers,1,4
;   fanSpeeds,0,20
;   blipFanToFullPower,1
;   adjustSpeedForCooling,0
;   minSpeedLayerTime,15
;   minCoolingSpeedSlowdown,65
;   increaseFanForCooling,1
;   minFanLayerTime,15
;   maxCoolingFanSpeed,60
;   increaseFanForBridging,1
;   bridgingFanSpeed,100
;   use5D,1
;   relativeEdistances,0
;   allowEaxisZeroing,1
;   independentExtruderAxes,0
;   includeM10123,0
;   stickySupport,1
;   applyToolheadOffsets,0
;   gcodeXoffset,0
;   gcodeYoffset,0
;   gcodeZoffset,0
;   overrideMachineDefinition,1
;   machineTypeOverride,0
;   strokeXoverride,170
;   strokeYoverride,160
;   strokeZoverride,145
;   originOffsetXoverride,0
;   originOffsetYoverride,0
;   originOffsetZoverride,0
;   homeXdirOverride,-1
;   homeYdirOverride,-1
;   homeZdirOverride,-1
;   flipXoverride,1
;   flipYoverride,-1
;   flipZoverride,1
;   toolheadOffsets,0,0|0,0|0,0|0,0|0,0|0,0
;   overrideFirmwareConfiguration,1
;   firmwareTypeOverride,RepRap (Marlin/Repetier/Sprinter)
;   GPXconfigOverride,r2
;   baudRateOverride,250000
;   overridePrinterModels,0
;   printerModelsOverride
;   startingGcode,;---------------------------------------,; ; ; Jellybox Start Script Begin ; ; ;,;_______________________________________,; M92 E140            ;optionally adjust steps per mm for your filament,M117 Preparing        ;write Preparing,M206 X10.0 Y0.0       ;set x homing offset for default bed leveling,G21                   ;metric values,G90                   ;absolute positioning,M107                  ;start with the fan off,M82                   ;set extruder to absolute mode,G28                   ;home all axes,M203 Z4               ;slow Z speed down for greater accuracy when probing,G29                   ;auto bed leveling procedure,M203 Z7               ;pick up z speed again for printing,G92 E0                ;reset the extruder position,G1 F1500 E15          ;extrude 15mm of feed stock,G92 E0                ;reset the extruder position again,M117 Print starting   ;write Print starting,;---------------------------------------------,; ; ; Jellybox Printer Start Script End ; ; ;,;_____________________________________________
;   layerChangeGcode,
;   retractionGcode,
;   toolChangeGcode,
;   endingGcode,; ---------------------------------,; ; ;  Jellybox End Script Begin ; ; ;,; _________________________________,M117 Finishing Up  ; write Finishing Up,M104 S0            ; extruder heater off,M140 S0            ; bed heater off (if you have it),G91                ; relative positioning,G1 E-1 F300        ; retract the filament a bit before lifting the nozzle to release some of the pressure,G1 Z+0.5 E-5 X-20 Y-20 F9000 ; move Z up a bit and retract filament even more,G90                ; absolute positioning,G28 X              ; home x so the head is out of the way,G1 Y100            ; move Y forward so the print is more accessible,M84                ; steppers off,M117 Print finished ; write Print finished,; ---------------------------------------,; ; ;  Jellybox End Script End ; ; ;,; _______________________________________
;   exportFileFormat,gcode
;   celebration,0
;   celebrationSong,Random Song
;   postProcessing,|{REPLACE "; layer" "M117 Layer"} ,{REPLACE ", Z = " " | Z="}
;   defaultSpeed,2700
;   outlineUnderspeed,0.55
;   solidInfillUnderspeed,0.55
;   supportUnderspeed,0.9
;   rapidXYspeed,7800
;   rapidZspeed,420
;   minBridgingArea,50
;   bridgingExtraInflation,0.2
;   bridgingExtrusionMultiplier,0.8
;   bridgingSpeedMultiplier,1.3
;   filamentDiameter,1.75
;   filamentPricePerKg,30
;   filamentDensity,1.38
;   useMinPrintHeight,0
;   minPrintHeight,0
;   useMaxPrintHeight,0
;   maxPrintHeight,1
;   useDiaphragm,0
;   diaphragmLayerInterval,20
;   robustSlicing,1
;   mergeAllIntoSolid,0
;   onlyRetractWhenCrossingOutline,1
;   retractBetweenLayers,1
;   useRetractionMinTravel,1
;   retractionMinTravel,1
;   retractWhileWiping,1
;   onlyWipeOutlines,1
;   avoidCrossingOutline,1
;   maxMovementDetourFactor,2.5
;   toolChangeRetractionDistance,1.3
;   toolChangeExtraRestartDistance,0
;   toolChangeRetractionSpeed,600
;   allowThinWallGapFill,1
;   thinWallAllowedOverlapPercentage,15
;   horizontalSizeCompensation,0
G90
M82
M106 S0
M140 S65
M190 S65
M104 S240 T0
M109 S240 T0
;---------------------------------------
; ; ; Jellybox Start Script Begin ; ; ;
;_______________________________________
; M92 E140            ;optionally adjust steps per mm for your filament
M117 Preparing        ;write Preparing
M206 X10.0 Y0.0       ;set x homing offset for default bed leveling
G21                   ;metric values
G90                   ;absolute positioning
M107                  ;start with the fan off
M82                   ;set extruder to absolute mode
G28                   ;home all axes
M203 Z4               ;slow Z speed down for greater accuracy when probing
G29                   ;auto bed leveling procedure
M203 Z7               ;pick up z speed again for printing
G92 E0                ;reset the extruder position
G1 F1500 E15          ;extrude 15mm of feed stock
G92 E0                ;reset the extruder position again
M117 Print starting   ;write Print starting
;---------------------------------------------
; ; ; Jellybox Printer Start Script End ; ; ;
;_____________________________________________
G92 E0
G1 E-1.4000 F2700
G1 Z0.400 F420
M117 Layer 1, Z = 0.3
T0
; tool H0.300 W0.480
; skirt
G1 X18.929 Y18.422 F7800
G1 Z0.300 F420
G1 E-0.1000 F810
G92 E0
G1 X19.673 Y17.346 E0.0783 F810
G1 X19.690 Y17.323 E0.0801
G1 X19.961 Y16.991 E0.1057
G1 X19.981 Y16.969 E0.1075
G1 X20.887 Y16.026 E0.1858
G1 X20.907 Y16.006 E0.1875
G1 X21.228 Y15.721 E0.2132
G1 X21.251 Y15.702 E0.2149
G1 X22.295 Y14.915 E0.2933
G1 X22.319 Y14.899 E0.2950
G1 X22.681 Y14.669 E0.3207
G1 X22.706 Y14.654 E0.3224
G1 X23.816 Y14.068 E0.3975
G1 X23.835 Y14.059 E0.3988
G1 X24.128 Y13.926 E0.4181
G1 X24.148 Y13.918 E0.4194
G1 X24.860 Y13.645 E0.4650
G1 X24.880 Y13.638 E0.4663
G1 X25.187 Y13.541 E0.4855
G1 X25.208 Y13.535 E0.4868
G1 X26.372 Y13.243 E0.5587
G1 X26.394 Y13.239 E0.5600
G1 X26.710 Y13.179 E0.5793
G1 X26.731 Y13.176 E0.5806
G1 X27.487 Y13.080 E0.6262
G1 X27.508 Y13.078 E0.6275
G1 X27.829 Y13.057 E0.6467
G1 X27.851 Y13.056 E0.6480
G1 X29.106 Y13.049 E0.7231
G1 X29.134 Y13.050 E0.7249
G1 X29.562 Y13.082 E0.7506
G1 X29.591 Y13.085 E0.7523
G1 X30.884 Y13.286 E0.8306
G1 X30.912 Y13.292 E0.8323
G1 X31.329 Y13.392 E0.8580
G1 X31.357 Y13.399 E0.8598
G1 X32.550 Y13.787 E0.9349
G1 X32.571 Y13.795 E0.9362
G1 X32.870 Y13.912 E0.9554
G1 X32.890 Y13.921 E0.9567
G1 X33.565 Y14.234 E1.0013
G1 X33.583 Y14.243 E1.0024
G1 X33.837 Y14.378 E1.0197
G1 X33.854 Y14.387 E1.0208
G1 X34.695 Y14.894 E1.0797
G1 X34.712 Y14.905 E1.0808
G1 X34.957 Y15.071 E1.0986
G1 X34.974 Y15.083 E1.0998
G1 X35.700 Y15.638 E1.1545
G1 X35.714 Y15.649 E1.1556
G1 X35.923 Y15.826 E1.1720
G1 X35.937 Y15.839 E1.1731
G1 X36.474 Y16.344 E1.2173
G1 X36.490 Y16.359 E1.2186
G1 X36.710 Y16.593 E1.2378
G1 X36.725 Y16.609 E1.2391
G1 X37.495 Y17.531 E1.3110
G1 X37.508 Y17.548 E1.3123
G1 X37.548 Y17.602 E1.3163
G1 X49.433 Y17.602 E2.0278
G1 X49.797 Y16.658 E2.0884
G1 X49.806 Y16.639 E2.0897
G1 X49.936 Y16.352 E2.1085
G1 X49.945 Y16.333 E2.1098
G1 X50.401 Y15.471 E2.1682
G1 X50.410 Y15.454 E2.1693
G1 X50.551 Y15.218 E2.1858
G1 X50.561 Y15.203 E2.1869
G1 X51.125 Y14.357 E2.2477
G1 X51.135 Y14.342 E2.2488
G1 X51.292 Y14.132 E2.2645
G1 X51.302 Y14.118 E2.2656
G1 X51.781 Y13.534 E2.3108
G1 X51.794 Y13.519 E2.3120
G1 X51.993 Y13.301 E2.3296
G1 X52.007 Y13.287 E2.3308
G1 X52.934 Y12.380 E2.4084
G1 X52.954 Y12.362 E2.4100
G1 X53.254 Y12.109 E2.4336
G1 X53.275 Y12.092 E2.4351
G1 X54.347 Y11.315 E2.5144
G1 X54.366 Y11.302 E2.5158
G1 X54.661 Y11.116 E2.5367
G1 X54.681 Y11.104 E2.5381
G1 X55.553 Y10.631 E2.5975
G1 X55.569 Y10.622 E2.5986
G1 X55.815 Y10.504 E2.6149
G1 X55.832 Y10.497 E2.6160
G1 X56.770 Y10.105 E2.6768
G1 X56.786 Y10.099 E2.6779
G1 X57.034 Y10.009 E2.6937
G1 X57.050 Y10.004 E2.6947
G1 X57.773 Y9.782 E2.7400
G1 X57.792 Y9.777 E2.7411
G1 X58.079 Y9.706 E2.7588
G1 X58.098 Y9.702 E2.7600
G1 X59.372 Y9.460 E2.8376
G1 X59.398 Y9.456 E2.8392
G1 X59.789 Y9.411 E2.8628
G1 X59.815 Y9.409 E2.8643
G1 X61.139 Y9.355 E2.9436
G1 X61.162 Y9.355 E2.9450
G1 X61.512 Y9.364 E2.9660
G1 X61.535 Y9.365 E2.9674
G1 X62.523 Y9.454 E3.0268
G1 X62.541 Y9.456 E3.0278
G1 X62.809 Y9.494 E3.0440
G1 X62.827 Y9.497 E3.0451
G1 X63.872 Y9.699 E3.1089
G1 X63.896 Y9.704 E3.1103
G1 X64.247 Y9.797 E3.1321
G1 X64.270 Y9.804 E3.1335
G1 X65.531 Y10.230 E3.2132
G1 X65.555 Y10.239 E3.2148
G1 X65.918 Y10.392 E3.2383
G1 X65.942 Y10.403 E3.2399
G1 X67.140 Y11.016 E3.3205
G1 X67.163 Y11.029 E3.3221
G1 X67.499 Y11.233 E3.3456
G1 X67.521 Y11.248 E3.3472
G1 X68.617 Y12.029 E3.4278
G1 X68.638 Y12.046 E3.4294
G1 X68.941 Y12.297 E3.4529
G1 X68.961 Y12.314 E3.4545
G1 X69.931 Y13.248 E3.5351
G1 X69.949 Y13.267 E3.5367
G1 X70.212 Y13.559 E3.5602
G1 X70.229 Y13.580 E3.5618
G1 X70.423 Y13.831 E3.5808
G1 X70.640 Y13.752 E3.5946
G1 X70.661 Y13.746 E3.5959
G1 X71.392 Y13.531 E3.6415
G1 X71.413 Y13.526 E3.6428
G1 X71.726 Y13.454 E3.6621
G1 X71.747 Y13.449 E3.6634
G1 X72.932 Y13.251 E3.7353
G1 X72.953 Y13.248 E3.7366
G1 X73.273 Y13.214 E3.7558
G1 X73.295 Y13.213 E3.7571
G1 X74.002 Y13.180 E3.7995
G1 X74.017 Y13.180 E3.8004
G1 X74.231 Y13.179 E3.8132
G1 X74.245 Y13.179 E3.8141
G1 X74.953 Y13.203 E3.8565
G1 X74.975 Y13.205 E3.8578
G1 X75.295 Y13.235 E3.8770
G1 X75.316 Y13.238 E3.8783
G1 X76.556 Y13.431 E3.9534
G1 X76.584 Y13.436 E3.9552
G1 X77.002 Y13.536 E3.9809
G1 X77.030 Y13.544 E3.9826
G1 X78.223 Y13.932 E4.0577
G1 X78.243 Y13.939 E4.0590
G1 X78.543 Y14.057 E4.0783
G1 X78.562 Y14.065 E4.0795
G1 X79.238 Y14.379 E4.1241
G1 X79.255 Y14.387 E4.1253
G1 X79.509 Y14.522 E4.1425
G1 X79.526 Y14.532 E4.1437
G1 X80.368 Y15.038 E4.2025
G1 X80.385 Y15.049 E4.2037
G1 X80.630 Y15.216 E4.2214
G1 X80.646 Y15.227 E4.2226
G1 X81.372 Y15.782 E4.2773
G1 X81.387 Y15.793 E4.2784
G1 X81.595 Y15.971 E4.2948
G1 X81.609 Y15.983 E4.2959
G1 X82.147 Y16.488 E4.3401
G1 X82.162 Y16.503 E4.3414
G1 X82.383 Y16.737 E4.3606
G1 X82.397 Y16.754 E4.3619
G1 X83.167 Y17.675 E4.4338
G1 X83.181 Y17.692 E4.4351
G1 X83.221 Y17.746 E4.4392
G1 X95.105 Y17.746 E5.1507
G1 X95.115 Y17.712 E5.1528
G1 X95.121 Y17.693 E5.1540
G1 X95.219 Y17.415 E5.1716
G1 X95.226 Y17.397 E5.1728
G1 X95.521 Y16.684 E5.2190
G1 X95.529 Y16.666 E5.2202
G1 X95.657 Y16.400 E5.2378
G1 X95.666 Y16.382 E5.2390
G1 X96.291 Y15.246 E5.3167
G1 X96.305 Y15.223 E5.3183
G1 X96.519 Y14.893 E5.3418
G1 X96.535 Y14.872 E5.3434
G1 X97.335 Y13.818 E5.4226
G1 X97.350 Y13.800 E5.4240
G1 X97.578 Y13.537 E5.4449
G1 X97.594 Y13.520 E5.4463
G1 X98.292 Y12.814 E5.5057
G1 X98.305 Y12.801 E5.5068
G1 X98.507 Y12.617 E5.5232
G1 X98.521 Y12.605 E5.5243
G1 X99.306 Y11.958 E5.5851
G1 X99.320 Y11.947 E5.5862
G1 X99.530 Y11.791 E5.6019
G1 X99.545 Y11.780 E5.6030
G1 X100.154 Y11.372 E5.6469
G1 X100.168 Y11.363 E5.6479
G1 X100.382 Y11.233 E5.6629
G1 X100.397 Y11.225 E5.6639
G1 X101.225 Y10.775 E5.7203
G1 X101.242 Y10.766 E5.7214
G1 X101.488 Y10.649 E5.7378
G1 X101.504 Y10.641 E5.7388
G1 X102.442 Y10.249 E5.7997
G1 X102.459 Y10.243 E5.8007
G1 X102.706 Y10.154 E5.8165
G1 X102.723 Y10.148 E5.8176
G1 X103.424 Y9.933 E5.8615
G1 X103.441 Y9.928 E5.8625
G1 X103.684 Y9.866 E5.8775
G1 X103.700 Y9.862 E5.8785
G1 X104.623 Y9.671 E5.9350
G1 X104.641 Y9.668 E5.9361
G1 X104.910 Y9.627 E5.9523
G1 X104.928 Y9.624 E5.9534
G1 X105.939 Y9.520 E6.0142
G1 X105.956 Y9.519 E6.0153
G1 X106.220 Y9.505 E6.0311
G1 X106.237 Y9.504 E6.0322
G1 X106.972 Y9.501 E6.0761
G1 X106.989 Y9.502 E6.0771
G1 X107.240 Y9.513 E6.0922
G1 X107.257 Y9.514 E6.0932
G1 X108.195 Y9.598 E6.1496
G1 X108.213 Y9.600 E6.1507
G1 X108.481 Y9.638 E6.1669
G1 X108.499 Y9.641 E6.1680
G1 X109.496 Y9.834 E6.2288
G1 X109.514 Y9.837 E6.2299
G1 X109.771 Y9.900 E6.2457
G1 X109.788 Y9.905 E6.2468
G1 X110.513 Y10.121 E6.2920
G1 X110.531 Y10.127 E6.2932
G1 X110.809 Y10.226 E6.3109
G1 X110.827 Y10.233 E6.3121
G1 X111.977 Y10.719 E6.3868
G1 X111.995 Y10.727 E6.3879
G1 X112.260 Y10.856 E6.4056
G1 X112.278 Y10.865 E6.4068
G1 X112.951 Y11.242 E6.4530
G1 X112.968 Y11.252 E6.4542
G1 X113.218 Y11.410 E6.4718
G1 X113.234 Y11.421 E6.4730
G1 X114.290 Y12.174 E6.5507
G1 X114.311 Y12.190 E6.5522
G1 X114.613 Y12.441 E6.5758
G1 X114.633 Y12.458 E6.5774
G1 X115.568 Y13.358 E6.6550
G1 X115.582 Y13.372 E6.6562
G1 X115.783 Y13.588 E6.6739
G1 X115.796 Y13.603 E6.6750
G1 X116.290 Y14.196 E6.7212
G1 X116.302 Y14.211 E6.7224
G1 X116.478 Y14.448 E6.7401
G1 X116.489 Y14.464 E6.7413
G1 X117.205 Y15.545 E6.8189
G1 X117.219 Y15.568 E6.8205
G1 X117.411 Y15.911 E6.8441
G1 X117.423 Y15.935 E6.8456
G1 X117.994 Y17.154 E6.9262
G1 X118.004 Y17.178 E6.9278
G1 X118.145 Y17.545 E6.9513
G1 X118.153 Y17.570 E6.9529
G1 X118.540 Y18.860 E7.0335
G1 X118.546 Y18.885 E7.0351
G1 X118.631 Y19.269 E7.0586
G1 X118.636 Y19.295 E7.0602
G1 X118.830 Y20.627 E7.1408
G1 X118.833 Y20.654 E7.1424
G1 X118.861 Y21.046 E7.1659
G1 X118.862 Y21.072 E7.1675
G1 X118.859 Y22.419 E7.2481
G1 X118.858 Y22.445 E7.2497
G1 X118.828 Y22.837 E7.2732
G1 X118.825 Y22.864 E7.2748
G1 X118.625 Y24.195 E7.3554
G1 X118.620 Y24.221 E7.3570
G1 X118.534 Y24.604 E7.3805
G1 X118.527 Y24.630 E7.3821
