; G-Code generated by Simplify3D(R) Version 3.1.0
; Feb 27, 2017 at 1:34:18 PM
; Settings Summary
;   processName,Process1
;   applyToModels,feeder arm 2.0.1 green,ear,feeder arm 2.0.1 green(2),ear(2)
;   profileName,PETG 0.2 he.20 bt50 (modified)
;   profileVersion,2017-02-27 13:22:29
;   baseProfile,Default (modified)
;   printMaterial,
;   printQuality,
;   printExtruders,
;   extruderName,Primary Extruder
;   extruderToolheadNumber,0
;   extruderDiameter,0.4
;   extruderAutoWidth,0
;   extruderWidth,0.48
;   extrusionMultiplier,0.9
;   extruderUseRetract,1
;   extruderRetractionDistance,1.5
;   extruderExtraRestartDistance,0
;   extruderRetractionZLift,0.1
;   extruderRetractionSpeed,4200
;   extruderUseCoasting,1
;   extruderCoastingDistance,0.2
;   extruderUseWipe,1
;   extruderWipeDistance,0.2
;   primaryExtruder,0
;   layerHeight,0.2
;   topSolidLayers,5
;   bottomSolidLayers,3
;   perimeterOutlines,2
;   printPerimetersInsideOut,1
;   startPointOption,2
;   startPointOriginX,85
;   startPointOriginY,0
;   startPointOriginZ,80
;   sequentialIslands,0
;   spiralVaseMode,0
;   firstLayerHeightPercentage,150
;   firstLayerWidthPercentage,100
;   firstLayerUnderspeed,0.35
;   useRaft,0
;   raftExtruder,0
;   raftLayers,2
;   raftOffset,2
;   raftSeparationDistance,0.14
;   raftInfill,85
;   disableRaftBaseLayers,1
;   useSkirt,1
;   skirtExtruder,0
;   skirtLayers,1
;   skirtOutlines,3
;   skirtOffset,3
;   usePrimePillar,0
;   primePillarExtruder,999
;   primePillarWidth,12
;   primePillarLocation,7
;   primePillarSpeedMultiplier,1
;   useOozeShield,0
;   oozeShieldExtruder,999
;   oozeShieldOffset,2
;   oozeShieldOutlines,1
;   oozeShieldSidewallShape,1
;   oozeShieldSidewallAngle,30
;   oozeShieldSpeedMultiplier,1
;   infillExtruder,0
;   internalInfillPattern,Rectilinear
;   externalInfillPattern,Rectilinear
;   infillPercentage,20
;   outlineOverlapPercentage,30
;   infillExtrusionWidthPercentage,145
;   minInfillLength,4
;   infillLayerInterval,1
;   infillAngles,45,-45
;   overlapInfillAngles,0
;   generateSupport,1
;   supportExtruder,0
;   supportInfillPercentage,36
;   supportExtraInflation,0.5
;   denseSupportLayers,0
;   denseSupportInfillPercentage,70
;   supportLayerInterval,1
;   supportHorizontalPartOffset,0.8
;   supportUpperSeparationLayers,1
;   supportLowerSeparationLayers,1
;   supportType,0
;   supportGridSpacing,1.5
;   maxOverhangAngle,55
;   supportAngles,0
;   temperatureName,Primary Extruder,bed
;   temperatureNumber,0,0
;   temperatureSetpointCount,2,2
;   temperatureSetpointLayers,1,2,1,2
;   temperatureSetpointTemperatures,240,235,55,50
;   temperatureStabilizeAtStartup,1,1
;   temperatureHeatedBed,0,1
;   temperatureRelayBetweenLayers,0,0
;   temperatureRelayBetweenLoops,0,0
;   fanLayers,1,4
;   fanSpeeds,0,20
;   blipFanToFullPower,1
;   adjustSpeedForCooling,0
;   minSpeedLayerTime,15
;   minCoolingSpeedSlowdown,65
;   increaseFanForCooling,1
;   minFanLayerTime,15
;   maxCoolingFanSpeed,60
;   increaseFanForBridging,1
;   bridgingFanSpeed,100
;   use5D,1
;   relativeEdistances,0
;   allowEaxisZeroing,1
;   independentExtruderAxes,0
;   includeM10123,0
;   stickySupport,1
;   applyToolheadOffsets,0
;   gcodeXoffset,0
;   gcodeYoffset,0
;   gcodeZoffset,0
;   overrideMachineDefinition,1
;   machineTypeOverride,0
;   strokeXoverride,170
;   strokeYoverride,160
;   strokeZoverride,145
;   originOffsetXoverride,0
;   originOffsetYoverride,0
;   originOffsetZoverride,0
;   homeXdirOverride,-1
;   homeYdirOverride,-1
;   homeZdirOverride,-1
;   flipXoverride,1
;   flipYoverride,-1
;   flipZoverride,1
;   toolheadOffsets,0,0|0,0|0,0|0,0|0,0|0,0
;   overrideFirmwareConfiguration,1
;   firmwareTypeOverride,RepRap (Marlin/Repetier/Sprinter)
;   GPXconfigOverride,r2
;   baudRateOverride,250000
;   overridePrinterModels,0
;   printerModelsOverride
;   startingGcode,;---------------------------------------,; ; ; Jellybox Start Script Begin ; ; ;,;_______________________________________,M117 Preparing        ; write Preparing,; M92 E140            ; optionally adjust E steps/mm,M207 S1.5 F600 Z0     ; optionally adjust retract settings,M208 S-0.00 F600      ; optionally adjust unretract = recover settings,M206 X10.0 Y0.0       ; set x homing offset for default bed leveling,G21                   ; metric values,G90                   ; absolute positioning,M107                  ; start with the fan off,M82                   ; set extruder to absolute mode,G28                   ; home all axes,M203 Z4               ; slow Z speed down for greater accuracy when probing,G29                   ; auto bed leveling procedure,M203 Z7               ; pick up z speed again for printing,G92 E0                ; reset the extruder position,G1 F1500 E15          ; extrude 15mm of feed stock,G92 E0                ; reset the extruder position again,M117 Print starting   ; write Print starting,;---------------------------------------------,; ; ; Jellybox Printer Start Script End ; ; ;,;_____________________________________________
;   layerChangeGcode,
;   retractionGcode,
;   toolChangeGcode,
;   endingGcode,; ---------------------------------,; ; ;  Jellybox End Script Begin ; ; ;,; _________________________________,M117 Finishing Up ; write Finishing Up,M104 S0            ; extruder heater off,M140 S0            ; bed heater off (if you have it),G91                ; relative positioning,G1 E-1 F300        ; retract the filament a bit before lifting the nozzle to release some of the pressure,G1 Z+0.5 E-5 X-20 Y-20 F9000 ; move Z up a bit and retract filament even more,G90                ; absolute positioning,G28 X              ; home x so the head is out of the way,G1 Y100            ; move Y forward so the print is more accessible,M84                ; steppers off,M117 Print finished ; write Print finisheds,; ---------------------------------------,; ; ;  Jellybox End Script End ; ; ;,; _______________________________________
;   exportFileFormat,gcode
;   celebration,0
;   celebrationSong,Random Song
;   postProcessing,|{REPLACE "; layer" "M117 Layer"},|{REPLACE ", Z = " " "Z="}|
;   defaultSpeed,2400
;   outlineUnderspeed,0.55
;   solidInfillUnderspeed,0.55
;   supportUnderspeed,0.9
;   rapidXYspeed,7200
;   rapidZspeed,420
;   minBridgingArea,50
;   bridgingExtraInflation,0.3
;   bridgingExtrusionMultiplier,1
;   bridgingSpeedMultiplier,1
;   filamentDiameter,1.75
;   filamentPricePerKg,30
;   filamentDensity,1.38
;   useMinPrintHeight,0
;   minPrintHeight,0
;   useMaxPrintHeight,0
;   maxPrintHeight,1
;   useDiaphragm,0
;   diaphragmLayerInterval,20
;   robustSlicing,1
;   mergeAllIntoSolid,0
;   onlyRetractWhenCrossingOutline,1
;   retractBetweenLayers,1
;   useRetractionMinTravel,1
;   retractionMinTravel,0.5
;   retractWhileWiping,1
;   onlyWipeOutlines,1
;   avoidCrossingOutline,1
;   maxMovementDetourFactor,2.5
;   toolChangeRetractionDistance,1.3
;   toolChangeExtraRestartDistance,0
;   toolChangeRetractionSpeed,600
;   allowThinWallGapFill,1
;   thinWallAllowedOverlapPercentage,15
;   horizontalSizeCompensation,0
G90
M82
M106 S0
M140 S55
M190 S55
M104 S240 T0
M109 S240 T0
;---------------------------------------
; ; ; Jellybox Start Script Begin ; ; ;
;_______________________________________
M117 Preparing        ; write Preparing
; M92 E140            ; optionally adjust E steps/mm
M207 S1.5 F600 Z0     ; optionally adjust retract settings
M208 S-0.00 F600      ; optionally adjust unretract = recover settings
M206 X10.0 Y0.0       ; set x homing offset for default bed leveling
G21                   ; metric values
G90                   ; absolute positioning
M107                  ; start with the fan off
M82                   ; set extruder to absolute mode
G28                   ; home all axes
M203 Z4               ; slow Z speed down for greater accuracy when probing
G29                   ; auto bed leveling procedure
M203 Z7               ; pick up z speed again for printing
G92 E0                ; reset the extruder position
G1 F1500 E15          ; extrude 15mm of feed stock
G92 E0                ; reset the extruder position again
M117 Print starting   ; write Print starting
;---------------------------------------------
; ; ; Jellybox Printer Start Script End ; ; ;
;_____________________________________________
G92 E0
G1 E-1.5000 F4200
G1 Z0.400 F420
M117 Layer 1 0.3
T0
; tool H0.300 W0.480
; skirt
G1 X60.920 Y77.485 F7200
G1 Z0.300 F420
G1 E0.0000 F1260
G92 E0
G1 X62.425 Y76.740 E0.0905 F840
G1 X62.695 Y76.677 E0.1054
G1 X68.165 Y76.677 E0.4001
G1 X68.606 Y76.860 E0.4259
G1 X70.034 Y78.288 E0.5347
G1 X71.462 Y76.860 E0.6434
G1 X71.903 Y76.677 E0.6692
G1 X77.374 Y76.677 E0.9640
G1 X77.643 Y76.740 E0.9789
G1 X79.148 Y77.485 E1.0693
G1 X79.362 Y77.661 E1.0843
G1 X79.661 Y78.051 E1.1108
G1 X80.246 Y78.229 E1.1437
G1 X80.301 Y78.249 E1.1469
G1 X80.578 Y78.364 E1.1630
G1 X80.972 Y77.848 E1.1980
G1 X81.186 Y77.672 E1.2129
G1 X82.691 Y76.928 E1.3034
G1 X82.960 Y76.865 E1.3183
G1 X88.431 Y76.865 E1.6130
G1 X88.872 Y77.048 E1.6388
G1 X90.300 Y78.475 E1.7475
G1 X91.727 Y77.048 E1.8563
G1 X92.168 Y76.865 E1.8821
G1 X97.639 Y76.865 E2.1769
G1 X97.909 Y76.928 E2.1918
G1 X99.414 Y77.672 E2.2822
G1 X99.628 Y77.848 E2.2971
G1 X99.926 Y78.239 E2.3236
G1 X100.511 Y78.416 E2.3566
G1 X100.567 Y78.436 E2.3598
G1 X100.894 Y78.572 E2.3788
G1 X100.947 Y78.597 E2.3820
G1 X101.864 Y79.087 E2.4380
G1 X101.915 Y79.117 E2.4412
G1 X102.209 Y79.314 E2.4603
G1 X102.257 Y79.349 E2.4635
G1 X103.060 Y80.009 E2.5195
G1 X103.104 Y80.049 E2.5227
G1 X103.353 Y80.298 E2.5417
G1 X103.392 Y80.342 E2.5448
G1 X104.052 Y81.145 E2.6008
G1 X104.087 Y81.192 E2.6040
G1 X104.284 Y81.487 E2.6231
G1 X104.314 Y81.538 E2.6263
G1 X104.805 Y82.455 E2.6823
G1 X104.830 Y82.508 E2.6855
G1 X104.965 Y82.835 E2.7046
G1 X104.985 Y82.890 E2.7077
G1 X105.287 Y83.885 E2.7638
G1 X105.301 Y83.942 E2.7669
G1 X105.370 Y84.289 E2.7860
G1 X105.379 Y84.348 E2.7892
G1 X105.480 Y85.382 E2.8452
G1 X105.483 Y85.441 E2.8484
G1 X105.483 Y85.794 E2.8674
G1 X105.480 Y85.853 E2.8706
G1 X105.379 Y86.888 E2.9266
G1 X105.370 Y86.946 E2.9298
G1 X105.301 Y87.293 E2.9488
G1 X105.287 Y87.350 E2.9520
G1 X104.985 Y88.345 E3.0080
G1 X104.965 Y88.401 E3.0112
G1 X104.830 Y88.727 E3.0302
G1 X104.805 Y88.781 E3.0334
G1 X104.314 Y89.698 E3.0894
G1 X104.284 Y89.748 E3.0926
G1 X104.087 Y90.043 E3.1117
G1 X104.052 Y90.090 E3.1149
G1 X103.392 Y90.894 E3.1709
G1 X103.353 Y90.937 E3.1741
G1 X103.104 Y91.187 E3.1931
G1 X103.060 Y91.226 E3.1962
G1 X102.257 Y91.886 E3.2523
G1 X102.209 Y91.921 E3.2554
G1 X101.915 Y92.118 E3.2745
G1 X101.864 Y92.148 E3.2777
G1 X100.947 Y92.639 E3.3337
G1 X100.894 Y92.664 E3.3369
G1 X100.567 Y92.799 E3.3560
G1 X100.511 Y92.819 E3.3591
G1 X100.163 Y92.925 E3.3788
G1 X99.264 Y93.823 E3.4472
G1 X99.068 Y93.954 E3.4600
G1 X97.747 Y94.502 E3.5370
G1 X97.515 Y94.548 E3.5498
G1 X92.168 Y94.548 E3.8378
G1 X91.727 Y94.365 E3.8636
G1 X90.300 Y92.937 E3.9724
G1 X88.872 Y94.365 E4.0811
G1 X88.431 Y94.548 E4.1069
G1 X83.085 Y94.548 E4.3949
G1 X82.853 Y94.502 E4.4076
G1 X81.532 Y93.954 E4.4847
G1 X81.336 Y93.823 E4.4974
G1 X80.174 Y92.662 E4.5859
G1 X80.169 Y92.655 E4.5864
G1 X79.897 Y92.737 E4.6017
G1 X78.998 Y93.636 E4.6702
G1 X78.802 Y93.767 E4.6829
G1 X77.481 Y94.314 E4.7600
G1 X77.249 Y94.360 E4.7727
G1 X71.903 Y94.360 E5.0608
G1 X71.461 Y94.178 E5.0865
G1 X70.034 Y92.750 E5.1953
G1 X68.606 Y94.178 E5.3041
G1 X68.165 Y94.360 E5.3298
G1 X62.819 Y94.360 E5.6178
G1 X62.587 Y94.314 E5.6306
G1 X61.266 Y93.767 E5.7076
G1 X61.070 Y93.636 E5.7204
G1 X59.909 Y92.475 E5.8088
G1 X59.777 Y92.278 E5.8216
G1 X59.230 Y90.957 E5.8986
G1 X59.184 Y90.725 E5.9113
G1 X59.184 Y80.482 E6.4633
G1 X59.216 Y80.289 E6.4738
G1 X59.595 Y79.167 E6.5376
G1 X59.687 Y78.994 E6.5482
G1 X60.706 Y77.661 E6.6386
G1 X60.766 Y77.612 E6.6427
G1 X60.920 Y77.485 F840
G1 X61.182 Y77.890 F7200
G92 E0
G1 X62.588 Y77.195 E0.0845 F840
G1 X62.750 Y77.157 E0.0935
G1 X68.070 Y77.157 E0.3801
G1 X68.334 Y77.267 E0.3955
G1 X70.034 Y78.967 E0.5250
G1 X71.733 Y77.267 E0.6545
G1 X71.998 Y77.157 E0.6700
G1 X77.318 Y77.157 E0.9566
G1 X77.480 Y77.195 E0.9656
G1 X78.886 Y77.890 E1.0501
G1 X79.014 Y77.996 E1.0590
G1 X79.373 Y78.466 E1.0909
G1 X80.095 Y78.685 E1.1315
G1 X80.128 Y78.697 E1.1335
G1 X80.433 Y78.823 E1.1512
G1 X80.465 Y78.838 E1.1531
G1 X80.717 Y78.973 E1.1685
G1 X81.320 Y78.184 E1.2220
G1 X81.448 Y78.078 E1.2310
G1 X82.854 Y77.383 E1.3155
G1 X83.016 Y77.345 E1.3244
G1 X88.335 Y77.345 E1.6111
G1 X88.600 Y77.455 E1.6265
G1 X90.300 Y79.154 E1.7560
G1 X91.999 Y77.455 E1.8855
G1 X92.264 Y77.345 E1.9009
G1 X97.584 Y77.345 E2.1876
G1 X97.746 Y77.383 E2.1966
G1 X99.152 Y78.078 E2.2811
G1 X99.280 Y78.184 E2.2900
G1 X99.639 Y78.653 E2.3219
G1 X100.361 Y78.872 E2.3625
G1 X100.394 Y78.884 E2.3644
G1 X100.699 Y79.011 E2.3822
G1 X100.731 Y79.026 E2.3841
G1 X101.627 Y79.505 E2.4389
G1 X101.658 Y79.523 E2.4408
G1 X101.933 Y79.707 E2.4586
G1 X101.961 Y79.728 E2.4605
G1 X102.746 Y80.373 E2.5153
G1 X102.773 Y80.396 E2.5172
G1 X103.005 Y80.629 E2.5349
G1 X103.029 Y80.655 E2.5368
G1 X103.674 Y81.440 E2.5915
G1 X103.695 Y81.469 E2.5934
G1 X103.879 Y81.744 E2.6113
G1 X103.897 Y81.774 E2.6132
G1 X104.376 Y82.671 E2.6679
G1 X104.391 Y82.703 E2.6698
G1 X104.517 Y83.008 E2.6876
G1 X104.529 Y83.041 E2.6895
G1 X104.824 Y84.013 E2.7443
G1 X104.833 Y84.047 E2.7462
G1 X104.897 Y84.371 E2.7640
G1 X104.902 Y84.406 E2.7659
G1 X105.002 Y85.418 E2.8206
G1 X105.003 Y85.453 E2.8225
G1 X105.003 Y85.783 E2.8403
G1 X105.002 Y85.818 E2.8422
G1 X104.902 Y86.829 E2.8970
G1 X104.897 Y86.864 E2.8989
G1 X104.833 Y87.188 E2.9166
G1 X104.824 Y87.222 E2.9186
G1 X104.529 Y88.195 E2.9733
G1 X104.517 Y88.228 E2.9752
G1 X104.391 Y88.533 E2.9930
G1 X104.376 Y88.565 E2.9949
G1 X103.897 Y89.461 E3.0497
G1 X103.879 Y89.492 E3.0516
G1 X103.695 Y89.767 E3.0694
G1 X103.674 Y89.795 E3.0713
G1 X103.029 Y90.580 E3.1260
G1 X103.005 Y90.606 E3.1279
G1 X102.773 Y90.839 E3.1457
G1 X102.746 Y90.863 E3.1476
G1 X101.961 Y91.508 E3.2023
G1 X101.933 Y91.529 E3.2042
G1 X101.658 Y91.712 E3.2220
G1 X101.627 Y91.731 E3.2240
G1 X100.731 Y92.210 E3.2787
G1 X100.699 Y92.225 E3.2806
G1 X100.394 Y92.351 E3.2984
G1 X100.361 Y92.363 E3.3003
G1 X99.908 Y92.500 E3.3258
G1 X98.958 Y93.450 E3.3982
G1 X98.840 Y93.529 E3.4058
G1 X97.607 Y94.040 E3.4778
G1 X97.468 Y94.068 E3.4854
G1 X92.264 Y94.068 E3.7658
G1 X91.999 Y93.958 E3.7812
G1 X90.300 Y92.259 E3.9107
G1 X88.600 Y93.958 E4.0402
G1 X88.335 Y94.068 E4.0557
G1 X83.132 Y94.068 E4.3360
G1 X82.993 Y94.040 E4.3437
G1 X81.759 Y93.529 E4.4156
G1 X81.642 Y93.450 E4.4233
G1 X80.547 Y92.356 E4.5066
G1 X80.469 Y92.238 E4.5143
G1 X80.392 Y92.054 E4.5250
G1 X80.128 Y92.164 E4.5404
G1 X80.095 Y92.176 E4.5423
G1 X79.642 Y92.313 E4.5678
G1 X78.692 Y93.263 E4.6402
G1 X78.575 Y93.342 E4.6478
G1 X77.341 Y93.853 E4.7198
G1 X77.202 Y93.880 E4.7274
G1 X71.998 Y93.880 E5.0078
G1 X71.733 Y93.771 E5.0232
G1 X70.034 Y92.071 E5.1527
G1 X68.334 Y93.771 E5.2822
G1 X68.070 Y93.880 E5.2977
G1 X62.867 Y93.880 E5.5780
G1 X62.727 Y93.853 E5.5857
G1 X61.494 Y93.342 E5.6576
G1 X61.376 Y93.263 E5.6653
G1 X60.282 Y92.169 E5.7486
G1 X60.203 Y92.051 E5.7563
G1 X59.692 Y90.817 E5.8282
G1 X59.664 Y90.678 E5.8359
G1 X59.664 Y80.521 E6.3831
G1 X59.683 Y80.405 E6.3895
G1 X60.037 Y79.358 E6.4490
G1 X60.093 Y79.255 E6.4553
G1 X61.034 Y78.023 E6.5389
G1 X61.054 Y77.996 F840
G1 X61.182 Y77.890 F840
G1 X61.445 Y78.296 F7200
G92 E0
G1 X62.751 Y77.650 E0.0785 F840
G1 X62.805 Y77.637 E0.0815
G1 X67.974 Y77.637 E0.3600
G1 X68.062 Y77.674 E0.3652
G1 X69.887 Y79.499 E0.5042
G1 X69.924 Y79.587 E0.5094
G1 X69.924 Y91.451 E1.1486
G1 X69.887 Y91.539 E1.1537
G1 X68.062 Y93.364 E1.2928
G1 X67.974 Y93.400 E1.2979
G1 X62.914 Y93.400 E1.5706
G1 X62.867 Y93.391 E1.5732
G1 X61.721 Y92.916 E1.6400
G1 X61.682 Y92.890 E1.6426
G1 X60.654 Y91.863 E1.7208
G1 X60.628 Y91.823 E1.7234
G1 X60.153 Y90.677 E1.7902
G1 X60.144 Y90.631 E1.7928
G1 X60.144 Y80.561 E2.3354
G1 X60.151 Y80.522 E2.3375
G1 X60.479 Y79.549 E2.3928
G1 X60.498 Y79.515 E2.3949
G1 X61.314 Y78.446 E2.4674
G1 X61.402 Y78.331 F840
