; G-Code generated by Simplify3D(R) Version 3.1.0
; Mar 22, 2017 at 4:25:21 PM
; Settings Summary
;   processName,Process1
;   applyToModels,feeder arm 2.0.1 green,ear,feeder arm 2.0.1 green(2),ear(2)
;   profileName,PETG 0.2 he.20 bt50 (modified)
;   profileVersion,2017-02-27 13:22:29
;   baseProfile,Default (modified)
;   printMaterial,
;   printQuality,
;   printExtruders,
;   extruderName,Primary Extruder
;   extruderToolheadNumber,0
;   extruderDiameter,0.4
;   extruderAutoWidth,0
;   extruderWidth,0.48
;   extrusionMultiplier,0.95
;   extruderUseRetract,1
;   extruderRetractionDistance,1.4
;   extruderExtraRestartDistance,-0.1
;   extruderRetractionZLift,0
;   extruderRetractionSpeed,4200
;   extruderUseCoasting,1
;   extruderCoastingDistance,0.2
;   extruderUseWipe,1
;   extruderWipeDistance,0.2
;   primaryExtruder,0
;   layerHeight,0.2
;   topSolidLayers,5
;   bottomSolidLayers,3
;   perimeterOutlines,2
;   printPerimetersInsideOut,1
;   startPointOption,2
;   startPointOriginX,85
;   startPointOriginY,0
;   startPointOriginZ,80
;   sequentialIslands,0
;   spiralVaseMode,0
;   firstLayerHeightPercentage,150
;   firstLayerWidthPercentage,100
;   firstLayerUnderspeed,0.35
;   useRaft,0
;   raftExtruder,0
;   raftLayers,2
;   raftOffset,2
;   raftSeparationDistance,0.14
;   raftInfill,85
;   disableRaftBaseLayers,1
;   useSkirt,1
;   skirtExtruder,0
;   skirtLayers,1
;   skirtOutlines,3
;   skirtOffset,3
;   usePrimePillar,0
;   primePillarExtruder,999
;   primePillarWidth,12
;   primePillarLocation,7
;   primePillarSpeedMultiplier,1
;   useOozeShield,0
;   oozeShieldExtruder,999
;   oozeShieldOffset,2
;   oozeShieldOutlines,1
;   oozeShieldSidewallShape,1
;   oozeShieldSidewallAngle,30
;   oozeShieldSpeedMultiplier,1
;   infillExtruder,0
;   internalInfillPattern,Rectilinear
;   externalInfillPattern,Rectilinear
;   infillPercentage,22
;   outlineOverlapPercentage,30
;   infillExtrusionWidthPercentage,145
;   minInfillLength,4
;   infillLayerInterval,1
;   infillAngles,45,-45
;   overlapInfillAngles,0
;   generateSupport,1
;   supportExtruder,0
;   supportInfillPercentage,36
;   supportExtraInflation,0.5
;   denseSupportLayers,0
;   denseSupportInfillPercentage,70
;   supportLayerInterval,1
;   supportHorizontalPartOffset,0.8
;   supportUpperSeparationLayers,1
;   supportLowerSeparationLayers,1
;   supportType,0
;   supportGridSpacing,1.5
;   maxOverhangAngle,55
;   supportAngles,0
;   temperatureName,Primary Extruder,bed
;   temperatureNumber,0,0
;   temperatureSetpointCount,2,2
;   temperatureSetpointLayers,1,2,1,2
;   temperatureSetpointTemperatures,240,235,65,60
;   temperatureStabilizeAtStartup,1,1
;   temperatureHeatedBed,0,1
;   temperatureRelayBetweenLayers,0,0
;   temperatureRelayBetweenLoops,0,0
;   fanLayers,1,4
;   fanSpeeds,0,20
;   blipFanToFullPower,1
;   adjustSpeedForCooling,0
;   minSpeedLayerTime,15
;   minCoolingSpeedSlowdown,65
;   increaseFanForCooling,1
;   minFanLayerTime,15
;   maxCoolingFanSpeed,60
;   increaseFanForBridging,1
;   bridgingFanSpeed,100
;   use5D,1
;   relativeEdistances,0
;   allowEaxisZeroing,1
;   independentExtruderAxes,0
;   includeM10123,0
;   stickySupport,1
;   applyToolheadOffsets,0
;   gcodeXoffset,0
;   gcodeYoffset,0
;   gcodeZoffset,0
;   overrideMachineDefinition,1
;   machineTypeOverride,0
;   strokeXoverride,170
;   strokeYoverride,160
;   strokeZoverride,145
;   originOffsetXoverride,0
;   originOffsetYoverride,0
;   originOffsetZoverride,0
;   homeXdirOverride,-1
;   homeYdirOverride,-1
;   homeZdirOverride,-1
;   flipXoverride,1
;   flipYoverride,-1
;   flipZoverride,1
;   toolheadOffsets,0,0|0,0|0,0|0,0|0,0|0,0
;   overrideFirmwareConfiguration,1
;   firmwareTypeOverride,RepRap (Marlin/Repetier/Sprinter)
;   GPXconfigOverride,r2
;   baudRateOverride,250000
;   overridePrinterModels,0
;   printerModelsOverride
;   startingGcode,;---------------------------------------,; ; ; Jellybox Start Script Begin ; ; ;,;_______________________________________,M117 Preparing        ; write Preparing,; M92 E140            ; optionally adjust E steps/mm,M207 S1.5 F600 Z0     ; optionally adjust retract settings,M208 S-0.00 F600      ; optionally adjust unretract = recover settings,M206 X10.0 Y0.0       ; set x homing offset for default bed leveling,G21                   ; metric values,G90                   ; absolute positioning,M107                  ; start with the fan off,M82                   ; set extruder to absolute mode,G28                   ; home all axes,M203 Z4               ; slow Z speed down for greater accuracy when probing,G29                   ; auto bed leveling procedure,M203 Z7               ; pick up z speed again for printing,G92 E0                ; reset the extruder position,G1 F1500 E15          ; extrude 15mm of feed stock,G92 E0                ; reset the extruder position again,M117 Print starting   ; write Print starting,;---------------------------------------------,; ; ; Jellybox Printer Start Script End ; ; ;,;_____________________________________________
;   layerChangeGcode,
;   retractionGcode,
;   toolChangeGcode,
;   endingGcode,; ---------------------------------,; ; ;  Jellybox End Script Begin ; ; ;,; _________________________________,M117 Finishing Up ; write Finishing Up,M104 S0            ; extruder heater off,M140 S0            ; bed heater off (if you have it),G91                ; relative positioning,G1 E-1 F300        ; retract the filament a bit before lifting the nozzle to release some of the pressure,G1 Z+0.5 E-5 X-20 Y-20 F9000 ; move Z up a bit and retract filament even more,G90                ; absolute positioning,G28 X              ; home x so the head is out of the way,G1 Y100            ; move Y forward so the print is more accessible,M84                ; steppers off,M117 Print finished ; write Print finisheds,; ---------------------------------------,; ; ;  Jellybox End Script End ; ; ;,; _______________________________________
;   exportFileFormat,gcode
;   celebration,0
;   celebrationSong,Random Song
;   postProcessing,|{REPLACE "; layer" "M117 Layer"},|{REPLACE ", Z = " " "Z="}|
;   defaultSpeed,2700
;   outlineUnderspeed,0.55
;   solidInfillUnderspeed,0.55
;   supportUnderspeed,0.9
;   rapidXYspeed,7200
;   rapidZspeed,420
;   minBridgingArea,50
;   bridgingExtraInflation,0.3
;   bridgingExtrusionMultiplier,1
;   bridgingSpeedMultiplier,1
;   filamentDiameter,1.75
;   filamentPricePerKg,30
;   filamentDensity,1.38
;   useMinPrintHeight,0
;   minPrintHeight,0
;   useMaxPrintHeight,0
;   maxPrintHeight,1
;   useDiaphragm,0
;   diaphragmLayerInterval,20
;   robustSlicing,1
;   mergeAllIntoSolid,0
;   onlyRetractWhenCrossingOutline,1
;   retractBetweenLayers,1
;   useRetractionMinTravel,1
;   retractionMinTravel,0.5
;   retractWhileWiping,1
;   onlyWipeOutlines,1
;   avoidCrossingOutline,1
;   maxMovementDetourFactor,2.5
;   toolChangeRetractionDistance,1.3
;   toolChangeExtraRestartDistance,0
;   toolChangeRetractionSpeed,600
;   allowThinWallGapFill,1
;   thinWallAllowedOverlapPercentage,15
;   horizontalSizeCompensation,0
G90
M82
M106 S0
M140 S65
M190 S65
M104 S240 T0
M109 S240 T0
;---------------------------------------
; ; ; Jellybox Start Script Begin ; ; ;
;_______________________________________
M117 Preparing        ; write Preparing
; M92 E140            ; optionally adjust E steps/mm
M207 S1.5 F600 Z0     ; optionally adjust retract settings
M208 S-0.00 F600      ; optionally adjust unretract = recover settings
M206 X10.0 Y0.0       ; set x homing offset for default bed leveling
G21                   ; metric values
G90                   ; absolute positioning
M107                  ; start with the fan off
M82                   ; set extruder to absolute mode
G28                   ; home all axes
M203 Z4               ; slow Z speed down for greater accuracy when probing
G29                   ; auto bed leveling procedure
M203 Z7               ; pick up z speed again for printing
G92 E0                ; reset the extruder position
G1 F1500 E15          ; extrude 15mm of feed stock
G92 E0                ; reset the extruder position again
M117 Print starting   ; write Print starting
;---------------------------------------------
; ; ; Jellybox Printer Start Script End ; ; ;
;_____________________________________________
G92 E0
G1 E-1.4000 F4200
G1 Z0.300 F420
M117 Layer 1 0.3
T0
; tool H0.300 W0.480
; skirt
G1 X60.920 Y77.485 F7200
G1 E-0.1000 F1260
G92 E0
G1 X62.425 Y76.740 E0.0955 F945
G1 X62.695 Y76.677 E0.1112
G1 X68.165 Y76.677 E0.4224
G1 X68.606 Y76.860 E0.4495
G1 X70.034 Y78.288 E0.5644
G1 X71.462 Y76.860 E0.6792
G1 X71.903 Y76.677 E0.7063
G1 X77.374 Y76.677 E1.0175
G1 X77.643 Y76.740 E1.0333
G1 X79.148 Y77.485 E1.1288
G1 X79.362 Y77.661 E1.1445
G1 X79.661 Y78.051 E1.1725
G1 X80.246 Y78.229 E1.2072
G1 X80.301 Y78.249 E1.2106
G1 X80.578 Y78.364 E1.2276
G1 X80.972 Y77.848 E1.2645
G1 X81.186 Y77.672 E1.2803
G1 X82.691 Y76.928 E1.3758
G1 X82.960 Y76.865 E1.3915
G1 X88.431 Y76.865 E1.7026
G1 X88.872 Y77.048 E1.7298
G1 X90.300 Y78.475 E1.8446
G1 X91.727 Y77.048 E1.9595
G1 X92.168 Y76.865 E1.9866
G1 X97.639 Y76.865 E2.2978
G1 X97.909 Y76.928 E2.3135
G1 X99.414 Y77.672 E2.4090
G1 X99.628 Y77.848 E2.4248
G1 X99.926 Y78.239 E2.4527
G1 X100.511 Y78.416 E2.4875
G1 X100.567 Y78.436 E2.4909
G1 X100.894 Y78.572 E2.5110
G1 X100.947 Y78.597 E2.5143
G1 X101.864 Y79.087 E2.5735
G1 X101.915 Y79.117 E2.5768
G1 X102.209 Y79.314 E2.5970
G1 X102.257 Y79.349 E2.6003
G1 X103.060 Y80.009 E2.6595
G1 X103.104 Y80.049 E2.6628
G1 X103.353 Y80.298 E2.6829
G1 X103.392 Y80.342 E2.6862
G1 X104.052 Y81.145 E2.7453
G1 X104.087 Y81.192 E2.7487
G1 X104.284 Y81.487 E2.7688
G1 X104.314 Y81.538 E2.7722
G1 X104.805 Y82.455 E2.8313
G1 X104.830 Y82.508 E2.8347
G1 X104.965 Y82.835 E2.8548
G1 X104.985 Y82.890 E2.8582
G1 X105.287 Y83.885 E2.9173
G1 X105.301 Y83.942 E2.9206
G1 X105.370 Y84.289 E2.9408
G1 X105.379 Y84.348 E2.9441
G1 X105.480 Y85.382 E3.0032
G1 X105.483 Y85.441 E3.0066
G1 X105.483 Y85.794 E3.0267
G1 X105.480 Y85.853 E3.0300
G1 X105.379 Y86.888 E3.0892
G1 X105.370 Y86.946 E3.0925
G1 X105.301 Y87.293 E3.1126
G1 X105.287 Y87.350 E3.1160
G1 X104.985 Y88.345 E3.1751
G1 X104.965 Y88.401 E3.1785
G1 X104.830 Y88.727 E3.1986
G1 X104.805 Y88.781 E3.2019
G1 X104.314 Y89.698 E3.2611
G1 X104.284 Y89.748 E3.2644
G1 X104.087 Y90.043 E3.2846
G1 X104.052 Y90.090 E3.2879
G1 X103.392 Y90.894 E3.3471
G1 X103.353 Y90.937 E3.3504
G1 X103.104 Y91.187 E3.3705
G1 X103.060 Y91.226 E3.3738
G1 X102.257 Y91.886 E3.4329
G1 X102.209 Y91.921 E3.4363
G1 X101.915 Y92.118 E3.4564
G1 X101.864 Y92.148 E3.4598
G1 X100.947 Y92.639 E3.5190
G1 X100.894 Y92.664 E3.5223
G1 X100.567 Y92.799 E3.5424
G1 X100.511 Y92.819 E3.5458
G1 X100.163 Y92.925 E3.5665
G1 X99.264 Y93.823 E3.6388
G1 X99.068 Y93.954 E3.6522
G1 X97.747 Y94.502 E3.7335
G1 X97.515 Y94.548 E3.7470
G1 X92.168 Y94.548 E4.0511
G1 X91.727 Y94.365 E4.0782
G1 X90.300 Y92.937 E4.1930
G1 X88.872 Y94.365 E4.3079
G1 X88.431 Y94.548 E4.3350
G1 X83.085 Y94.548 E4.6391
G1 X82.853 Y94.502 E4.6525
G1 X81.532 Y93.954 E4.7338
G1 X81.336 Y93.823 E4.7473
G1 X80.174 Y92.662 E4.8407
G1 X80.169 Y92.655 E4.8412
G1 X79.897 Y92.737 E4.8574
G1 X78.998 Y93.636 E4.9296
G1 X78.802 Y93.767 E4.9431
G1 X77.481 Y94.314 E5.0244
G1 X77.249 Y94.360 E5.0379
G1 X71.903 Y94.360 E5.3419
G1 X71.461 Y94.178 E5.3691
G1 X70.034 Y92.750 E5.4839
G1 X68.606 Y94.178 E5.5987
G1 X68.165 Y94.360 E5.6259
G1 X62.819 Y94.360 E5.9299
G1 X62.587 Y94.314 E5.9434
G1 X61.266 Y93.767 E6.0247
G1 X61.070 Y93.636 E6.0382
G1 X59.909 Y92.475 E6.1315
G1 X59.777 Y92.278 E6.1450
G1 X59.230 Y90.957 E6.2263
G1 X59.184 Y90.725 E6.2398
G1 X59.184 Y80.482 E6.8223
G1 X59.216 Y80.289 E6.8335
G1 X59.595 Y79.167 E6.9008
G1 X59.687 Y78.994 E6.9119
G1 X60.706 Y77.661 E7.0074
G1 X60.766 Y77.612 E7.0118
G1 X60.920 Y77.485 F945
G1 X61.182 Y77.890 F7200
G92 E0
G1 X62.588 Y77.195 E0.0892 F945
G1 X62.750 Y77.157 E0.0986
G1 X68.070 Y77.157 E0.4012
G1 X68.334 Y77.267 E0.4175
G1 X70.034 Y78.967 E0.5542
G1 X71.733 Y77.267 E0.6909
G1 X71.998 Y77.157 E0.7072
G1 X77.318 Y77.157 E1.0098
G1 X77.480 Y77.195 E1.0192
G1 X78.886 Y77.890 E1.1084
G1 X79.014 Y77.996 E1.1179
G1 X79.373 Y78.466 E1.1515
G1 X80.095 Y78.685 E1.1944
G1 X80.128 Y78.697 E1.1964
G1 X80.433 Y78.823 E1.2152
G1 X80.465 Y78.838 E1.2172
G1 X80.717 Y78.973 E1.2334
G1 X81.320 Y78.184 E1.2899
G1 X81.448 Y78.078 E1.2994
G1 X82.854 Y77.383 E1.3886
G1 X83.016 Y77.345 E1.3980
G1 X88.335 Y77.345 E1.7006
G1 X88.600 Y77.455 E1.7169
G1 X90.300 Y79.154 E1.8536
G1 X91.999 Y77.455 E1.9903
G1 X92.264 Y77.345 E2.0065
G1 X97.584 Y77.345 E2.3091
G1 X97.746 Y77.383 E2.3186
G1 X99.152 Y78.078 E2.4078
G1 X99.280 Y78.184 E2.4172
G1 X99.639 Y78.653 E2.4509
G1 X100.361 Y78.872 E2.4938
G1 X100.394 Y78.884 E2.4958
G1 X100.699 Y79.011 E2.5145
G1 X100.731 Y79.026 E2.5166
G1 X101.627 Y79.505 E2.5744
G1 X101.658 Y79.523 E2.5764
G1 X101.933 Y79.707 E2.5952
G1 X101.961 Y79.728 E2.5972
G1 X102.746 Y80.373 E2.6550
G1 X102.773 Y80.396 E2.6570
G1 X103.005 Y80.629 E2.6757
G1 X103.029 Y80.655 E2.6777
G1 X103.674 Y81.440 E2.7355
G1 X103.695 Y81.469 E2.7375
G1 X103.879 Y81.744 E2.7563
G1 X103.897 Y81.774 E2.7583
G1 X104.376 Y82.671 E2.8162
G1 X104.391 Y82.703 E2.8182
G1 X104.517 Y83.008 E2.8369
G1 X104.529 Y83.041 E2.8389
G1 X104.824 Y84.013 E2.8967
G1 X104.833 Y84.047 E2.8988
G1 X104.897 Y84.371 E2.9175
G1 X104.902 Y84.406 E2.9195
G1 X105.002 Y85.418 E2.9773
G1 X105.003 Y85.453 E2.9793
G1 X105.003 Y85.783 E2.9981
G1 X105.002 Y85.818 E3.0001
G1 X104.902 Y86.829 E3.0579
G1 X104.897 Y86.864 E3.0599
G1 X104.833 Y87.188 E3.0787
G1 X104.824 Y87.222 E3.0807
G1 X104.529 Y88.195 E3.1385
G1 X104.517 Y88.228 E3.1405
G1 X104.391 Y88.533 E3.1593
G1 X104.376 Y88.565 E3.1613
G1 X103.897 Y89.461 E3.2191
G1 X103.879 Y89.492 E3.2211
G1 X103.695 Y89.767 E3.2399
G1 X103.674 Y89.795 E3.2419
G1 X103.029 Y90.580 E3.2997
G1 X103.005 Y90.606 E3.3017
G1 X102.773 Y90.839 E3.3204
G1 X102.746 Y90.863 E3.3224
G1 X101.961 Y91.508 E3.3802
G1 X101.933 Y91.529 E3.3822
G1 X101.658 Y91.712 E3.4010
G1 X101.627 Y91.731 E3.4031
G1 X100.731 Y92.210 E3.4609
G1 X100.699 Y92.225 E3.4629
G1 X100.394 Y92.351 E3.4817
G1 X100.361 Y92.363 E3.4837
G1 X99.908 Y92.500 E3.5106
G1 X98.958 Y93.450 E3.5870
G1 X98.840 Y93.529 E3.5950
G1 X97.607 Y94.040 E3.6710
G1 X97.468 Y94.068 E3.6791
G1 X92.264 Y94.068 E3.9750
G1 X91.999 Y93.958 E3.9913
G1 X90.300 Y92.259 E4.1280
G1 X88.600 Y93.958 E4.2647
G1 X88.335 Y94.068 E4.2810
G1 X83.132 Y94.068 E4.5769
G1 X82.993 Y94.040 E4.5850
G1 X81.759 Y93.529 E4.6609
G1 X81.642 Y93.450 E4.6690
G1 X80.547 Y92.356 E4.7570
G1 X80.469 Y92.238 E4.7651
G1 X80.392 Y92.054 E4.7764
G1 X80.128 Y92.164 E4.7927
G1 X80.095 Y92.176 E4.7947
G1 X79.642 Y92.313 E4.8216
G1 X78.692 Y93.263 E4.8980
G1 X78.575 Y93.342 E4.9060
G1 X77.341 Y93.853 E4.9820
G1 X77.202 Y93.880 E4.9901
G1 X71.998 Y93.880 E5.2860
G1 X71.733 Y93.771 E5.3023
G1 X70.034 Y92.071 E5.4390
G1 X68.334 Y93.771 E5.5757
G1 X68.070 Y93.880 E5.5920
G1 X62.867 Y93.880 E5.8879
G1 X62.727 Y93.853 E5.8960
G1 X61.494 Y93.342 E5.9719
G1 X61.376 Y93.263 E5.9800
G1 X60.282 Y92.169 E6.0680
G1 X60.203 Y92.051 E6.0761
G1 X59.692 Y90.817 E6.1520
G1 X59.664 Y90.678 E6.1601
G1 X59.664 Y80.521 E6.7377
G1 X59.683 Y80.405 E6.7444
G1 X60.037 Y79.358 E6.8073
G1 X60.093 Y79.255 E6.8140
G1 X61.034 Y78.023 E6.9021
G1 X61.054 Y77.996 F945
G1 X61.182 Y77.890 F945
G1 X61.445 Y78.296 F7200
G92 E0
G1 X62.751 Y77.650 E0.0829 F945
G1 X62.805 Y77.637 E0.0861
G1 X67.974 Y77.637 E0.3800
G1 X68.062 Y77.674 E0.3855
G1 X69.887 Y79.499 E0.5322
G1 X69.924 Y79.587 E0.5377
G1 X69.924 Y91.451 E1.2124
G1 X69.887 Y91.539 E1.2178
G1 X68.062 Y93.364 E1.3646
G1 X67.974 Y93.400 E1.3701
G1 X62.914 Y93.400 E1.6579
G1 X62.867 Y93.391 E1.6606
G1 X61.721 Y92.916 E1.7311
G1 X61.682 Y92.890 E1.7338
G1 X60.654 Y91.863 E1.8164
G1 X60.628 Y91.823 E1.8191
G1 X60.153 Y90.677 E1.8897
G1 X60.144 Y90.631 E1.8924
G1 X60.144 Y80.561 E2.4651
G1 X60.151 Y80.522 E2.4674
G1 X60.479 Y79.549 E2.5257
G1 X60.498 Y79.515 E2.5280
G1 X61.314 Y78.446 E2.6044
G1 X61.402 Y78.331 F945
