; G-Code generated by Simplify3D(R) Version 3.1.0
; Mar 27, 2017 at 2:14:43 AM
; Settings Summary
;   processName,Process1
;   applyToModels,filament guide 3.0.1 green(2),filament guide 3.0.1 green(3),filament guide 3.0.1 green(2)(2),filament guide 3.0.1 green(3)(2),filament guide 3.0.1 green(2)(3),filament guide 3.0.1 green(3)(3),filament guide 3.0.1 green(2)(2)(2),filament guide 3.0.1 green(3)(2)(2)
;   profileName,PETG 0.3 he.20 bt50 (modified)
;   profileVersion,2017-02-27 23:31:17
;   baseProfile,Default (modified)
;   printMaterial,
;   printQuality,
;   printExtruders,
;   extruderName,Primary Extruder
;   extruderToolheadNumber,0
;   extruderDiameter,0.4
;   extruderAutoWidth,0
;   extruderWidth,0.48
;   extrusionMultiplier,0.95
;   extruderUseRetract,1
;   extruderRetractionDistance,1.4
;   extruderExtraRestartDistance,-0.1
;   extruderRetractionZLift,0.1
;   extruderRetractionSpeed,4200
;   extruderUseCoasting,1
;   extruderCoastingDistance,0.2
;   extruderUseWipe,1
;   extruderWipeDistance,0.2
;   primaryExtruder,0
;   layerHeight,0.3
;   topSolidLayers,3
;   bottomSolidLayers,2
;   perimeterOutlines,2
;   printPerimetersInsideOut,1
;   startPointOption,2
;   startPointOriginX,80
;   startPointOriginY,0
;   startPointOriginZ,5
;   sequentialIslands,0
;   spiralVaseMode,0
;   firstLayerHeightPercentage,100
;   firstLayerWidthPercentage,100
;   firstLayerUnderspeed,0.35
;   useRaft,0
;   raftExtruder,0
;   raftLayers,3
;   raftOffset,3
;   raftSeparationDistance,0.14
;   raftInfill,85
;   disableRaftBaseLayers,0
;   useSkirt,1
;   skirtExtruder,0
;   skirtLayers,1
;   skirtOutlines,2
;   skirtOffset,5
;   usePrimePillar,0
;   primePillarExtruder,999
;   primePillarWidth,12
;   primePillarLocation,7
;   primePillarSpeedMultiplier,1
;   useOozeShield,0
;   oozeShieldExtruder,999
;   oozeShieldOffset,2
;   oozeShieldOutlines,1
;   oozeShieldSidewallShape,1
;   oozeShieldSidewallAngle,30
;   oozeShieldSpeedMultiplier,1
;   infillExtruder,0
;   internalInfillPattern,Rectilinear
;   externalInfillPattern,Rectilinear
;   infillPercentage,22
;   outlineOverlapPercentage,30
;   infillExtrusionWidthPercentage,150
;   minInfillLength,2
;   infillLayerInterval,1
;   infillAngles,45,-45
;   overlapInfillAngles,0
;   generateSupport,1
;   supportExtruder,0
;   supportInfillPercentage,33
;   supportExtraInflation,0.5
;   denseSupportLayers,0
;   denseSupportInfillPercentage,70
;   supportLayerInterval,1
;   supportHorizontalPartOffset,0.8
;   supportUpperSeparationLayers,1
;   supportLowerSeparationLayers,1
;   supportType,0
;   supportGridSpacing,1.5
;   maxOverhangAngle,55
;   supportAngles,90
;   temperatureName,Primary Extruder,bed
;   temperatureNumber,0,0
;   temperatureSetpointCount,2,2
;   temperatureSetpointLayers,1,2,1,2
;   temperatureSetpointTemperatures,240,235,65,60
;   temperatureStabilizeAtStartup,1,0
;   temperatureHeatedBed,0,1
;   temperatureRelayBetweenLayers,0,0
;   temperatureRelayBetweenLoops,0,0
;   fanLayers,1,4
;   fanSpeeds,0,20
;   blipFanToFullPower,1
;   adjustSpeedForCooling,0
;   minSpeedLayerTime,15
;   minCoolingSpeedSlowdown,65
;   increaseFanForCooling,1
;   minFanLayerTime,15
;   maxCoolingFanSpeed,60
;   increaseFanForBridging,1
;   bridgingFanSpeed,100
;   use5D,1
;   relativeEdistances,0
;   allowEaxisZeroing,1
;   independentExtruderAxes,0
;   includeM10123,0
;   stickySupport,1
;   applyToolheadOffsets,0
;   gcodeXoffset,0
;   gcodeYoffset,0
;   gcodeZoffset,0
;   overrideMachineDefinition,1
;   machineTypeOverride,0
;   strokeXoverride,170
;   strokeYoverride,160
;   strokeZoverride,145
;   originOffsetXoverride,0
;   originOffsetYoverride,0
;   originOffsetZoverride,0
;   homeXdirOverride,-1
;   homeYdirOverride,-1
;   homeZdirOverride,-1
;   flipXoverride,1
;   flipYoverride,-1
;   flipZoverride,1
;   toolheadOffsets,0,0|0,0|0,0|0,0|0,0|0,0
;   overrideFirmwareConfiguration,1
;   firmwareTypeOverride,RepRap (Marlin/Repetier/Sprinter)
;   GPXconfigOverride,r2
;   baudRateOverride,250000
;   overridePrinterModels,0
;   printerModelsOverride
;   startingGcode,;---------------------------------------,; ; ; Jellybox Start Script Begin ; ; ;,;_______________________________________,M117 Preparing        ; write Preparing,; M92 E140            ; optionally adjust E steps/mm,M207 S1.5 F600 Z0     ; optionally adjust retract settings,M208 S-0.00 F600      ; optionally adjust unretract = recover settings,M206 X10.0 Y0.0       ; set x homing offset for default bed leveling,G21                   ; metric values,G90                   ; absolute positioning,M107                  ; start with the fan off,M82                   ; set extruder to absolute mode,G28                   ; home all axes,M203 Z4               ; slow Z speed down for greater accuracy when probing,G29                   ; auto bed leveling procedure,M203 Z7               ; pick up z speed again for printing,G92 E0                ; reset the extruder position,G1 F1500 E15          ; extrude 15mm of feed stock,G92 E0                ; reset the extruder position again,M117 Print starting   ; write Print starting,;---------------------------------------------,; ; ; Jellybox Printer Start Script End ; ; ;,;_____________________________________________
;   layerChangeGcode,
;   retractionGcode,
;   toolChangeGcode,
;   endingGcode,; ---------------------------------,; ; ;  Jellybox End Script Begin ; ; ;,; _________________________________,M117 Finishing Up ; write Finishing Up,M107                  ; sfan off,M104 S0            ; extruder heater off,M140 S0            ; bed heater off (if you have it),G91                ; relative positioning,G1 E-1 F300        ; retract the filament a bit before lifting the nozzle to release some of the pressure,G1 Z+0.5 E-5 X-20 Y-20 F9000 ; move Z up a bit and retract filament even more,G90                ; absolute positioning,G28 X              ; home x so the head is out of the way,G1 Y100            ; move Y forward so the print is more accessible,M84                ; steppers off,M117 Print finished ; write Print finisheds,; ---------------------------------------,; ; ;  Jellybox End Script End ; ; ;,; _______________________________________
;   exportFileFormat,gcode
;   celebration,0
;   celebrationSong,Random Song
;   postProcessing,|{REPLACE "; layer" "M117 Layer"},|{REPLACE ", Z = " " "Z="}
;   defaultSpeed,2700
;   outlineUnderspeed,0.55
;   solidInfillUnderspeed,0.55
;   supportUnderspeed,0.9
;   rapidXYspeed,7200
;   rapidZspeed,420
;   minBridgingArea,50
;   bridgingExtraInflation,0.3
;   bridgingExtrusionMultiplier,1
;   bridgingSpeedMultiplier,1
;   filamentDiameter,1.75
;   filamentPricePerKg,30
;   filamentDensity,1.38
;   useMinPrintHeight,0
;   minPrintHeight,30
;   useMaxPrintHeight,0
;   maxPrintHeight,40
;   useDiaphragm,0
;   diaphragmLayerInterval,20
;   robustSlicing,1
;   mergeAllIntoSolid,0
;   onlyRetractWhenCrossingOutline,1
;   retractBetweenLayers,1
;   useRetractionMinTravel,1
;   retractionMinTravel,1
;   retractWhileWiping,1
;   onlyWipeOutlines,1
;   avoidCrossingOutline,1
;   maxMovementDetourFactor,2.5
;   toolChangeRetractionDistance,1.3
;   toolChangeExtraRestartDistance,0
;   toolChangeRetractionSpeed,600
;   allowThinWallGapFill,1
;   thinWallAllowedOverlapPercentage,15
;   horizontalSizeCompensation,0
G90
M82
M106 S0
M140 S65
M104 S240 T0
M109 S240 T0
;---------------------------------------
; ; ; Jellybox Start Script Begin ; ; ;
;_______________________________________
M117 Preparing        ; write Preparing
; M92 E140            ; optionally adjust E steps/mm
M207 S1.5 F600 Z0     ; optionally adjust retract settings
M208 S-0.00 F600      ; optionally adjust unretract = recover settings
M206 X10.0 Y0.0       ; set x homing offset for default bed leveling
G21                   ; metric values
G90                   ; absolute positioning
M107                  ; start with the fan off
M82                   ; set extruder to absolute mode
G28                   ; home all axes
M203 Z4               ; slow Z speed down for greater accuracy when probing
G29                   ; auto bed leveling procedure
M203 Z7               ; pick up z speed again for printing
G92 E0                ; reset the extruder position
G1 F1500 E15          ; extrude 15mm of feed stock
G92 E0                ; reset the extruder position again
M117 Print starting   ; write Print starting
;---------------------------------------------
; ; ; Jellybox Printer Start Script End ; ; ;
;_____________________________________________
G92 E0
G1 E-1.4000 F4200
G1 Z0.400 F420
M117 Layer 1 0.3
T0
; tool H0.300 W0.480
; skirt
G1 X24.316 Y17.626 F7200
G1 Z0.300 F420
G1 E-0.1000 F1260
G92 E0
G1 X24.700 Y16.899 E0.0468 F945
G1 X24.710 Y16.881 E0.0480
G1 X24.866 Y16.622 E0.0651
G1 X24.877 Y16.605 E0.0663
G1 X25.714 Y15.377 E0.1508
G1 X25.730 Y15.357 E0.1523
G1 X25.970 Y15.053 E0.1743
G1 X25.987 Y15.033 E0.1758
G1 X26.912 Y14.027 E0.2535
G1 X26.925 Y14.013 E0.2546
G1 X27.134 Y13.810 E0.2712
G1 X27.148 Y13.796 E0.2723
G1 X27.859 Y13.174 E0.3260
G1 X27.871 Y13.164 E0.3269
G1 X28.048 Y13.022 E0.3399
G1 X28.061 Y13.012 E0.3407
G1 X28.694 Y12.547 E0.3854
G1 X28.705 Y12.539 E0.3862
G1 X28.871 Y12.426 E0.3977
G1 X28.883 Y12.419 E0.3984
G1 X29.538 Y12.009 E0.4423
G1 X29.549 Y12.002 E0.4431
G1 X29.724 Y11.902 E0.4546
G1 X29.736 Y11.895 E0.4554
G1 X30.464 Y11.513 E0.5021
G1 X30.483 Y11.504 E0.5033
G1 X30.758 Y11.379 E0.5205
G1 X30.776 Y11.371 E0.5216
G1 X32.121 Y10.848 E0.6037
G1 X32.141 Y10.841 E0.6049
G1 X32.428 Y10.747 E0.6221
G1 X32.448 Y10.742 E0.6232
G1 X33.243 Y10.532 E0.6700
G1 X33.256 Y10.528 E0.6708
G1 X33.453 Y10.484 E0.6822
G1 X33.466 Y10.482 E0.6830
G1 X34.265 Y10.334 E0.7292
G1 X34.284 Y10.331 E0.7303
G1 X34.563 Y10.294 E0.7464
G1 X34.582 Y10.292 E0.7474
G1 X35.887 Y10.191 E0.8219
G1 X35.906 Y10.190 E0.8229
G1 X36.187 Y10.182 E0.8389
G1 X36.206 Y10.183 E0.8400
G1 X37.018 Y10.205 E0.8862
G1 X37.031 Y10.205 E0.8870
G1 X37.233 Y10.218 E0.8984
G1 X37.246 Y10.219 E0.8992
G1 X38.025 Y10.300 E0.9438
G1 X38.040 Y10.301 E0.9446
G1 X38.261 Y10.333 E0.9573
G1 X38.276 Y10.336 E0.9582
G1 X39.206 Y10.511 E1.0120
G1 X39.226 Y10.515 E1.0131
G1 X39.516 Y10.587 E1.0302
G1 X39.535 Y10.592 E1.0313
G1 X40.796 Y10.978 E1.1063
G1 X40.814 Y10.984 E1.1074
G1 X41.080 Y11.081 E1.1235
G1 X41.098 Y11.088 E1.1245
G1 X41.846 Y11.407 E1.1708
G1 X41.858 Y11.413 E1.1716
G1 X42.040 Y11.499 E1.1830
G1 X42.052 Y11.505 E1.1838
G1 X42.783 Y11.883 E1.2306
G1 X42.801 Y11.893 E1.2317
G1 X43.061 Y12.047 E1.2489
G1 X43.078 Y12.058 E1.2501
G1 X44.277 Y12.862 E1.3322
G1 X44.293 Y12.874 E1.3333
G1 X44.534 Y13.056 E1.3505
G1 X44.550 Y13.069 E1.3517
G1 X45.177 Y13.601 E1.3985
G1 X45.188 Y13.610 E1.3993
G1 X45.336 Y13.746 E1.4107
G1 X45.346 Y13.756 E1.4115
G1 X45.896 Y14.298 E1.4554
G1 X45.905 Y14.308 E1.4562
G1 X46.043 Y14.455 E1.4676
G1 X46.052 Y14.465 E1.4684
G1 X46.569 Y15.058 E1.5131
G1 X46.579 Y15.070 E1.5140
G1 X46.722 Y15.250 E1.5271
G1 X46.732 Y15.262 E1.5280
G1 X47.169 Y15.860 E1.5701
G1 X47.172 Y15.855 E1.5704
G1 X47.180 Y15.844 E1.5712
G1 X47.639 Y15.222 E1.6151
G1 X47.647 Y15.212 E1.6159
G1 X47.773 Y15.054 E1.6274
G1 X47.781 Y15.044 E1.6281
G1 X48.318 Y14.421 E1.6749
G1 X48.332 Y14.406 E1.6761
G1 X48.542 Y14.188 E1.6933
G1 X48.557 Y14.174 E1.6944
G1 X49.616 Y13.194 E1.7765
G1 X49.631 Y13.180 E1.7777
G1 X49.864 Y12.988 E1.7949
G1 X49.880 Y12.976 E1.7960
G1 X50.543 Y12.488 E1.8428
G1 X50.554 Y12.480 E1.8436
G1 X50.721 Y12.367 E1.8550
G1 X50.732 Y12.360 E1.8558
G1 X51.387 Y11.950 E1.8997
G1 X51.399 Y11.943 E1.9005
G1 X51.573 Y11.843 E1.9120
G1 X51.585 Y11.836 E1.9127
G1 X52.314 Y11.454 E1.9595
G1 X52.332 Y11.445 E1.9607
G1 X52.607 Y11.320 E1.9779
G1 X52.626 Y11.312 E1.9790
G1 X53.971 Y10.789 E2.0611
G1 X53.990 Y10.782 E2.0623
G1 X54.277 Y10.689 E2.0795
G1 X54.297 Y10.683 E2.0806
G1 X55.092 Y10.473 E2.1274
G1 X55.105 Y10.470 E2.1282
G1 X55.302 Y10.426 E2.1396
G1 X55.315 Y10.423 E2.1404
G1 X56.114 Y10.275 E2.1866
G1 X56.133 Y10.272 E2.1877
G1 X56.413 Y10.235 E2.2037
G1 X56.432 Y10.233 E2.2048
G1 X57.736 Y10.132 E2.2793
G1 X57.755 Y10.131 E2.2803
G1 X58.036 Y10.124 E2.2963
G1 X58.055 Y10.124 E2.2974
G1 X58.867 Y10.146 E2.3436
G1 X58.881 Y10.146 E2.3444
G1 X59.082 Y10.160 E2.3558
G1 X59.095 Y10.161 E2.3566
G1 X59.875 Y10.241 E2.4012
G1 X59.890 Y10.243 E2.4020
G1 X60.111 Y10.275 E2.4147
G1 X60.126 Y10.277 E2.4156
G1 X61.056 Y10.452 E2.4694
G1 X61.075 Y10.456 E2.4705
G1 X61.365 Y10.528 E2.4875
G1 X61.385 Y10.533 E2.4887
G1 X62.645 Y10.919 E2.5637
G1 X62.663 Y10.925 E2.5647
G1 X62.929 Y11.023 E2.5809
G1 X62.947 Y11.030 E2.5819
G1 X63.695 Y11.349 E2.6282
G1 X63.708 Y11.354 E2.6290
G1 X63.890 Y11.440 E2.6404
G1 X63.902 Y11.446 E2.6412
G1 X64.632 Y11.825 E2.6880
G1 X64.650 Y11.834 E2.6891
G1 X64.910 Y11.989 E2.7063
G1 X64.927 Y11.999 E2.7075
G1 X66.126 Y12.804 E2.7896
G1 X66.142 Y12.815 E2.7907
G1 X66.383 Y12.998 E2.8079
G1 X66.399 Y13.010 E2.8091
G1 X67.027 Y13.543 E2.8559
G1 X67.037 Y13.552 E2.8566
G1 X67.186 Y13.688 E2.8681
G1 X67.195 Y13.697 E2.8689
G1 X67.745 Y14.240 E2.9128
G1 X67.754 Y14.249 E2.9136
G1 X67.892 Y14.396 E2.9250
G1 X67.901 Y14.406 E2.9258
G1 X68.418 Y14.999 E2.9705
G1 X68.428 Y15.011 E2.9714
G1 X68.572 Y15.191 E2.9845
G1 X68.581 Y15.203 E2.9854
G1 X69.138 Y15.965 E3.0391
G1 X69.149 Y15.981 E3.0402
G1 X69.190 Y16.044 E3.0444
G1 X69.423 Y15.751 E3.0657
G1 X69.440 Y15.731 E3.0672
G1 X70.364 Y14.725 E3.1449
G1 X70.378 Y14.711 E3.1460
G1 X70.586 Y14.507 E3.1626
G1 X70.601 Y14.494 E3.1637
G1 X71.311 Y13.872 E3.2175
G1 X71.323 Y13.862 E3.2183
G1 X71.501 Y13.719 E3.2313
G1 X71.513 Y13.709 E3.2322
G1 X72.146 Y13.244 E3.2769
G1 X72.157 Y13.236 E3.2776
G1 X72.324 Y13.123 E3.2891
G1 X72.335 Y13.116 E3.2899
G1 X72.990 Y12.706 E3.3338
G1 X73.002 Y12.699 E3.3346
G1 X73.177 Y12.599 E3.3460
G1 X73.188 Y12.592 E3.3468
G1 X73.917 Y12.210 E3.3936
G1 X73.935 Y12.201 E3.3947
G1 X74.210 Y12.076 E3.4119
G1 X74.229 Y12.068 E3.4131
G1 X75.574 Y11.545 E3.4952
G1 X75.593 Y11.538 E3.4963
G1 X75.880 Y11.445 E3.5135
G1 X75.900 Y11.439 E3.5147
G1 X76.695 Y11.229 E3.5615
G1 X76.709 Y11.226 E3.5622
G1 X76.905 Y11.182 E3.5737
G1 X76.918 Y11.179 E3.5745
G1 X77.717 Y11.031 E3.6207
G1 X77.736 Y11.028 E3.6217
G1 X78.016 Y10.991 E3.6378
G1 X78.035 Y10.989 E3.6389
G1 X79.340 Y10.888 E3.7133
G1 X79.358 Y10.887 E3.7144
G1 X79.640 Y10.880 E3.7304
G1 X79.659 Y10.880 E3.7315
G1 X80.471 Y10.902 E3.7777
G1 X80.484 Y10.903 E3.7784
G1 X80.685 Y10.916 E3.7899
G1 X80.699 Y10.917 E3.7907
G1 X81.478 Y10.997 E3.8352
G1 X81.493 Y10.999 E3.8361
G1 X81.714 Y11.031 E3.8488
G1 X81.729 Y11.033 E3.8496
G1 X82.659 Y11.208 E3.9034
G1 X82.678 Y11.212 E3.9046
G1 X82.969 Y11.284 E3.9216
G1 X82.988 Y11.289 E3.9227
G1 X84.248 Y11.675 E3.9977
G1 X84.266 Y11.681 E3.9988
G1 X84.533 Y11.779 E4.0149
G1 X84.550 Y11.786 E4.0160
G1 X85.298 Y12.105 E4.0622
G1 X85.311 Y12.110 E4.0630
G1 X85.493 Y12.196 E4.0745
G1 X85.505 Y12.202 E4.0752
G1 X86.236 Y12.581 E4.1220
G1 X86.253 Y12.591 E4.1232
G1 X86.513 Y12.745 E4.1404
G1 X86.531 Y12.755 E4.1415
G1 X87.729 Y13.560 E4.2236
G1 X87.746 Y13.571 E4.2248
G1 X87.987 Y13.754 E4.2420
G1 X88.003 Y13.766 E4.2431
G1 X88.630 Y14.299 E4.2899
G1 X88.640 Y14.308 E4.2907
G1 X88.789 Y14.444 E4.3021
G1 X88.798 Y14.453 E4.3029
G1 X89.348 Y14.996 E4.3468
G1 X89.358 Y15.005 E4.3476
G1 X89.495 Y15.152 E4.3591
G1 X89.505 Y15.162 E4.3598
G1 X90.021 Y15.755 E4.4046
G1 X90.031 Y15.767 E4.4055
G1 X90.175 Y15.947 E4.4185
G1 X90.184 Y15.959 E4.4194
G1 X90.621 Y16.557 E4.4615
G1 X90.624 Y16.552 E4.4619
G1 X90.632 Y16.541 E4.4627
G1 X91.116 Y15.886 E4.5090
G1 X91.128 Y15.870 E4.5101
G1 X91.311 Y15.649 E4.5264
G1 X91.323 Y15.635 E4.5275
G1 X92.213 Y14.666 E4.6023
G1 X92.227 Y14.652 E4.6034
G1 X92.436 Y14.448 E4.6200
G1 X92.450 Y14.435 E4.6211
G1 X93.161 Y13.813 E4.6748
G1 X93.172 Y13.803 E4.6757
G1 X93.350 Y13.660 E4.6887
G1 X93.362 Y13.651 E4.6896
G1 X93.996 Y13.185 E4.7342
G1 X94.007 Y13.178 E4.7350
G1 X94.173 Y13.064 E4.7465
G1 X94.185 Y13.057 E4.7472
G1 X94.839 Y12.648 E4.7912
G1 X94.851 Y12.641 E4.7919
G1 X95.026 Y12.540 E4.8034
