; G-Code generated by Simplify3D(R) Version 3.1.0
; Mar 22, 2017 at 4:17:27 PM
; Settings Summary
;   processName,Process1
;   applyToModels,filament guide 3.0.1 green,filament guide 3.0.1 green(2),filament guide 3.0.1 green(3),filament guide 3.0.1 green(4),filament guide 3.0.1 green(5),filament guide 3.0.1 green(6),filament guide 3.0.1 green(7),filament guide 3.0.1 green(8)
;   profileName,PETG 0.3 he.20 bt50 (modified)
;   profileVersion,2017-02-27 23:31:17
;   baseProfile,Default (modified)
;   printMaterial,
;   printQuality,
;   printExtruders,
;   extruderName,Primary Extruder
;   extruderToolheadNumber,0
;   extruderDiameter,0.4
;   extruderAutoWidth,0
;   extruderWidth,0.48
;   extrusionMultiplier,0.95
;   extruderUseRetract,1
;   extruderRetractionDistance,1.4
;   extruderExtraRestartDistance,-0.1
;   extruderRetractionZLift,0.1
;   extruderRetractionSpeed,4200
;   extruderUseCoasting,1
;   extruderCoastingDistance,0.2
;   extruderUseWipe,1
;   extruderWipeDistance,0.2
;   primaryExtruder,0
;   layerHeight,0.3
;   topSolidLayers,3
;   bottomSolidLayers,2
;   perimeterOutlines,2
;   printPerimetersInsideOut,1
;   startPointOption,2
;   startPointOriginX,80
;   startPointOriginY,0
;   startPointOriginZ,5
;   sequentialIslands,0
;   spiralVaseMode,0
;   firstLayerHeightPercentage,100
;   firstLayerWidthPercentage,100
;   firstLayerUnderspeed,0.35
;   useRaft,0
;   raftExtruder,0
;   raftLayers,3
;   raftOffset,3
;   raftSeparationDistance,0.14
;   raftInfill,85
;   disableRaftBaseLayers,0
;   useSkirt,1
;   skirtExtruder,0
;   skirtLayers,1
;   skirtOutlines,3
;   skirtOffset,3
;   usePrimePillar,0
;   primePillarExtruder,999
;   primePillarWidth,12
;   primePillarLocation,7
;   primePillarSpeedMultiplier,1
;   useOozeShield,0
;   oozeShieldExtruder,999
;   oozeShieldOffset,2
;   oozeShieldOutlines,1
;   oozeShieldSidewallShape,1
;   oozeShieldSidewallAngle,30
;   oozeShieldSpeedMultiplier,1
;   infillExtruder,0
;   internalInfillPattern,Rectilinear
;   externalInfillPattern,Rectilinear
;   infillPercentage,22
;   outlineOverlapPercentage,30
;   infillExtrusionWidthPercentage,150
;   minInfillLength,2
;   infillLayerInterval,1
;   infillAngles,45,-45
;   overlapInfillAngles,0
;   generateSupport,1
;   supportExtruder,0
;   supportInfillPercentage,33
;   supportExtraInflation,0.5
;   denseSupportLayers,0
;   denseSupportInfillPercentage,70
;   supportLayerInterval,1
;   supportHorizontalPartOffset,0.8
;   supportUpperSeparationLayers,1
;   supportLowerSeparationLayers,1
;   supportType,0
;   supportGridSpacing,1.5
;   maxOverhangAngle,55
;   supportAngles,90
;   temperatureName,Primary Extruder,bed
;   temperatureNumber,0,0
;   temperatureSetpointCount,2,2
;   temperatureSetpointLayers,1,2,1,2
;   temperatureSetpointTemperatures,240,235,65,60
;   temperatureStabilizeAtStartup,1,0
;   temperatureHeatedBed,0,1
;   temperatureRelayBetweenLayers,0,0
;   temperatureRelayBetweenLoops,0,0
;   fanLayers,1,4
;   fanSpeeds,0,20
;   blipFanToFullPower,1
;   adjustSpeedForCooling,0
;   minSpeedLayerTime,15
;   minCoolingSpeedSlowdown,65
;   increaseFanForCooling,1
;   minFanLayerTime,15
;   maxCoolingFanSpeed,60
;   increaseFanForBridging,1
;   bridgingFanSpeed,100
;   use5D,1
;   relativeEdistances,0
;   allowEaxisZeroing,1
;   independentExtruderAxes,0
;   includeM10123,0
;   stickySupport,1
;   applyToolheadOffsets,0
;   gcodeXoffset,0
;   gcodeYoffset,0
;   gcodeZoffset,0
;   overrideMachineDefinition,1
;   machineTypeOverride,0
;   strokeXoverride,170
;   strokeYoverride,160
;   strokeZoverride,145
;   originOffsetXoverride,0
;   originOffsetYoverride,0
;   originOffsetZoverride,0
;   homeXdirOverride,-1
;   homeYdirOverride,-1
;   homeZdirOverride,-1
;   flipXoverride,1
;   flipYoverride,-1
;   flipZoverride,1
;   toolheadOffsets,0,0|0,0|0,0|0,0|0,0|0,0
;   overrideFirmwareConfiguration,1
;   firmwareTypeOverride,RepRap (Marlin/Repetier/Sprinter)
;   GPXconfigOverride,r2
;   baudRateOverride,250000
;   overridePrinterModels,0
;   printerModelsOverride
;   startingGcode,;---------------------------------------,; ; ; Jellybox Start Script Begin ; ; ;,;_______________________________________,M117 Preparing        ; write Preparing,; M92 E140            ; optionally adjust E steps/mm,M207 S1.5 F600 Z0     ; optionally adjust retract settings,M208 S-0.00 F600      ; optionally adjust unretract = recover settings,M206 X10.0 Y0.0       ; set x homing offset for default bed leveling,G21                   ; metric values,G90                   ; absolute positioning,M107                  ; start with the fan off,M82                   ; set extruder to absolute mode,G28                   ; home all axes,M203 Z4               ; slow Z speed down for greater accuracy when probing,G29                   ; auto bed leveling procedure,M203 Z7               ; pick up z speed again for printing,G92 E0                ; reset the extruder position,G1 F1500 E15          ; extrude 15mm of feed stock,G92 E0                ; reset the extruder position again,M117 Print starting   ; write Print starting,;---------------------------------------------,; ; ; Jellybox Printer Start Script End ; ; ;,;_____________________________________________
;   layerChangeGcode,
;   retractionGcode,
;   toolChangeGcode,
;   endingGcode,; ---------------------------------,; ; ;  Jellybox End Script Begin ; ; ;,; _________________________________,M117 Finishing Up ; write Finishing Up,M107                  ; sfan off,M104 S0            ; extruder heater off,M140 S0            ; bed heater off (if you have it),G91                ; relative positioning,G1 E-1 F300        ; retract the filament a bit before lifting the nozzle to release some of the pressure,G1 Z+0.5 E-5 X-20 Y-20 F9000 ; move Z up a bit and retract filament even more,G90                ; absolute positioning,G28 X              ; home x so the head is out of the way,G1 Y100            ; move Y forward so the print is more accessible,M84                ; steppers off,M117 Print finished ; write Print finisheds,; ---------------------------------------,; ; ;  Jellybox End Script End ; ; ;,; _______________________________________
;   exportFileFormat,gcode
;   celebration,0
;   celebrationSong,Random Song
;   postProcessing,|{REPLACE "; layer" "M117 Layer"},|{REPLACE ", Z = " " "Z="}
;   defaultSpeed,2700
;   outlineUnderspeed,0.55
;   solidInfillUnderspeed,0.55
;   supportUnderspeed,0.9
;   rapidXYspeed,7200
;   rapidZspeed,420
;   minBridgingArea,50
;   bridgingExtraInflation,0.3
;   bridgingExtrusionMultiplier,1
;   bridgingSpeedMultiplier,1
;   filamentDiameter,1.75
;   filamentPricePerKg,30
;   filamentDensity,1.38
;   useMinPrintHeight,0
;   minPrintHeight,30
;   useMaxPrintHeight,0
;   maxPrintHeight,40
;   useDiaphragm,0
;   diaphragmLayerInterval,20
;   robustSlicing,1
;   mergeAllIntoSolid,0
;   onlyRetractWhenCrossingOutline,1
;   retractBetweenLayers,1
;   useRetractionMinTravel,1
;   retractionMinTravel,1
;   retractWhileWiping,1
;   onlyWipeOutlines,1
;   avoidCrossingOutline,1
;   maxMovementDetourFactor,2.5
;   toolChangeRetractionDistance,1.3
;   toolChangeExtraRestartDistance,0
;   toolChangeRetractionSpeed,600
;   allowThinWallGapFill,1
;   thinWallAllowedOverlapPercentage,15
;   horizontalSizeCompensation,0
G90
M82
M106 S0
M140 S65
M104 S240 T0
M109 S240 T0
;---------------------------------------
; ; ; Jellybox Start Script Begin ; ; ;
;_______________________________________
M117 Preparing        ; write Preparing
; M92 E140            ; optionally adjust E steps/mm
M207 S1.5 F600 Z0     ; optionally adjust retract settings
M208 S-0.00 F600      ; optionally adjust unretract = recover settings
M206 X10.0 Y0.0       ; set x homing offset for default bed leveling
G21                   ; metric values
G90                   ; absolute positioning
M107                  ; start with the fan off
M82                   ; set extruder to absolute mode
G28                   ; home all axes
M203 Z4               ; slow Z speed down for greater accuracy when probing
G29                   ; auto bed leveling procedure
M203 Z7               ; pick up z speed again for printing
G92 E0                ; reset the extruder position
G1 F1500 E15          ; extrude 15mm of feed stock
G92 E0                ; reset the extruder position again
M117 Print starting   ; write Print starting
;---------------------------------------------
; ; ; Jellybox Printer Start Script End ; ; ;
;_____________________________________________
G92 E0
G1 E-1.4000 F4200
G1 Z0.400 F420
M117 Layer 1 0.3
T0
; tool H0.300 W0.480
; skirt
G1 X51.764 Y39.981 F7200
G1 Z0.300 F420
G1 E-0.1000 F1260
G92 E0
G1 X51.778 Y39.963 E0.0013 F945
G1 X51.861 Y39.857 E0.0090
G1 X51.876 Y39.839 E0.0103
G1 X52.334 Y39.302 E0.0504
G1 X52.349 Y39.285 E0.0517
G1 X52.441 Y39.186 E0.0594
G1 X52.456 Y39.169 E0.0607
G1 X52.954 Y38.668 E0.1008
G1 X52.970 Y38.652 E0.1021
G1 X53.069 Y38.560 E0.1098
G1 X53.086 Y38.545 E0.1111
G1 X53.619 Y38.082 E0.1513
G1 X53.636 Y38.068 E0.1526
G1 X53.742 Y37.983 E0.1602
G1 X53.760 Y37.969 E0.1615
G1 X54.327 Y37.548 E0.2017
G1 X54.345 Y37.535 E0.2030
G1 X54.457 Y37.459 E0.2107
G1 X54.476 Y37.446 E0.2120
G1 X55.073 Y37.069 E0.2521
G1 X55.092 Y37.057 E0.2534
G1 X55.209 Y36.989 E0.2611
G1 X55.229 Y36.978 E0.2624
G1 X55.852 Y36.647 E0.3026
G1 X55.872 Y36.637 E0.3038
G1 X55.994 Y36.578 E0.3115
G1 X56.015 Y36.568 E0.3128
G1 X56.661 Y36.284 E0.3530
G1 X56.682 Y36.276 E0.3543
G1 X56.808 Y36.226 E0.3620
G1 X56.829 Y36.218 E0.3633
G1 X57.495 Y35.984 E0.4034
G1 X57.517 Y35.977 E0.4047
G1 X57.646 Y35.937 E0.4124
G1 X57.668 Y35.930 E0.4137
G1 X58.350 Y35.747 E0.4538
G1 X58.372 Y35.741 E0.4551
G1 X58.503 Y35.711 E0.4628
G1 X58.525 Y35.706 E0.4641
G1 X59.219 Y35.575 E0.5043
G1 X59.241 Y35.571 E0.5056
G1 X59.375 Y35.550 E0.5133
G1 X59.398 Y35.547 E0.5145
G1 X60.099 Y35.468 E0.5547
G1 X60.122 Y35.466 E0.5560
G1 X60.257 Y35.456 E0.5637
G1 X60.279 Y35.454 E0.5650
G1 X60.951 Y35.429 E0.6032
G1 X60.963 Y35.429 E0.6038
G1 X61.030 Y35.428 E0.6077
G1 X61.041 Y35.428 E0.6083
G1 X74.109 Y35.428 E1.3516
G1 X74.120 Y35.428 E1.3522
G1 X74.188 Y35.429 E1.3560
G1 X74.199 Y35.429 E1.3567
G1 X74.871 Y35.454 E1.3949
G1 X74.894 Y35.456 E1.3962
G1 X75.029 Y35.466 E1.4039
G1 X75.051 Y35.468 E1.4052
G1 X75.753 Y35.547 E1.4454
G1 X75.775 Y35.550 E1.4467
G1 X75.909 Y35.571 E1.4543
G1 X75.931 Y35.575 E1.4556
G1 X76.625 Y35.706 E1.4958
G1 X76.647 Y35.711 E1.4971
G1 X76.779 Y35.741 E1.5048
G1 X76.801 Y35.747 E1.5060
G1 X77.483 Y35.930 E1.5462
G1 X77.504 Y35.937 E1.5475
G1 X77.634 Y35.977 E1.5552
G1 X77.655 Y35.984 E1.5565
G1 X78.321 Y36.218 E1.5966
G1 X78.342 Y36.226 E1.5979
G1 X78.468 Y36.276 E1.6056
G1 X78.489 Y36.284 E1.6069
G1 X79.136 Y36.568 E1.6471
G1 X79.156 Y36.578 E1.6484
G1 X79.278 Y36.637 E1.6561
G1 X79.298 Y36.647 E1.6573
G1 X79.922 Y36.978 E1.6975
G1 X79.942 Y36.989 E1.6988
G1 X80.059 Y37.057 E1.7065
G1 X80.078 Y37.069 E1.7078
G1 X80.675 Y37.446 E1.7479
G1 X80.694 Y37.459 E1.7492
G1 X80.805 Y37.535 E1.7569
G1 X80.824 Y37.548 E1.7582
G1 X81.418 Y37.990 E1.8003
G1 X81.444 Y38.011 E1.8022
G1 X81.600 Y38.141 E1.8138
G1 X81.626 Y38.163 E1.8157
G1 X82.607 Y39.081 E1.8921
G1 X82.632 Y39.105 E1.8940
G1 X82.772 Y39.251 E1.9056
G1 X82.794 Y39.276 E1.9075
G1 X83.275 Y39.839 E1.9496
G1 X83.289 Y39.857 E1.9509
G1 X83.373 Y39.963 E1.9586
G1 X83.387 Y39.981 E1.9599
G1 X83.823 Y40.578 E2.0020
G1 X83.843 Y40.606 E2.0039
G1 X83.953 Y40.777 E2.0154
G1 X83.971 Y40.805 E2.0174
G1 X84.637 Y41.973 E2.0938
G1 X84.653 Y42.003 E2.0957
G1 X84.743 Y42.184 E2.1073
G1 X84.757 Y42.215 E2.1092
G1 X85.009 Y42.801 E2.1455
G1 X85.180 Y42.360 E2.1724
G1 X85.193 Y42.329 E2.1743
G1 X85.276 Y42.144 E2.1859
G1 X85.291 Y42.113 E2.1878
G1 X85.633 Y41.457 E2.2299
G1 X85.644 Y41.437 E2.2312
G1 X85.711 Y41.320 E2.2389
G1 X85.723 Y41.300 E2.2402
G1 X86.096 Y40.701 E2.2803
G1 X86.108 Y40.682 E2.2816
G1 X86.184 Y40.569 E2.2893
G1 X86.196 Y40.551 E2.2906
G1 X86.613 Y39.981 E2.3307
G1 X86.627 Y39.963 E2.3320
G1 X86.711 Y39.857 E2.3397
G1 X86.725 Y39.839 E2.3410
G1 X87.184 Y39.302 E2.3812
G1 X87.199 Y39.285 E2.3825
G1 X87.290 Y39.186 E2.3902
G1 X87.306 Y39.169 E2.3914
G1 X87.803 Y38.668 E2.4316
G1 X87.819 Y38.652 E2.4329
G1 X87.918 Y38.560 E2.4406
G1 X87.935 Y38.545 E2.4419
G1 X88.469 Y38.082 E2.4820
G1 X88.486 Y38.068 E2.4833
G1 X88.591 Y37.983 E2.4910
G1 X88.609 Y37.969 E2.4923
G1 X89.176 Y37.548 E2.5325
G1 X89.195 Y37.535 E2.5337
G1 X89.306 Y37.459 E2.5414
G1 X89.325 Y37.446 E2.5427
G1 X89.922 Y37.069 E2.5829
G1 X89.941 Y37.057 E2.5842
G1 X90.058 Y36.989 E2.5919
G1 X90.078 Y36.978 E2.5932
G1 X90.702 Y36.647 E2.6333
G1 X90.722 Y36.637 E2.6346
G1 X90.844 Y36.578 E2.6423
G1 X90.864 Y36.568 E2.6436
G1 X91.511 Y36.284 E2.6837
G1 X91.532 Y36.276 E2.6850
G1 X91.657 Y36.226 E2.6927
G1 X91.679 Y36.218 E2.6940
G1 X92.345 Y35.984 E2.7342
G1 X92.366 Y35.977 E2.7355
G1 X92.495 Y35.937 E2.7431
G1 X92.517 Y35.930 E2.7444
G1 X93.199 Y35.747 E2.7846
G1 X93.221 Y35.741 E2.7859
G1 X93.353 Y35.711 E2.7936
G1 X93.375 Y35.706 E2.7949
G1 X94.069 Y35.575 E2.8350
G1 X94.091 Y35.571 E2.8363
G1 X94.225 Y35.550 E2.8440
G1 X94.247 Y35.547 E2.8453
G1 X94.949 Y35.468 E2.8855
G1 X94.971 Y35.466 E2.8867
G1 X95.106 Y35.456 E2.8944
G1 X95.129 Y35.454 E2.8957
G1 X95.801 Y35.429 E2.9340
G1 X95.812 Y35.429 E2.9346
G1 X95.880 Y35.428 E2.9385
G1 X95.891 Y35.428 E2.9391
G1 X108.959 Y35.428 E3.6823
G1 X108.970 Y35.428 E3.6830
G1 X109.037 Y35.429 E3.6868
G1 X109.049 Y35.429 E3.6874
G1 X109.721 Y35.454 E3.7257
G1 X109.743 Y35.456 E3.7270
G1 X109.878 Y35.466 E3.7347
G1 X109.901 Y35.468 E3.7359
G1 X110.602 Y35.547 E3.7761
G1 X110.625 Y35.550 E3.7774
G1 X110.759 Y35.571 E3.7851
G1 X110.781 Y35.575 E3.7864
G1 X111.475 Y35.706 E3.8265
G1 X111.497 Y35.711 E3.8278
G1 X111.628 Y35.741 E3.8355
G1 X111.650 Y35.747 E3.8368
G1 X112.332 Y35.930 E3.8770
G1 X112.354 Y35.937 E3.8783
G1 X112.483 Y35.977 E3.8859
G1 X112.505 Y35.984 E3.8872
G1 X113.171 Y36.218 E3.9274
G1 X113.192 Y36.226 E3.9287
G1 X113.318 Y36.276 E3.9364
G1 X113.339 Y36.284 E3.9377
G1 X113.985 Y36.568 E3.9778
G1 X114.006 Y36.578 E3.9791
G1 X114.128 Y36.637 E3.9868
G1 X114.148 Y36.647 E3.9881
G1 X114.771 Y36.978 E4.0283
G1 X114.791 Y36.989 E4.0295
G1 X114.908 Y37.057 E4.0372
G1 X114.927 Y37.069 E4.0385
G1 X115.524 Y37.446 E4.0787
G1 X115.543 Y37.459 E4.0800
G1 X115.655 Y37.535 E4.0877
G1 X115.673 Y37.548 E4.0889
G1 X116.267 Y37.990 E4.1310
G1 X116.294 Y38.011 E4.1330
G1 X116.450 Y38.141 E4.1445
G1 X116.475 Y38.163 E4.1464
G1 X117.457 Y39.081 E4.2229
G1 X117.481 Y39.104 E4.2248
G1 X117.621 Y39.251 E4.2363
G1 X117.644 Y39.276 E4.2383
G1 X118.124 Y39.839 E4.2804
G1 X118.138 Y39.857 E4.2816
G1 X118.222 Y39.963 E4.2893
G1 X118.236 Y39.981 E4.2906
G1 X118.673 Y40.578 E4.3327
G1 X118.692 Y40.606 E4.3346
G1 X118.802 Y40.777 E4.3462
G1 X118.820 Y40.806 E4.3481
G1 X119.486 Y41.973 E4.4245
G1 X119.502 Y42.003 E4.4265
G1 X119.592 Y42.184 E4.4380
G1 X119.607 Y42.215 E4.4399
G1 X119.910 Y42.920 E4.4836
G1 X119.921 Y42.950 E4.4854
G1 X119.987 Y43.128 E4.4962
G1 X119.997 Y43.158 E4.4980
G1 X120.359 Y44.326 E4.5676
G1 X120.368 Y44.359 E4.5695
G1 X120.416 Y44.553 E4.5809
G1 X120.423 Y44.586 E4.5828
G1 X120.585 Y45.431 E4.6317
G1 X120.589 Y45.456 E4.6331
G1 X120.611 Y45.605 E4.6417
G1 X120.614 Y45.629 E4.6431
G1 X120.692 Y46.366 E4.6852
G1 X120.694 Y46.397 E4.6870
G1 X120.704 Y46.586 E4.6978
G1 X120.705 Y46.618 E4.6996
G1 X120.705 Y47.834 E4.7688
G1 X120.704 Y47.866 E4.7705
G1 X120.694 Y48.054 E4.7813
G1 X120.692 Y48.086 E4.7831
G1 X120.614 Y48.822 E4.8252
G1 X120.611 Y48.847 E4.8266
G1 X120.589 Y48.996 E4.8352
G1 X120.585 Y49.021 E4.8366
G1 X120.430 Y49.832 E4.8836
G1 X120.425 Y49.853 E4.8848
G1 X120.396 Y49.982 E4.8923
G1 X120.391 Y50.003 E4.8936
G1 X120.239 Y50.568 E4.9268
G1 X120.234 Y50.588 E4.9280
G1 X120.197 Y50.706 E4.9351
G1 X120.191 Y50.726 E4.9362
G1 X119.964 Y51.388 E4.9761
G1 X119.956 Y51.410 E4.9774
G1 X119.907 Y51.536 E4.9851
G1 X119.899 Y51.557 E4.9863
G1 X119.620 Y52.206 E5.0265
G1 X119.611 Y52.226 E5.0278
G1 X119.553 Y52.348 E5.0355
G1 X119.543 Y52.369 E5.0368
