; G-Code generated by Simplify3D(R) Version 3.1.0
; Mar 27, 2017 at 2:10:46 AM
; Settings Summary
;   processName,Process1
;   applyToModels,harness stand-off short 1.2 green(2),harness stand-off short 1.2 green(4),harness stand-off short 1.2 green(5),harness stand-off short 1.2 green(6),harness stand-off short 1.2 green(5)(2),harness stand-off short 1.2 green(6)(2)
;   profileName,PETG 0.3 he.20 bt50 (modified)
;   profileVersion,2017-02-27 23:31:17
;   baseProfile,Default (modified)
;   printMaterial,
;   printQuality,
;   printExtruders,
;   extruderName,Primary Extruder
;   extruderToolheadNumber,0
;   extruderDiameter,0.4
;   extruderAutoWidth,0
;   extruderWidth,0.48
;   extrusionMultiplier,1
;   extruderUseRetract,1
;   extruderRetractionDistance,1.4
;   extruderExtraRestartDistance,-0.1
;   extruderRetractionZLift,0.1
;   extruderRetractionSpeed,4200
;   extruderUseCoasting,1
;   extruderCoastingDistance,0.2
;   extruderUseWipe,1
;   extruderWipeDistance,0.2
;   primaryExtruder,0
;   layerHeight,0.3
;   topSolidLayers,3
;   bottomSolidLayers,2
;   perimeterOutlines,2
;   printPerimetersInsideOut,1
;   startPointOption,2
;   startPointOriginX,80
;   startPointOriginY,0
;   startPointOriginZ,5
;   sequentialIslands,0
;   spiralVaseMode,0
;   firstLayerHeightPercentage,100
;   firstLayerWidthPercentage,100
;   firstLayerUnderspeed,0.3
;   useRaft,0
;   raftExtruder,0
;   raftLayers,3
;   raftOffset,3
;   raftSeparationDistance,0.14
;   raftInfill,85
;   disableRaftBaseLayers,0
;   useSkirt,1
;   skirtExtruder,0
;   skirtLayers,1
;   skirtOutlines,3
;   skirtOffset,3
;   usePrimePillar,0
;   primePillarExtruder,999
;   primePillarWidth,12
;   primePillarLocation,7
;   primePillarSpeedMultiplier,1
;   useOozeShield,0
;   oozeShieldExtruder,999
;   oozeShieldOffset,2
;   oozeShieldOutlines,1
;   oozeShieldSidewallShape,1
;   oozeShieldSidewallAngle,30
;   oozeShieldSpeedMultiplier,1
;   infillExtruder,0
;   internalInfillPattern,Rectilinear
;   externalInfillPattern,Rectilinear
;   infillPercentage,22
;   outlineOverlapPercentage,30
;   infillExtrusionWidthPercentage,150
;   minInfillLength,2
;   infillLayerInterval,1
;   infillAngles,45,-45
;   overlapInfillAngles,0
;   generateSupport,1
;   supportExtruder,0
;   supportInfillPercentage,33
;   supportExtraInflation,0.5
;   denseSupportLayers,0
;   denseSupportInfillPercentage,70
;   supportLayerInterval,1
;   supportHorizontalPartOffset,0.8
;   supportUpperSeparationLayers,1
;   supportLowerSeparationLayers,1
;   supportType,0
;   supportGridSpacing,1.5
;   maxOverhangAngle,55
;   supportAngles,90
;   temperatureName,Primary Extruder,bed
;   temperatureNumber,0,0
;   temperatureSetpointCount,2,2
;   temperatureSetpointLayers,1,2,1,2
;   temperatureSetpointTemperatures,240,235,65,60
;   temperatureStabilizeAtStartup,1,1
;   temperatureHeatedBed,0,1
;   temperatureRelayBetweenLayers,0,0
;   temperatureRelayBetweenLoops,0,0
;   fanLayers,1,4
;   fanSpeeds,0,20
;   blipFanToFullPower,1
;   adjustSpeedForCooling,0
;   minSpeedLayerTime,15
;   minCoolingSpeedSlowdown,65
;   increaseFanForCooling,1
;   minFanLayerTime,15
;   maxCoolingFanSpeed,60
;   increaseFanForBridging,1
;   bridgingFanSpeed,100
;   use5D,1
;   relativeEdistances,0
;   allowEaxisZeroing,1
;   independentExtruderAxes,0
;   includeM10123,0
;   stickySupport,1
;   applyToolheadOffsets,0
;   gcodeXoffset,0
;   gcodeYoffset,0
;   gcodeZoffset,0
;   overrideMachineDefinition,1
;   machineTypeOverride,0
;   strokeXoverride,170
;   strokeYoverride,160
;   strokeZoverride,145
;   originOffsetXoverride,0
;   originOffsetYoverride,0
;   originOffsetZoverride,0
;   homeXdirOverride,-1
;   homeYdirOverride,-1
;   homeZdirOverride,-1
;   flipXoverride,1
;   flipYoverride,-1
;   flipZoverride,1
;   toolheadOffsets,0,0|0,0|0,0|0,0|0,0|0,0
;   overrideFirmwareConfiguration,1
;   firmwareTypeOverride,RepRap (Marlin/Repetier/Sprinter)
;   GPXconfigOverride,r2
;   baudRateOverride,250000
;   overridePrinterModels,0
;   printerModelsOverride
;   startingGcode,;---------------------------------------,; ; ; Jellybox Start Script Begin ; ; ;,;_______________________________________,; M92 E140            ; optionally adjust steps per mm for your filament,M117 Preparing        ; write Preparing,M206 X10.0 Y0.0       ; set x homing offset for default bed leveling,G21                   ; metric values,G90                   ; absolute positioning,M107                  ; start with the fan off,M82                   ; set extruder to absolute mode,G28                   ; home all axes,M203 Z4               ; slow Z speed down for greater accuracy when probing,G29                   ; auto bed leveling procedure,M203 Z7               ; pick up z speed again for printing,G92 E0                ; reset the extruder position,G1 F1500 E15          ; extrude 15mm of feed stock,G92 E0                ; reset the extruder position again,M117 Print starting   ; write Print starting,;---------------------------------------------,; ; ; Jellybox Printer Start Script End ; ; ;,;_____________________________________________
;   layerChangeGcode,
;   retractionGcode,
;   toolChangeGcode,
;   endingGcode,; ; ;  Jellybox End Script Begin ; ; ;,; _________________________________,M117 Finishing Up  ; write Finishing Up,M107               ; start with the fan off,M104 S0            ; extruder heater off,M140 S0            ; bed heater off (if you have it),G91                ; relative positioning,G1 E-1 F300        ; retract the filament a bit before lifting the nozzle to release some of the pressure,G1 Z+0.5 E-5 X-20 Y-20 F9000 ; move Z up a bit and retract filament even more,G90                ; absolute positioning,G28 X              ; home x so the head is out of the way,G1 Y100            ; move Y forward so the print is more accessible,M84                ; steppers off,M107               ; fan off,M117 Print finished ; write Print finished,; ---------------------------------------,; ; ;  Jellybox End Script End ; ; ;,; _______________________________________
;   exportFileFormat,gcode
;   celebration,0
;   celebrationSong,Random Song
;   postProcessing,|{REPLACE "; layer" "M117 Layer"},|{REPLACE ", Z = " " "Z="}
;   defaultSpeed,2700
;   outlineUnderspeed,0.55
;   solidInfillUnderspeed,0.55
;   supportUnderspeed,0.9
;   rapidXYspeed,7200
;   rapidZspeed,420
;   minBridgingArea,50
;   bridgingExtraInflation,0.3
;   bridgingExtrusionMultiplier,1
;   bridgingSpeedMultiplier,1
;   filamentDiameter,1.75
;   filamentPricePerKg,30
;   filamentDensity,1.38
;   useMinPrintHeight,0
;   minPrintHeight,30
;   useMaxPrintHeight,0
;   maxPrintHeight,40
;   useDiaphragm,0
;   diaphragmLayerInterval,20
;   robustSlicing,1
;   mergeAllIntoSolid,0
;   onlyRetractWhenCrossingOutline,1
;   retractBetweenLayers,1
;   useRetractionMinTravel,1
;   retractionMinTravel,1
;   retractWhileWiping,1
;   onlyWipeOutlines,1
;   avoidCrossingOutline,1
;   maxMovementDetourFactor,2.5
;   toolChangeRetractionDistance,1.3
;   toolChangeExtraRestartDistance,0
;   toolChangeRetractionSpeed,600
;   allowThinWallGapFill,1
;   thinWallAllowedOverlapPercentage,15
;   horizontalSizeCompensation,0
G90
M82
M106 S0
M140 S65
M190 S65
M104 S240 T0
M109 S240 T0
;---------------------------------------
; ; ; Jellybox Start Script Begin ; ; ;
;_______________________________________
; M92 E140            ; optionally adjust steps per mm for your filament
M117 Preparing        ; write Preparing
M206 X10.0 Y0.0       ; set x homing offset for default bed leveling
G21                   ; metric values
G90                   ; absolute positioning
M107                  ; start with the fan off
M82                   ; set extruder to absolute mode
G28                   ; home all axes
M203 Z4               ; slow Z speed down for greater accuracy when probing
G29                   ; auto bed leveling procedure
M203 Z7               ; pick up z speed again for printing
G92 E0                ; reset the extruder position
G1 F1500 E15          ; extrude 15mm of feed stock
G92 E0                ; reset the extruder position again
M117 Print starting   ; write Print starting
;---------------------------------------------
; ; ; Jellybox Printer Start Script End ; ; ;
;_____________________________________________
G92 E0
G1 E-1.4000 F4200
G1 Z0.400 F420
M117 Layer 1 0.3
T0
; tool H0.300 W0.480
; skirt
G1 X72.391 Y62.073 F7200
G1 Z0.300 F420
G1 E-0.1000 F1260
G92 E0
G1 X72.787 Y61.620 E0.0360 F810
G1 X72.809 Y61.596 E0.0380
G1 X72.948 Y61.453 E0.0499
G1 X72.972 Y61.430 E0.0519
G1 X73.415 Y61.024 E0.0879
G1 X73.440 Y61.002 E0.0898
G1 X73.593 Y60.876 E0.1017
G1 X73.619 Y60.855 E0.1037
G1 X74.116 Y60.491 E0.1406
G1 X74.148 Y60.470 E0.1429
G1 X74.341 Y60.346 E0.1566
G1 X74.373 Y60.327 E0.1589
G1 X75.081 Y59.935 E0.2073
G1 X75.130 Y59.911 E0.2106
G1 X75.431 Y59.779 E0.2303
G1 X75.482 Y59.759 E0.2335
G1 X76.542 Y59.405 E0.3004
G1 X76.590 Y59.391 E0.3034
G1 X76.879 Y59.320 E0.3213
G1 X76.928 Y59.310 E0.3242
G1 X77.571 Y59.208 E0.3632
G1 X77.604 Y59.204 E0.3652
G1 X77.801 Y59.184 E0.3771
G1 X77.834 Y59.181 E0.3791
G1 X78.435 Y59.153 E0.4151
G1 X78.468 Y59.153 E0.4170
G1 X78.667 Y59.154 E0.4289
G1 X78.700 Y59.155 E0.4309
G1 X79.300 Y59.194 E0.4669
G1 X79.333 Y59.197 E0.4689
G1 X79.530 Y59.220 E0.4808
G1 X79.563 Y59.225 E0.4828
G1 X80.155 Y59.329 E0.5188
G1 X80.188 Y59.336 E0.5208
G1 X80.381 Y59.381 E0.5326
G1 X80.413 Y59.389 E0.5346
G1 X80.990 Y59.558 E0.5706
G1 X81.022 Y59.568 E0.5726
G1 X81.209 Y59.635 E0.5845
G1 X81.240 Y59.646 E0.5865
G1 X81.795 Y59.878 E0.6225
G1 X81.825 Y59.891 E0.6245
G1 X82.004 Y59.978 E0.6364
G1 X82.034 Y59.993 E0.6384
G1 X82.560 Y60.284 E0.6743
G1 X82.588 Y60.301 E0.6763
G1 X82.756 Y60.406 E0.6882
G1 X82.784 Y60.425 E0.6902
G1 X83.315 Y60.800 E0.7292
G1 X83.355 Y60.831 E0.7321
G1 X83.583 Y61.023 E0.7500
G1 X83.620 Y61.056 E0.7530
G1 X84.402 Y61.832 E0.8189
G1 X84.436 Y61.868 E0.8219
G1 X84.630 Y62.095 E0.8398
G1 X84.661 Y62.134 E0.8427
G1 X85.002 Y62.608 E0.8777
G1 X85.229 Y62.282 E0.9015
G1 X85.248 Y62.255 E0.9035
G1 X85.370 Y62.098 E0.9154
G1 X85.392 Y62.073 E0.9174
G1 X85.787 Y61.620 E0.9534
G1 X85.809 Y61.596 E0.9553
G1 X85.948 Y61.453 E0.9672
G1 X85.972 Y61.430 E0.9692
G1 X86.415 Y61.024 E1.0052
G1 X86.440 Y61.002 E1.0072
G1 X86.593 Y60.876 E1.0191
G1 X86.619 Y60.855 E1.0211
G1 X87.116 Y60.491 E1.0580
G1 X87.148 Y60.470 E1.0603
G1 X87.341 Y60.346 E1.0740
G1 X87.373 Y60.327 E1.0762
G1 X88.081 Y59.935 E1.1247
G1 X88.130 Y59.911 E1.1279
G1 X88.431 Y59.779 E1.1476
G1 X88.482 Y59.759 E1.1509
G1 X89.542 Y59.405 E1.2178
G1 X89.590 Y59.391 E1.2208
G1 X89.879 Y59.320 E1.2386
G1 X89.928 Y59.310 E1.2416
G1 X90.571 Y59.208 E1.2806
G1 X90.604 Y59.204 E1.2826
G1 X90.801 Y59.184 E1.2944
G1 X90.834 Y59.181 E1.2964
G1 X91.435 Y59.153 E1.3324
G1 X91.468 Y59.153 E1.3344
G1 X91.667 Y59.154 E1.3463
G1 X91.700 Y59.155 E1.3483
G1 X92.300 Y59.194 E1.3843
G1 X92.333 Y59.197 E1.3863
G1 X92.530 Y59.220 E1.3982
G1 X92.563 Y59.225 E1.4001
G1 X93.155 Y59.329 E1.4361
G1 X93.188 Y59.336 E1.4381
G1 X93.381 Y59.381 E1.4500
G1 X93.413 Y59.389 E1.4520
G1 X93.990 Y59.558 E1.4880
G1 X94.022 Y59.568 E1.4900
G1 X94.209 Y59.634 E1.5019
G1 X94.240 Y59.646 E1.5039
G1 X94.795 Y59.878 E1.5399
G1 X94.825 Y59.891 E1.5418
G1 X95.004 Y59.978 E1.5537
G1 X95.034 Y59.993 E1.5557
G1 X95.560 Y60.284 E1.5917
G1 X95.588 Y60.301 E1.5937
G1 X95.757 Y60.406 E1.6056
G1 X95.784 Y60.425 E1.6076
G1 X96.315 Y60.801 E1.6465
G1 X96.355 Y60.831 E1.6495
G1 X96.583 Y61.023 E1.6674
G1 X96.620 Y61.056 E1.6703
G1 X97.402 Y61.832 E1.7363
G1 X97.436 Y61.868 E1.7393
G1 X97.630 Y62.095 E1.7571
G1 X97.661 Y62.134 E1.7601
G1 X98.041 Y62.662 E1.7991
G1 X98.059 Y62.690 E1.8011
G1 X98.167 Y62.857 E1.8130
G1 X98.184 Y62.886 E1.8150
G1 X98.479 Y63.409 E1.8509
G1 X98.495 Y63.439 E1.8529
G1 X98.582 Y63.617 E1.8648
G1 X98.596 Y63.647 E1.8668
G1 X98.832 Y64.200 E1.9028
G1 X98.844 Y64.231 E1.9048
G1 X98.912 Y64.418 E1.9167
G1 X98.923 Y64.449 E1.9187
G1 X99.096 Y65.025 E1.9547
G1 X99.105 Y65.056 E1.9566
G1 X99.152 Y65.250 E1.9685
G1 X99.159 Y65.282 E1.9705
G1 X99.270 Y65.889 E2.0074
G1 X99.276 Y65.927 E2.0097
G1 X99.303 Y66.155 E2.0235
G1 X99.307 Y66.193 E2.0258
G1 X99.348 Y66.951 E2.0712
G1 X99.349 Y66.989 E2.0735
G1 X99.347 Y67.217 E2.0872
G1 X99.346 Y67.255 E2.0895
G1 X99.301 Y67.870 E2.1263
G1 X99.298 Y67.903 E2.1283
G1 X99.273 Y68.100 E2.1402
G1 X99.268 Y68.132 E2.1422
G1 X99.159 Y68.724 E2.1782
G1 X99.152 Y68.756 E2.1802
G1 X99.105 Y68.949 E2.1921
G1 X99.096 Y68.981 E2.1941
G1 X98.923 Y69.557 E2.2300
G1 X98.912 Y69.588 E2.2320
G1 X98.844 Y69.775 E2.2439
G1 X98.832 Y69.806 E2.2459
G1 X98.596 Y70.359 E2.2819
G1 X98.582 Y70.389 E2.2839
G1 X98.495 Y70.567 E2.2958
G1 X98.479 Y70.596 E2.2978
G1 X98.184 Y71.120 E2.3338
G1 X98.167 Y71.148 E2.3357
G1 X98.060 Y71.316 E2.3476
G1 X98.041 Y71.343 E2.3496
G1 X97.690 Y71.831 E2.3856
G1 X97.670 Y71.857 E2.3876
G1 X97.545 Y72.012 E2.3995
G1 X97.523 Y72.037 E2.4015
G1 X97.120 Y72.483 E2.4375
G1 X97.097 Y72.507 E2.4395
G1 X96.956 Y72.647 E2.4514
G1 X96.932 Y72.670 E2.4533
G1 X96.483 Y73.069 E2.4893
G1 X96.457 Y73.090 E2.4913
G1 X96.301 Y73.214 E2.5032
G1 X96.275 Y73.234 E2.5052
G1 X95.897 Y73.501 E2.5329
G1 X96.315 Y73.798 E2.5637
G1 X96.355 Y73.828 E2.5666
G1 X96.583 Y74.020 E2.5845
G1 X96.620 Y74.053 E2.5875
G1 X97.402 Y74.829 E2.6534
G1 X97.436 Y74.866 E2.6564
G1 X97.630 Y75.092 E2.6743
G1 X97.660 Y75.131 E2.6772
G1 X98.041 Y75.660 E2.7162
G1 X98.060 Y75.687 E2.7182
G1 X98.167 Y75.855 E2.7301
G1 X98.184 Y75.883 E2.7321
G1 X98.479 Y76.407 E2.7681
G1 X98.495 Y76.436 E2.7701
G1 X98.582 Y76.614 E2.7819
G1 X98.596 Y76.644 E2.7839
G1 X98.832 Y77.197 E2.8199
G1 X98.844 Y77.228 E2.8219
G1 X98.912 Y77.415 E2.8338
G1 X98.923 Y77.446 E2.8358
G1 X99.096 Y78.022 E2.8718
G1 X99.105 Y78.054 E2.8738
G1 X99.152 Y78.247 E2.8857
G1 X99.159 Y78.279 E2.8876
G1 X99.270 Y78.886 E2.9246
G1 X99.276 Y78.924 E2.9269
G1 X99.303 Y79.152 E2.9406
G1 X99.307 Y79.190 E2.9429
G1 X99.348 Y79.948 E2.9884
G1 X99.349 Y79.986 E2.9906
G1 X99.347 Y80.214 E3.0043
G1 X99.346 Y80.253 E3.0066
G1 X99.301 Y80.867 E3.0435
G1 X99.298 Y80.900 E3.0454
G1 X99.273 Y81.097 E3.0573
G1 X99.268 Y81.130 E3.0593
G1 X99.159 Y81.721 E3.0953
G1 X99.152 Y81.753 E3.0973
G1 X99.105 Y81.946 E3.1092
G1 X99.096 Y81.978 E3.1112
G1 X98.923 Y82.554 E3.1472
G1 X98.912 Y82.585 E3.1492
G1 X98.844 Y82.772 E3.1611
G1 X98.832 Y82.803 E3.1630
G1 X98.596 Y83.356 E3.1990
G1 X98.582 Y83.386 E3.2010
G1 X98.495 Y83.564 E3.2129
G1 X98.479 Y83.593 E3.2149
G1 X98.184 Y84.117 E3.2509
G1 X98.167 Y84.145 E3.2529
G1 X98.060 Y84.313 E3.2648
G1 X98.041 Y84.340 E3.2667
G1 X97.690 Y84.828 E3.3027
G1 X97.670 Y84.855 E3.3047
G1 X97.545 Y85.009 E3.3166
G1 X97.523 Y85.034 E3.3186
G1 X97.120 Y85.481 E3.3546
G1 X97.097 Y85.505 E3.3566
G1 X96.956 Y85.644 E3.3685
G1 X96.932 Y85.667 E3.3705
G1 X96.483 Y86.066 E3.4065
G1 X96.457 Y86.088 E3.4084
G1 X96.301 Y86.211 E3.4203
G1 X96.275 Y86.231 E3.4223
G1 X95.897 Y86.499 E3.4501
G1 X96.275 Y86.766 E3.4778
G1 X96.301 Y86.786 E3.4798
G1 X96.457 Y86.910 E3.4917
G1 X96.482 Y86.931 E3.4937
G1 X96.948 Y87.344 E3.5309
G1 X96.977 Y87.371 E3.5333
G1 X97.145 Y87.542 E3.5477
G1 X97.172 Y87.572 E3.5501
G1 X97.688 Y88.170 E3.5974
G1 X97.717 Y88.207 E3.6002
G1 X97.884 Y88.433 E3.6170
G1 X97.910 Y88.472 E3.6198
G1 X98.413 Y89.282 E3.6769
G1 X98.435 Y89.322 E3.6796
G1 X98.562 Y89.565 E3.6960
G1 X98.581 Y89.606 E3.6988
G1 X98.832 Y90.194 E3.7370
G1 X98.844 Y90.225 E3.7390
G1 X98.912 Y90.412 E3.7509
G1 X98.923 Y90.443 E3.7529
G1 X99.096 Y91.019 E3.7889
G1 X99.105 Y91.051 E3.7909
G1 X99.152 Y91.244 E3.8028
G1 X99.159 Y91.276 E3.8048
G1 X99.268 Y91.868 E3.8407
G1 X99.273 Y91.900 E3.8427
G1 X99.298 Y92.097 E3.8546
G1 X99.301 Y92.130 E3.8566
G1 X99.346 Y92.745 E3.8935
G1 X99.347 Y92.783 E3.8958
G1 X99.349 Y93.011 E3.9094
G1 X99.348 Y93.049 E3.9117
G1 X99.307 Y93.807 E3.9571
G1 X99.303 Y93.845 E3.9594
G1 X99.276 Y94.074 E3.9732
G1 X99.270 Y94.111 E3.9755
G1 X99.159 Y94.718 E4.0124
G1 X99.152 Y94.750 E4.0144
G1 X99.105 Y94.943 E4.0263
G1 X99.096 Y94.975 E4.0283
G1 X98.923 Y95.551 E4.0643
