; G-Code generated by Simplify3D(R) Version 3.1.0
; Mar 22, 2017 at 4:27:03 PM
; Settings Summary
;   processName,Process1
;   applyToModels,hotend shroud 2.1.1 green,ear(2),ear(4),ear(5),ear(4)(2)
;   profileName,hotend shroud (modified)
;   profileVersion,2017-02-27 13:29:23
;   baseProfile,Default (modified)
;   printMaterial,
;   printQuality,
;   printExtruders,
;   extruderName,Primary Extruder
;   extruderToolheadNumber,0
;   extruderDiameter,0.4
;   extruderAutoWidth,0
;   extruderWidth,0.55
;   extrusionMultiplier,0.95
;   extruderUseRetract,1
;   extruderRetractionDistance,1.4
;   extruderExtraRestartDistance,-0.1
;   extruderRetractionZLift,0
;   extruderRetractionSpeed,4200
;   extruderUseCoasting,1
;   extruderCoastingDistance,0.2
;   extruderUseWipe,1
;   extruderWipeDistance,0.2
;   primaryExtruder,0
;   layerHeight,0.2
;   topSolidLayers,5
;   bottomSolidLayers,2
;   perimeterOutlines,2
;   printPerimetersInsideOut,1
;   startPointOption,2
;   startPointOriginX,85
;   startPointOriginY,0
;   startPointOriginZ,80
;   sequentialIslands,0
;   spiralVaseMode,0
;   firstLayerHeightPercentage,150
;   firstLayerWidthPercentage,100
;   firstLayerUnderspeed,0.35
;   useRaft,0
;   raftExtruder,0
;   raftLayers,2
;   raftOffset,2
;   raftSeparationDistance,0.14
;   raftInfill,85
;   disableRaftBaseLayers,1
;   useSkirt,1
;   skirtExtruder,0
;   skirtLayers,1
;   skirtOutlines,3
;   skirtOffset,3
;   usePrimePillar,0
;   primePillarExtruder,999
;   primePillarWidth,12
;   primePillarLocation,7
;   primePillarSpeedMultiplier,1
;   useOozeShield,0
;   oozeShieldExtruder,999
;   oozeShieldOffset,2
;   oozeShieldOutlines,1
;   oozeShieldSidewallShape,1
;   oozeShieldSidewallAngle,30
;   oozeShieldSpeedMultiplier,1
;   infillExtruder,0
;   internalInfillPattern,Fast Honeycomb
;   externalInfillPattern,Rectilinear
;   infillPercentage,40
;   outlineOverlapPercentage,30
;   infillExtrusionWidthPercentage,145
;   minInfillLength,4
;   infillLayerInterval,1
;   infillAngles,0
;   overlapInfillAngles,0
;   generateSupport,1
;   supportExtruder,0
;   supportInfillPercentage,36
;   supportExtraInflation,0.5
;   denseSupportLayers,0
;   denseSupportInfillPercentage,70
;   supportLayerInterval,1
;   supportHorizontalPartOffset,0.8
;   supportUpperSeparationLayers,1
;   supportLowerSeparationLayers,1
;   supportType,0
;   supportGridSpacing,1.5
;   maxOverhangAngle,55
;   supportAngles,0
;   temperatureName,Primary Extruder,bed
;   temperatureNumber,0,0
;   temperatureSetpointCount,2,2
;   temperatureSetpointLayers,1,2,1,2
;   temperatureSetpointTemperatures,240,235,65,60
;   temperatureStabilizeAtStartup,1,1
;   temperatureHeatedBed,0,1
;   temperatureRelayBetweenLayers,0,0
;   temperatureRelayBetweenLoops,0,0
;   fanLayers,1,4
;   fanSpeeds,0,35
;   blipFanToFullPower,1
;   adjustSpeedForCooling,0
;   minSpeedLayerTime,15
;   minCoolingSpeedSlowdown,65
;   increaseFanForCooling,1
;   minFanLayerTime,15
;   maxCoolingFanSpeed,60
;   increaseFanForBridging,1
;   bridgingFanSpeed,100
;   use5D,1
;   relativeEdistances,0
;   allowEaxisZeroing,1
;   independentExtruderAxes,0
;   includeM10123,0
;   stickySupport,1
;   applyToolheadOffsets,0
;   gcodeXoffset,0
;   gcodeYoffset,0
;   gcodeZoffset,0
;   overrideMachineDefinition,1
;   machineTypeOverride,0
;   strokeXoverride,170
;   strokeYoverride,160
;   strokeZoverride,145
;   originOffsetXoverride,0
;   originOffsetYoverride,0
;   originOffsetZoverride,0
;   homeXdirOverride,-1
;   homeYdirOverride,-1
;   homeZdirOverride,-1
;   flipXoverride,1
;   flipYoverride,-1
;   flipZoverride,1
;   toolheadOffsets,0,0|0,0|0,0|0,0|0,0|0,0
;   overrideFirmwareConfiguration,1
;   firmwareTypeOverride,RepRap (Marlin/Repetier/Sprinter)
;   GPXconfigOverride,r2
;   baudRateOverride,250000
;   overridePrinterModels,0
;   printerModelsOverride
;   startingGcode,;---------------------------------------,; ; ; Jellybox Start Script Begin ; ; ;,;_______________________________________,M117 Preparing        ; write Preparing,; M92 E140            ; optionally adjust E steps/mm,; M207 S1.5 F600 Z0     ; optionally adjust retract settings,; M208 S-0.00 F600      ; optionally adjust unretract = recover settings,M206 X10.0 Y0.0       ; set x homing offset for default bed leveling,G21                   ; metric values,G90                   ; absolute positioning,M107                  ; start with the fan off,M82                   ; set extruder to absolute mode,G28                   ; home all axes,M203 Z4               ; slow Z speed down for greater accuracy when probing,G29                   ; auto bed leveling procedure,M203 Z7               ; pick up z speed again for printing,G92 E0                ; reset the extruder position,G1 F1500 E15          ; extrude 15mm of feed stock,G92 E0                ; reset the extruder position again,M117 Print starting   ; write Print starting,;---------------------------------------------,; ; ; Jellybox Printer Start Script End ; ; ;,;_____________________________________________
;   layerChangeGcode,
;   retractionGcode,
;   toolChangeGcode,
;   endingGcode,; ---------------------------------,; ; ;  Jellybox End Script Begin ; ; ;,; _________________________________,M117 Finishing Up ; write Finishing Up,M104 S0            ; extruder heater off,M140 S0            ; bed heater off (if you have it),G91                ; relative positioning,G1 E-1 F300        ; retract the filament a bit before lifting the nozzle to release some of the pressure,G1 Z+0.5 E-5 X-20 Y-20 F9000 ; move Z up a bit and retract filament even more,G90                ; absolute positioning,G28 X              ; home x so the head is out of the way,G1 Y100            ; move Y forward so the print is more accessible,M84                ; steppers off,M117 Print finished ; write Print finisheds,; ---------------------------------------,; ; ;  Jellybox End Script End ; ; ;,; _______________________________________
;   exportFileFormat,gcode
;   celebration,0
;   celebrationSong,Random Song
;   postProcessing,|{REPLACE "; layer" "M117 Layer"},|{REPLACE ", Z = " " "Z="}|
;   defaultSpeed,2700
;   outlineUnderspeed,0.55
;   solidInfillUnderspeed,0.55
;   supportUnderspeed,0.9
;   rapidXYspeed,7200
;   rapidZspeed,420
;   minBridgingArea,50
;   bridgingExtraInflation,0.3
;   bridgingExtrusionMultiplier,1
;   bridgingSpeedMultiplier,1
;   filamentDiameter,1.75
;   filamentPricePerKg,30
;   filamentDensity,1.38
;   useMinPrintHeight,0
;   minPrintHeight,0
;   useMaxPrintHeight,0
;   maxPrintHeight,1
;   useDiaphragm,0
;   diaphragmLayerInterval,20
;   robustSlicing,1
;   mergeAllIntoSolid,0
;   onlyRetractWhenCrossingOutline,0
;   retractBetweenLayers,1
;   useRetractionMinTravel,1
;   retractionMinTravel,0.5
;   retractWhileWiping,1
;   onlyWipeOutlines,0
;   avoidCrossingOutline,1
;   maxMovementDetourFactor,3
;   toolChangeRetractionDistance,1.3
;   toolChangeExtraRestartDistance,0
;   toolChangeRetractionSpeed,600
;   allowThinWallGapFill,1
;   thinWallAllowedOverlapPercentage,15
;   horizontalSizeCompensation,0
G90
M82
M106 S0
M140 S65
M190 S65
M104 S240 T0
M109 S240 T0
;---------------------------------------
; ; ; Jellybox Start Script Begin ; ; ;
;_______________________________________
M117 Preparing        ; write Preparing
; M92 E140            ; optionally adjust E steps/mm
; M207 S1.5 F600 Z0     ; optionally adjust retract settings
; M208 S-0.00 F600      ; optionally adjust unretract = recover settings
M206 X10.0 Y0.0       ; set x homing offset for default bed leveling
G21                   ; metric values
G90                   ; absolute positioning
M107                  ; start with the fan off
M82                   ; set extruder to absolute mode
G28                   ; home all axes
M203 Z4               ; slow Z speed down for greater accuracy when probing
G29                   ; auto bed leveling procedure
M203 Z7               ; pick up z speed again for printing
G92 E0                ; reset the extruder position
G1 F1500 E15          ; extrude 15mm of feed stock
G92 E0                ; reset the extruder position again
M117 Print starting   ; write Print starting
;---------------------------------------------
; ; ; Jellybox Printer Start Script End ; ; ;
;_____________________________________________
G92 E0
G1 E-1.4000 F4200
G1 Z0.300 F420
M117 Layer 1 0.3
T0
; tool H0.300 W0.550
; skirt
G1 X68.755 Y52.750 F7200
G1 E-0.1000 F1260
G92 E0
G1 X68.937 Y52.523 E0.0189 F945
G1 X68.972 Y52.482 E0.0224
G1 X69.714 Y51.694 E0.0930
G1 X69.745 Y51.663 E0.0959
G1 X69.918 Y51.501 E0.1113
G1 X69.951 Y51.472 E0.1142
G1 X70.813 Y50.764 E0.1868
G1 X70.843 Y50.740 E0.1893
G1 X71.007 Y50.620 E0.2026
G1 X71.039 Y50.598 E0.2051
G1 X71.997 Y49.974 E0.2796
G1 X72.027 Y49.956 E0.2819
G1 X72.188 Y49.862 E0.2940
G1 X72.218 Y49.845 E0.2963
G1 X73.250 Y49.313 E0.3720
G1 X73.281 Y49.298 E0.3742
G1 X73.446 Y49.223 E0.3861
G1 X73.478 Y49.210 E0.3883
G1 X74.557 Y48.782 E0.4639
G1 X74.590 Y48.770 E0.4662
G1 X74.766 Y48.710 E0.4783
G1 X74.799 Y48.700 E0.4806
G1 X75.900 Y48.388 E0.5551
G1 X75.937 Y48.378 E0.5576
G1 X76.136 Y48.334 E0.5709
G1 X76.173 Y48.326 E0.5734
G1 X77.273 Y48.142 E0.6461
G1 X77.316 Y48.137 E0.6489
G1 X77.552 Y48.113 E0.6644
G1 X77.596 Y48.109 E0.6673
G1 X78.678 Y48.069 E0.7378
G1 X78.732 Y48.069 E0.7413
G1 X79.022 Y48.081 E0.7602
G1 X79.076 Y48.086 E0.7638
G1 X80.131 Y48.213 E0.8330
G1 X80.200 Y48.225 E0.8376
G1 X80.569 Y48.309 E0.8623
G1 X80.637 Y48.328 E0.8669
G1 X81.655 Y48.671 E0.9369
G1 X81.742 Y48.707 E0.9430
G1 X82.194 Y48.932 E0.9759
G1 X82.275 Y48.980 E0.9820
G1 X83.204 Y49.614 E1.0554
G1 X83.298 Y49.690 E1.0632
G1 X83.762 Y50.144 E1.1055
G1 X83.840 Y50.235 E1.1133
G1 X84.527 Y51.195 E1.1903
G1 X84.594 Y51.311 E1.1990
G1 X84.892 Y51.965 E1.2458
G1 X84.935 Y52.092 E1.2545
G1 X85.207 Y53.241 E1.3315
G1 X85.224 Y53.360 E1.3394
G1 X85.261 Y54.008 E1.3816
G1 X85.257 Y54.128 E1.3895
G1 X85.184 Y54.745 E1.4300
G1 X105.359 Y64.091 E2.8790
G1 X105.361 Y64.089 E2.8791
G1 X105.427 Y64.023 E2.8852
G1 X106.276 Y63.285 E2.9585
G1 X106.373 Y63.215 E2.9663
G1 X106.927 Y62.882 E3.0085
G1 X107.036 Y62.829 E3.0163
G1 X108.139 Y62.407 E3.0933
G1 X108.269 Y62.371 E3.1021
G1 X108.981 Y62.249 E3.1492
G1 X109.115 Y62.239 E3.1579
G1 X110.296 Y62.269 E3.2349
G1 X110.415 Y62.282 E3.2428
G1 X111.049 Y62.411 E3.2849
G1 X111.165 Y62.445 E3.2928
G1 X112.211 Y62.857 E3.3660
G1 X112.296 Y62.897 E3.3722
G1 X112.736 Y63.144 E3.4050
G1 X112.814 Y63.196 E3.4112
G1 X113.671 Y63.844 E3.4812
G1 X113.725 Y63.890 E3.4858
G1 X114.001 Y64.148 E3.5104
G1 X114.050 Y64.199 E3.5150
G1 X114.749 Y65.000 E3.5843
G1 X114.783 Y65.042 E3.5878
G1 X114.956 Y65.275 E3.6067
G1 X114.986 Y65.320 E3.6103
G1 X115.561 Y66.237 E3.6808
G1 X115.583 Y66.275 E3.6837
G1 X115.696 Y66.483 E3.6991
G1 X115.716 Y66.523 E3.7020
G1 X116.182 Y67.536 E3.7747
G1 X116.197 Y67.571 E3.7771
G1 X116.272 Y67.761 E3.7904
G1 X116.285 Y67.796 E3.7929
G1 X116.645 Y68.882 E3.8675
G1 X116.655 Y68.915 E3.8697
G1 X116.705 Y69.094 E3.8819
G1 X116.714 Y69.128 E3.8841
G1 X116.967 Y70.261 E3.9598
G1 X116.973 Y70.295 E3.9620
G1 X117.004 Y70.474 E3.9739
G1 X117.009 Y70.508 E3.9761
G1 X117.149 Y71.660 E4.0517
G1 X117.152 Y71.695 E4.0540
G1 X117.165 Y71.881 E4.0662
G1 X117.167 Y71.915 E4.0684
G1 X117.190 Y73.059 E4.1430
G1 X117.189 Y73.097 E4.1454
G1 X117.182 Y73.301 E4.1587
G1 X117.180 Y73.339 E4.1612
G1 X117.078 Y74.449 E4.2339
G1 X117.073 Y74.493 E4.2368
G1 X117.037 Y74.727 E4.2522
G1 X117.028 Y74.771 E4.2551
G1 X116.793 Y75.827 E4.3256
G1 X116.779 Y75.879 E4.3291
G1 X116.694 Y76.157 E4.3480
G1 X116.676 Y76.208 E4.3516
G1 X116.285 Y77.196 E4.4208
G1 X116.256 Y77.260 E4.4254
G1 X116.081 Y77.596 E4.4501
G1 X116.046 Y77.657 E4.4547
G1 X115.455 Y78.555 E4.5247
G1 X115.398 Y78.629 E4.5308
G1 X115.066 Y79.009 E4.5637
G1 X115.000 Y79.076 E4.5698
G1 X114.150 Y79.814 E4.6432
G1 X114.053 Y79.885 E4.6510
G1 X113.497 Y80.218 E4.6933
G1 X113.388 Y80.271 E4.7012
G1 X112.285 Y80.692 E4.7781
G1 X112.180 Y80.721 E4.7852
G1 X101.378 Y104.010 E6.4582
G1 X101.533 Y104.264 E6.4776
G1 X101.586 Y104.372 E6.4854
G1 X101.820 Y104.977 E6.5277
G1 X101.854 Y105.093 E6.5356
G1 X102.082 Y106.251 E6.6125
G1 X102.095 Y106.384 E6.6212
G1 X102.095 Y107.103 E6.6681
G1 X102.082 Y107.236 E6.6768
G1 X101.854 Y108.394 E6.7537
G1 X101.820 Y108.510 E6.7616
G1 X101.586 Y109.115 E6.8038
G1 X101.533 Y109.223 E6.8117
G1 X100.949 Y110.185 E6.8850
G1 X100.895 Y110.262 E6.8912
G1 X100.577 Y110.654 E6.9241
G1 X100.513 Y110.723 E6.9302
G1 X99.728 Y111.457 E7.0002
G1 X99.674 Y111.502 E7.0048
G1 X99.373 Y111.731 E7.0295
G1 X99.315 Y111.771 E7.0341
G1 X98.407 Y112.323 E7.1033
G1 X98.360 Y112.350 E7.1068
G1 X98.101 Y112.481 E7.1257
G1 X98.051 Y112.503 E7.1293
G1 X97.050 Y112.914 E7.1998
G1 X97.009 Y112.930 E7.2027
G1 X96.784 Y113.005 E7.2181
G1 X96.742 Y113.018 E7.2210
G1 X95.665 Y113.306 E7.2937
G1 X95.628 Y113.315 E7.2962
G1 X95.428 Y113.356 E7.3094
G1 X95.391 Y113.363 E7.3119
G1 X94.260 Y113.535 E7.3865
G1 X94.225 Y113.539 E7.3887
G1 X94.040 Y113.558 E7.4009
G1 X94.005 Y113.560 E7.4031
G1 X92.846 Y113.617 E7.4788
G1 X92.812 Y113.618 E7.4810
G1 X92.629 Y113.618 E7.4929
G1 X92.595 Y113.617 E7.4951
G1 X91.436 Y113.560 E7.5708
G1 X91.401 Y113.558 E7.5730
G1 X91.216 Y113.539 E7.5852
G1 X91.181 Y113.535 E7.5874
G1 X90.051 Y113.363 E7.6620
G1 X90.013 Y113.356 E7.6644
G1 X89.814 Y113.315 E7.6777
G1 X89.777 Y113.306 E7.6802
G1 X88.699 Y113.018 E7.7529
G1 X88.657 Y113.005 E7.7558
G1 X88.432 Y112.930 E7.7712
G1 X88.391 Y112.914 E7.7741
G1 X87.390 Y112.503 E7.8446
G1 X87.341 Y112.481 E7.8481
G1 X87.081 Y112.350 E7.8671
G1 X87.034 Y112.323 E7.8706
G1 X86.127 Y111.771 E7.9398
G1 X86.068 Y111.731 E7.9444
G1 X85.767 Y111.502 E7.9691
G1 X85.713 Y111.457 E7.9737
G1 X84.928 Y110.723 E8.0437
G1 X84.864 Y110.654 E8.0498
G1 X84.546 Y110.262 E8.0827
G1 X84.492 Y110.185 E8.0889
G1 X83.909 Y109.224 E8.1621
G1 X83.856 Y109.116 E8.1700
G1 X83.622 Y108.513 E8.2121
G1 X83.588 Y108.398 E8.2200
G1 X83.359 Y107.239 E8.2970
G1 X83.346 Y107.105 E8.3057
G1 X83.346 Y106.382 E8.3528
G1 X83.359 Y106.249 E8.3615
G1 X83.416 Y105.959 E8.3808
G1 X66.831 Y98.276 E9.5720
G1 X66.795 Y98.247 E9.5750
G1 X66.105 Y98.913 E9.6375
G1 X66.000 Y98.997 E9.6462
G1 X65.396 Y99.387 E9.6931
G1 X65.278 Y99.448 E9.7018
G1 X64.181 Y99.885 E9.7787
G1 X64.065 Y99.920 E9.7866
G1 X63.430 Y100.052 E9.8289
G1 X63.310 Y100.066 E9.8367
G1 X62.186 Y100.097 E9.9101
G1 X62.092 Y100.094 E9.9162
G1 X61.590 Y100.039 E9.9491
G1 X61.497 Y100.023 E9.9552
G1 X60.455 Y99.762 E10.0252
G1 X60.388 Y99.742 E10.0298
G1 X60.032 Y99.613 E10.0545
G1 X59.967 Y99.585 E10.0591
G1 X59.010 Y99.123 E10.1283
G1 X58.962 Y99.098 E10.1318
G1 X58.712 Y98.951 E10.1508
G1 X58.666 Y98.922 E10.1543
G1 X57.777 Y98.304 E10.2248
G1 X57.742 Y98.278 E10.2277
G1 X57.556 Y98.130 E10.2431
G1 X57.523 Y98.102 E10.2460
G1 X56.696 Y97.353 E10.3187
G1 X56.669 Y97.327 E10.3212
G1 X56.525 Y97.182 E10.3345
G1 X56.499 Y97.154 E10.3369
G1 X55.742 Y96.298 E10.4115
G1 X55.719 Y96.271 E10.4137
G1 X55.603 Y96.125 E10.4259
G1 X55.582 Y96.098 E10.4281
G1 X54.904 Y95.155 E10.5038
G1 X54.885 Y95.127 E10.5060
G1 X54.786 Y94.974 E10.5179
G1 X54.769 Y94.945 E10.5201
G1 X54.187 Y93.940 E10.5958
G1 X54.171 Y93.909 E10.5980
G1 X54.086 Y93.743 E10.6102
G1 X54.071 Y93.712 E10.6124
G1 X53.601 Y92.669 E10.6870
G1 X53.586 Y92.634 E10.6895
G1 X53.513 Y92.444 E10.7027
G1 X53.500 Y92.408 E10.7052
G1 X53.157 Y91.347 E10.7779
G1 X53.145 Y91.305 E10.7808
G1 X53.086 Y91.075 E10.7962
G1 X53.077 Y91.032 E10.7991
G1 X52.879 Y89.968 E10.8696
G1 X52.871 Y89.914 E10.8732
G1 X52.840 Y89.626 E10.8921
G1 X52.837 Y89.572 E10.8956
G1 X52.808 Y88.509 E10.9648
G1 X52.810 Y88.439 E10.9694
G1 X52.838 Y88.061 E10.9941
G1 X52.847 Y87.992 E10.9987
G1 X53.038 Y86.934 E11.0687
G1 X53.061 Y86.843 E11.0748
G1 X53.217 Y86.363 E11.1077
G1 X53.252 Y86.276 E11.1139
G1 X53.743 Y85.265 E11.1871
G1 X53.805 Y85.161 E11.1950
G1 X54.184 Y84.637 E11.2371
G1 X54.263 Y84.547 E11.2450
G1 X55.112 Y83.725 E11.3220
G1 X55.217 Y83.641 E11.3307
G1 X55.824 Y83.249 E11.3778
