; G-Code generated by Simplify3D(R) Version 3.1.0
; Mar 4, 2017 at 7:53:47 AM
; Settings Summary
;   processName,Process1
;   applyToModels,hotend shroud 2.1.1 green,ear(2),ear(4),ear(5),ear(4)(2)
;   profileName,hotend shroud (modified)
;   profileVersion,2017-02-27 13:29:23
;   baseProfile,Default (modified)
;   printMaterial,
;   printQuality,
;   printExtruders,
;   extruderName,Primary Extruder
;   extruderToolheadNumber,0
;   extruderDiameter,0.4
;   extruderAutoWidth,0
;   extruderWidth,0.56
;   extrusionMultiplier,0.95
;   extruderUseRetract,1
;   extruderRetractionDistance,1.4
;   extruderExtraRestartDistance,-0.1
;   extruderRetractionZLift,0
;   extruderRetractionSpeed,4200
;   extruderUseCoasting,1
;   extruderCoastingDistance,0.2
;   extruderUseWipe,1
;   extruderWipeDistance,0.2
;   primaryExtruder,0
;   layerHeight,0.2
;   topSolidLayers,5
;   bottomSolidLayers,2
;   perimeterOutlines,2
;   printPerimetersInsideOut,1
;   startPointOption,2
;   startPointOriginX,85
;   startPointOriginY,0
;   startPointOriginZ,80
;   sequentialIslands,0
;   spiralVaseMode,0
;   firstLayerHeightPercentage,150
;   firstLayerWidthPercentage,100
;   firstLayerUnderspeed,0.35
;   useRaft,0
;   raftExtruder,0
;   raftLayers,2
;   raftOffset,2
;   raftSeparationDistance,0.14
;   raftInfill,85
;   disableRaftBaseLayers,1
;   useSkirt,1
;   skirtExtruder,0
;   skirtLayers,1
;   skirtOutlines,3
;   skirtOffset,3
;   usePrimePillar,0
;   primePillarExtruder,999
;   primePillarWidth,12
;   primePillarLocation,7
;   primePillarSpeedMultiplier,1
;   useOozeShield,0
;   oozeShieldExtruder,999
;   oozeShieldOffset,2
;   oozeShieldOutlines,1
;   oozeShieldSidewallShape,1
;   oozeShieldSidewallAngle,30
;   oozeShieldSpeedMultiplier,1
;   infillExtruder,0
;   internalInfillPattern,Fast Honeycomb
;   externalInfillPattern,Rectilinear
;   infillPercentage,40
;   outlineOverlapPercentage,30
;   infillExtrusionWidthPercentage,145
;   minInfillLength,4
;   infillLayerInterval,1
;   infillAngles,0
;   overlapInfillAngles,0
;   generateSupport,1
;   supportExtruder,0
;   supportInfillPercentage,36
;   supportExtraInflation,0.5
;   denseSupportLayers,0
;   denseSupportInfillPercentage,70
;   supportLayerInterval,1
;   supportHorizontalPartOffset,0.8
;   supportUpperSeparationLayers,1
;   supportLowerSeparationLayers,1
;   supportType,0
;   supportGridSpacing,1.5
;   maxOverhangAngle,55
;   supportAngles,0
;   temperatureName,Primary Extruder,bed
;   temperatureNumber,0,0
;   temperatureSetpointCount,2,2
;   temperatureSetpointLayers,1,2,1,2
;   temperatureSetpointTemperatures,240,235,55,50
;   temperatureStabilizeAtStartup,1,1
;   temperatureHeatedBed,0,1
;   temperatureRelayBetweenLayers,0,0
;   temperatureRelayBetweenLoops,0,0
;   fanLayers,1,4
;   fanSpeeds,0,35
;   blipFanToFullPower,1
;   adjustSpeedForCooling,0
;   minSpeedLayerTime,15
;   minCoolingSpeedSlowdown,65
;   increaseFanForCooling,1
;   minFanLayerTime,15
;   maxCoolingFanSpeed,60
;   increaseFanForBridging,1
;   bridgingFanSpeed,100
;   use5D,1
;   relativeEdistances,0
;   allowEaxisZeroing,1
;   independentExtruderAxes,0
;   includeM10123,0
;   stickySupport,1
;   applyToolheadOffsets,0
;   gcodeXoffset,0
;   gcodeYoffset,0
;   gcodeZoffset,0
;   overrideMachineDefinition,1
;   machineTypeOverride,0
;   strokeXoverride,170
;   strokeYoverride,160
;   strokeZoverride,145
;   originOffsetXoverride,0
;   originOffsetYoverride,0
;   originOffsetZoverride,0
;   homeXdirOverride,-1
;   homeYdirOverride,-1
;   homeZdirOverride,-1
;   flipXoverride,1
;   flipYoverride,-1
;   flipZoverride,1
;   toolheadOffsets,0,0|0,0|0,0|0,0|0,0|0,0
;   overrideFirmwareConfiguration,1
;   firmwareTypeOverride,RepRap (Marlin/Repetier/Sprinter)
;   GPXconfigOverride,r2
;   baudRateOverride,250000
;   overridePrinterModels,0
;   printerModelsOverride
;   startingGcode,;---------------------------------------,; ; ; Jellybox Start Script Begin ; ; ;,;_______________________________________,M117 Preparing        ; write Preparing,; M92 E140            ; optionally adjust E steps/mm,; M207 S1.5 F600 Z0     ; optionally adjust retract settings,; M208 S-0.00 F600      ; optionally adjust unretract = recover settings,M206 X10.0 Y0.0       ; set x homing offset for default bed leveling,G21                   ; metric values,G90                   ; absolute positioning,M107                  ; start with the fan off,M82                   ; set extruder to absolute mode,G28                   ; home all axes,M203 Z4               ; slow Z speed down for greater accuracy when probing,G29                   ; auto bed leveling procedure,M203 Z7               ; pick up z speed again for printing,G92 E0                ; reset the extruder position,G1 F1500 E15          ; extrude 15mm of feed stock,G92 E0                ; reset the extruder position again,M117 Print starting   ; write Print starting,;---------------------------------------------,; ; ; Jellybox Printer Start Script End ; ; ;,;_____________________________________________
;   layerChangeGcode,
;   retractionGcode,
;   toolChangeGcode,
;   endingGcode,; ---------------------------------,; ; ;  Jellybox End Script Begin ; ; ;,; _________________________________,M117 Finishing Up ; write Finishing Up,M104 S0            ; extruder heater off,M140 S0            ; bed heater off (if you have it),G91                ; relative positioning,G1 E-1 F300        ; retract the filament a bit before lifting the nozzle to release some of the pressure,G1 Z+0.5 E-5 X-20 Y-20 F9000 ; move Z up a bit and retract filament even more,G90                ; absolute positioning,G28 X              ; home x so the head is out of the way,G1 Y100            ; move Y forward so the print is more accessible,M84                ; steppers off,M117 Print finished ; write Print finisheds,; ---------------------------------------,; ; ;  Jellybox End Script End ; ; ;,; _______________________________________
;   exportFileFormat,gcode
;   celebration,0
;   celebrationSong,Random Song
;   postProcessing,|{REPLACE "; layer" "M117 Layer"},|{REPLACE ", Z = " " "Z="}|
;   defaultSpeed,2700
;   outlineUnderspeed,0.55
;   solidInfillUnderspeed,0.55
;   supportUnderspeed,0.9
;   rapidXYspeed,7200
;   rapidZspeed,420
;   minBridgingArea,50
;   bridgingExtraInflation,0.3
;   bridgingExtrusionMultiplier,1
;   bridgingSpeedMultiplier,1
;   filamentDiameter,1.75
;   filamentPricePerKg,30
;   filamentDensity,1.38
;   useMinPrintHeight,0
;   minPrintHeight,0
;   useMaxPrintHeight,0
;   maxPrintHeight,1
;   useDiaphragm,0
;   diaphragmLayerInterval,20
;   robustSlicing,1
;   mergeAllIntoSolid,0
;   onlyRetractWhenCrossingOutline,0
;   retractBetweenLayers,1
;   useRetractionMinTravel,1
;   retractionMinTravel,0.5
;   retractWhileWiping,1
;   onlyWipeOutlines,0
;   avoidCrossingOutline,1
;   maxMovementDetourFactor,3
;   toolChangeRetractionDistance,1.3
;   toolChangeExtraRestartDistance,0
;   toolChangeRetractionSpeed,600
;   allowThinWallGapFill,1
;   thinWallAllowedOverlapPercentage,15
;   horizontalSizeCompensation,0
G90
M82
M106 S0
M140 S55
M190 S55
M104 S240 T0
M109 S240 T0
;---------------------------------------
; ; ; Jellybox Start Script Begin ; ; ;
;_______________________________________
M117 Preparing        ; write Preparing
; M92 E140            ; optionally adjust E steps/mm
; M207 S1.5 F600 Z0     ; optionally adjust retract settings
; M208 S-0.00 F600      ; optionally adjust unretract = recover settings
M206 X10.0 Y0.0       ; set x homing offset for default bed leveling
G21                   ; metric values
G90                   ; absolute positioning
M107                  ; start with the fan off
M82                   ; set extruder to absolute mode
G28                   ; home all axes
M203 Z4               ; slow Z speed down for greater accuracy when probing
G29                   ; auto bed leveling procedure
M203 Z7               ; pick up z speed again for printing
G92 E0                ; reset the extruder position
G1 F1500 E15          ; extrude 15mm of feed stock
G92 E0                ; reset the extruder position again
M117 Print starting   ; write Print starting
;---------------------------------------------
; ; ; Jellybox Printer Start Script End ; ; ;
;_____________________________________________
G92 E0
G1 E-1.4000 F4200
G1 Z0.300 F420
M117 Layer 1 0.3
T0
; tool H0.300 W0.560
; skirt
G1 X68.703 Y52.779 F7200
G1 E-0.1000 F1260
G92 E0
G1 X68.736 Y52.735 E0.0037 F945
G1 X68.918 Y52.507 E0.0230
G1 X68.954 Y52.466 E0.0266
G1 X69.696 Y51.676 E0.0985
G1 X69.728 Y51.645 E0.1015
G1 X69.901 Y51.482 E0.1173
G1 X69.935 Y51.453 E0.1203
G1 X70.797 Y50.744 E0.1943
G1 X70.828 Y50.720 E0.1969
G1 X70.993 Y50.599 E0.2104
G1 X71.025 Y50.577 E0.2130
G1 X71.984 Y49.953 E0.2890
G1 X72.014 Y49.934 E0.2913
G1 X72.175 Y49.840 E0.3037
G1 X72.206 Y49.823 E0.3061
G1 X73.239 Y49.291 E0.3831
G1 X73.270 Y49.276 E0.3854
G1 X73.436 Y49.200 E0.3976
G1 X73.468 Y49.187 E0.3999
G1 X74.548 Y48.759 E0.4769
G1 X74.581 Y48.746 E0.4793
G1 X74.758 Y48.686 E0.4917
G1 X74.792 Y48.676 E0.4940
G1 X75.893 Y48.364 E0.5700
G1 X75.931 Y48.354 E0.5725
G1 X76.130 Y48.309 E0.5861
G1 X76.168 Y48.302 E0.5887
G1 X77.269 Y48.118 E0.6627
G1 X77.314 Y48.112 E0.6657
G1 X77.550 Y48.088 E0.6815
G1 X77.595 Y48.084 E0.6845
G1 X78.677 Y48.044 E0.7563
G1 X78.732 Y48.044 E0.7600
G1 X79.023 Y48.056 E0.7793
G1 X79.078 Y48.061 E0.7830
G1 X80.134 Y48.188 E0.8536
G1 X80.205 Y48.200 E0.8583
G1 X80.576 Y48.284 E0.8835
G1 X80.645 Y48.304 E0.8883
G1 X81.664 Y48.648 E0.9597
G1 X81.753 Y48.684 E0.9660
G1 X82.206 Y48.910 E0.9996
G1 X82.288 Y48.958 E1.0060
G1 X83.219 Y49.594 E1.0808
G1 X83.315 Y49.672 E1.0889
G1 X83.780 Y50.126 E1.1321
G1 X83.860 Y50.220 E1.1403
G1 X84.548 Y51.182 E1.2188
G1 X84.616 Y51.300 E1.2278
G1 X84.915 Y51.956 E1.2756
G1 X84.959 Y52.085 E1.2847
G1 X85.231 Y53.236 E1.3632
G1 X85.249 Y53.358 E1.3713
G1 X85.286 Y54.007 E1.4145
G1 X85.282 Y54.130 E1.4227
G1 X85.211 Y54.730 E1.4627
G1 X105.354 Y64.061 E2.9357
G1 X105.410 Y64.005 E2.9410
G1 X106.260 Y63.266 E3.0157
G1 X106.359 Y63.194 E3.0239
G1 X106.916 Y62.860 E3.0669
G1 X107.026 Y62.806 E3.0750
G1 X108.131 Y62.383 E3.1536
G1 X108.263 Y62.347 E3.1627
G1 X108.978 Y62.224 E3.2108
G1 X109.114 Y62.214 E3.2198
G1 X110.298 Y62.244 E3.2984
G1 X110.419 Y62.257 E3.3065
G1 X111.055 Y62.386 E3.3496
G1 X111.173 Y62.421 E3.3577
G1 X112.221 Y62.834 E3.4325
G1 X112.307 Y62.875 E3.4388
G1 X112.749 Y63.123 E3.4724
G1 X112.829 Y63.175 E3.4788
G1 X113.686 Y63.825 E3.5501
G1 X113.741 Y63.871 E3.5549
G1 X114.019 Y64.130 E3.5801
G1 X114.069 Y64.182 E3.5849
G1 X114.768 Y64.984 E3.6555
G1 X114.802 Y65.027 E3.6591
G1 X114.976 Y65.260 E3.6784
G1 X115.007 Y65.306 E3.6821
G1 X115.582 Y66.224 E3.7540
G1 X115.605 Y66.263 E3.7570
G1 X115.718 Y66.472 E3.7727
G1 X115.738 Y66.512 E3.7757
G1 X116.205 Y67.526 E3.8498
G1 X116.220 Y67.561 E3.8523
G1 X116.295 Y67.752 E3.8659
G1 X116.308 Y67.788 E3.8685
G1 X116.669 Y68.874 E3.9444
G1 X116.679 Y68.908 E3.9468
G1 X116.729 Y69.088 E3.9592
G1 X116.738 Y69.122 E3.9615
G1 X116.991 Y70.256 E4.0386
G1 X116.998 Y70.290 E4.0409
G1 X117.029 Y70.470 E4.0530
G1 X117.034 Y70.504 E4.0553
G1 X117.174 Y71.658 E4.1324
G1 X117.177 Y71.693 E4.1347
G1 X117.190 Y71.879 E4.1471
G1 X117.192 Y71.915 E4.1495
G1 X117.215 Y73.059 E4.2254
G1 X117.214 Y73.098 E4.2280
G1 X117.207 Y73.302 E4.2416
G1 X117.205 Y73.341 E4.2442
G1 X117.103 Y74.452 E4.3182
G1 X117.098 Y74.497 E4.3212
G1 X117.061 Y74.731 E4.3369
G1 X117.053 Y74.776 E4.3399
G1 X116.817 Y75.833 E4.4118
G1 X116.803 Y75.886 E4.4155
G1 X116.718 Y76.165 E4.4348
G1 X116.699 Y76.217 E4.4384
G1 X116.308 Y77.206 E4.5090
G1 X116.278 Y77.271 E4.5138
G1 X116.103 Y77.608 E4.5390
G1 X116.067 Y77.670 E4.5438
G1 X115.476 Y78.569 E4.6151
G1 X115.418 Y78.645 E4.6215
G1 X115.084 Y79.026 E4.6551
G1 X115.017 Y79.094 E4.6615
G1 X114.166 Y79.833 E4.7362
G1 X114.067 Y79.906 E4.7444
G1 X113.509 Y80.240 E4.7876
G1 X113.398 Y80.294 E4.7957
G1 X112.293 Y80.716 E4.8742
G1 X112.198 Y80.742 E4.8807
G1 X101.407 Y104.008 E6.5825
G1 X101.555 Y104.252 E6.6014
G1 X101.609 Y104.362 E6.6096
G1 X101.844 Y104.969 E6.6528
G1 X101.878 Y105.087 E6.6609
G1 X102.107 Y106.248 E6.7394
G1 X102.120 Y106.383 E6.7484
G1 X102.120 Y107.104 E6.7963
G1 X102.107 Y107.240 E6.8053
G1 X101.878 Y108.400 E6.8838
G1 X101.844 Y108.518 E6.8920
G1 X101.609 Y109.125 E6.9352
G1 X101.555 Y109.235 E6.9433
G1 X100.970 Y110.199 E7.0181
G1 X100.915 Y110.277 E7.0244
G1 X100.596 Y110.670 E7.0581
G1 X100.530 Y110.740 E7.0644
G1 X99.745 Y111.475 E7.1358
G1 X99.690 Y111.522 E7.1405
G1 X99.387 Y111.751 E7.1658
G1 X99.328 Y111.792 E7.1705
G1 X98.420 Y112.345 E7.2411
G1 X98.371 Y112.372 E7.2448
G1 X98.111 Y112.503 E7.2641
G1 X98.061 Y112.526 E7.2677
G1 X97.059 Y112.937 E7.3396
G1 X97.017 Y112.953 E7.3426
G1 X96.792 Y113.029 E7.3584
G1 X96.749 Y113.042 E7.3614
G1 X95.671 Y113.330 E7.4354
G1 X95.633 Y113.339 E7.4380
G1 X95.433 Y113.381 E7.4515
G1 X95.395 Y113.388 E7.4541
G1 X94.263 Y113.559 E7.5301
G1 X94.228 Y113.564 E7.5324
G1 X94.042 Y113.582 E7.5448
G1 X94.007 Y113.585 E7.5472
G1 X92.847 Y113.642 E7.6242
G1 X92.812 Y113.643 E7.6265
G1 X92.629 Y113.643 E7.6387
G1 X92.595 Y113.642 E7.6410
G1 X91.434 Y113.585 E7.7180
G1 X91.399 Y113.582 E7.7204
G1 X91.213 Y113.564 E7.7328
G1 X91.178 Y113.559 E7.7351
G1 X90.046 Y113.388 E7.8111
G1 X90.008 Y113.381 E7.8136
G1 X89.808 Y113.339 E7.8272
G1 X89.770 Y113.330 E7.8298
G1 X88.692 Y113.042 E7.9038
G1 X88.649 Y113.029 E7.9068
G1 X88.424 Y112.953 E7.9226
G1 X88.382 Y112.937 E7.9256
G1 X87.380 Y112.526 E7.9975
G1 X87.330 Y112.503 E8.0011
G1 X87.070 Y112.372 E8.0204
G1 X87.022 Y112.345 E8.0241
G1 X86.113 Y111.792 E8.0947
G1 X86.054 Y111.751 E8.0994
G1 X85.751 Y111.522 E8.1246
G1 X85.696 Y111.475 E8.1294
G1 X84.911 Y110.740 E8.2008
G1 X84.845 Y110.670 E8.2071
G1 X84.526 Y110.277 E8.2407
G1 X84.471 Y110.199 E8.2471
G1 X83.887 Y109.236 E8.3218
G1 X83.833 Y109.126 E8.3300
G1 X83.598 Y108.521 E8.3730
G1 X83.564 Y108.404 E8.3811
G1 X83.334 Y107.242 E8.4597
G1 X83.321 Y107.106 E8.4688
G1 X83.321 Y106.381 E8.5169
G1 X83.334 Y106.245 E8.5259
G1 X83.388 Y105.973 E8.5443
G1 X66.817 Y98.297 E9.7561
G1 X66.796 Y98.280 E9.7579
G1 X66.121 Y98.932 E9.8202
G1 X66.015 Y99.017 E9.8292
G1 X65.409 Y99.408 E9.8770
G1 X65.288 Y99.471 E9.8861
G1 X64.189 Y99.909 E9.9646
G1 X64.071 Y99.944 E9.9727
G1 X63.434 Y100.076 E10.0159
G1 X63.312 Y100.090 E10.0241
G1 X62.185 Y100.122 E10.0989
G1 X62.090 Y100.119 E10.1052
G1 X61.586 Y100.064 E10.1388
G1 X61.492 Y100.047 E10.1452
G1 X60.449 Y99.786 E10.2165
G1 X60.380 Y99.765 E10.2213
G1 X60.023 Y99.636 E10.2465
G1 X59.956 Y99.608 E10.2513
G1 X58.999 Y99.145 E10.3219
G1 X58.950 Y99.119 E10.3255
G1 X58.699 Y98.972 E10.3448
G1 X58.652 Y98.943 E10.3485
G1 X57.763 Y98.325 E10.4204
G1 X57.727 Y98.298 E10.4233
G1 X57.541 Y98.150 E10.4391
G1 X57.506 Y98.121 E10.4421
G1 X56.679 Y97.372 E10.5162
G1 X56.651 Y97.345 E10.5187
G1 X56.507 Y97.199 E10.5323
G1 X56.481 Y97.171 E10.5349
G1 X55.723 Y96.314 E10.6108
G1 X55.700 Y96.287 E10.6132
G1 X55.583 Y96.141 E10.6256
G1 X55.562 Y96.112 E10.6279
G1 X54.884 Y95.169 E10.7050
G1 X54.864 Y95.141 E10.7073
G1 X54.765 Y94.987 E10.7194
G1 X54.747 Y94.958 E10.7217
G1 X54.166 Y93.952 E10.7988
G1 X54.149 Y93.921 E10.8011
G1 X54.063 Y93.755 E10.8135
G1 X54.048 Y93.723 E10.8159
G1 X53.578 Y92.679 E10.8918
G1 X53.563 Y92.644 E10.8944
G1 X53.489 Y92.453 E10.9080
G1 X53.476 Y92.416 E10.9105
G1 X53.133 Y91.354 E10.9846
G1 X53.121 Y91.311 E10.9876
G1 X53.062 Y91.081 E11.0033
G1 X53.052 Y91.037 E11.0063
G1 X52.854 Y89.972 E11.0782
G1 X52.846 Y89.917 E11.0819
G1 X52.815 Y89.628 E11.1012
G1 X52.812 Y89.573 E11.1048
G1 X52.783 Y88.509 E11.1754
G1 X52.785 Y88.438 E11.1802
G1 X52.814 Y88.059 E11.2054
G1 X52.823 Y87.988 E11.2102
G1 X53.013 Y86.929 E11.2815
G1 X53.037 Y86.836 E11.2879
G1 X53.194 Y86.355 E11.3215
G1 X53.229 Y86.266 E11.3278
G1 X53.721 Y85.253 E11.4026
G1 X53.784 Y85.148 E11.4107
G1 X54.164 Y84.622 E11.4538
G1 X54.245 Y84.529 E11.4619
G1 X55.095 Y83.706 E11.5404
G1 X55.203 Y83.621 E11.5495
G1 X55.811 Y83.227 E11.5976
