; G-Code generated by Simplify3D(R) Version 3.1.0
; Mar 27, 2017 at 1:58:45 PM
; Settings Summary
;   processName,Process1
;   applyToModels,left fan mount 1.5.1 pink(4),left fan mount 1.5.1 pink(5),left fan mount 1.5.1 pink(6)
;   profileName,PETG 0.3 he.20 bt50 (modified)
;   profileVersion,2017-02-27 23:31:17
;   baseProfile,Default (modified)
;   printMaterial,
;   printQuality,
;   printExtruders,
;   extruderName,Primary Extruder
;   extruderToolheadNumber,0
;   extruderDiameter,0.4
;   extruderAutoWidth,0
;   extruderWidth,0.48
;   extrusionMultiplier,1
;   extruderUseRetract,1
;   extruderRetractionDistance,1.4
;   extruderExtraRestartDistance,-0.1
;   extruderRetractionZLift,0.1
;   extruderRetractionSpeed,4200
;   extruderUseCoasting,1
;   extruderCoastingDistance,0.2
;   extruderUseWipe,1
;   extruderWipeDistance,0.2
;   primaryExtruder,0
;   layerHeight,0.22
;   topSolidLayers,4
;   bottomSolidLayers,2
;   perimeterOutlines,2
;   printPerimetersInsideOut,1
;   startPointOption,2
;   startPointOriginX,80
;   startPointOriginY,0
;   startPointOriginZ,5
;   sequentialIslands,0
;   spiralVaseMode,0
;   firstLayerHeightPercentage,100
;   firstLayerWidthPercentage,100
;   firstLayerUnderspeed,0.35
;   useRaft,0
;   raftExtruder,0
;   raftLayers,3
;   raftOffset,3
;   raftSeparationDistance,0.14
;   raftInfill,85
;   disableRaftBaseLayers,0
;   useSkirt,1
;   skirtExtruder,0
;   skirtLayers,1
;   skirtOutlines,2
;   skirtOffset,5
;   usePrimePillar,0
;   primePillarExtruder,999
;   primePillarWidth,12
;   primePillarLocation,7
;   primePillarSpeedMultiplier,1
;   useOozeShield,0
;   oozeShieldExtruder,999
;   oozeShieldOffset,2
;   oozeShieldOutlines,1
;   oozeShieldSidewallShape,1
;   oozeShieldSidewallAngle,30
;   oozeShieldSpeedMultiplier,1
;   infillExtruder,0
;   internalInfillPattern,Rectilinear
;   externalInfillPattern,Rectilinear
;   infillPercentage,22
;   outlineOverlapPercentage,30
;   infillExtrusionWidthPercentage,150
;   minInfillLength,2
;   infillLayerInterval,1
;   infillAngles,45,-45
;   overlapInfillAngles,0
;   generateSupport,0
;   supportExtruder,0
;   supportInfillPercentage,33
;   supportExtraInflation,0.5
;   denseSupportLayers,0
;   denseSupportInfillPercentage,70
;   supportLayerInterval,1
;   supportHorizontalPartOffset,0.8
;   supportUpperSeparationLayers,1
;   supportLowerSeparationLayers,1
;   supportType,0
;   supportGridSpacing,1.5
;   maxOverhangAngle,55
;   supportAngles,90
;   temperatureName,Primary Extruder,bed
;   temperatureNumber,0,0
;   temperatureSetpointCount,2,2
;   temperatureSetpointLayers,1,2,1,2
;   temperatureSetpointTemperatures,240,235,65,60
;   temperatureStabilizeAtStartup,1,1
;   temperatureHeatedBed,0,1
;   temperatureRelayBetweenLayers,0,0
;   temperatureRelayBetweenLoops,0,0
;   fanLayers,1,4
;   fanSpeeds,0,20
;   blipFanToFullPower,1
;   adjustSpeedForCooling,0
;   minSpeedLayerTime,15
;   minCoolingSpeedSlowdown,65
;   increaseFanForCooling,1
;   minFanLayerTime,15
;   maxCoolingFanSpeed,60
;   increaseFanForBridging,1
;   bridgingFanSpeed,100
;   use5D,1
;   relativeEdistances,0
;   allowEaxisZeroing,1
;   independentExtruderAxes,0
;   includeM10123,0
;   stickySupport,1
;   applyToolheadOffsets,0
;   gcodeXoffset,0
;   gcodeYoffset,0
;   gcodeZoffset,0
;   overrideMachineDefinition,1
;   machineTypeOverride,0
;   strokeXoverride,170
;   strokeYoverride,160
;   strokeZoverride,145
;   originOffsetXoverride,0
;   originOffsetYoverride,0
;   originOffsetZoverride,0
;   homeXdirOverride,-1
;   homeYdirOverride,-1
;   homeZdirOverride,-1
;   flipXoverride,1
;   flipYoverride,-1
;   flipZoverride,1
;   toolheadOffsets,0,0|0,0|0,0|0,0|0,0|0,0
;   overrideFirmwareConfiguration,1
;   firmwareTypeOverride,RepRap (Marlin/Repetier/Sprinter)
;   GPXconfigOverride,r2
;   baudRateOverride,250000
;   overridePrinterModels,0
;   printerModelsOverride
;   startingGcode,;---------------------------------------,; ; ; Jellybox Start Script Begin ; ; ;,;_______________________________________,M117 Preparing        ; write Preparing,; M92 E140            ; optionally adjust E steps/mm,M207 S1.5 F600 Z0     ; optionally adjust retract settings,M208 S-0.00 F600      ; optionally adjust unretract = recover settings,M206 X10.0 Y0.0       ; set x homing offset for default bed leveling,G21                   ; metric values,G90                   ; absolute positioning,M107                  ; start with the fan off,M82                   ; set extruder to absolute mode,G28                   ; home all axes,M203 Z4               ; slow Z speed down for greater accuracy when probing,G29                   ; auto bed leveling procedure,M203 Z7               ; pick up z speed again for printing,G92 E0                ; reset the extruder position,G1 F1500 E15          ; extrude 15mm of feed stock,G92 E0                ; reset the extruder position again,M117 Print starting   ; write Print starting,;---------------------------------------------,; ; ; Jellybox Printer Start Script End ; ; ;,;_____________________________________________
;   layerChangeGcode,
;   retractionGcode,
;   toolChangeGcode,
;   endingGcode,; ---------------------------------,; ; ;  Jellybox End Script Begin ; ; ;,; _________________________________,M117 Finishing Up ; write Finishing Up,M107                  ; sfan off,M104 S0            ; extruder heater off,M140 S0            ; bed heater off (if you have it),G91                ; relative positioning,G1 E-1 F300        ; retract the filament a bit before lifting the nozzle to release some of the pressure,G1 Z+0.5 E-5 X-20 Y-20 F9000 ; move Z up a bit and retract filament even more,G90                ; absolute positioning,G28 X              ; home x so the head is out of the way,G1 Y100            ; move Y forward so the print is more accessible,M84                ; steppers off,M117 Print finished ; write Print finisheds,; ---------------------------------------,; ; ;  Jellybox End Script End ; ; ;,; _______________________________________
;   exportFileFormat,gcode
;   celebration,0
;   celebrationSong,Random Song
;   postProcessing,|{REPLACE "; layer" "M117 Layer"},|{REPLACE ", Z = " " "Z="}
;   defaultSpeed,3000
;   outlineUnderspeed,0.6
;   solidInfillUnderspeed,0.6
;   supportUnderspeed,0.9
;   rapidXYspeed,7200
;   rapidZspeed,420
;   minBridgingArea,50
;   bridgingExtraInflation,0.3
;   bridgingExtrusionMultiplier,1
;   bridgingSpeedMultiplier,1
;   filamentDiameter,1.75
;   filamentPricePerKg,30
;   filamentDensity,1.38
;   useMinPrintHeight,0
;   minPrintHeight,30
;   useMaxPrintHeight,0
;   maxPrintHeight,40
;   useDiaphragm,0
;   diaphragmLayerInterval,20
;   robustSlicing,1
;   mergeAllIntoSolid,0
;   onlyRetractWhenCrossingOutline,0
;   retractBetweenLayers,1
;   useRetractionMinTravel,1
;   retractionMinTravel,1
;   retractWhileWiping,1
;   onlyWipeOutlines,0
;   avoidCrossingOutline,1
;   maxMovementDetourFactor,2.5
;   toolChangeRetractionDistance,1.3
;   toolChangeExtraRestartDistance,0
;   toolChangeRetractionSpeed,600
;   allowThinWallGapFill,1
;   thinWallAllowedOverlapPercentage,15
;   horizontalSizeCompensation,0
G90
M82
M106 S0
M140 S65
M190 S65
M104 S240 T0
M109 S240 T0
;---------------------------------------
; ; ; Jellybox Start Script Begin ; ; ;
;_______________________________________
M117 Preparing        ; write Preparing
; M92 E140            ; optionally adjust E steps/mm
M207 S1.5 F600 Z0     ; optionally adjust retract settings
M208 S-0.00 F600      ; optionally adjust unretract = recover settings
M206 X10.0 Y0.0       ; set x homing offset for default bed leveling
G21                   ; metric values
G90                   ; absolute positioning
M107                  ; start with the fan off
M82                   ; set extruder to absolute mode
G28                   ; home all axes
M203 Z4               ; slow Z speed down for greater accuracy when probing
G29                   ; auto bed leveling procedure
M203 Z7               ; pick up z speed again for printing
G92 E0                ; reset the extruder position
G1 F1500 E15          ; extrude 15mm of feed stock
G92 E0                ; reset the extruder position again
M117 Print starting   ; write Print starting
;---------------------------------------------
; ; ; Jellybox Printer Start Script End ; ; ;
;_____________________________________________
G92 E0
G1 E-1.4000 F4200
G1 Z0.320 F420
M117 Layer 1 0.22
T0
; tool H0.220 W0.480
; skirt
G1 X57.598 Y76.881 F7200
G1 Z0.220 F420
G1 E-0.1000 F1260
G92 E0
G1 X57.863 Y76.773 E0.0126 F1050
G1 X68.318 Y76.821 E0.4716
G1 X68.457 Y76.849 E0.4778
G1 X70.414 Y77.667 E0.5710
G1 X70.532 Y77.746 E0.5772
G1 X73.182 Y80.404 E0.7419
G1 X73.183 Y80.262 E0.7482
G1 X73.293 Y79.998 E0.7607
G1 X76.440 Y76.881 E0.9552
G1 X76.705 Y76.773 E0.9678
G1 X87.160 Y76.821 E1.4268
G1 X87.298 Y76.849 E1.4330
G1 X89.256 Y77.667 E1.5261
G1 X89.374 Y77.746 E1.5323
G1 X92.024 Y80.404 E1.6971
G1 X92.025 Y80.262 E1.7033
G1 X92.135 Y79.998 E1.7159
G1 X95.281 Y76.881 E1.9104
G1 X95.547 Y76.773 E1.9229
G1 X106.002 Y76.821 E2.3820
G1 X106.140 Y76.849 E2.3882
G1 X108.098 Y77.667 E2.4813
G1 X108.216 Y77.746 E2.4875
G1 X111.505 Y81.045 E2.6921
G1 X111.584 Y81.163 E2.6983
G1 X112.397 Y83.143 E2.7923
G1 X112.424 Y83.283 E2.7985
G1 X112.302 Y109.646 E3.9560
G1 X112.458 Y109.647 E3.9628
G1 X112.722 Y109.758 E3.9754
G1 X115.839 Y112.904 E4.1698
G1 X115.948 Y113.169 E4.1824
G1 X115.872 Y129.417 E4.8958
G1 X115.761 Y129.681 E4.9084
G1 X112.615 Y132.798 E5.1028
G1 X112.350 Y132.906 E5.1154
G1 X99.743 Y132.848 E5.6688
G1 X99.676 Y132.841 E5.6718
G1 X98.685 Y132.648 E5.7161
G1 X98.620 Y132.629 E5.7191
G1 X95.288 Y131.297 E5.8766
G1 X93.773 Y132.798 E5.9703
G1 X93.508 Y132.906 E5.9828
G1 X80.901 Y132.848 E6.5363
G1 X80.834 Y132.841 E6.5393
G1 X79.843 Y132.648 E6.5836
G1 X79.778 Y132.629 E6.5866
G1 X76.446 Y131.297 E6.7441
G1 X74.931 Y132.798 E6.8377
G1 X74.666 Y132.906 E6.8503
G1 X62.059 Y132.848 E7.4038
G1 X61.992 Y132.841 E7.4068
G1 X61.001 Y132.648 E7.4511
G1 X60.936 Y132.629 E7.4541
G1 X56.195 Y130.734 E7.6782
G1 X56.026 Y130.598 E7.6877
G1 X54.184 Y127.864 E7.8325
G1 X54.121 Y127.656 E7.8420
G1 X54.341 Y80.262 E9.9228
G1 X54.452 Y79.998 E9.9354
G1 X57.456 Y77.022 E10.1210
G1 X57.598 Y76.881 F1050
G1 X57.863 Y76.773 F3000
G1 X58.576 Y76.776 F3000
G1 X57.956 Y77.253 F7200
G92 E0
G1 X68.269 Y77.301 E0.4528 F1050
G1 X68.315 Y77.310 E0.4548
G1 X70.186 Y78.092 E0.5439
G1 X70.225 Y78.118 E0.5459
G1 X73.448 Y81.350 E0.7463
G1 X73.474 Y81.390 E0.7484
G1 X73.655 Y81.831 E0.7693
G1 X73.662 Y80.360 E0.8339
G1 X73.699 Y80.272 E0.8381
G1 X76.710 Y77.289 E1.0241
G1 X76.798 Y77.253 E1.0283
G1 X87.111 Y77.301 E1.4811
G1 X87.157 Y77.310 E1.4832
G1 X89.028 Y78.092 E1.5722
G1 X89.067 Y78.118 E1.5743
G1 X92.290 Y81.350 E1.7747
G1 X92.316 Y81.390 E1.7767
G1 X92.497 Y81.831 E1.7977
G1 X92.504 Y80.360 E1.8623
G1 X92.541 Y80.272 E1.8664
G1 X95.551 Y77.289 E2.0525
G1 X95.640 Y77.253 E2.0567
G1 X105.953 Y77.301 E2.5095
G1 X105.999 Y77.310 E2.5115
G1 X107.870 Y78.092 E2.6005
G1 X107.909 Y78.118 E2.6026
G1 X111.132 Y81.350 E2.8030
G1 X111.158 Y81.390 E2.8051
G1 X111.935 Y83.281 E2.8949
G1 X111.944 Y83.328 E2.8970
G1 X111.819 Y110.124 E4.0734
G1 X112.361 Y110.126 E4.0972
G1 X112.449 Y110.163 E4.1013
G1 X115.431 Y113.174 E4.2874
G1 X115.467 Y113.262 E4.2916
G1 X115.392 Y129.319 E4.9966
G1 X115.355 Y129.407 E5.0007
G1 X112.345 Y132.390 E5.1868
G1 X112.257 Y132.426 E5.1910
G1 X99.768 Y132.368 E5.7393
G1 X99.745 Y132.366 E5.7403
G1 X98.799 Y132.181 E5.7826
G1 X98.777 Y132.175 E5.7836
G1 X95.174 Y130.735 E5.9540
G1 X93.503 Y132.390 E6.0572
G1 X93.415 Y132.426 E6.0614
G1 X80.926 Y132.368 E6.6097
G1 X80.903 Y132.366 E6.6107
G1 X79.957 Y132.181 E6.6531
G1 X79.935 Y132.175 E6.6540
G1 X76.332 Y130.735 E6.8244
G1 X74.661 Y132.390 E6.9277
G1 X74.573 Y132.426 E6.9319
G1 X62.084 Y132.368 E7.4802
G1 X62.061 Y132.366 E7.4812
G1 X61.115 Y132.181 E7.5235
G1 X61.093 Y132.175 E7.5245
G1 X56.440 Y130.315 E7.7445
G1 X56.384 Y130.270 E7.7477
G1 X54.622 Y127.655 E7.8861
G1 X54.601 Y127.586 E7.8892
G1 X54.820 Y80.360 E9.9627
G1 X54.857 Y80.272 E9.9669
G1 X57.793 Y77.363 E10.1483
G1 X57.868 Y77.289 F1050
G1 X57.956 Y77.253 F1050
G92 E0
G1 X58.956 Y77.258 E-1.4000 F3000
G1 Z0.320 F420
; inner perimeter
G1 X60.767 Y83.226 F7200
G1 Z0.220 F420
G1 E-0.1000 F4200
G92 E0
G1 X66.930 Y83.255 E0.2706 F840
G1 X68.294 Y84.623 E0.3554
G1 X68.261 Y91.805 E0.6707
G1 X67.973 Y91.846 E0.6835
G1 X67.810 Y91.290 E0.7089
G1 X67.604 Y90.897 E0.7284
G1 X67.322 Y90.547 E0.7482
G1 X66.981 Y90.262 E0.7677
G1 X66.590 Y90.049 E0.7872
G1 X66.142 Y89.911 E0.8078
G1 X65.715 Y89.868 E0.8267
G1 X65.269 Y89.910 E0.8463
G1 X64.840 Y90.038 E0.8660
G1 X64.445 Y90.247 E0.8856
G1 X64.107 Y90.522 E0.9047
G1 X63.821 Y90.865 E0.9243
G1 X63.607 Y91.258 E0.9440
G1 X63.475 Y91.686 E0.9636
G1 X63.433 Y92.087 E0.9813
G1 X63.343 Y111.301 E1.8249
G1 X63.381 Y111.702 E1.8426
G1 X63.506 Y112.121 E1.8618
G1 X63.713 Y112.516 E1.8813
G1 X63.994 Y112.863 E1.9010
G1 X64.338 Y113.149 E1.9206
G1 X64.731 Y113.363 E1.9402
G1 X65.159 Y113.495 E1.9599
G1 X65.604 Y113.541 E1.9796
G1 X66.032 Y113.501 E1.9984
G1 X66.481 Y113.368 E2.0190
G1 X66.866 Y113.164 E2.0381
G1 X67.211 Y112.885 E2.0576
G1 X67.495 Y112.543 E2.0771
G1 X67.707 Y112.152 E2.0966
G1 X67.882 Y111.589 E2.1225
G1 X68.168 Y111.633 E2.1352
G1 X68.148 Y116.056 E2.3294
G1 X71.810 Y116.073 E2.4902
G1 X71.791 Y120.123 E2.6680
G1 X71.287 Y119.729 E2.6961
G1 X71.010 Y119.552 E2.7106
G1 X70.449 Y119.285 E2.7379
G1 X69.816 Y119.087 E2.7670
G1 X69.144 Y118.967 E2.7969
G1 X68.451 Y118.924 E2.8274
G1 X67.758 Y118.960 E2.8579
G1 X67.097 Y119.071 E2.8873
G1 X66.738 Y119.167 E2.9036
G1 X66.155 Y119.388 E2.9310
G1 X65.877 Y119.531 E2.9447
G1 X65.603 Y119.701 E2.9589
G1 X65.375 Y119.876 E2.9715
G1 X65.145 Y120.092 E2.9853
G1 X64.947 Y120.333 E2.9990
G1 X64.797 Y120.571 E3.0114
G1 X64.674 Y120.854 E3.0249
G1 X64.602 Y121.129 E3.0374
G1 X64.576 Y121.439 E3.0511
G1 X64.599 Y121.722 E3.0636
G1 X64.676 Y122.023 E3.0772
G1 X64.787 Y122.282 E3.0896
G1 X64.950 Y122.544 E3.1031
G1 X65.128 Y122.763 E3.1155
G1 X65.352 Y122.980 E3.1292
G1 X65.579 Y123.158 E3.1419
G1 X65.863 Y123.340 E3.1567
G1 X66.424 Y123.607 E3.1839
G1 X67.056 Y123.804 E3.2130
G1 X67.728 Y123.924 E3.2430
G1 X68.411 Y123.966 E3.2730
G1 X68.756 Y123.958 E3.2882
G1 X69.123 Y123.930 E3.3043
G1 X69.788 Y123.818 E3.3339
G1 X70.411 Y123.631 E3.3625
G1 X70.726 Y123.499 E3.3775
G1 X71.000 Y123.358 E3.3910
G1 X71.268 Y123.191 E3.4049
G1 X71.779 Y122.799 E3.4331
G1 X71.762 Y126.453 E3.5935
G1 X62.731 Y126.411 E3.9900
G1 X60.571 Y125.548 E4.0922
G1 X60.766 Y83.426 E5.9414
G1 X60.767 Y83.226 F840
G92 E0
G1 X61.767 Y83.231 E-1.4000 F3000
G1 Z0.320 F420
; outer perimeter
G1 X60.289 Y82.744 F7200
G1 Z0.220 F420
G1 E-0.1000 F4200
G92 E0
G1 X67.130 Y82.776 E0.3004 F630
G1 X68.775 Y84.425 E0.4026
G1 X68.630 Y115.578 E1.7704
G1 X72.292 Y115.595 E1.9311
G1 X72.239 Y126.935 E2.4290
G1 X62.637 Y126.890 E2.8506
G1 X60.089 Y125.872 E2.9710
G1 X60.288 Y82.944 E4.8558
G1 X60.289 Y82.744 F630
G92 E0
G1 X61.289 Y82.749 E-1.4000 F3000
G1 Z0.320 F420
; inner perimeter
; outer perimeter
G1 X65.023 Y90.484 F7200
G1 Z0.220 F420
G1 E-0.1000 F4200
G92 E0
G1 X64.711 Y90.649 E0.0155 F630
G1 X64.446 Y90.865 E0.0305
G1 X64.220 Y91.136 E0.0460
G1 X64.051 Y91.446 E0.0615
G1 X63.947 Y91.782 E0.0769
G1 X63.913 Y92.113 E0.0915
G1 X63.823 Y111.279 E0.9330
G1 X63.855 Y111.610 E0.9476
G1 X63.953 Y111.939 E0.9627
G1 X64.116 Y112.251 E0.9781
G1 X64.337 Y112.525 E0.9936
G1 X64.608 Y112.750 E1.0090
G1 X64.918 Y112.918 E1.0245
G1 X65.255 Y113.022 E1.0400
G1 X65.607 Y113.058 E1.0555
G1 X65.941 Y113.028 E1.0703
G1 X66.298 Y112.922 E1.0866
G1 X66.600 Y112.762 E1.1016
G1 X66.872 Y112.541 E1.1170
G1 X67.096 Y112.272 E1.1324
G1 X67.263 Y111.964 E1.1477
G1 X67.367 Y111.630 E1.1631
G1 X67.403 Y111.293 E1.1780
G1 X67.492 Y92.138 E2.0189
G1 X67.461 Y91.807 E2.0336
G1 X67.363 Y91.471 E2.0489
G1 X67.201 Y91.161 E2.0643
G1 X66.978 Y90.885 E2.0799
G1 X66.710 Y90.661 E2.0952
G1 X66.403 Y90.494 E2.1105
