; G-Code generated by Simplify3D(R) Version 3.1.0
; Mar 15, 2017 at 2:02:41 PM
; Settings Summary
;   processName,Process2
;   applyToModels,left fan shroud 4.2.1 green,left fan shroud 4.2.1 green(2)
;   profileName,PETG 0.2 he.20 bt50 FANS
;   profileVersion,2017-02-27 13:24:05
;   baseProfile,Default (modified)
;   printMaterial,
;   printQuality,
;   printExtruders,
;   extruderName,Primary Extruder
;   extruderToolheadNumber,0
;   extruderDiameter,0.4
;   extruderAutoWidth,0
;   extruderWidth,0.48
;   extrusionMultiplier,0.95
;   extruderUseRetract,1
;   extruderRetractionDistance,1.4
;   extruderExtraRestartDistance,-0.1
;   extruderRetractionZLift,0.1
;   extruderRetractionSpeed,4200
;   extruderUseCoasting,1
;   extruderCoastingDistance,0.2
;   extruderUseWipe,1
;   extruderWipeDistance,0.2
;   primaryExtruder,0
;   layerHeight,0.2
;   topSolidLayers,5
;   bottomSolidLayers,2
;   perimeterOutlines,2
;   printPerimetersInsideOut,1
;   startPointOption,2
;   startPointOriginX,85
;   startPointOriginY,0
;   startPointOriginZ,80
;   sequentialIslands,0
;   spiralVaseMode,0
;   firstLayerHeightPercentage,150
;   firstLayerWidthPercentage,100
;   firstLayerUnderspeed,0.35
;   useRaft,0
;   raftExtruder,0
;   raftLayers,2
;   raftOffset,2
;   raftSeparationDistance,0.14
;   raftInfill,85
;   disableRaftBaseLayers,1
;   useSkirt,1
;   skirtExtruder,0
;   skirtLayers,1
;   skirtOutlines,3
;   skirtOffset,3
;   usePrimePillar,0
;   primePillarExtruder,999
;   primePillarWidth,12
;   primePillarLocation,7
;   primePillarSpeedMultiplier,1
;   useOozeShield,0
;   oozeShieldExtruder,999
;   oozeShieldOffset,2
;   oozeShieldOutlines,1
;   oozeShieldSidewallShape,1
;   oozeShieldSidewallAngle,30
;   oozeShieldSpeedMultiplier,1
;   infillExtruder,0
;   internalInfillPattern,Rectilinear
;   externalInfillPattern,Rectilinear
;   infillPercentage,20
;   outlineOverlapPercentage,30
;   infillExtrusionWidthPercentage,145
;   minInfillLength,4
;   infillLayerInterval,1
;   infillAngles,45,-45
;   overlapInfillAngles,0
;   generateSupport,0
;   supportExtruder,0
;   supportInfillPercentage,20
;   supportExtraInflation,0.5
;   denseSupportLayers,0
;   denseSupportInfillPercentage,70
;   supportLayerInterval,1
;   supportHorizontalPartOffset,0.8
;   supportUpperSeparationLayers,1
;   supportLowerSeparationLayers,1
;   supportType,0
;   supportGridSpacing,1.5
;   maxOverhangAngle,55
;   supportAngles,0
;   temperatureName,Primary Extruder,bed
;   temperatureNumber,0,0
;   temperatureSetpointCount,2,2
;   temperatureSetpointLayers,1,2,1,2
;   temperatureSetpointTemperatures,240,235,55,50
;   temperatureStabilizeAtStartup,1,1
;   temperatureHeatedBed,0,1
;   temperatureRelayBetweenLayers,0,0
;   temperatureRelayBetweenLoops,0,0
;   fanLayers,1,4
;   fanSpeeds,0,20
;   blipFanToFullPower,1
;   adjustSpeedForCooling,0
;   minSpeedLayerTime,15
;   minCoolingSpeedSlowdown,65
;   increaseFanForCooling,1
;   minFanLayerTime,15
;   maxCoolingFanSpeed,60
;   increaseFanForBridging,1
;   bridgingFanSpeed,100
;   use5D,1
;   relativeEdistances,0
;   allowEaxisZeroing,1
;   independentExtruderAxes,0
;   includeM10123,0
;   stickySupport,1
;   applyToolheadOffsets,0
;   gcodeXoffset,0
;   gcodeYoffset,0
;   gcodeZoffset,0
;   overrideMachineDefinition,1
;   machineTypeOverride,0
;   strokeXoverride,170
;   strokeYoverride,160
;   strokeZoverride,145
;   originOffsetXoverride,0
;   originOffsetYoverride,0
;   originOffsetZoverride,0
;   homeXdirOverride,-1
;   homeYdirOverride,-1
;   homeZdirOverride,-1
;   flipXoverride,1
;   flipYoverride,-1
;   flipZoverride,1
;   toolheadOffsets,0,0|0,0|0,0|0,0|0,0|0,0
;   overrideFirmwareConfiguration,1
;   firmwareTypeOverride,RepRap (Marlin/Repetier/Sprinter)
;   GPXconfigOverride,r2
;   baudRateOverride,250000
;   overridePrinterModels,0
;   printerModelsOverride
;   startingGcode,;---------------------------------------,; ; ; Jellybox Start Script Begin ; ; ;,;_______________________________________,M117 Preparing        ; write Preparing,; M92 E140            ; optionally adjust E steps/mm,M207 S1.5 F600 Z0     ; optionally adjust retract settings,M208 S-0.00 F600      ; optionally adjust unretract = recover settings,M206 X10.0 Y0.0       ; set x homing offset for default bed leveling,G21                   ; metric values,G90                   ; absolute positioning,M107                  ; start with the fan off,M82                   ; set extruder to absolute mode,G28                   ; home all axes,M203 Z4               ; slow Z speed down for greater accuracy when probing,G29                   ; auto bed leveling procedure,M203 Z7               ; pick up z speed again for printing,G92 E0                ; reset the extruder position,G1 F1500 E15          ; extrude 15mm of feed stock,G92 E0                ; reset the extruder position again,M117 Print starting   ; write Print starting,;---------------------------------------------,; ; ; Jellybox Printer Start Script End ; ; ;,;_____________________________________________
;   layerChangeGcode,
;   retractionGcode,
;   toolChangeGcode,
;   endingGcode,; ---------------------------------,; ; ;  Jellybox End Script Begin ; ; ;,; _________________________________,M117 Finishing Up ; write Finishing Up,M104 S0            ; extruder heater off,M140 S0            ; bed heater off (if you have it),G91                ; relative positioning,G1 E-1 F300        ; retract the filament a bit before lifting the nozzle to release some of the pressure,G1 Z+0.5 E-5 X-20 Y-20 F9000 ; move Z up a bit and retract filament even more,G90                ; absolute positioning,G28 X              ; home x so the head is out of the way,G1 Y100            ; move Y forward so the print is more accessible,M84                ; steppers off,M117 Print finished ; write Print finisheds,; ---------------------------------------,; ; ;  Jellybox End Script End ; ; ;,; _______________________________________
;   exportFileFormat,gcode
;   celebration,0
;   celebrationSong,Random Song
;   postProcessing,|{REPLACE "; layer" "M117 Layer"},|{REPLACE ", Z = " " "Z="}|
;   defaultSpeed,2700
;   outlineUnderspeed,0.55
;   solidInfillUnderspeed,0.55
;   supportUnderspeed,0.9
;   rapidXYspeed,7200
;   rapidZspeed,420
;   minBridgingArea,50
;   bridgingExtraInflation,0.3
;   bridgingExtrusionMultiplier,1
;   bridgingSpeedMultiplier,1
;   filamentDiameter,1.75
;   filamentPricePerKg,30
;   filamentDensity,1.38
;   useMinPrintHeight,0
;   minPrintHeight,5
;   useMaxPrintHeight,0
;   maxPrintHeight,1
;   useDiaphragm,0
;   diaphragmLayerInterval,20
;   robustSlicing,1
;   mergeAllIntoSolid,0
;   onlyRetractWhenCrossingOutline,0
;   retractBetweenLayers,1
;   useRetractionMinTravel,1
;   retractionMinTravel,0.5
;   retractWhileWiping,1
;   onlyWipeOutlines,0
;   avoidCrossingOutline,1
;   maxMovementDetourFactor,2.5
;   toolChangeRetractionDistance,1.3
;   toolChangeExtraRestartDistance,0
;   toolChangeRetractionSpeed,600
;   allowThinWallGapFill,0
;   thinWallAllowedOverlapPercentage,0
;   horizontalSizeCompensation,0
G90
M82
M106 S0
M140 S55
M190 S55
M104 S240 T0
M109 S240 T0
;---------------------------------------
; ; ; Jellybox Start Script Begin ; ; ;
;_______________________________________
M117 Preparing        ; write Preparing
; M92 E140            ; optionally adjust E steps/mm
M207 S1.5 F600 Z0     ; optionally adjust retract settings
M208 S-0.00 F600      ; optionally adjust unretract = recover settings
M206 X10.0 Y0.0       ; set x homing offset for default bed leveling
G21                   ; metric values
G90                   ; absolute positioning
M107                  ; start with the fan off
M82                   ; set extruder to absolute mode
G28                   ; home all axes
M203 Z4               ; slow Z speed down for greater accuracy when probing
G29                   ; auto bed leveling procedure
M203 Z7               ; pick up z speed again for printing
G92 E0                ; reset the extruder position
G1 F1500 E15          ; extrude 15mm of feed stock
G92 E0                ; reset the extruder position again
M117 Print starting   ; write Print starting
;---------------------------------------------
; ; ; Jellybox Printer Start Script End ; ; ;
;_____________________________________________
G92 E0
G1 E-1.4000 F4200
G1 Z0.400 F420
M117 Layer 1 0.3
T0
; tool H0.300 W0.480
; skirt
G1 X70.983 Y47.446 F7200
G1 Z0.300 F420
G1 E-0.1000 F1260
G92 E0
G1 X71.018 Y47.400 E0.0033 F945
G1 X71.240 Y47.129 E0.0232
G1 X71.279 Y47.085 E0.0266
G1 X71.864 Y46.498 E0.0737
G1 X71.907 Y46.459 E0.0770
G1 X72.177 Y46.236 E0.0969
G1 X72.224 Y46.201 E0.1003
G1 X72.795 Y45.816 E0.1394
G1 X72.838 Y45.789 E0.1423
G1 X73.104 Y45.641 E0.1596
G1 X73.149 Y45.618 E0.1625
G1 X73.755 Y45.344 E0.2003
G1 X73.802 Y45.325 E0.2032
G1 X74.089 Y45.224 E0.2205
G1 X74.138 Y45.209 E0.2234
G1 X74.782 Y45.041 E0.2613
G1 X74.831 Y45.030 E0.2642
G1 X75.131 Y44.978 E0.2814
G1 X75.181 Y44.972 E0.2843
G1 X75.769 Y44.921 E0.3179
G1 X75.794 Y44.919 E0.3193
G1 X75.946 Y44.913 E0.3280
G1 X75.971 Y44.912 E0.3294
G1 X101.123 Y44.858 E1.7599
G1 X101.148 Y44.858 E1.7614
G1 X101.300 Y44.864 E1.7700
G1 X101.326 Y44.866 E1.7714
G1 X101.913 Y44.914 E1.8050
G1 X101.964 Y44.921 E1.8079
G1 X102.264 Y44.971 E1.8252
G1 X102.313 Y44.982 E1.8280
G1 X102.958 Y45.147 E1.8659
G1 X103.007 Y45.162 E1.8688
G1 X103.294 Y45.262 E1.8861
G1 X103.341 Y45.281 E1.8890
G1 X103.949 Y45.552 E1.9268
G1 X103.994 Y45.575 E1.9297
G1 X104.260 Y45.722 E1.9470
G1 X104.303 Y45.748 E1.9499
G1 X104.876 Y46.130 E1.9891
G1 X104.923 Y46.165 E1.9924
G1 X105.194 Y46.387 E2.0123
G1 X105.237 Y46.426 E2.0156
G1 X105.825 Y47.011 E2.0628
G1 X105.864 Y47.054 E2.0661
G1 X106.087 Y47.324 E2.0860
G1 X106.122 Y47.371 E2.0893
G1 X106.507 Y47.942 E2.1285
G1 X106.533 Y47.985 E2.1314
G1 X106.682 Y48.251 E2.1486
G1 X106.704 Y48.296 E2.1515
G1 X106.978 Y48.902 E2.1894
G1 X106.997 Y48.949 E2.1923
G1 X107.099 Y49.236 E2.2096
G1 X107.114 Y49.285 E2.2125
G1 X107.282 Y49.929 E2.2503
G1 X107.292 Y49.978 E2.2532
G1 X107.344 Y50.278 E2.2705
G1 X107.351 Y50.328 E2.2734
G1 X107.402 Y50.916 E2.3069
G1 X107.403 Y50.941 E2.3084
G1 X107.410 Y51.093 E2.3170
G1 X107.411 Y51.118 E2.3184
G1 X107.465 Y76.270 E3.7490
G1 X107.464 Y76.295 E3.7504
G1 X107.458 Y76.447 E3.7590
G1 X107.457 Y76.473 E3.7605
G1 X107.408 Y77.060 E3.7940
G1 X107.402 Y77.111 E3.7969
G1 X107.351 Y77.411 E3.8142
G1 X107.341 Y77.460 E3.8171
G1 X107.176 Y78.105 E3.8550
G1 X107.161 Y78.153 E3.8578
G1 X107.061 Y78.441 E3.8751
G1 X107.042 Y78.488 E3.8780
G1 X106.760 Y79.119 E3.9173
G1 X106.733 Y79.172 E3.9207
G1 X106.557 Y79.480 E3.9409
G1 X106.525 Y79.530 E3.9443
G1 X106.046 Y80.206 E3.9914
G1 X106.010 Y80.251 E3.9947
G1 X105.785 Y80.512 E4.0143
G1 X105.745 Y80.554 E4.0176
G1 X105.249 Y81.028 E4.0566
G1 X105.210 Y81.061 E4.0595
G1 X104.974 Y81.252 E4.0768
G1 X104.933 Y81.282 E4.0796
G1 X104.391 Y81.647 E4.1168
G1 X104.352 Y81.671 E4.1194
G1 X104.110 Y81.808 E4.1353
G1 X104.069 Y81.830 E4.1379
G1 X103.600 Y82.049 E4.1673
G1 X103.559 Y82.067 E4.1699
G1 X103.309 Y82.162 E4.1851
G1 X103.266 Y82.177 E4.1877
G1 X102.504 Y82.404 E4.2329
G1 X102.445 Y82.418 E4.2364
G1 X102.085 Y82.487 E4.2572
G1 X102.025 Y82.495 E4.2606
G1 X101.998 Y82.497 E4.2622
G1 X102.165 Y82.744 E4.2791
G1 X102.191 Y82.788 E4.2820
G1 X102.340 Y83.053 E4.2993
G1 X102.362 Y83.098 E4.3022
G1 X102.636 Y83.705 E4.3400
G1 X102.655 Y83.752 E4.3429
G1 X102.757 Y84.039 E4.3602
G1 X102.772 Y84.087 E4.3631
G1 X102.940 Y84.731 E4.4010
G1 X102.950 Y84.781 E4.4038
G1 X103.002 Y85.081 E4.4211
G1 X103.009 Y85.131 E4.4240
G1 X103.060 Y85.718 E4.4576
G1 X103.061 Y85.744 E4.4590
G1 X103.068 Y85.896 E4.4676
G1 X103.069 Y85.921 E4.4691
G1 X103.123 Y111.073 E5.8996
G1 X103.122 Y111.098 E5.9010
G1 X103.116 Y111.250 E5.9097
G1 X103.115 Y111.275 E5.9111
G1 X103.066 Y111.863 E5.9447
G1 X103.060 Y111.913 E5.9475
G1 X103.010 Y112.213 E5.9648
G1 X102.999 Y112.263 E5.9677
G1 X102.834 Y112.908 E6.0056
G1 X102.819 Y112.956 E6.0085
G1 X102.719 Y113.243 E6.0258
G1 X102.700 Y113.290 E6.0286
G1 X102.429 Y113.898 E6.0665
G1 X102.406 Y113.944 E6.0694
G1 X102.259 Y114.210 E6.0867
G1 X102.233 Y114.253 E6.0896
G1 X101.850 Y114.826 E6.1287
G1 X101.816 Y114.873 E6.1321
G1 X101.594 Y115.144 E6.1520
G1 X101.555 Y115.187 E6.1553
G1 X100.970 Y115.774 E6.2024
G1 X100.927 Y115.814 E6.2058
G1 X100.657 Y116.037 E6.2257
G1 X100.610 Y116.072 E6.2290
G1 X100.039 Y116.457 E6.2682
G1 X99.996 Y116.483 E6.2710
G1 X99.730 Y116.631 E6.2883
G1 X99.685 Y116.654 E6.2912
G1 X99.078 Y116.928 E6.3291
G1 X99.031 Y116.947 E6.3320
G1 X98.744 Y117.048 E6.3493
G1 X98.696 Y117.063 E6.3521
G1 X98.052 Y117.231 E6.3900
G1 X98.002 Y117.242 E6.3929
G1 X97.703 Y117.294 E6.4102
G1 X97.652 Y117.300 E6.4131
G1 X97.065 Y117.351 E6.4466
G1 X97.040 Y117.353 E6.4480
G1 X96.888 Y117.360 E6.4567
G1 X96.862 Y117.360 E6.4581
G1 X71.711 Y117.415 E7.8886
G1 X71.685 Y117.414 E7.8901
G1 X71.533 Y117.408 E7.8987
G1 X71.508 Y117.406 E7.9002
G1 X70.920 Y117.358 E7.9337
G1 X70.870 Y117.352 E7.9366
G1 X70.570 Y117.301 E7.9539
G1 X70.521 Y117.291 E7.9568
G1 X69.876 Y117.125 E7.9946
G1 X69.827 Y117.111 E7.9975
G1 X69.540 Y117.010 E8.0148
G1 X69.493 Y116.992 E8.0177
G1 X68.885 Y116.720 E8.0556
G1 X68.840 Y116.698 E8.0584
G1 X68.574 Y116.551 E8.0757
G1 X68.530 Y116.524 E8.0786
G1 X67.957 Y116.142 E8.1178
G1 X67.911 Y116.107 E8.1211
G1 X67.640 Y115.885 E8.1410
G1 X67.596 Y115.846 E8.1443
G1 X67.009 Y115.261 E8.1915
G1 X66.970 Y115.218 E8.1948
G1 X66.747 Y114.948 E8.2147
G1 X66.712 Y114.902 E8.2180
G1 X66.327 Y114.331 E8.2572
G1 X66.300 Y114.287 E8.2601
G1 X66.152 Y114.022 E8.2774
G1 X66.129 Y113.977 E8.2803
G1 X65.855 Y113.370 E8.3181
G1 X65.836 Y113.323 E8.3210
G1 X65.735 Y113.036 E8.3383
G1 X65.720 Y112.988 E8.3412
G1 X65.552 Y112.343 E8.3791
G1 X65.541 Y112.294 E8.3819
G1 X65.490 Y111.994 E8.3992
G1 X65.483 Y111.944 E8.4021
G1 X65.432 Y111.357 E8.4357
G1 X65.430 Y111.331 E8.4371
G1 X65.424 Y111.179 E8.4457
G1 X65.423 Y111.154 E8.4472
G1 X65.369 Y86.002 E9.8777
G1 X65.369 Y85.977 E9.8791
G1 X65.375 Y85.825 E9.8878
G1 X65.377 Y85.800 E9.8892
G1 X65.425 Y85.212 E9.9228
G1 X65.432 Y85.162 E9.9256
G1 X65.482 Y84.862 E9.9429
G1 X65.493 Y84.812 E9.9458
G1 X65.658 Y84.167 E9.9837
G1 X65.673 Y84.119 E9.9866
G1 X65.773 Y83.832 E10.0039
G1 X65.792 Y83.785 E10.0067
G1 X66.063 Y83.177 E10.0446
G1 X66.086 Y83.131 E10.0475
G1 X66.233 Y82.865 E10.0648
G1 X66.259 Y82.822 E10.0677
G1 X66.642 Y82.249 E10.1068
G1 X66.676 Y82.202 E10.1102
G1 X66.898 Y81.931 E10.1301
G1 X66.937 Y81.888 E10.1334
G1 X67.522 Y81.301 E10.1805
G1 X67.565 Y81.261 E10.1838
G1 X67.835 Y81.038 E10.2038
G1 X67.882 Y81.003 E10.2071
G1 X68.453 Y80.618 E10.2462
G1 X68.496 Y80.592 E10.2491
G1 X68.762 Y80.444 E10.2664
G1 X68.807 Y80.421 E10.2693
G1 X69.414 Y80.147 E10.3072
G1 X69.461 Y80.128 E10.3101
G1 X69.747 Y80.027 E10.3273
G1 X69.796 Y80.012 E10.3302
G1 X70.440 Y79.844 E10.3681
G1 X70.489 Y79.833 E10.3710
G1 X70.789 Y79.781 E10.3883
G1 X70.836 Y79.775 E10.3909
G1 X70.676 Y79.538 E10.4072
G1 X70.652 Y79.499 E10.4098
G1 X70.514 Y79.257 E10.4257
G1 X70.493 Y79.216 E10.4283
G1 X70.273 Y78.747 E10.4577
G1 X70.256 Y78.706 E10.4603
G1 X70.160 Y78.456 E10.4755
G1 X70.146 Y78.413 E10.4780
G1 X69.919 Y77.651 E10.5233
G1 X69.904 Y77.592 E10.5267
G1 X69.836 Y77.232 E10.5476
G1 X69.828 Y77.172 E10.5510
G1 X69.774 Y76.554 E10.5863
G1 X69.772 Y76.528 E10.5878
G1 X69.766 Y76.377 E10.5964
G1 X69.765 Y76.351 E10.5978
G1 X69.711 Y51.199 E12.0284
G1 X69.711 Y51.174 E12.0298
G1 X69.717 Y51.022 E12.0384
G1 X69.719 Y50.997 E12.0399
G1 X69.767 Y50.409 E12.0734
G1 X69.774 Y50.359 E12.0763
G1 X69.824 Y50.059 E12.0936
G1 X69.835 Y50.010 E12.0965
G1 X70.000 Y49.365 E12.1343
G1 X70.015 Y49.316 E12.1372
G1 X70.115 Y49.029 E12.1545
G1 X70.134 Y48.982 E12.1574
G1 X70.405 Y48.374 E12.1953
G1 X70.428 Y48.329 E12.1982
G1 X70.575 Y48.062 E12.2154
G1 X70.601 Y48.019 E12.2183
G1 X70.872 Y47.613 E12.2461
G1 X70.983 Y47.446 F945
G92 E0
G1 X71.018 Y47.400 E-0.0907 F2700
G1 X71.240 Y47.129 E-0.6355
G1 X71.279 Y47.085 E-0.7263
