; G-Code generated by Simplify3D(R) Version 3.1.0
; Mar 15, 2017 at 10:06:50 AM
; Settings Summary
;   processName,Process2
;   applyToModels,left fan shroud 4.2.1 green
;   profileName,PETG 0.2 he.20 bt50 FANS
;   profileVersion,2017-02-27 00:04:27
;   baseProfile,Default (modified)
;   printMaterial,
;   printQuality,
;   printExtruders,
;   extruderName,Primary Extruder
;   extruderToolheadNumber,0
;   extruderDiameter,0.4
;   extruderAutoWidth,0
;   extruderWidth,0.48
;   extrusionMultiplier,0.9
;   extruderUseRetract,1
;   extruderRetractionDistance,1.5
;   extruderExtraRestartDistance,0
;   extruderRetractionZLift,0.1
;   extruderRetractionSpeed,4200
;   extruderUseCoasting,1
;   extruderCoastingDistance,0.2
;   extruderUseWipe,1
;   extruderWipeDistance,0.2
;   primaryExtruder,0
;   layerHeight,0.2
;   topSolidLayers,5
;   bottomSolidLayers,2
;   perimeterOutlines,2
;   printPerimetersInsideOut,1
;   startPointOption,2
;   startPointOriginX,85
;   startPointOriginY,0
;   startPointOriginZ,80
;   sequentialIslands,0
;   spiralVaseMode,0
;   firstLayerHeightPercentage,150
;   firstLayerWidthPercentage,100
;   firstLayerUnderspeed,0.35
;   useRaft,0
;   raftExtruder,0
;   raftLayers,2
;   raftOffset,2
;   raftSeparationDistance,0.14
;   raftInfill,85
;   disableRaftBaseLayers,1
;   useSkirt,1
;   skirtExtruder,0
;   skirtLayers,1
;   skirtOutlines,3
;   skirtOffset,3
;   usePrimePillar,0
;   primePillarExtruder,999
;   primePillarWidth,12
;   primePillarLocation,7
;   primePillarSpeedMultiplier,1
;   useOozeShield,0
;   oozeShieldExtruder,999
;   oozeShieldOffset,2
;   oozeShieldOutlines,1
;   oozeShieldSidewallShape,1
;   oozeShieldSidewallAngle,30
;   oozeShieldSpeedMultiplier,1
;   infillExtruder,0
;   internalInfillPattern,Rectilinear
;   externalInfillPattern,Rectilinear
;   infillPercentage,20
;   outlineOverlapPercentage,30
;   infillExtrusionWidthPercentage,145
;   minInfillLength,4
;   infillLayerInterval,1
;   infillAngles,45,-45
;   overlapInfillAngles,0
;   generateSupport,0
;   supportExtruder,0
;   supportInfillPercentage,20
;   supportExtraInflation,0.5
;   denseSupportLayers,0
;   denseSupportInfillPercentage,70
;   supportLayerInterval,1
;   supportHorizontalPartOffset,0.8
;   supportUpperSeparationLayers,1
;   supportLowerSeparationLayers,1
;   supportType,0
;   supportGridSpacing,1.5
;   maxOverhangAngle,55
;   supportAngles,0
;   temperatureName,Primary Extruder,bed
;   temperatureNumber,0,0
;   temperatureSetpointCount,2,2
;   temperatureSetpointLayers,1,2,1,2
;   temperatureSetpointTemperatures,240,235,55,50
;   temperatureStabilizeAtStartup,1,1
;   temperatureHeatedBed,0,1
;   temperatureRelayBetweenLayers,0,0
;   temperatureRelayBetweenLoops,0,0
;   fanLayers,1,4
;   fanSpeeds,0,20
;   blipFanToFullPower,1
;   adjustSpeedForCooling,0
;   minSpeedLayerTime,15
;   minCoolingSpeedSlowdown,65
;   increaseFanForCooling,1
;   minFanLayerTime,15
;   maxCoolingFanSpeed,60
;   increaseFanForBridging,1
;   bridgingFanSpeed,100
;   use5D,1
;   relativeEdistances,0
;   allowEaxisZeroing,1
;   independentExtruderAxes,0
;   includeM10123,0
;   stickySupport,1
;   applyToolheadOffsets,0
;   gcodeXoffset,0
;   gcodeYoffset,0
;   gcodeZoffset,0
;   overrideMachineDefinition,1
;   machineTypeOverride,0
;   strokeXoverride,170
;   strokeYoverride,160
;   strokeZoverride,145
;   originOffsetXoverride,0
;   originOffsetYoverride,0
;   originOffsetZoverride,0
;   homeXdirOverride,-1
;   homeYdirOverride,-1
;   homeZdirOverride,-1
;   flipXoverride,1
;   flipYoverride,-1
;   flipZoverride,1
;   toolheadOffsets,0,0|0,0|0,0|0,0|0,0|0,0
;   overrideFirmwareConfiguration,1
;   firmwareTypeOverride,RepRap (Marlin/Repetier/Sprinter)
;   GPXconfigOverride,r2
;   baudRateOverride,250000
;   overridePrinterModels,0
;   printerModelsOverride
;   startingGcode,;---------------------------------------,; ; ; Jellybox Start Script Begin ; ; ;,;_______________________________________,M117 Preparing        ; write Preparing,; M92 E140            ; optionally adjust E steps/mm,M207 S1.5 F600 Z0     ; optionally adjust retract settings,M208 S-0.00 F600      ; optionally adjust unretract = recover settings,M206 X10.0 Y0.0       ; set x homing offset for default bed leveling,G21                   ; metric values,G90                   ; absolute positioning,M107                  ; start with the fan off,M82                   ; set extruder to absolute mode,G28                   ; home all axes,M203 Z4               ; slow Z speed down for greater accuracy when probing,G29                   ; auto bed leveling procedure,M203 Z7               ; pick up z speed again for printing,G92 E0                ; reset the extruder position,G1 F1500 E15          ; extrude 15mm of feed stock,G92 E0                ; reset the extruder position again,M117 Print starting   ; write Print starting,;---------------------------------------------,; ; ; Jellybox Printer Start Script End ; ; ;,;_____________________________________________
;   layerChangeGcode,
;   retractionGcode,
;   toolChangeGcode,
;   endingGcode,; ---------------------------------,; ; ;  Jellybox End Script Begin ; ; ;,; _________________________________,M117 Finishing Up ; write Finishing Up,M104 S0            ; extruder heater off,M140 S0            ; bed heater off (if you have it),G91                ; relative positioning,G1 E-1 F300        ; retract the filament a bit before lifting the nozzle to release some of the pressure,G1 Z+0.5 E-5 X-20 Y-20 F9000 ; move Z up a bit and retract filament even more,G90                ; absolute positioning,G28 X              ; home x so the head is out of the way,G1 Y100            ; move Y forward so the print is more accessible,M84                ; steppers off,M117 Print finished ; write Print finisheds,; ---------------------------------------,; ; ;  Jellybox End Script End ; ; ;,; _______________________________________
;   exportFileFormat,gcode
;   celebration,0
;   celebrationSong,Random Song
;   postProcessing,|{REPLACE "; layer" "M117 Layer"},|{REPLACE ", Z = " " "Z="}|
;   defaultSpeed,2700
;   outlineUnderspeed,0.55
;   solidInfillUnderspeed,0.55
;   supportUnderspeed,0.9
;   rapidXYspeed,7200
;   rapidZspeed,420
;   minBridgingArea,50
;   bridgingExtraInflation,0.3
;   bridgingExtrusionMultiplier,1
;   bridgingSpeedMultiplier,1
;   filamentDiameter,1.75
;   filamentPricePerKg,30
;   filamentDensity,1.38
;   useMinPrintHeight,0
;   minPrintHeight,5
;   useMaxPrintHeight,0
;   maxPrintHeight,1
;   useDiaphragm,0
;   diaphragmLayerInterval,20
;   robustSlicing,1
;   mergeAllIntoSolid,0
;   onlyRetractWhenCrossingOutline,1
;   retractBetweenLayers,1
;   useRetractionMinTravel,1
;   retractionMinTravel,0.5
;   retractWhileWiping,1
;   onlyWipeOutlines,1
;   avoidCrossingOutline,1
;   maxMovementDetourFactor,2.5
;   toolChangeRetractionDistance,1.3
;   toolChangeExtraRestartDistance,0
;   toolChangeRetractionSpeed,600
;   allowThinWallGapFill,0
;   thinWallAllowedOverlapPercentage,15
;   horizontalSizeCompensation,0
G90
M82
M106 S0
M140 S80
M190 S80
M104 S240 T0
M109 S240 T0
;---------------------------------------
; ; ; Jellybox Start Script Begin ; ; ;
;_______________________________________
M117 Preparing        ; write Preparing
; M92 E140            ; optionally adjust E steps/mm
M207 S1.5 F600 Z0     ; optionally adjust retract settings
M208 S-0.00 F600      ; optionally adjust unretract = recover settings
M206 X10.0 Y0.0       ; set x homing offset for default bed leveling
G21                   ; metric values
G90                   ; absolute positioning
M107                  ; start with the fan off
M82                   ; set extruder to absolute mode
G28                   ; home all axes
M203 Z4               ; slow Z speed down for greater accuracy when probing
G29                   ; auto bed leveling procedure
M203 Z7               ; pick up z speed again for printing
G92 E0                ; reset the extruder position
G1 F1500 E15          ; extrude 15mm of feed stock
G92 E0                ; reset the extruder position again
M117 Print starting   ; write Print starting
;---------------------------------------------
; ; ; Jellybox Printer Start Script End ; ; ;
;_____________________________________________
G92 E0
G1 E-1.5000 F4200
G1 Z0.400 F420
M117 Layer 1 0.3
T0
; tool H0.300 W0.480
; skirt
G1 X70.983 Y47.446 F7200
G1 Z0.300 F420
G1 E0.0000 F1260
G92 E0
G1 X71.018 Y47.400 E0.0031 F945
G1 X71.240 Y47.129 E0.0220
G1 X71.279 Y47.085 E0.0252
G1 X71.864 Y46.498 E0.0698
G1 X71.907 Y46.459 E0.0730
G1 X72.177 Y46.236 E0.0918
G1 X72.224 Y46.201 E0.0950
G1 X72.795 Y45.816 E0.1321
G1 X72.838 Y45.789 E0.1348
G1 X73.104 Y45.641 E0.1512
G1 X73.149 Y45.618 E0.1539
G1 X73.755 Y45.344 E0.1898
G1 X73.802 Y45.325 E0.1925
G1 X74.089 Y45.224 E0.2089
G1 X74.138 Y45.209 E0.2116
G1 X74.782 Y45.041 E0.2475
G1 X74.831 Y45.030 E0.2502
G1 X75.131 Y44.978 E0.2666
G1 X75.181 Y44.972 E0.2694
G1 X75.769 Y44.921 E0.3011
G1 X75.794 Y44.919 E0.3025
G1 X75.946 Y44.913 E0.3107
G1 X75.971 Y44.912 E0.3121
G1 X101.123 Y44.858 E1.6673
G1 X101.148 Y44.858 E1.6686
G1 X101.300 Y44.864 E1.6768
G1 X101.326 Y44.866 E1.6782
G1 X101.913 Y44.914 E1.7100
G1 X101.964 Y44.921 E1.7127
G1 X102.264 Y44.971 E1.7291
G1 X102.313 Y44.982 E1.7318
G1 X102.958 Y45.147 E1.7677
G1 X103.007 Y45.162 E1.7704
G1 X103.294 Y45.262 E1.7868
G1 X103.341 Y45.281 E1.7895
G1 X103.949 Y45.552 E1.8254
G1 X103.994 Y45.575 E1.8281
G1 X104.260 Y45.722 E1.8445
G1 X104.303 Y45.748 E1.8473
G1 X104.876 Y46.130 E1.8844
G1 X104.923 Y46.165 E1.8875
G1 X105.194 Y46.387 E1.9064
G1 X105.237 Y46.426 E1.9095
G1 X105.825 Y47.011 E1.9542
G1 X105.864 Y47.054 E1.9573
G1 X106.087 Y47.324 E1.9762
G1 X106.122 Y47.371 E1.9793
G1 X106.507 Y47.942 E2.0164
G1 X106.533 Y47.985 E2.0192
G1 X106.682 Y48.251 E2.0356
G1 X106.704 Y48.296 E2.0383
G1 X106.978 Y48.902 E2.0742
G1 X106.997 Y48.949 E2.0769
G1 X107.099 Y49.236 E2.0933
G1 X107.114 Y49.285 E2.0960
G1 X107.282 Y49.929 E2.1319
G1 X107.292 Y49.978 E2.1346
G1 X107.344 Y50.278 E2.1510
G1 X107.351 Y50.328 E2.1537
G1 X107.402 Y50.916 E2.1855
G1 X107.403 Y50.941 E2.1869
G1 X107.410 Y51.093 E2.1951
G1 X107.411 Y51.118 E2.1964
G1 X107.465 Y76.270 E3.5516
G1 X107.464 Y76.295 E3.5530
G1 X107.458 Y76.447 E3.5612
G1 X107.457 Y76.473 E3.5626
G1 X107.408 Y77.060 E3.5943
G1 X107.402 Y77.111 E3.5971
G1 X107.351 Y77.411 E3.6135
G1 X107.341 Y77.460 E3.6162
G1 X107.176 Y78.105 E3.6521
G1 X107.161 Y78.153 E3.6548
G1 X107.061 Y78.441 E3.6712
G1 X107.042 Y78.488 E3.6739
G1 X106.760 Y79.119 E3.7112
G1 X106.733 Y79.172 E3.7143
G1 X106.557 Y79.480 E3.7335
G1 X106.525 Y79.530 E3.7367
G1 X106.046 Y80.206 E3.7813
G1 X106.010 Y80.251 E3.7844
G1 X105.785 Y80.512 E3.8030
G1 X105.745 Y80.554 E3.8061
G1 X105.249 Y81.028 E3.8431
G1 X105.210 Y81.061 E3.8458
G1 X104.974 Y81.252 E3.8622
G1 X104.933 Y81.282 E3.8649
G1 X104.391 Y81.647 E3.9001
G1 X104.352 Y81.671 E3.9026
G1 X104.110 Y81.808 E3.9176
G1 X104.069 Y81.830 E3.9201
G1 X103.600 Y82.049 E3.9480
G1 X103.559 Y82.067 E3.9504
G1 X103.309 Y82.162 E3.9648
G1 X103.266 Y82.177 E3.9672
G1 X102.504 Y82.404 E4.0101
G1 X102.445 Y82.418 E4.0134
G1 X102.085 Y82.487 E4.0331
G1 X102.025 Y82.495 E4.0364
G1 X101.407 Y82.549 E4.0698
G1 X101.382 Y82.550 E4.0712
G1 X101.230 Y82.557 E4.0794
G1 X101.204 Y82.558 E4.0807
G1 X76.052 Y82.612 E5.4360
G1 X76.027 Y82.611 E5.4373
G1 X75.875 Y82.605 E5.4455
G1 X75.850 Y82.604 E5.4469
G1 X75.262 Y82.555 E5.4787
G1 X75.212 Y82.549 E5.4814
G1 X74.912 Y82.498 E5.4978
G1 X74.863 Y82.488 E5.5005
G1 X74.218 Y82.322 E5.5364
G1 X74.169 Y82.308 E5.5391
G1 X73.882 Y82.208 E5.5555
G1 X73.835 Y82.189 E5.5582
G1 X73.204 Y81.907 E5.5955
G1 X73.151 Y81.880 E5.5987
G1 X72.842 Y81.704 E5.6178
G1 X72.792 Y81.672 E5.6210
G1 X72.116 Y81.193 E5.6657
G1 X72.071 Y81.157 E5.6687
G1 X71.810 Y80.932 E5.6873
G1 X71.769 Y80.892 E5.6904
G1 X71.295 Y80.396 E5.7274
G1 X71.262 Y80.357 E5.7301
G1 X71.071 Y80.121 E5.7465
G1 X71.041 Y80.080 E5.7492
G1 X70.676 Y79.538 E5.7844
G1 X70.652 Y79.499 E5.7869
G1 X70.514 Y79.257 E5.8019
G1 X70.493 Y79.216 E5.8044
G1 X70.273 Y78.747 E5.8323
G1 X70.256 Y78.706 E5.8347
G1 X70.160 Y78.456 E5.8492
G1 X70.146 Y78.413 E5.8516
G1 X69.919 Y77.651 E5.8944
G1 X69.904 Y77.592 E5.8977
G1 X69.836 Y77.232 E5.9174
G1 X69.828 Y77.172 E5.9207
G1 X69.774 Y76.554 E5.9541
G1 X69.772 Y76.528 E5.9555
G1 X69.766 Y76.377 E5.9637
G1 X69.765 Y76.351 E5.9650
G1 X69.711 Y51.199 E7.3203
G1 X69.711 Y51.174 E7.3216
G1 X69.717 Y51.022 E7.3298
G1 X69.719 Y50.997 E7.3312
G1 X69.767 Y50.409 E7.3630
G1 X69.774 Y50.359 E7.3657
G1 X69.824 Y50.059 E7.3821
G1 X69.835 Y50.010 E7.3848
G1 X70.000 Y49.365 E7.4207
G1 X70.015 Y49.316 E7.4234
G1 X70.115 Y49.029 E7.4398
G1 X70.134 Y48.982 E7.4425
G1 X70.405 Y48.374 E7.4784
G1 X70.428 Y48.329 E7.4811
G1 X70.575 Y48.062 E7.4975
G1 X70.601 Y48.019 E7.5002
G1 X70.872 Y47.613 E7.5266
G1 X70.983 Y47.446 F945
G1 X71.376 Y47.723 F7200
G92 E0
G1 X71.397 Y47.695 E0.0019 F945
G1 X71.604 Y47.442 E0.0195
G1 X71.627 Y47.416 E0.0214
G1 X72.196 Y46.845 E0.0648
G1 X72.222 Y46.821 E0.0667
G1 X72.474 Y46.613 E0.0843
G1 X72.502 Y46.592 E0.0862
G1 X73.055 Y46.219 E0.1221
G1 X73.081 Y46.203 E0.1238
G1 X73.328 Y46.065 E0.1390
G1 X73.356 Y46.052 E0.1407
G1 X73.944 Y45.786 E0.1755
G1 X73.972 Y45.775 E0.1771
G1 X74.240 Y45.680 E0.1924
G1 X74.269 Y45.671 E0.1940
G1 X74.893 Y45.508 E0.2288
G1 X74.923 Y45.501 E0.2304
G1 X75.203 Y45.453 E0.2457
G1 X75.233 Y45.449 E0.2474
G1 X75.805 Y45.400 E0.2783
G1 X75.820 Y45.399 E0.2792
G1 X75.962 Y45.392 E0.2868
G1 X75.977 Y45.392 E0.2876
G1 X101.119 Y45.338 E1.6423
G1 X101.134 Y45.338 E1.6431
G1 X101.276 Y45.344 E1.6508
G1 X101.291 Y45.345 E1.6516
G1 X101.864 Y45.392 E1.6825
G1 X101.894 Y45.396 E1.6842
G1 X102.174 Y45.443 E1.6995
G1 X102.204 Y45.449 E1.7011
G1 X102.829 Y45.609 E1.7359
G1 X102.858 Y45.618 E1.7375
G1 X103.126 Y45.712 E1.7528
G1 X103.154 Y45.723 E1.7545
G1 X103.744 Y45.986 E1.7892
G1 X103.771 Y46.000 E1.7909
G1 X104.019 Y46.137 E1.8062
G1 X104.045 Y46.153 E1.8078
G1 X104.600 Y46.523 E1.8437
G1 X104.628 Y46.544 E1.8456
G1 X104.881 Y46.751 E1.8632
G1 X104.907 Y46.774 E1.8651
G1 X105.478 Y47.343 E1.9085
G1 X105.501 Y47.369 E1.9104
G1 X105.709 Y47.621 E1.9280
G1 X105.730 Y47.649 E1.9299
G1 X106.103 Y48.202 E1.9658
G1 X106.119 Y48.228 E1.9675
G1 X106.257 Y48.475 E1.9828
G1 X106.271 Y48.503 E1.9844
G1 X106.537 Y49.091 E2.0192
G1 X106.548 Y49.119 E2.0208
G1 X106.643 Y49.387 E2.0361
G1 X106.652 Y49.416 E2.0378
G1 X106.815 Y50.040 E2.0725
G1 X106.821 Y50.070 E2.0742
G1 X106.869 Y50.350 E2.0895
G1 X106.873 Y50.380 E2.0911
G1 X106.923 Y50.952 E2.1221
G1 X106.924 Y50.967 E2.1229
G1 X106.930 Y51.109 E2.1305
G1 X106.931 Y51.124 E2.1313
G1 X106.985 Y76.266 E3.4860
G1 X106.985 Y76.281 E3.4868
G1 X106.979 Y76.423 E3.4945
G1 X106.978 Y76.438 E3.4953
G1 X106.931 Y77.011 E3.5263
G1 X106.927 Y77.041 E3.5279
G1 X106.880 Y77.321 E3.5432
G1 X106.874 Y77.351 E3.5448
G1 X106.713 Y77.976 E3.5796
G1 X106.704 Y78.005 E3.5813
G1 X106.611 Y78.273 E3.5965
G1 X106.600 Y78.301 E3.5982
G1 X106.327 Y78.912 E3.6342
G1 X106.311 Y78.944 E3.6362
G1 X106.146 Y79.232 E3.6540
G1 X106.127 Y79.262 E3.6560
G1 X105.661 Y79.919 E3.6994
G1 X105.640 Y79.946 E3.7012
G1 X105.429 Y80.190 E3.7186
G1 X105.405 Y80.215 E3.7204
G1 X104.925 Y80.673 E3.7562
G1 X104.902 Y80.693 E3.7579
G1 X104.681 Y80.871 E3.7731
G1 X104.656 Y80.889 E3.7748
G1 X104.131 Y81.243 E3.8089
G1 X104.107 Y81.258 E3.8104
G1 X103.881 Y81.386 E3.8244
G1 X103.856 Y81.399 E3.8259
G1 X103.404 Y81.611 E3.8528
G1 X103.380 Y81.621 E3.8543
G1 X103.146 Y81.711 E3.8677
G1 X103.121 Y81.719 E3.8692
G1 X102.379 Y81.940 E3.9109
G1 X102.343 Y81.949 E3.9129
G1 X102.008 Y82.013 E3.9313
G1 X101.971 Y82.018 E3.9332
G1 X101.370 Y82.070 E3.9657
G1 X101.355 Y82.071 E3.9666
G1 X101.214 Y82.077 E3.9742
G1 X101.198 Y82.078 E3.9750
G1 X76.057 Y82.132 E5.3297
G1 X76.041 Y82.132 E5.3305
G1 X75.900 Y82.126 E5.3382
G1 X75.884 Y82.125 E5.3390
G1 X75.312 Y82.078 E5.3699
G1 X75.282 Y82.074 E5.3716
G1 X75.002 Y82.027 E5.3869
G1 X74.972 Y82.020 E5.3885
G1 X74.347 Y81.860 E5.4233
