; G-Code generated by Simplify3D(R) Version 3.1.0
; Mar 27, 2017 at 1:59:02 PM
; Settings Summary
;   processName,Process1
;   applyToModels,left fan mount 1.5.1 pink(4),left fan mount 1.5.1 pink(5),left fan mount 1.5.1 pink(6)
;   profileName,PETG 0.3 he.20 bt50 (modified)
;   profileVersion,2017-02-27 23:31:17
;   baseProfile,Default (modified)
;   printMaterial,
;   printQuality,
;   printExtruders,
;   extruderName,Primary Extruder
;   extruderToolheadNumber,0
;   extruderDiameter,0.4
;   extruderAutoWidth,0
;   extruderWidth,0.48
;   extrusionMultiplier,1
;   extruderUseRetract,1
;   extruderRetractionDistance,1.4
;   extruderExtraRestartDistance,-0.1
;   extruderRetractionZLift,0.1
;   extruderRetractionSpeed,4200
;   extruderUseCoasting,1
;   extruderCoastingDistance,0.2
;   extruderUseWipe,1
;   extruderWipeDistance,0.2
;   primaryExtruder,0
;   layerHeight,0.3
;   topSolidLayers,3
;   bottomSolidLayers,2
;   perimeterOutlines,2
;   printPerimetersInsideOut,1
;   startPointOption,2
;   startPointOriginX,80
;   startPointOriginY,0
;   startPointOriginZ,5
;   sequentialIslands,0
;   spiralVaseMode,0
;   firstLayerHeightPercentage,100
;   firstLayerWidthPercentage,100
;   firstLayerUnderspeed,0.35
;   useRaft,0
;   raftExtruder,0
;   raftLayers,3
;   raftOffset,3
;   raftSeparationDistance,0.14
;   raftInfill,85
;   disableRaftBaseLayers,0
;   useSkirt,1
;   skirtExtruder,0
;   skirtLayers,1
;   skirtOutlines,2
;   skirtOffset,5
;   usePrimePillar,0
;   primePillarExtruder,999
;   primePillarWidth,12
;   primePillarLocation,7
;   primePillarSpeedMultiplier,1
;   useOozeShield,0
;   oozeShieldExtruder,999
;   oozeShieldOffset,2
;   oozeShieldOutlines,1
;   oozeShieldSidewallShape,1
;   oozeShieldSidewallAngle,30
;   oozeShieldSpeedMultiplier,1
;   infillExtruder,0
;   internalInfillPattern,Rectilinear
;   externalInfillPattern,Rectilinear
;   infillPercentage,22
;   outlineOverlapPercentage,30
;   infillExtrusionWidthPercentage,150
;   minInfillLength,2
;   infillLayerInterval,1
;   infillAngles,45,-45
;   overlapInfillAngles,0
;   generateSupport,0
;   supportExtruder,0
;   supportInfillPercentage,33
;   supportExtraInflation,0.5
;   denseSupportLayers,0
;   denseSupportInfillPercentage,70
;   supportLayerInterval,1
;   supportHorizontalPartOffset,0.8
;   supportUpperSeparationLayers,1
;   supportLowerSeparationLayers,1
;   supportType,0
;   supportGridSpacing,1.5
;   maxOverhangAngle,55
;   supportAngles,90
;   temperatureName,Primary Extruder,bed
;   temperatureNumber,0,0
;   temperatureSetpointCount,2,2
;   temperatureSetpointLayers,1,2,1,2
;   temperatureSetpointTemperatures,240,235,65,60
;   temperatureStabilizeAtStartup,1,1
;   temperatureHeatedBed,0,1
;   temperatureRelayBetweenLayers,0,0
;   temperatureRelayBetweenLoops,0,0
;   fanLayers,1,4
;   fanSpeeds,0,20
;   blipFanToFullPower,1
;   adjustSpeedForCooling,0
;   minSpeedLayerTime,15
;   minCoolingSpeedSlowdown,65
;   increaseFanForCooling,1
;   minFanLayerTime,15
;   maxCoolingFanSpeed,60
;   increaseFanForBridging,1
;   bridgingFanSpeed,100
;   use5D,1
;   relativeEdistances,0
;   allowEaxisZeroing,1
;   independentExtruderAxes,0
;   includeM10123,0
;   stickySupport,1
;   applyToolheadOffsets,0
;   gcodeXoffset,0
;   gcodeYoffset,0
;   gcodeZoffset,0
;   overrideMachineDefinition,1
;   machineTypeOverride,0
;   strokeXoverride,170
;   strokeYoverride,160
;   strokeZoverride,145
;   originOffsetXoverride,0
;   originOffsetYoverride,0
;   originOffsetZoverride,0
;   homeXdirOverride,-1
;   homeYdirOverride,-1
;   homeZdirOverride,-1
;   flipXoverride,1
;   flipYoverride,-1
;   flipZoverride,1
;   toolheadOffsets,0,0|0,0|0,0|0,0|0,0|0,0
;   overrideFirmwareConfiguration,1
;   firmwareTypeOverride,RepRap (Marlin/Repetier/Sprinter)
;   GPXconfigOverride,r2
;   baudRateOverride,250000
;   overridePrinterModels,0
;   printerModelsOverride
;   startingGcode,;---------------------------------------,; ; ; Jellybox Start Script Begin ; ; ;,;_______________________________________,M117 Preparing        ; write Preparing,; M92 E140            ; optionally adjust E steps/mm,M207 S1.5 F600 Z0     ; optionally adjust retract settings,M208 S-0.00 F600      ; optionally adjust unretract = recover settings,M206 X10.0 Y0.0       ; set x homing offset for default bed leveling,G21                   ; metric values,G90                   ; absolute positioning,M107                  ; start with the fan off,M82                   ; set extruder to absolute mode,G28                   ; home all axes,M203 Z4               ; slow Z speed down for greater accuracy when probing,G29                   ; auto bed leveling procedure,M203 Z7               ; pick up z speed again for printing,G92 E0                ; reset the extruder position,G1 F1500 E15          ; extrude 15mm of feed stock,G92 E0                ; reset the extruder position again,M117 Print starting   ; write Print starting,;---------------------------------------------,; ; ; Jellybox Printer Start Script End ; ; ;,;_____________________________________________
;   layerChangeGcode,
;   retractionGcode,
;   toolChangeGcode,
;   endingGcode,; ---------------------------------,; ; ;  Jellybox End Script Begin ; ; ;,; _________________________________,M117 Finishing Up ; write Finishing Up,M107                  ; sfan off,M104 S0            ; extruder heater off,M140 S0            ; bed heater off (if you have it),G91                ; relative positioning,G1 E-1 F300        ; retract the filament a bit before lifting the nozzle to release some of the pressure,G1 Z+0.5 E-5 X-20 Y-20 F9000 ; move Z up a bit and retract filament even more,G90                ; absolute positioning,G28 X              ; home x so the head is out of the way,G1 Y100            ; move Y forward so the print is more accessible,M84                ; steppers off,M117 Print finished ; write Print finisheds,; ---------------------------------------,; ; ;  Jellybox End Script End ; ; ;,; _______________________________________
;   exportFileFormat,gcode
;   celebration,0
;   celebrationSong,Random Song
;   postProcessing,|{REPLACE "; layer" "M117 Layer"},|{REPLACE ", Z = " " "Z="}
;   defaultSpeed,3000
;   outlineUnderspeed,0.6
;   solidInfillUnderspeed,0.6
;   supportUnderspeed,0.9
;   rapidXYspeed,7200
;   rapidZspeed,420
;   minBridgingArea,50
;   bridgingExtraInflation,0.3
;   bridgingExtrusionMultiplier,1
;   bridgingSpeedMultiplier,1
;   filamentDiameter,1.75
;   filamentPricePerKg,30
;   filamentDensity,1.38
;   useMinPrintHeight,0
;   minPrintHeight,30
;   useMaxPrintHeight,0
;   maxPrintHeight,40
;   useDiaphragm,0
;   diaphragmLayerInterval,20
;   robustSlicing,1
;   mergeAllIntoSolid,0
;   onlyRetractWhenCrossingOutline,0
;   retractBetweenLayers,1
;   useRetractionMinTravel,1
;   retractionMinTravel,1
;   retractWhileWiping,1
;   onlyWipeOutlines,0
;   avoidCrossingOutline,1
;   maxMovementDetourFactor,2.5
;   toolChangeRetractionDistance,1.3
;   toolChangeExtraRestartDistance,0
;   toolChangeRetractionSpeed,600
;   allowThinWallGapFill,1
;   thinWallAllowedOverlapPercentage,15
;   horizontalSizeCompensation,0
G90
M82
M106 S0
M140 S65
M190 S65
M104 S240 T0
M109 S240 T0
;---------------------------------------
; ; ; Jellybox Start Script Begin ; ; ;
;_______________________________________
M117 Preparing        ; write Preparing
; M92 E140            ; optionally adjust E steps/mm
M207 S1.5 F600 Z0     ; optionally adjust retract settings
M208 S-0.00 F600      ; optionally adjust unretract = recover settings
M206 X10.0 Y0.0       ; set x homing offset for default bed leveling
G21                   ; metric values
G90                   ; absolute positioning
M107                  ; start with the fan off
M82                   ; set extruder to absolute mode
G28                   ; home all axes
M203 Z4               ; slow Z speed down for greater accuracy when probing
G29                   ; auto bed leveling procedure
M203 Z7               ; pick up z speed again for printing
G92 E0                ; reset the extruder position
G1 F1500 E15          ; extrude 15mm of feed stock
G92 E0                ; reset the extruder position again
M117 Print starting   ; write Print starting
;---------------------------------------------
; ; ; Jellybox Printer Start Script End ; ; ;
;_____________________________________________
G92 E0
G1 E-1.4000 F4200
G1 Z0.400 F420
M117 Layer 1 0.3
T0
; tool H0.300 W0.480
; skirt
G1 X57.540 Y76.881 F7200
G1 Z0.300 F420
G1 E-0.1000 F1260
G92 E0
G1 X57.806 Y76.772 E0.0171 F1050
G1 X68.261 Y76.821 E0.6431
G1 X68.399 Y76.849 E0.6516
G1 X70.357 Y77.667 E0.7786
G1 X70.475 Y77.746 E0.7870
G1 X73.125 Y80.403 E1.0117
G1 X73.126 Y80.262 E1.0202
G1 X73.236 Y79.998 E1.0374
G1 X76.382 Y76.881 E1.3025
G1 X76.648 Y76.772 E1.3197
G1 X87.103 Y76.821 E1.9456
G1 X87.241 Y76.849 E1.9541
G1 X89.199 Y77.667 E2.0811
G1 X89.316 Y77.746 E2.0896
G1 X91.967 Y80.403 E2.3143
G1 X91.967 Y80.262 E2.3227
G1 X92.078 Y79.998 E2.3399
G1 X95.224 Y76.881 E2.6050
G1 X95.490 Y76.772 E2.6222
G1 X105.945 Y76.821 E3.2481
G1 X106.083 Y76.849 E3.2566
G1 X108.041 Y77.667 E3.3836
G1 X108.158 Y77.746 E3.3921
G1 X111.533 Y81.130 E3.6782
G1 X111.612 Y81.248 E3.6867
G1 X112.425 Y83.228 E3.8148
G1 X112.452 Y83.368 E3.8233
G1 X112.330 Y109.646 E5.3966
G1 X112.486 Y109.647 E5.4060
G1 X112.750 Y109.758 E5.4231
G1 X115.867 Y112.904 E5.6883
G1 X115.976 Y113.169 E5.7054
G1 X115.900 Y129.451 E6.6802
G1 X115.789 Y129.715 E6.6973
G1 X112.643 Y132.832 E6.9625
G1 X112.378 Y132.940 E6.9796
G1 X99.771 Y132.881 E7.7344
G1 X99.704 Y132.875 E7.7384
G1 X98.713 Y132.682 E7.7989
G1 X98.648 Y132.663 E7.8029
G1 X95.316 Y131.331 E8.0177
G1 X93.801 Y132.832 E8.1454
G1 X93.536 Y132.940 E8.1625
G1 X80.929 Y132.881 E8.9173
G1 X80.862 Y132.875 E8.9214
G1 X79.871 Y132.682 E8.9818
G1 X79.806 Y132.663 E8.9858
G1 X76.474 Y131.331 E9.2007
G1 X74.959 Y132.832 E9.3283
G1 X74.694 Y132.940 E9.3455
G1 X62.087 Y132.881 E10.1002
G1 X62.020 Y132.875 E10.1043
G1 X61.029 Y132.682 E10.1647
G1 X60.964 Y132.663 E10.1688
G1 X56.138 Y130.734 E10.4799
G1 X55.969 Y130.598 E10.4929
G1 X54.127 Y127.863 E10.6903
G1 X54.064 Y127.656 E10.7033
G1 X54.284 Y80.262 E13.5407
G1 X54.394 Y79.998 E13.5579
G1 X57.398 Y77.021 E13.8110
G1 X57.540 Y76.881 F1050
G1 X57.806 Y76.772 F3000
G1 X58.519 Y76.776 F3000
G1 X57.899 Y77.253 F7200
G92 E0
G1 X68.212 Y77.301 E0.6174 F1050
G1 X68.258 Y77.310 E0.6202
G1 X70.129 Y78.092 E0.7416
G1 X70.168 Y78.118 E0.7444
G1 X73.476 Y81.435 E1.0249
G1 X73.502 Y81.474 E1.0277
G1 X73.599 Y81.710 E1.0430
G1 X73.605 Y80.359 E1.1239
G1 X73.642 Y80.271 E1.1296
G1 X76.652 Y77.289 E1.3833
G1 X76.741 Y77.253 E1.3890
G1 X87.054 Y77.301 E2.0064
G1 X87.100 Y77.310 E2.0093
G1 X88.971 Y78.092 E2.1306
G1 X89.010 Y78.118 E2.1335
G1 X92.318 Y81.435 E2.4139
G1 X92.344 Y81.474 E2.4167
G1 X92.441 Y81.710 E2.4320
G1 X92.447 Y80.359 E2.5129
G1 X92.484 Y80.271 E2.5186
G1 X95.494 Y77.289 E2.7723
G1 X95.583 Y77.253 E2.7780
G1 X105.896 Y77.301 E3.3955
G1 X105.942 Y77.310 E3.3983
G1 X107.813 Y78.092 E3.5197
G1 X107.852 Y78.118 E3.5225
G1 X111.159 Y81.435 E3.8029
G1 X111.186 Y81.474 E3.8058
G1 X111.963 Y83.366 E3.9282
G1 X111.972 Y83.413 E3.9310
G1 X111.847 Y110.124 E5.5302
G1 X112.389 Y110.127 E5.5626
G1 X112.477 Y110.163 E5.5683
G1 X115.459 Y113.174 E5.8220
G1 X115.495 Y113.262 E5.8277
G1 X115.420 Y129.353 E6.7911
G1 X115.383 Y129.441 E6.7968
G1 X112.373 Y132.423 E7.0505
G1 X112.284 Y132.460 E7.0562
G1 X99.796 Y132.401 E7.8039
G1 X99.773 Y132.399 E7.8053
G1 X98.827 Y132.215 E7.8630
G1 X98.805 Y132.208 E7.8643
G1 X95.202 Y130.768 E8.0967
G1 X93.531 Y132.423 E8.2375
G1 X93.443 Y132.460 E8.2432
G1 X80.954 Y132.401 E8.9909
G1 X80.931 Y132.399 E8.9922
G1 X79.985 Y132.215 E9.0499
G1 X79.963 Y132.208 E9.0513
G1 X76.360 Y130.768 E9.2836
G1 X74.689 Y132.423 E9.4244
G1 X74.601 Y132.460 E9.4301
G1 X62.112 Y132.401 E10.1778
G1 X62.089 Y132.399 E10.1792
G1 X61.143 Y132.215 E10.2369
G1 X61.121 Y132.208 E10.2383
G1 X56.383 Y130.315 E10.5437
G1 X56.327 Y130.269 E10.5481
G1 X54.565 Y127.655 E10.7368
G1 X54.544 Y127.586 E10.7411
G1 X54.763 Y80.359 E13.5685
G1 X54.800 Y80.271 E13.5742
G1 X57.736 Y77.362 E13.8217
G1 X57.810 Y77.289 F1050
G1 X57.899 Y77.253 F1050
G92 E0
G1 X58.899 Y77.257 E-1.4000 F3000
G1 Z0.400 F420
; inner perimeter
G1 X60.710 Y83.226 F7200
G1 Z0.300 F420
G1 E-0.1000 F4200
G92 E0
G1 X66.873 Y83.255 E0.3690 F840
G1 X68.322 Y84.707 E0.4918
G1 X68.288 Y92.057 E0.9319
G1 X67.968 Y92.072 E0.9510
G1 X67.934 Y91.710 E0.9727
G1 X67.808 Y91.284 E0.9993
G1 X67.601 Y90.892 E1.0259
G1 X67.322 Y90.547 E1.0525
G1 X66.974 Y90.257 E1.0796
G1 X66.592 Y90.050 E1.1056
G1 X66.137 Y89.911 E1.1341
G1 X65.715 Y89.868 E1.1595
G1 X65.269 Y89.910 E1.1863
G1 X64.839 Y90.038 E1.2132
G1 X64.443 Y90.248 E1.2400
G1 X64.098 Y90.531 E1.2667
G1 X63.821 Y90.865 E1.2927
G1 X63.608 Y91.257 E1.3194
G1 X63.475 Y91.685 E1.3462
G1 X63.433 Y92.084 E1.3703
G1 X63.343 Y111.304 E2.5209
G1 X63.382 Y111.703 E2.5449
G1 X63.510 Y112.132 E2.5717
G1 X63.720 Y112.527 E2.5985
G1 X63.995 Y112.864 E2.6245
G1 X64.351 Y113.158 E2.6522
G1 X64.732 Y113.363 E2.6781
G1 X65.159 Y113.495 E2.7049
G1 X65.605 Y113.541 E2.7317
G1 X66.027 Y113.502 E2.7571
G1 X66.484 Y113.367 E2.7856
G1 X66.866 Y113.164 E2.8115
G1 X67.210 Y112.885 E2.8380
G1 X67.494 Y112.544 E2.8646
G1 X67.706 Y112.153 E2.8912
G1 X67.839 Y111.729 E2.9178
G1 X67.879 Y111.355 E2.9403
G1 X68.198 Y111.373 E2.9594
G1 X68.176 Y116.056 E3.2398
G1 X71.838 Y116.073 E3.4591
G1 X71.819 Y120.255 E3.7095
G1 X71.464 Y119.912 E3.7390
G1 X71.231 Y119.730 E3.7567
G1 X70.952 Y119.551 E3.7765
G1 X70.391 Y119.284 E3.8137
G1 X69.759 Y119.087 E3.8534
G1 X69.087 Y118.967 E3.8942
G1 X68.395 Y118.924 E3.9357
G1 X67.703 Y118.959 E3.9772
G1 X67.042 Y119.070 E4.0173
G1 X66.679 Y119.167 E4.0399
G1 X66.096 Y119.388 E4.0772
G1 X65.823 Y119.528 E4.0955
G1 X65.546 Y119.701 E4.1151
G1 X65.321 Y119.873 E4.1320
G1 X65.087 Y120.092 E4.1512
G1 X64.887 Y120.337 E4.1702
G1 X64.740 Y120.571 E4.1867
G1 X64.616 Y120.859 E4.2055
G1 X64.545 Y121.128 E4.2221
G1 X64.519 Y121.442 E4.2410
G1 X64.541 Y121.721 E4.2577
G1 X64.620 Y122.025 E4.2766
G1 X64.729 Y122.279 E4.2931
G1 X64.894 Y122.546 E4.3119
G1 X65.069 Y122.760 E4.3284
G1 X65.296 Y122.981 E4.3474
G1 X65.519 Y123.155 E4.3644
G1 X65.806 Y123.340 E4.3848
G1 X66.367 Y123.607 E4.4220
G1 X66.998 Y123.803 E4.4616
G1 X67.670 Y123.924 E4.5024
G1 X68.353 Y123.966 E4.5434
G1 X68.736 Y123.956 E4.5663
G1 X69.410 Y123.882 E4.6069
G1 X70.065 Y123.728 E4.6472
G1 X70.659 Y123.504 E4.6852
G1 X70.941 Y123.358 E4.7042
G1 X71.211 Y123.190 E4.7232
G1 X71.445 Y123.011 E4.7409
G1 X71.807 Y122.669 E4.7707
G1 X71.790 Y126.486 E4.9992
G1 X62.758 Y126.444 E5.5399
G1 X60.514 Y125.547 E5.6846
G1 X60.709 Y83.426 E8.2064
G1 X60.710 Y83.226 F840
G92 E0
G1 X61.710 Y83.231 E-1.4000 F3000
G1 Z0.400 F420
; outer perimeter
G1 X60.232 Y82.744 F7200
G1 Z0.300 F420
G1 E-0.1000 F4200
G92 E0
G1 X67.073 Y82.776 E0.4096 F630
G1 X68.803 Y84.510 E0.5562
G1 X68.658 Y115.578 E2.4162
G1 X72.320 Y115.595 E2.6355
G1 X72.267 Y126.969 E3.3164
G1 X62.665 Y126.924 E3.8913
G1 X60.032 Y125.872 E4.0610
G1 X60.231 Y82.944 E6.6311
G1 X60.232 Y82.744 F630
G92 E0
G1 X61.232 Y82.748 E-1.4000 F3000
G1 Z0.400 F420
; inner perimeter
; outer perimeter
G1 X65.022 Y90.484 F7200
G1 Z0.300 F420
G1 E-0.1000 F4200
G92 E0
G1 X64.710 Y90.650 E0.0211 F630
G1 X64.438 Y90.873 E0.0422
G1 X64.221 Y91.135 E0.0626
G1 X64.052 Y91.445 E0.0837
G1 X63.947 Y91.782 E0.1048
G1 X63.913 Y92.111 E0.1246
G1 X63.823 Y111.282 E1.2724
G1 X63.855 Y111.611 E1.2922
G1 X63.956 Y111.948 E1.3133
G1 X64.122 Y112.260 E1.3344
G1 X64.337 Y112.524 E1.3548
G1 X64.620 Y112.758 E1.3768
G1 X64.918 Y112.918 E1.3970
G1 X65.255 Y113.022 E1.4182
G1 X65.608 Y113.058 E1.4394
G1 X65.937 Y113.028 E1.4591
G1 X66.301 Y112.921 E1.4819
G1 X66.600 Y112.762 E1.5021
G1 X66.871 Y112.542 E1.5230
G1 X67.095 Y112.273 E1.5440
G1 X67.262 Y111.966 E1.5650
G1 X67.366 Y111.631 E1.5859
G1 X67.403 Y111.295 E1.6062
G1 X67.492 Y92.138 E2.7531
G1 X67.461 Y91.802 E2.7733
G1 X67.361 Y91.466 E2.7942
G1 X67.198 Y91.157 E2.8152
