; G-Code generated by Simplify3D(R) Version 3.1.0
; Mar 3, 2017 at 10:34:37 PM
; Settings Summary
;   processName,Process1
;   applyToModels,left fan mount 1.5.1 pink(4),left fan mount 1.5.1 pink(5),left fan mount 1.5.1 pink(6),left fan mount 1.5.1 pink(4)(2),left fan mount 1.5.1 pink(5)(2),left fan mount 1.5.1 pink(6)(2)
;   profileName,PETG 0.3 he.20 bt50 (modified)
;   profileVersion,2017-02-27 23:31:17
;   baseProfile,Default (modified)
;   printMaterial,
;   printQuality,
;   printExtruders,
;   extruderName,Primary Extruder
;   extruderToolheadNumber,0
;   extruderDiameter,0.4
;   extruderAutoWidth,0
;   extruderWidth,0.48
;   extrusionMultiplier,0.95
;   extruderUseRetract,1
;   extruderRetractionDistance,1.4
;   extruderExtraRestartDistance,-0.1
;   extruderRetractionZLift,0.1
;   extruderRetractionSpeed,4200
;   extruderUseCoasting,1
;   extruderCoastingDistance,0.2
;   extruderUseWipe,1
;   extruderWipeDistance,0.2
;   primaryExtruder,0
;   layerHeight,0.3
;   topSolidLayers,3
;   bottomSolidLayers,2
;   perimeterOutlines,2
;   printPerimetersInsideOut,1
;   startPointOption,2
;   startPointOriginX,80
;   startPointOriginY,0
;   startPointOriginZ,5
;   sequentialIslands,0
;   spiralVaseMode,0
;   firstLayerHeightPercentage,100
;   firstLayerWidthPercentage,100
;   firstLayerUnderspeed,0.35
;   useRaft,0
;   raftExtruder,0
;   raftLayers,3
;   raftOffset,3
;   raftSeparationDistance,0.14
;   raftInfill,85
;   disableRaftBaseLayers,0
;   useSkirt,1
;   skirtExtruder,0
;   skirtLayers,1
;   skirtOutlines,3
;   skirtOffset,3
;   usePrimePillar,0
;   primePillarExtruder,999
;   primePillarWidth,12
;   primePillarLocation,7
;   primePillarSpeedMultiplier,1
;   useOozeShield,0
;   oozeShieldExtruder,999
;   oozeShieldOffset,2
;   oozeShieldOutlines,1
;   oozeShieldSidewallShape,1
;   oozeShieldSidewallAngle,30
;   oozeShieldSpeedMultiplier,1
;   infillExtruder,0
;   internalInfillPattern,Rectilinear
;   externalInfillPattern,Rectilinear
;   infillPercentage,22
;   outlineOverlapPercentage,30
;   infillExtrusionWidthPercentage,150
;   minInfillLength,2
;   infillLayerInterval,1
;   infillAngles,45,-45
;   overlapInfillAngles,0
;   generateSupport,0
;   supportExtruder,0
;   supportInfillPercentage,33
;   supportExtraInflation,0.5
;   denseSupportLayers,0
;   denseSupportInfillPercentage,70
;   supportLayerInterval,1
;   supportHorizontalPartOffset,0.8
;   supportUpperSeparationLayers,1
;   supportLowerSeparationLayers,1
;   supportType,0
;   supportGridSpacing,1.5
;   maxOverhangAngle,55
;   supportAngles,90
;   temperatureName,Primary Extruder,bed
;   temperatureNumber,0,0
;   temperatureSetpointCount,2,2
;   temperatureSetpointLayers,1,2,1,2
;   temperatureSetpointTemperatures,240,235,55,50
;   temperatureStabilizeAtStartup,1,1
;   temperatureHeatedBed,0,1
;   temperatureRelayBetweenLayers,0,0
;   temperatureRelayBetweenLoops,0,0
;   fanLayers,1,4
;   fanSpeeds,0,20
;   blipFanToFullPower,1
;   adjustSpeedForCooling,0
;   minSpeedLayerTime,15
;   minCoolingSpeedSlowdown,65
;   increaseFanForCooling,1
;   minFanLayerTime,15
;   maxCoolingFanSpeed,60
;   increaseFanForBridging,1
;   bridgingFanSpeed,100
;   use5D,1
;   relativeEdistances,0
;   allowEaxisZeroing,1
;   independentExtruderAxes,0
;   includeM10123,0
;   stickySupport,1
;   applyToolheadOffsets,0
;   gcodeXoffset,0
;   gcodeYoffset,0
;   gcodeZoffset,0
;   overrideMachineDefinition,1
;   machineTypeOverride,0
;   strokeXoverride,170
;   strokeYoverride,160
;   strokeZoverride,145
;   originOffsetXoverride,0
;   originOffsetYoverride,0
;   originOffsetZoverride,0
;   homeXdirOverride,-1
;   homeYdirOverride,-1
;   homeZdirOverride,-1
;   flipXoverride,1
;   flipYoverride,-1
;   flipZoverride,1
;   toolheadOffsets,0,0|0,0|0,0|0,0|0,0|0,0
;   overrideFirmwareConfiguration,1
;   firmwareTypeOverride,RepRap (Marlin/Repetier/Sprinter)
;   GPXconfigOverride,r2
;   baudRateOverride,250000
;   overridePrinterModels,0
;   printerModelsOverride
;   startingGcode,;---------------------------------------,; ; ; Jellybox Start Script Begin ; ; ;,;_______________________________________,M117 Preparing        ; write Preparing,; M92 E140            ; optionally adjust E steps/mm,M207 S1.5 F600 Z0     ; optionally adjust retract settings,M208 S-0.00 F600      ; optionally adjust unretract = recover settings,M206 X10.0 Y0.0       ; set x homing offset for default bed leveling,G21                   ; metric values,G90                   ; absolute positioning,M107                  ; start with the fan off,M82                   ; set extruder to absolute mode,G28                   ; home all axes,M203 Z4               ; slow Z speed down for greater accuracy when probing,G29                   ; auto bed leveling procedure,M203 Z7               ; pick up z speed again for printing,G92 E0                ; reset the extruder position,G1 F1500 E15          ; extrude 15mm of feed stock,G92 E0                ; reset the extruder position again,M117 Print starting   ; write Print starting,;---------------------------------------------,; ; ; Jellybox Printer Start Script End ; ; ;,;_____________________________________________
;   layerChangeGcode,
;   retractionGcode,
;   toolChangeGcode,
;   endingGcode,; ---------------------------------,; ; ;  Jellybox End Script Begin ; ; ;,; _________________________________,M117 Finishing Up ; write Finishing Up,M107                  ; sfan off,M104 S0            ; extruder heater off,M140 S0            ; bed heater off (if you have it),G91                ; relative positioning,G1 E-1 F300        ; retract the filament a bit before lifting the nozzle to release some of the pressure,G1 Z+0.5 E-5 X-20 Y-20 F9000 ; move Z up a bit and retract filament even more,G90                ; absolute positioning,G28 X              ; home x so the head is out of the way,G1 Y100            ; move Y forward so the print is more accessible,M84                ; steppers off,M117 Print finished ; write Print finisheds,; ---------------------------------------,; ; ;  Jellybox End Script End ; ; ;,; _______________________________________
;   exportFileFormat,gcode
;   celebration,0
;   celebrationSong,Random Song
;   postProcessing,|{REPLACE "; layer" "M117 Layer"},|{REPLACE ", Z = " " "Z="}
;   defaultSpeed,2700
;   outlineUnderspeed,0.55
;   solidInfillUnderspeed,0.55
;   supportUnderspeed,0.9
;   rapidXYspeed,7200
;   rapidZspeed,420
;   minBridgingArea,50
;   bridgingExtraInflation,0.3
;   bridgingExtrusionMultiplier,1
;   bridgingSpeedMultiplier,1
;   filamentDiameter,1.75
;   filamentPricePerKg,30
;   filamentDensity,1.38
;   useMinPrintHeight,0
;   minPrintHeight,30
;   useMaxPrintHeight,0
;   maxPrintHeight,40
;   useDiaphragm,0
;   diaphragmLayerInterval,20
;   robustSlicing,1
;   mergeAllIntoSolid,0
;   onlyRetractWhenCrossingOutline,1
;   retractBetweenLayers,1
;   useRetractionMinTravel,1
;   retractionMinTravel,1
;   retractWhileWiping,1
;   onlyWipeOutlines,1
;   avoidCrossingOutline,1
;   maxMovementDetourFactor,2.5
;   toolChangeRetractionDistance,1.3
;   toolChangeExtraRestartDistance,0
;   toolChangeRetractionSpeed,600
;   allowThinWallGapFill,1
;   thinWallAllowedOverlapPercentage,15
;   horizontalSizeCompensation,0
G90
M82
M106 S0
M140 S55
M190 S55
M104 S240 T0
M109 S240 T0
;---------------------------------------
; ; ; Jellybox Start Script Begin ; ; ;
;_______________________________________
M117 Preparing        ; write Preparing
; M92 E140            ; optionally adjust E steps/mm
M207 S1.5 F600 Z0     ; optionally adjust retract settings
M208 S-0.00 F600      ; optionally adjust unretract = recover settings
M206 X10.0 Y0.0       ; set x homing offset for default bed leveling
G21                   ; metric values
G90                   ; absolute positioning
M107                  ; start with the fan off
M82                   ; set extruder to absolute mode
G28                   ; home all axes
M203 Z4               ; slow Z speed down for greater accuracy when probing
G29                   ; auto bed leveling procedure
M203 Z7               ; pick up z speed again for printing
G92 E0                ; reset the extruder position
G1 F1500 E15          ; extrude 15mm of feed stock
G92 E0                ; reset the extruder position again
M117 Print starting   ; write Print starting
;---------------------------------------------
; ; ; Jellybox Printer Start Script End ; ; ;
;_____________________________________________
G92 E0
G1 E-1.4000 F4200
G1 Z0.400 F420
M117 Layer 1 0.3
T0
; tool H0.300 W0.480
; skirt
G1 X55.985 Y29.141 F7200
G1 Z0.300 F420
G1 E-0.1000 F1260
G92 E0
G1 X58.090 Y27.056 E0.1685 F945
G1 X58.531 Y26.875 E0.1957
G1 X67.905 Y26.919 E0.7288
G1 X68.136 Y26.966 E0.7422
G1 X69.449 Y27.515 E0.8231
G1 X69.645 Y27.646 E0.8365
G1 X72.524 Y30.533 E1.0684
G1 X72.656 Y30.731 E1.0819
G1 X73.201 Y32.059 E1.1636
G1 X73.246 Y32.292 E1.1771
G1 X73.119 Y59.739 E2.7382
G1 X74.062 Y59.743 E2.7918
G1 X74.501 Y59.928 E2.8189
G1 X74.642 Y29.581 E4.5448
G1 X74.827 Y29.141 E4.5720
G1 X76.932 Y27.056 E4.7405
G1 X77.373 Y26.875 E4.7677
G1 X86.747 Y26.919 E5.3008
G1 X86.978 Y26.966 E5.3142
G1 X88.291 Y27.515 E5.3951
G1 X88.487 Y27.646 E5.4085
G1 X91.366 Y30.533 E5.6404
G1 X91.498 Y30.731 E5.6539
G1 X92.043 Y32.059 E5.7356
G1 X92.088 Y32.292 E5.7491
G1 X91.961 Y59.739 E7.3102
G1 X92.904 Y59.743 E7.3638
G1 X93.343 Y59.928 E7.3909
G1 X93.484 Y29.581 E9.1168
G1 X93.669 Y29.141 E9.1440
G1 X95.773 Y27.056 E9.3125
G1 X96.215 Y26.875 E9.3397
G1 X105.589 Y26.919 E9.8728
G1 X105.819 Y26.966 E9.8862
G1 X107.133 Y27.515 E9.9671
G1 X107.329 Y27.646 E9.9805
G1 X110.208 Y30.533 E10.2124
G1 X110.339 Y30.731 E10.2259
G1 X110.885 Y32.059 E10.3076
G1 X110.930 Y32.292 E10.3211
G1 X110.803 Y59.739 E11.8822
G1 X111.746 Y59.743 E11.9358
G1 X112.186 Y59.928 E11.9630
G1 X114.272 Y62.033 E12.1315
G1 X114.452 Y62.475 E12.1586
G1 X114.383 Y77.290 E13.0013
G1 X114.198 Y77.731 E13.0284
G1 X112.094 Y79.816 E13.1969
G1 X111.652 Y79.996 E13.2241
G1 X108.240 Y79.981 E13.4181
G1 X110.208 Y81.954 E13.5766
G1 X110.339 Y82.151 E13.5901
G1 X110.885 Y83.480 E13.6718
G1 X110.930 Y83.713 E13.6853
G1 X110.803 Y111.159 E15.2463
G1 X111.746 Y111.164 E15.3000
G1 X112.186 Y111.348 E15.3271
G1 X114.272 Y113.453 E15.4956
G1 X114.452 Y113.895 E15.5228
G1 X114.383 Y128.711 E16.3654
G1 X114.198 Y129.151 E16.3926
G1 X112.094 Y131.236 E16.5611
G1 X111.652 Y131.417 E16.5882
G1 X99.944 Y131.362 E17.2542
G1 X99.831 Y131.351 E17.2606
G1 X99.166 Y131.221 E17.2991
G1 X99.058 Y131.190 E17.3055
G1 X94.954 Y129.549 E17.5569
G1 X93.252 Y131.236 E17.6932
G1 X92.810 Y131.417 E17.7203
G1 X81.102 Y131.362 E18.3862
G1 X80.990 Y131.351 E18.3927
G1 X80.324 Y131.221 E18.4312
G1 X80.216 Y131.190 E18.4376
G1 X76.112 Y129.549 E18.6890
G1 X74.410 Y131.236 E18.8253
G1 X73.968 Y131.417 E18.8524
G1 X62.260 Y131.362 E19.5183
G1 X62.148 Y131.351 E19.5247
G1 X61.482 Y131.221 E19.5633
G1 X61.374 Y131.190 E19.5697
G1 X57.207 Y129.524 E19.8249
G1 X56.926 Y129.297 E19.8455
G1 X55.691 Y127.465 E19.9711
G1 X55.586 Y127.119 E19.9917
G1 X55.800 Y81.002 E22.6146
G1 X55.985 Y80.562 E22.6418
G1 X58.090 Y78.476 E22.8103
G1 X58.114 Y78.466 E22.8118
G1 X57.207 Y78.104 E22.8674
G1 X56.926 Y77.877 E22.8879
G1 X55.691 Y76.045 E23.0136
G1 X55.586 Y75.699 E23.0341
G1 X55.800 Y29.581 E25.6571
G1 X55.907 Y29.326 E25.6728
G1 X55.985 Y29.141 F945
G1 X60.170 Y43.742 F7200
G1 X60.027 Y74.455 F7200
G1 X62.664 Y75.508 F7200
G1 X69.284 Y75.539 F7200
G1 X70.556 Y79.981 F7200
G92 E0
G1 X72.524 Y81.954 E0.1585 F945
G1 X72.656 Y82.151 E0.1720
G1 X73.201 Y83.480 E0.2537
G1 X73.246 Y83.713 E0.2672
G1 X73.119 Y111.159 E1.8282
G1 X74.062 Y111.164 E1.8819
G1 X74.501 Y111.348 E1.9089
G1 X74.642 Y81.002 E3.6349
G1 X74.827 Y80.562 E3.6620
G1 X76.932 Y78.476 E3.8305
G1 X76.956 Y78.466 E3.8320
G1 X76.112 Y78.129 E3.8837
G1 X74.410 Y79.816 E4.0200
G1 X73.968 Y79.996 E4.0472
G1 X70.756 Y79.981 E4.2298
G1 X70.556 Y79.981 F945
G1 X89.398 Y79.981 F7200
G92 E0
G1 X91.366 Y81.954 E0.1585 F945
G1 X91.498 Y82.151 E0.1720
G1 X92.043 Y83.480 E0.2537
G1 X92.088 Y83.713 E0.2672
G1 X91.961 Y111.159 E1.8282
G1 X92.904 Y111.164 E1.8819
G1 X93.343 Y111.348 E1.9089
G1 X93.484 Y81.002 E3.6349
G1 X93.669 Y80.562 E3.6620
G1 X95.773 Y78.476 E3.8305
G1 X95.798 Y78.466 E3.8320
G1 X94.954 Y78.129 E3.8837
G1 X93.252 Y79.816 E4.0200
G1 X92.810 Y79.996 E4.0472
G1 X89.598 Y79.981 E4.2298
G1 X89.398 Y79.981 F945
G1 X88.236 Y79.495 F7200
G92 E0
G1 X90.993 Y82.259 E0.2220 F945
G1 X91.072 Y82.377 E0.2301
G1 X91.581 Y83.618 E0.3064
G1 X91.608 Y83.758 E0.3145
G1 X91.478 Y111.637 E1.9001
G1 X92.807 Y111.643 E1.9756
G1 X93.071 Y111.754 E1.9919
G1 X93.818 Y112.508 E2.0523
G1 X93.964 Y81.099 E3.8387
G1 X94.074 Y80.835 E3.8550
G1 X96.043 Y78.885 E4.0126
G1 X96.309 Y78.776 E4.0289
G1 X97.885 Y78.784 E4.1186
G1 X95.136 Y77.685 E4.2869
G1 X94.967 Y77.549 E4.2993
G1 X94.924 Y77.484 E4.3037
G1 X92.982 Y79.408 E4.4592
G1 X92.717 Y79.516 E4.4755
G1 X88.436 Y79.496 E4.7189
G1 X88.236 Y79.495 F945
G1 X79.043 Y78.784 F7200
G92 E0
G1 X76.294 Y77.685 E0.1684 F945
G1 X76.125 Y77.549 E0.1807
G1 X76.082 Y77.484 E0.1851
G1 X74.140 Y79.408 E0.3406
G1 X73.875 Y79.516 E0.3569
G1 X69.394 Y79.495 E0.6117
G1 X72.151 Y82.259 E0.8337
G1 X72.230 Y82.377 E0.8418
G1 X72.739 Y83.618 E0.9181
G1 X72.766 Y83.758 E0.9262
G1 X72.636 Y111.637 E2.5118
G1 X73.965 Y111.643 E2.5874
G1 X74.229 Y111.754 E2.6036
G1 X74.976 Y112.508 E2.6640
G1 X75.122 Y81.099 E4.4504
G1 X75.233 Y80.835 E4.4667
G1 X77.202 Y78.885 E4.6244
G1 X77.467 Y78.776 E4.6406
G1 X78.843 Y78.783 E4.7189
G1 X79.043 Y78.784 F945
G1 X74.976 Y61.088 F7200
G92 E0
G1 X75.122 Y29.679 E1.7864 F945
G1 X75.233 Y29.415 E1.8027
G1 X77.202 Y27.464 E1.9603
G1 X77.467 Y27.356 E1.9766
G1 X86.698 Y27.399 E2.5016
G1 X86.836 Y27.427 E2.5097
G1 X88.063 Y27.940 E2.5853
G1 X88.180 Y28.018 E2.5933
G1 X90.993 Y30.839 E2.8198
G1 X91.072 Y30.957 E2.8279
G1 X91.581 Y32.198 E2.9042
G1 X91.608 Y32.338 E2.9123
G1 X91.478 Y60.217 E4.4980
G1 X92.807 Y60.223 E4.5735
G1 X93.071 Y60.334 E4.5898
G1 X93.818 Y61.088 E4.6502
G1 X93.964 Y29.679 E6.4366
G1 X94.074 Y29.415 E6.4529
G1 X96.043 Y27.464 E6.6105
G1 X96.309 Y27.356 E6.6268
G1 X105.539 Y27.399 E7.1518
G1 X105.678 Y27.427 E7.1598
G1 X106.905 Y27.940 E7.2354
G1 X107.022 Y28.018 E7.2435
G1 X109.835 Y30.839 E7.4700
G1 X109.913 Y30.957 E7.4781
G1 X110.423 Y32.198 E7.5544
G1 X110.450 Y32.338 E7.5625
G1 X110.320 Y60.217 E9.1481
G1 X111.648 Y60.223 E9.2237
G1 X111.913 Y60.334 E9.2400
G1 X113.863 Y62.303 E9.3976
G1 X113.972 Y62.568 E9.4139
G1 X113.904 Y77.193 E10.2457
G1 X113.793 Y77.457 E10.2620
G1 X111.824 Y79.408 E10.4196
G1 X111.559 Y79.516 E10.4359
G1 X107.078 Y79.495 E10.6907
G1 X109.835 Y82.259 E10.9127
G1 X109.913 Y82.377 E10.9208
G1 X110.423 Y83.618 E10.9971
G1 X110.450 Y83.758 E11.0052
G1 X110.320 Y111.637 E12.5908
G1 X111.648 Y111.643 E12.6664
G1 X111.913 Y111.754 E12.6827
G1 X113.863 Y113.723 E12.8403
G1 X113.972 Y113.988 E12.8566
G1 X113.904 Y128.613 E13.6884
G1 X113.793 Y128.877 E13.7047
G1 X111.824 Y130.828 E13.8623
G1 X111.559 Y130.936 E13.8786
G1 X99.968 Y130.882 E14.5378
G1 X99.901 Y130.876 E14.5417
G1 X99.280 Y130.755 E14.5776
G1 X99.215 Y130.735 E14.5815
G1 X95.136 Y129.105 E14.8313
G1 X94.967 Y128.969 E14.8437
G1 X94.924 Y128.904 E14.8481
G1 X92.982 Y130.828 E15.0036
G1 X92.717 Y130.936 E15.0199
G1 X81.127 Y130.882 E15.6791
G1 X81.059 Y130.876 E15.6829
G1 X80.438 Y130.755 E15.7189
G1 X80.373 Y130.735 E15.7227
G1 X76.294 Y129.105 E15.9726
G1 X76.125 Y128.969 E15.9849
G1 X76.082 Y128.904 E15.9894
G1 X74.140 Y130.828 E16.1448
G1 X73.875 Y130.936 E16.1611
G1 X62.285 Y130.882 E16.8203
G1 X62.217 Y130.876 E16.8242
G1 X61.596 Y130.755 E16.8601
G1 X61.531 Y130.735 E16.8640
G1 X57.452 Y129.105 E17.1138
G1 X57.283 Y128.969 E17.1262
G1 X56.129 Y127.257 E17.2436
G1 X56.067 Y127.049 E17.2559
G1 X56.280 Y81.099 E19.8694
G1 X56.391 Y80.835 E19.8856
G1 X58.360 Y78.885 E20.0433
G1 X58.625 Y78.776 E20.0596
G1 X60.201 Y78.784 E20.1492
G1 X57.452 Y77.685 E20.3176
G1 X57.283 Y77.549 E20.3299
G1 X56.129 Y75.836 E20.4474
G1 X56.067 Y75.629 E20.4597
