; G-Code generated by Simplify3D(R) Version 3.1.0
; Mar 27, 2017 at 1:57:09 PM
; Settings Summary
;   processName,Process1
;   applyToModels,left fan mount 1.5.1 pink(4),left fan mount 1.5.1 pink(5),left fan mount 1.5.1 pink(6),left fan mount 1.5.1 pink(4)(2),left fan mount 1.5.1 pink(5)(2),left fan mount 1.5.1 pink(6)(2)
;   profileName,PETG 0.3 he.20 bt50 (modified)
;   profileVersion,2017-02-27 23:31:17
;   baseProfile,Default (modified)
;   printMaterial,
;   printQuality,
;   printExtruders,
;   extruderName,Primary Extruder
;   extruderToolheadNumber,0
;   extruderDiameter,0.4
;   extruderAutoWidth,0
;   extruderWidth,0.48
;   extrusionMultiplier,1
;   extruderUseRetract,1
;   extruderRetractionDistance,1.4
;   extruderExtraRestartDistance,-0.1
;   extruderRetractionZLift,0.1
;   extruderRetractionSpeed,4200
;   extruderUseCoasting,1
;   extruderCoastingDistance,0.2
;   extruderUseWipe,1
;   extruderWipeDistance,0.2
;   primaryExtruder,0
;   layerHeight,0.22
;   topSolidLayers,4
;   bottomSolidLayers,2
;   perimeterOutlines,2
;   printPerimetersInsideOut,1
;   startPointOption,2
;   startPointOriginX,80
;   startPointOriginY,0
;   startPointOriginZ,5
;   sequentialIslands,0
;   spiralVaseMode,0
;   firstLayerHeightPercentage,100
;   firstLayerWidthPercentage,100
;   firstLayerUnderspeed,0.35
;   useRaft,0
;   raftExtruder,0
;   raftLayers,3
;   raftOffset,3
;   raftSeparationDistance,0.14
;   raftInfill,85
;   disableRaftBaseLayers,0
;   useSkirt,1
;   skirtExtruder,0
;   skirtLayers,1
;   skirtOutlines,2
;   skirtOffset,5
;   usePrimePillar,0
;   primePillarExtruder,999
;   primePillarWidth,12
;   primePillarLocation,7
;   primePillarSpeedMultiplier,1
;   useOozeShield,0
;   oozeShieldExtruder,999
;   oozeShieldOffset,2
;   oozeShieldOutlines,1
;   oozeShieldSidewallShape,1
;   oozeShieldSidewallAngle,30
;   oozeShieldSpeedMultiplier,1
;   infillExtruder,0
;   internalInfillPattern,Rectilinear
;   externalInfillPattern,Rectilinear
;   infillPercentage,22
;   outlineOverlapPercentage,30
;   infillExtrusionWidthPercentage,150
;   minInfillLength,2
;   infillLayerInterval,1
;   infillAngles,45,-45
;   overlapInfillAngles,0
;   generateSupport,0
;   supportExtruder,0
;   supportInfillPercentage,33
;   supportExtraInflation,0.5
;   denseSupportLayers,0
;   denseSupportInfillPercentage,70
;   supportLayerInterval,1
;   supportHorizontalPartOffset,0.8
;   supportUpperSeparationLayers,1
;   supportLowerSeparationLayers,1
;   supportType,0
;   supportGridSpacing,1.5
;   maxOverhangAngle,55
;   supportAngles,90
;   temperatureName,Primary Extruder,bed
;   temperatureNumber,0,0
;   temperatureSetpointCount,2,2
;   temperatureSetpointLayers,1,2,1,2
;   temperatureSetpointTemperatures,240,235,65,60
;   temperatureStabilizeAtStartup,1,1
;   temperatureHeatedBed,0,1
;   temperatureRelayBetweenLayers,0,0
;   temperatureRelayBetweenLoops,0,0
;   fanLayers,1,4
;   fanSpeeds,0,20
;   blipFanToFullPower,1
;   adjustSpeedForCooling,0
;   minSpeedLayerTime,15
;   minCoolingSpeedSlowdown,65
;   increaseFanForCooling,1
;   minFanLayerTime,15
;   maxCoolingFanSpeed,60
;   increaseFanForBridging,1
;   bridgingFanSpeed,100
;   use5D,1
;   relativeEdistances,0
;   allowEaxisZeroing,1
;   independentExtruderAxes,0
;   includeM10123,0
;   stickySupport,1
;   applyToolheadOffsets,0
;   gcodeXoffset,0
;   gcodeYoffset,0
;   gcodeZoffset,0
;   overrideMachineDefinition,1
;   machineTypeOverride,0
;   strokeXoverride,170
;   strokeYoverride,160
;   strokeZoverride,145
;   originOffsetXoverride,0
;   originOffsetYoverride,0
;   originOffsetZoverride,0
;   homeXdirOverride,-1
;   homeYdirOverride,-1
;   homeZdirOverride,-1
;   flipXoverride,1
;   flipYoverride,-1
;   flipZoverride,1
;   toolheadOffsets,0,0|0,0|0,0|0,0|0,0|0,0
;   overrideFirmwareConfiguration,1
;   firmwareTypeOverride,RepRap (Marlin/Repetier/Sprinter)
;   GPXconfigOverride,r2
;   baudRateOverride,250000
;   overridePrinterModels,0
;   printerModelsOverride
;   startingGcode,;---------------------------------------,; ; ; Jellybox Start Script Begin ; ; ;,;_______________________________________,M117 Preparing        ; write Preparing,; M92 E140            ; optionally adjust E steps/mm,M207 S1.5 F600 Z0     ; optionally adjust retract settings,M208 S-0.00 F600      ; optionally adjust unretract = recover settings,M206 X10.0 Y0.0       ; set x homing offset for default bed leveling,G21                   ; metric values,G90                   ; absolute positioning,M107                  ; start with the fan off,M82                   ; set extruder to absolute mode,G28                   ; home all axes,M203 Z4               ; slow Z speed down for greater accuracy when probing,G29                   ; auto bed leveling procedure,M203 Z7               ; pick up z speed again for printing,G92 E0                ; reset the extruder position,G1 F1500 E15          ; extrude 15mm of feed stock,G92 E0                ; reset the extruder position again,M117 Print starting   ; write Print starting,;---------------------------------------------,; ; ; Jellybox Printer Start Script End ; ; ;,;_____________________________________________
;   layerChangeGcode,
;   retractionGcode,
;   toolChangeGcode,
;   endingGcode,; ---------------------------------,; ; ;  Jellybox End Script Begin ; ; ;,; _________________________________,M117 Finishing Up ; write Finishing Up,M107                  ; sfan off,M104 S0            ; extruder heater off,M140 S0            ; bed heater off (if you have it),G91                ; relative positioning,G1 E-1 F300        ; retract the filament a bit before lifting the nozzle to release some of the pressure,G1 Z+0.5 E-5 X-20 Y-20 F9000 ; move Z up a bit and retract filament even more,G90                ; absolute positioning,G28 X              ; home x so the head is out of the way,G1 Y100            ; move Y forward so the print is more accessible,M84                ; steppers off,M117 Print finished ; write Print finisheds,; ---------------------------------------,; ; ;  Jellybox End Script End ; ; ;,; _______________________________________
;   exportFileFormat,gcode
;   celebration,0
;   celebrationSong,Random Song
;   postProcessing,|{REPLACE "; layer" "M117 Layer"},|{REPLACE ", Z = " " "Z="}
;   defaultSpeed,3000
;   outlineUnderspeed,0.6
;   solidInfillUnderspeed,0.6
;   supportUnderspeed,0.9
;   rapidXYspeed,7200
;   rapidZspeed,420
;   minBridgingArea,50
;   bridgingExtraInflation,0.3
;   bridgingExtrusionMultiplier,1
;   bridgingSpeedMultiplier,1
;   filamentDiameter,1.75
;   filamentPricePerKg,30
;   filamentDensity,1.38
;   useMinPrintHeight,0
;   minPrintHeight,30
;   useMaxPrintHeight,0
;   maxPrintHeight,40
;   useDiaphragm,0
;   diaphragmLayerInterval,20
;   robustSlicing,1
;   mergeAllIntoSolid,0
;   onlyRetractWhenCrossingOutline,0
;   retractBetweenLayers,1
;   useRetractionMinTravel,1
;   retractionMinTravel,1
;   retractWhileWiping,1
;   onlyWipeOutlines,0
;   avoidCrossingOutline,1
;   maxMovementDetourFactor,2.5
;   toolChangeRetractionDistance,1.3
;   toolChangeExtraRestartDistance,0
;   toolChangeRetractionSpeed,600
;   allowThinWallGapFill,1
;   thinWallAllowedOverlapPercentage,15
;   horizontalSizeCompensation,0
G90
M82
M106 S0
M140 S65
M190 S65
M104 S240 T0
M109 S240 T0
;---------------------------------------
; ; ; Jellybox Start Script Begin ; ; ;
;_______________________________________
M117 Preparing        ; write Preparing
; M92 E140            ; optionally adjust E steps/mm
M207 S1.5 F600 Z0     ; optionally adjust retract settings
M208 S-0.00 F600      ; optionally adjust unretract = recover settings
M206 X10.0 Y0.0       ; set x homing offset for default bed leveling
G21                   ; metric values
G90                   ; absolute positioning
M107                  ; start with the fan off
M82                   ; set extruder to absolute mode
G28                   ; home all axes
M203 Z4               ; slow Z speed down for greater accuracy when probing
G29                   ; auto bed leveling procedure
M203 Z7               ; pick up z speed again for printing
G92 E0                ; reset the extruder position
G1 F1500 E15          ; extrude 15mm of feed stock
G92 E0                ; reset the extruder position again
M117 Print starting   ; write Print starting
;---------------------------------------------
; ; ; Jellybox Printer Start Script End ; ; ;
;_____________________________________________
G92 E0
G1 E-1.4000 F4200
G1 Z0.320 F420
M117 Layer 1 0.22
T0
; tool H0.220 W0.480
; skirt
G1 X54.452 Y28.578 F7200
G1 Z0.220 F420
G1 E-0.1000 F1260
G92 E0
G1 X57.598 Y25.461 E0.1944 F1050
G1 X57.863 Y25.352 E0.2070
G1 X68.318 Y25.401 E0.6660
G1 X68.457 Y25.429 E0.6722
G1 X70.414 Y26.247 E0.7654
G1 X70.532 Y26.326 E0.7716
G1 X73.182 Y28.983 E0.9364
G1 X73.183 Y28.842 E0.9426
G1 X73.293 Y28.578 E0.9552
G1 X76.440 Y25.461 E1.1496
G1 X76.705 Y25.352 E1.1622
G1 X87.160 Y25.401 E1.6212
G1 X87.298 Y25.429 E1.6274
G1 X89.256 Y26.247 E1.7206
G1 X89.374 Y26.326 E1.7268
G1 X92.024 Y28.983 E1.8916
G1 X92.025 Y28.842 E1.8978
G1 X92.135 Y28.578 E1.9104
G1 X95.281 Y25.461 E2.1048
G1 X95.547 Y25.352 E2.1174
G1 X106.002 Y25.401 E2.5764
G1 X106.140 Y25.429 E2.5826
G1 X108.098 Y26.247 E2.6757
G1 X108.216 Y26.326 E2.6819
G1 X111.505 Y29.625 E2.8865
G1 X111.584 Y29.743 E2.8927
G1 X112.397 Y31.723 E2.9867
G1 X112.424 Y31.863 E2.9929
G1 X112.302 Y58.226 E4.1504
G1 X112.458 Y58.227 E4.1573
G1 X112.722 Y58.337 E4.1698
G1 X115.839 Y61.483 E4.3643
G1 X115.948 Y61.749 E4.3769
G1 X115.872 Y77.997 E5.0902
G1 X115.761 Y78.261 E5.1028
G1 X112.615 Y81.378 E5.2972
G1 X112.350 Y81.486 E5.3098
G1 X111.715 Y81.483 E5.3376
G1 X112.397 Y83.143 E5.4164
G1 X112.424 Y83.283 E5.4227
G1 X112.302 Y109.646 E6.5801
G1 X112.458 Y109.647 E6.5870
G1 X112.722 Y109.758 E6.5996
G1 X115.839 Y112.904 E6.7940
G1 X115.948 Y113.169 E6.8066
G1 X115.872 Y129.417 E7.5199
G1 X115.761 Y129.681 E7.5325
G1 X112.615 Y132.798 E7.7269
G1 X112.350 Y132.906 E7.7395
G1 X99.743 Y132.848 E8.2930
G1 X99.676 Y132.841 E8.2960
G1 X98.685 Y132.648 E8.3403
G1 X98.620 Y132.629 E8.3433
G1 X95.288 Y131.297 E8.5008
G1 X93.773 Y132.798 E8.5944
G1 X93.508 Y132.906 E8.6070
G1 X80.901 Y132.848 E9.1605
G1 X80.834 Y132.841 E9.1635
G1 X79.843 Y132.648 E9.2078
G1 X79.778 Y132.629 E9.2107
G1 X76.446 Y131.297 E9.3683
G1 X74.931 Y132.798 E9.4619
G1 X74.666 Y132.906 E9.4745
G1 X62.059 Y132.848 E10.0280
G1 X61.992 Y132.841 E10.0309
G1 X61.001 Y132.648 E10.0753
G1 X60.936 Y132.629 E10.0782
G1 X56.195 Y130.734 E10.3024
G1 X56.026 Y130.598 E10.3119
G1 X54.184 Y127.864 E10.4567
G1 X54.121 Y127.656 E10.4662
G1 X54.341 Y80.262 E12.5470
G1 X54.452 Y79.998 E12.5595
G1 X55.727 Y78.734 E12.6384
G1 X54.184 Y76.443 E12.7597
G1 X54.121 Y76.236 E12.7692
G1 X54.341 Y28.842 E14.8500
G1 X54.374 Y28.762 E14.8538
G1 X54.452 Y28.578 F1050
G92 E0
G1 X55.162 Y27.874 E-1.4000 F3000
G1 Z0.320 F420
G1 X54.857 Y28.851 F7200
G1 Z0.220 F420
G1 E-0.1000 F4200
G92 E0
G1 X57.868 Y25.869 E0.1860 F1050
G1 X57.956 Y25.833 E0.1902
G1 X68.269 Y25.881 E0.6430
G1 X68.315 Y25.890 E0.6451
G1 X70.186 Y26.672 E0.7341
G1 X70.225 Y26.698 E0.7362
G1 X73.448 Y29.930 E0.9366
G1 X73.474 Y29.969 E0.9386
G1 X73.655 Y30.410 E0.9596
G1 X73.662 Y28.939 E1.0242
G1 X73.699 Y28.851 E1.0283
G1 X76.710 Y25.869 E1.2144
G1 X76.798 Y25.833 E1.2186
G1 X87.111 Y25.881 E1.6714
G1 X87.157 Y25.890 E1.6734
G1 X89.028 Y26.672 E1.7624
G1 X89.067 Y26.698 E1.7645
G1 X92.290 Y29.930 E1.9649
G1 X92.316 Y29.969 E1.9670
G1 X92.497 Y30.410 E1.9879
G1 X92.504 Y28.939 E2.0525
G1 X92.541 Y28.851 E2.0567
G1 X95.551 Y25.869 E2.2427
G1 X95.640 Y25.833 E2.2469
G1 X105.953 Y25.881 E2.6997
G1 X105.999 Y25.890 E2.7018
G1 X107.870 Y26.672 E2.7908
G1 X107.909 Y26.698 E2.7929
G1 X111.132 Y29.930 E2.9932
G1 X111.158 Y29.969 E2.9953
G1 X111.935 Y31.861 E3.0851
G1 X111.944 Y31.908 E3.0872
G1 X111.819 Y58.704 E4.2636
G1 X112.361 Y58.706 E4.2874
G1 X112.449 Y58.743 E4.2916
G1 X115.431 Y61.753 E4.4776
G1 X115.467 Y61.842 E4.4818
G1 X115.392 Y77.899 E5.1868
G1 X115.355 Y77.987 E5.1910
G1 X112.345 Y80.970 E5.3770
G1 X112.257 Y81.006 E5.3812
G1 X110.781 Y80.999 E5.4460
G1 X111.132 Y81.350 E5.4678
G1 X111.158 Y81.390 E5.4699
G1 X111.935 Y83.281 E5.5596
G1 X111.944 Y83.328 E5.5617
G1 X111.819 Y110.124 E6.7382
G1 X112.361 Y110.126 E6.7619
G1 X112.449 Y110.163 E6.7661
G1 X115.431 Y113.174 E6.9522
G1 X115.467 Y113.262 E6.9564
G1 X115.392 Y129.319 E7.6613
G1 X115.355 Y129.407 E7.6655
G1 X112.345 Y132.390 E7.8516
G1 X112.257 Y132.426 E7.8558
G1 X99.768 Y132.368 E8.4041
G1 X99.745 Y132.366 E8.4051
G1 X98.799 Y132.181 E8.4474
G1 X98.777 Y132.175 E8.4484
G1 X95.174 Y130.735 E8.6188
G1 X93.503 Y132.390 E8.7220
G1 X93.415 Y132.426 E8.7262
G1 X80.926 Y132.368 E9.2745
G1 X80.903 Y132.366 E9.2755
G1 X79.957 Y132.181 E9.3178
G1 X79.935 Y132.175 E9.3188
G1 X76.332 Y130.735 E9.4892
G1 X74.661 Y132.390 E9.5924
G1 X74.573 Y132.426 E9.5966
G1 X62.084 Y132.368 E10.1449
G1 X62.061 Y132.366 E10.1459
G1 X61.115 Y132.181 E10.1883
G1 X61.093 Y132.175 E10.1893
G1 X56.440 Y130.315 E10.4093
G1 X56.384 Y130.270 E10.4124
G1 X54.622 Y127.655 E10.5508
G1 X54.601 Y127.586 E10.5540
G1 X54.820 Y80.360 E12.6274
G1 X54.857 Y80.272 E12.6316
G1 X56.347 Y78.795 E12.7237
G1 X54.622 Y76.235 E12.8593
G1 X54.601 Y76.166 E12.8624
G1 X54.820 Y29.044 E14.9313
G1 X54.820 Y28.939 F1050
G1 X54.857 Y28.851 F1050
G92 E0
G1 X55.568 Y28.148 E-1.4000 F3000
G1 Z0.320 F420
; inner perimeter
G1 X60.767 Y31.806 F7200
G1 Z0.220 F420
G1 E-0.1000 F4200
G92 E0
G1 X66.930 Y31.835 E0.2706 F840
G1 X68.294 Y33.202 E0.3554
G1 X68.261 Y40.385 E0.6707
G1 X67.973 Y40.426 E0.6835
G1 X67.810 Y39.870 E0.7089
G1 X67.604 Y39.477 E0.7284
G1 X67.322 Y39.126 E0.7482
G1 X66.981 Y38.842 E0.7677
G1 X66.590 Y38.629 E0.7872
G1 X66.142 Y38.491 E0.8078
G1 X65.715 Y38.448 E0.8267
G1 X65.269 Y38.489 E0.8463
G1 X64.840 Y38.618 E0.8660
G1 X64.445 Y38.827 E0.8856
G1 X64.107 Y39.102 E0.9047
G1 X63.821 Y39.445 E0.9243
G1 X63.607 Y39.838 E0.9440
G1 X63.475 Y40.265 E0.9636
G1 X63.433 Y40.667 E0.9813
G1 X63.343 Y59.880 E1.8249
G1 X63.381 Y60.282 E1.8426
G1 X63.506 Y60.700 E1.8618
G1 X63.713 Y61.095 E1.8813
G1 X63.994 Y61.443 E1.9010
G1 X64.338 Y61.729 E1.9206
G1 X64.731 Y61.943 E1.9402
G1 X65.159 Y62.075 E1.9599
G1 X65.604 Y62.120 E1.9796
G1 X66.032 Y62.081 E1.9984
G1 X66.481 Y61.948 E2.0190
G1 X66.866 Y61.744 E2.0381
G1 X67.211 Y61.464 E2.0576
G1 X67.495 Y61.122 E2.0771
G1 X67.707 Y60.732 E2.0966
G1 X67.882 Y60.169 E2.1225
G1 X68.168 Y60.213 E2.1352
G1 X68.148 Y64.636 E2.3294
G1 X71.810 Y64.653 E2.4902
G1 X71.791 Y68.703 E2.6680
G1 X71.287 Y68.309 E2.6961
G1 X71.010 Y68.131 E2.7106
G1 X70.449 Y67.864 E2.7379
G1 X69.816 Y67.667 E2.7670
G1 X69.144 Y67.547 E2.7969
G1 X68.451 Y67.504 E2.8274
G1 X67.758 Y67.540 E2.8579
G1 X67.097 Y67.651 E2.8873
G1 X66.738 Y67.746 E2.9036
G1 X66.155 Y67.967 E2.9310
G1 X65.877 Y68.110 E2.9447
G1 X65.603 Y68.281 E2.9589
G1 X65.375 Y68.456 E2.9715
G1 X65.145 Y68.671 E2.9853
G1 X64.947 Y68.912 E2.9990
G1 X64.797 Y69.151 E3.0114
G1 X64.674 Y69.434 E3.0249
G1 X64.602 Y69.708 E3.0374
G1 X64.576 Y70.019 E3.0511
G1 X64.599 Y70.302 E3.0636
G1 X64.676 Y70.603 E3.0772
G1 X64.787 Y70.862 E3.0896
G1 X64.950 Y71.124 E3.1031
G1 X65.128 Y71.343 E3.1155
G1 X65.352 Y71.560 E3.1292
G1 X65.579 Y71.737 E3.1419
G1 X65.863 Y71.920 E3.1567
G1 X66.424 Y72.186 E3.1839
G1 X67.056 Y72.383 E3.2130
G1 X67.728 Y72.504 E3.2430
G1 X68.411 Y72.546 E3.2730
G1 X68.756 Y72.538 E3.2882
G1 X69.123 Y72.509 E3.3043
G1 X69.788 Y72.397 E3.3339
G1 X70.411 Y72.210 E3.3625
G1 X70.726 Y72.078 E3.3775
G1 X71.000 Y71.937 E3.3910
G1 X71.268 Y71.770 E3.4049
G1 X71.779 Y71.379 E3.4331
G1 X71.762 Y75.032 E3.5935
G1 X62.731 Y74.990 E3.9900
G1 X60.571 Y74.127 E4.0922
G1 X60.766 Y32.006 E5.9414
G1 X60.767 Y31.806 F840
G92 E0
G1 X61.767 Y31.811 E-1.4000 F3000
G1 Z0.320 F420
; outer perimeter
G1 X60.289 Y31.324 F7200
G1 Z0.220 F420
G1 E-0.1000 F4200
G92 E0
G1 X67.130 Y31.356 E0.3004 F630
G1 X68.775 Y33.005 E0.4026
G1 X68.630 Y64.158 E1.7704
G1 X72.292 Y64.175 E1.9311
G1 X72.239 Y75.515 E2.4290
