; G-Code generated by Simplify3D(R) Version 3.1.0
; Apr 3, 2017 at 8:40:46 PM
; Settings Summary
;   processName,Process1
;   applyToModels,quick release knob 2.0 green,quick release knob 2.0 green(2),quick release knob 2.0 green(3),quick release knob 2.0 green(4),quick release knob 2.0 green(5),quick release knob 2.0 green(6),quick release knob 2.0 green(7),quick release knob 2.0 green(8),quick release knob 2.0 green(9)
;   profileName,PETG 0.3 he.20 bt50 (modified)
;   profileVersion,2017-02-27 23:31:17
;   baseProfile,Default (modified)
;   printMaterial,
;   printQuality,
;   printExtruders,
;   extruderName,Primary Extruder
;   extruderToolheadNumber,0
;   extruderDiameter,0.4
;   extruderAutoWidth,0
;   extruderWidth,0.48
;   extrusionMultiplier,1
;   extruderUseRetract,1
;   extruderRetractionDistance,1.4
;   extruderExtraRestartDistance,-0.1
;   extruderRetractionZLift,0.1
;   extruderRetractionSpeed,4200
;   extruderUseCoasting,1
;   extruderCoastingDistance,0.2
;   extruderUseWipe,1
;   extruderWipeDistance,0.2
;   primaryExtruder,0
;   layerHeight,0.3
;   topSolidLayers,3
;   bottomSolidLayers,2
;   perimeterOutlines,2
;   printPerimetersInsideOut,1
;   startPointOption,2
;   startPointOriginX,80
;   startPointOriginY,0
;   startPointOriginZ,5
;   sequentialIslands,0
;   spiralVaseMode,0
;   firstLayerHeightPercentage,100
;   firstLayerWidthPercentage,100
;   firstLayerUnderspeed,0.35
;   useRaft,0
;   raftExtruder,0
;   raftLayers,3
;   raftOffset,3
;   raftSeparationDistance,0.14
;   raftInfill,85
;   disableRaftBaseLayers,0
;   useSkirt,1
;   skirtExtruder,0
;   skirtLayers,1
;   skirtOutlines,2
;   skirtOffset,5
;   usePrimePillar,0
;   primePillarExtruder,999
;   primePillarWidth,12
;   primePillarLocation,7
;   primePillarSpeedMultiplier,1
;   useOozeShield,0
;   oozeShieldExtruder,999
;   oozeShieldOffset,2
;   oozeShieldOutlines,1
;   oozeShieldSidewallShape,1
;   oozeShieldSidewallAngle,30
;   oozeShieldSpeedMultiplier,1
;   infillExtruder,0
;   internalInfillPattern,Rectilinear
;   externalInfillPattern,Rectilinear
;   infillPercentage,30
;   outlineOverlapPercentage,30
;   infillExtrusionWidthPercentage,150
;   minInfillLength,2
;   infillLayerInterval,1
;   infillAngles,45,-45
;   overlapInfillAngles,0
;   generateSupport,0
;   supportExtruder,0
;   supportInfillPercentage,33
;   supportExtraInflation,0.5
;   denseSupportLayers,0
;   denseSupportInfillPercentage,70
;   supportLayerInterval,1
;   supportHorizontalPartOffset,0.8
;   supportUpperSeparationLayers,1
;   supportLowerSeparationLayers,1
;   supportType,0
;   supportGridSpacing,1.5
;   maxOverhangAngle,55
;   supportAngles,90
;   temperatureName,Primary Extruder,bed
;   temperatureNumber,0,0
;   temperatureSetpointCount,2,2
;   temperatureSetpointLayers,1,2,1,2
;   temperatureSetpointTemperatures,240,235,65,60
;   temperatureStabilizeAtStartup,1,1
;   temperatureHeatedBed,0,1
;   temperatureRelayBetweenLayers,0,0
;   temperatureRelayBetweenLoops,0,0
;   fanLayers,1,4
;   fanSpeeds,0,20
;   blipFanToFullPower,1
;   adjustSpeedForCooling,0
;   minSpeedLayerTime,15
;   minCoolingSpeedSlowdown,65
;   increaseFanForCooling,1
;   minFanLayerTime,15
;   maxCoolingFanSpeed,60
;   increaseFanForBridging,1
;   bridgingFanSpeed,100
;   use5D,1
;   relativeEdistances,0
;   allowEaxisZeroing,1
;   independentExtruderAxes,0
;   includeM10123,0
;   stickySupport,1
;   applyToolheadOffsets,0
;   gcodeXoffset,0
;   gcodeYoffset,0
;   gcodeZoffset,0
;   overrideMachineDefinition,1
;   machineTypeOverride,0
;   strokeXoverride,170
;   strokeYoverride,160
;   strokeZoverride,145
;   originOffsetXoverride,0
;   originOffsetYoverride,0
;   originOffsetZoverride,0
;   homeXdirOverride,-1
;   homeYdirOverride,-1
;   homeZdirOverride,-1
;   flipXoverride,1
;   flipYoverride,-1
;   flipZoverride,1
;   toolheadOffsets,0,0|0,0|0,0|0,0|0,0|0,0
;   overrideFirmwareConfiguration,1
;   firmwareTypeOverride,RepRap (Marlin/Repetier/Sprinter)
;   GPXconfigOverride,r2
;   baudRateOverride,250000
;   overridePrinterModels,0
;   printerModelsOverride
;   startingGcode,;---------------------------------------,; ; ; Jellybox Start Script Begin ; ; ;,;_______________________________________,M117 Preparing        ; write Preparing,; M92 E140            ; optionally adjust E steps/mm,M207 S1.5 F600 Z0     ; optionally adjust retract settings,M208 S-0.00 F600      ; optionally adjust unretract = recover settings,M206 X10.0 Y0.0       ; set x homing offset for default bed leveling,G21                   ; metric values,G90                   ; absolute positioning,M107                  ; start with the fan off,M82                   ; set extruder to absolute mode,G28                   ; home all axes,M203 Z4               ; slow Z speed down for greater accuracy when probing,G29                   ; auto bed leveling procedure,M203 Z7               ; pick up z speed again for printing,G92 E0                ; reset the extruder position,G1 F1500 E15          ; extrude 15mm of feed stock,G92 E0                ; reset the extruder position again,M117 Print starting   ; write Print starting,;---------------------------------------------,; ; ; Jellybox Printer Start Script End ; ; ;,;_____________________________________________
;   layerChangeGcode,
;   retractionGcode,
;   toolChangeGcode,
;   endingGcode,; ---------------------------------,; ; ;  Jellybox End Script Begin ; ; ;,; _________________________________,M117 Finishing Up ; write Finishing Up,M107                  ; sfan off,M104 S0            ; extruder heater off,M140 S0            ; bed heater off (if you have it),G91                ; relative positioning,G1 E-1 F300        ; retract the filament a bit before lifting the nozzle to release some of the pressure,G1 Z+0.5 E-5 X-20 Y-20 F9000 ; move Z up a bit and retract filament even more,G90                ; absolute positioning,G28 X              ; home x so the head is out of the way,G1 Y100            ; move Y forward so the print is more accessible,M84                ; steppers off,M117 Print finished ; write Print finisheds,; ---------------------------------------,; ; ;  Jellybox End Script End ; ; ;,; _______________________________________
;   exportFileFormat,gcode
;   celebration,0
;   celebrationSong,Random Song
;   postProcessing,|{REPLACE "; layer" "M117 Layer"},|{REPLACE ", Z = " " "Z="}
;   defaultSpeed,2700
;   outlineUnderspeed,0.55
;   solidInfillUnderspeed,0.55
;   supportUnderspeed,0.9
;   rapidXYspeed,7200
;   rapidZspeed,420
;   minBridgingArea,50
;   bridgingExtraInflation,0.3
;   bridgingExtrusionMultiplier,1
;   bridgingSpeedMultiplier,1
;   filamentDiameter,1.75
;   filamentPricePerKg,30
;   filamentDensity,1.38
;   useMinPrintHeight,0
;   minPrintHeight,30
;   useMaxPrintHeight,0
;   maxPrintHeight,40
;   useDiaphragm,0
;   diaphragmLayerInterval,20
;   robustSlicing,1
;   mergeAllIntoSolid,0
;   onlyRetractWhenCrossingOutline,0
;   retractBetweenLayers,1
;   useRetractionMinTravel,1
;   retractionMinTravel,1
;   retractWhileWiping,1
;   onlyWipeOutlines,1
;   avoidCrossingOutline,1
;   maxMovementDetourFactor,2.5
;   toolChangeRetractionDistance,1.3
;   toolChangeExtraRestartDistance,0
;   toolChangeRetractionSpeed,600
;   allowThinWallGapFill,1
;   thinWallAllowedOverlapPercentage,15
;   horizontalSizeCompensation,0
G90
M82
M106 S0
M140 S65
M190 S65
M104 S240 T0
M109 S240 T0
;---------------------------------------
; ; ; Jellybox Start Script Begin ; ; ;
;_______________________________________
M117 Preparing        ; write Preparing
; M92 E140            ; optionally adjust E steps/mm
M207 S1.5 F600 Z0     ; optionally adjust retract settings
M208 S-0.00 F600      ; optionally adjust unretract = recover settings
M206 X10.0 Y0.0       ; set x homing offset for default bed leveling
G21                   ; metric values
G90                   ; absolute positioning
M107                  ; start with the fan off
M82                   ; set extruder to absolute mode
G28                   ; home all axes
M203 Z4               ; slow Z speed down for greater accuracy when probing
G29                   ; auto bed leveling procedure
M203 Z7               ; pick up z speed again for printing
G92 E0                ; reset the extruder position
G1 F1500 E15          ; extrude 15mm of feed stock
G92 E0                ; reset the extruder position again
M117 Print starting   ; write Print starting
;---------------------------------------------
; ; ; Jellybox Printer Start Script End ; ; ;
;_____________________________________________
G92 E0
G1 E-1.4000 F4200
G1 Z0.400 F420
M117 Layer 1 0.3
T0
; tool H0.300 W0.480
; skirt
G1 X22.018 Y23.022 F7200
G1 Z0.300 F420
G1 E-0.1000 F1260
G92 E0
G1 X22.183 Y22.872 E0.0133 F945
G1 X24.379 Y21.856 E0.1582
G1 X25.852 Y19.065 E0.3471
G1 X26.028 Y18.900 E0.3616
G1 X29.872 Y17.188 E0.6135
G1 X29.907 Y17.175 E0.6158
G1 X30.441 Y17.001 E0.6494
G1 X30.478 Y16.992 E0.6516
G1 X32.774 Y16.503 E0.7922
G1 X32.987 Y16.521 E0.8050
G1 X35.171 Y17.390 E0.9457
G1 X37.355 Y16.521 E1.0864
G1 X37.567 Y16.503 E1.0992
G1 X39.864 Y16.992 E1.2398
G1 X39.900 Y17.001 E1.2420
G1 X40.435 Y17.175 E1.2756
G1 X40.470 Y17.188 E1.2779
G1 X44.313 Y18.900 E1.5298
G1 X44.490 Y19.065 E1.5443
G1 X45.962 Y21.856 E1.7332
G1 X48.159 Y22.872 E1.8781
G1 X48.323 Y23.022 E1.8914
G1 X49.460 Y24.991 E2.0275
G1 X50.597 Y23.022 E2.1636
G1 X50.761 Y22.872 E2.1770
G1 X52.958 Y21.856 E2.3218
G1 X54.430 Y19.065 E2.5108
G1 X54.607 Y18.900 E2.5253
G1 X58.450 Y17.188 E2.7771
G1 X58.485 Y17.175 E2.7794
G1 X59.020 Y17.001 E2.8130
G1 X59.056 Y16.992 E2.8153
G1 X61.353 Y16.503 E2.9559
G1 X61.565 Y16.521 E2.9686
G1 X63.749 Y17.390 E3.1093
G1 X65.933 Y16.521 E3.2501
G1 X66.146 Y16.503 E3.2628
G1 X68.442 Y16.992 E3.4034
G1 X68.479 Y17.001 E3.4057
G1 X69.013 Y17.175 E3.4393
G1 X69.048 Y17.188 E3.4415
G1 X72.891 Y18.900 E3.6934
G1 X73.068 Y19.065 E3.7079
G1 X74.540 Y21.856 E3.8968
G1 X76.737 Y22.872 E4.0417
G1 X76.902 Y23.022 E4.0550
G1 X78.038 Y24.991 E4.1912
G1 X79.175 Y23.022 E4.3273
G1 X79.340 Y22.872 E4.3406
G1 X81.536 Y21.856 E4.4855
G1 X83.008 Y19.065 E4.6744
G1 X83.185 Y18.900 E4.6889
G1 X87.028 Y17.188 E4.9408
G1 X87.064 Y17.175 E4.9430
G1 X87.598 Y17.001 E4.9767
G1 X87.634 Y16.992 E4.9789
G1 X89.931 Y16.503 E5.1195
G1 X90.144 Y16.521 E5.1323
G1 X92.328 Y17.390 E5.2730
G1 X94.511 Y16.521 E5.4137
G1 X94.724 Y16.503 E5.4265
G1 X97.021 Y16.992 E5.5670
G1 X97.057 Y17.001 E5.5693
G1 X97.591 Y17.175 E5.6029
G1 X97.627 Y17.188 E5.6052
G1 X101.470 Y18.900 E5.8570
G1 X101.647 Y19.065 E5.8715
G1 X103.119 Y21.856 E6.0605
G1 X105.315 Y22.872 E6.2053
G1 X105.480 Y23.022 E6.2187
G1 X106.968 Y25.600 E6.3969
G1 X106.985 Y25.633 E6.3991
G1 X107.214 Y26.146 E6.4328
G1 X107.227 Y26.182 E6.4350
G1 X108.338 Y29.601 E6.6502
G1 X108.337 Y29.833 E6.6642
G1 X107.446 Y32.467 E6.8306
G1 X108.337 Y35.100 E6.9971
G1 X108.338 Y35.333 E7.0110
G1 X107.227 Y38.752 E7.2262
G1 X107.214 Y38.787 E7.2285
G1 X106.985 Y39.300 E7.2621
G1 X106.968 Y39.334 E7.2644
G1 X105.480 Y41.912 E7.4426
G1 X105.315 Y42.062 E7.4559
G1 X103.119 Y43.077 E7.6008
G1 X101.647 Y45.868 E7.7897
G1 X101.470 Y46.034 E7.8042
G1 X99.878 Y46.743 E7.9085
G1 X101.470 Y47.451 E8.0128
G1 X101.647 Y47.617 E8.0273
G1 X103.119 Y50.408 E8.2162
G1 X105.315 Y51.423 E8.3611
G1 X105.480 Y51.573 E8.3744
G1 X106.968 Y54.151 E8.5526
G1 X106.985 Y54.185 E8.5549
G1 X107.214 Y54.698 E8.5885
G1 X107.227 Y54.733 E8.5908
G1 X108.338 Y58.152 E8.8060
G1 X108.337 Y58.385 E8.8199
G1 X107.446 Y61.018 E8.9864
G1 X108.337 Y63.652 E9.1528
G1 X108.338 Y63.885 E9.1667
G1 X107.227 Y67.303 E9.3820
G1 X107.214 Y67.339 E9.3842
G1 X106.985 Y67.852 E9.4179
G1 X106.968 Y67.885 E9.4201
G1 X105.480 Y70.463 E9.5983
G1 X105.315 Y70.614 E9.6117
G1 X103.119 Y71.629 E9.7565
G1 X101.647 Y74.420 E9.9455
G1 X101.470 Y74.586 E9.9600
G1 X99.878 Y75.294 E10.0643
G1 X101.470 Y76.003 E10.1686
G1 X101.647 Y76.168 E10.1831
G1 X103.119 Y78.959 E10.3720
G1 X105.315 Y79.975 E10.5169
G1 X105.480 Y80.125 E10.5302
G1 X106.968 Y82.703 E10.7084
G1 X106.985 Y82.736 E10.7106
G1 X107.214 Y83.250 E10.7443
G1 X107.227 Y83.285 E10.7465
G1 X108.338 Y86.704 E10.9618
G1 X108.337 Y86.936 E10.9757
G1 X107.446 Y89.570 E11.1421
G1 X108.337 Y92.204 E11.3086
G1 X108.338 Y92.436 E11.3225
G1 X107.227 Y95.855 E11.5377
G1 X107.214 Y95.890 E11.5400
G1 X106.985 Y96.403 E11.5736
G1 X106.968 Y96.437 E11.5759
G1 X105.480 Y99.015 E11.7541
G1 X105.315 Y99.165 E11.7674
G1 X103.119 Y100.180 E11.9123
G1 X101.647 Y102.972 E12.1012
G1 X101.470 Y103.137 E12.1157
G1 X97.627 Y104.848 E12.3676
G1 X97.592 Y104.862 E12.3698
G1 X97.057 Y105.035 E12.4035
G1 X97.021 Y105.045 E12.4057
G1 X94.724 Y105.533 E12.5463
G1 X94.511 Y105.515 E12.5591
G1 X92.328 Y104.647 E12.6998
G1 X90.144 Y105.515 E12.8405
G1 X89.931 Y105.533 E12.8532
G1 X87.634 Y105.045 E12.9938
G1 X87.598 Y105.035 E12.9961
G1 X87.064 Y104.862 E13.0297
G1 X87.028 Y104.848 E13.0320
G1 X83.185 Y103.137 E13.2838
G1 X83.008 Y102.972 E13.2983
G1 X81.536 Y100.180 E13.4873
G1 X79.340 Y99.165 E13.6321
G1 X79.175 Y99.015 E13.6455
G1 X78.038 Y97.046 E13.7816
G1 X76.902 Y99.015 E13.9177
G1 X76.737 Y99.165 E13.9310
G1 X74.541 Y100.180 E14.0759
G1 X73.068 Y102.972 E14.2648
G1 X72.891 Y103.137 E14.2793
G1 X69.048 Y104.848 E14.5312
G1 X69.013 Y104.862 E14.5335
G1 X68.479 Y105.035 E14.5671
G1 X68.442 Y105.045 E14.5694
G1 X66.146 Y105.533 E14.7099
G1 X65.933 Y105.515 E14.7227
G1 X63.749 Y104.647 E14.8634
G1 X61.565 Y105.515 E15.0041
G1 X61.353 Y105.533 E15.0169
G1 X59.056 Y105.045 E15.1575
G1 X59.020 Y105.035 E15.1597
G1 X58.485 Y104.862 E15.1934
G1 X58.450 Y104.848 E15.1956
G1 X54.607 Y103.137 E15.4475
G1 X54.430 Y102.972 E15.4620
G1 X52.958 Y100.180 E15.6509
G1 X50.761 Y99.165 E15.7958
G1 X50.597 Y99.015 E15.8091
G1 X49.460 Y97.046 E15.9452
G1 X48.323 Y99.015 E16.0813
G1 X48.159 Y99.165 E16.0947
G1 X45.962 Y100.180 E16.2396
G1 X44.490 Y102.972 E16.4285
G1 X44.313 Y103.137 E16.4430
G1 X40.470 Y104.848 E16.6948
G1 X40.435 Y104.862 E16.6971
G1 X39.900 Y105.035 E16.7307
G1 X39.864 Y105.045 E16.7330
G1 X37.567 Y105.533 E16.8736
G1 X37.355 Y105.515 E16.8863
G1 X35.171 Y104.647 E17.0270
G1 X32.987 Y105.515 E17.1678
G1 X32.774 Y105.533 E17.1805
G1 X30.478 Y105.045 E17.3211
G1 X30.441 Y105.035 E17.3234
G1 X29.907 Y104.862 E17.3570
G1 X29.872 Y104.848 E17.3592
G1 X26.028 Y103.137 E17.6111
G1 X25.852 Y102.972 E17.6256
G1 X24.379 Y100.180 E17.8145
G1 X22.183 Y99.165 E17.9594
G1 X22.018 Y99.015 E17.9727
G1 X20.530 Y96.437 E18.1509
G1 X20.513 Y96.403 E18.1532
G1 X20.284 Y95.890 E18.1868
G1 X20.271 Y95.855 E18.1891
G1 X19.160 Y92.436 E18.4043
G1 X19.162 Y92.204 E18.4182
G1 X20.053 Y89.570 E18.5847
G1 X19.162 Y86.936 E18.7511
G1 X19.160 Y86.704 E18.7651
G1 X20.271 Y83.285 E18.9803
G1 X20.284 Y83.250 E18.9825
G1 X20.513 Y82.736 E19.0162
G1 X20.530 Y82.703 E19.0184
G1 X22.018 Y80.125 E19.1966
G1 X22.183 Y79.975 E19.2100
G1 X24.379 Y78.959 E19.3548
G1 X25.852 Y76.168 E19.5438
G1 X26.028 Y76.003 E19.5583
G1 X27.620 Y75.294 E19.6626
G1 X26.029 Y74.586 E19.7669
G1 X25.852 Y74.420 E19.7814
G1 X24.379 Y71.629 E19.9703
G1 X22.183 Y70.613 E20.1152
G1 X22.018 Y70.463 E20.1285
G1 X20.530 Y67.885 E20.3067
G1 X20.513 Y67.852 E20.3090
G1 X20.285 Y67.339 E20.3426
G1 X20.271 Y67.303 E20.3448
G1 X19.160 Y63.885 E20.5601
G1 X19.162 Y63.652 E20.5740
G1 X20.053 Y61.018 E20.7404
G1 X19.162 Y58.385 E20.9069
G1 X19.160 Y58.152 E20.9208
G1 X20.271 Y54.733 E21.1360
G1 X20.285 Y54.698 E21.1383
G1 X20.513 Y54.185 E21.1719
G1 X20.530 Y54.151 E21.1742
G1 X22.018 Y51.573 E21.3524
G1 X22.183 Y51.423 E21.3657
G1 X24.379 Y50.408 E21.5106
G1 X25.852 Y47.617 E21.6995
G1 X26.029 Y47.451 E21.7140
G1 X27.620 Y46.743 E21.8183
G1 X26.028 Y46.034 E21.9226
G1 X25.852 Y45.868 E21.9371
G1 X24.379 Y43.077 E22.1261
G1 X22.183 Y42.062 E22.2709
G1 X22.018 Y41.912 E22.2843
G1 X20.530 Y39.334 E22.4625
G1 X20.513 Y39.300 E22.4647
G1 X20.284 Y38.787 E22.4984
G1 X20.271 Y38.752 E22.5006
G1 X19.160 Y35.333 E22.7158
G1 X19.162 Y35.100 E22.7297
G1 X20.053 Y32.467 E22.8962
G1 X19.162 Y29.833 E23.0626
G1 X19.160 Y29.601 E23.0766
