; G-Code generated by Simplify3D(R) Version 3.1.0
; Mar 22, 2017 at 4:13:07 PM
; Settings Summary
;   processName,Process
;   applyToModels,quick release clamp 4.5.1 green,quick release clamp 4.5.1 green(2),quick release clamp 4.5.1 green(3),quick release clamp 4.5.1 green(4)
;   profileName,PETG 0.2 he.20 bt50
;   profileVersion,2017-03-15 14:01:12
;   baseProfile,Default (modified)
;   printMaterial,
;   printQuality,
;   printExtruders,
;   extruderName,Primary Extruder
;   extruderToolheadNumber,0
;   extruderDiameter,0.4
;   extruderAutoWidth,0
;   extruderWidth,0.48
;   extrusionMultiplier,0.9
;   extruderUseRetract,1
;   extruderRetractionDistance,1.4
;   extruderExtraRestartDistance,-0.1
;   extruderRetractionZLift,0.1
;   extruderRetractionSpeed,2700
;   extruderUseCoasting,1
;   extruderCoastingDistance,0.2
;   extruderUseWipe,1
;   extruderWipeDistance,0.2
;   primaryExtruder,0
;   layerHeight,0.2
;   topSolidLayers,4
;   bottomSolidLayers,2
;   perimeterOutlines,2
;   printPerimetersInsideOut,1
;   startPointOption,2
;   startPointOriginX,85
;   startPointOriginY,0
;   startPointOriginZ,5
;   sequentialIslands,0
;   spiralVaseMode,0
;   firstLayerHeightPercentage,150
;   firstLayerWidthPercentage,100
;   firstLayerUnderspeed,0.3
;   useRaft,0
;   raftExtruder,0
;   raftLayers,3
;   raftOffset,3
;   raftSeparationDistance,0.14
;   raftInfill,85
;   disableRaftBaseLayers,0
;   useSkirt,1
;   skirtExtruder,0
;   skirtLayers,1
;   skirtOutlines,3
;   skirtOffset,3
;   usePrimePillar,0
;   primePillarExtruder,999
;   primePillarWidth,12
;   primePillarLocation,7
;   primePillarSpeedMultiplier,1
;   useOozeShield,0
;   oozeShieldExtruder,999
;   oozeShieldOffset,2
;   oozeShieldOutlines,1
;   oozeShieldSidewallShape,1
;   oozeShieldSidewallAngle,30
;   oozeShieldSpeedMultiplier,1
;   infillExtruder,0
;   internalInfillPattern,Rectilinear
;   externalInfillPattern,Rectilinear
;   infillPercentage,22
;   outlineOverlapPercentage,30
;   infillExtrusionWidthPercentage,125
;   minInfillLength,5
;   infillLayerInterval,1
;   infillAngles,45,-45
;   overlapInfillAngles,0
;   generateSupport,0
;   supportExtruder,0
;   supportInfillPercentage,20
;   supportExtraInflation,0.5
;   denseSupportLayers,0
;   denseSupportInfillPercentage,70
;   supportLayerInterval,1
;   supportHorizontalPartOffset,0.8
;   supportUpperSeparationLayers,1
;   supportLowerSeparationLayers,1
;   supportType,0
;   supportGridSpacing,1.5
;   maxOverhangAngle,55
;   supportAngles,0
;   temperatureName,Primary Extruder,bed
;   temperatureNumber,0,0
;   temperatureSetpointCount,2,2
;   temperatureSetpointLayers,1,2,1,2
;   temperatureSetpointTemperatures,240,235,65,60
;   temperatureStabilizeAtStartup,1,1
;   temperatureHeatedBed,0,1
;   temperatureRelayBetweenLayers,0,0
;   temperatureRelayBetweenLoops,0,0
;   fanLayers,1,4
;   fanSpeeds,0,20
;   blipFanToFullPower,1
;   adjustSpeedForCooling,0
;   minSpeedLayerTime,15
;   minCoolingSpeedSlowdown,65
;   increaseFanForCooling,1
;   minFanLayerTime,15
;   maxCoolingFanSpeed,60
;   increaseFanForBridging,1
;   bridgingFanSpeed,100
;   use5D,1
;   relativeEdistances,0
;   allowEaxisZeroing,1
;   independentExtruderAxes,0
;   includeM10123,0
;   stickySupport,1
;   applyToolheadOffsets,0
;   gcodeXoffset,0
;   gcodeYoffset,0
;   gcodeZoffset,0
;   overrideMachineDefinition,1
;   machineTypeOverride,0
;   strokeXoverride,170
;   strokeYoverride,160
;   strokeZoverride,145
;   originOffsetXoverride,0
;   originOffsetYoverride,0
;   originOffsetZoverride,0
;   homeXdirOverride,-1
;   homeYdirOverride,-1
;   homeZdirOverride,-1
;   flipXoverride,1
;   flipYoverride,-1
;   flipZoverride,1
;   toolheadOffsets,0,0|0,0|0,0|0,0|0,0|0,0
;   overrideFirmwareConfiguration,1
;   firmwareTypeOverride,RepRap (Marlin/Repetier/Sprinter)
;   GPXconfigOverride,r2
;   baudRateOverride,250000
;   overridePrinterModels,0
;   printerModelsOverride
;   startingGcode,;---------------------------------------,; ; ; Jellybox Start Script Begin ; ; ;,;_______________________________________,; M92 E140            ;optionally adjust steps per mm for your filament,M117 Preparing        ;write Preparing,M206 X10.0 Y0.0       ;set x homing offset for default bed leveling,G21                   ;metric values,G90                   ;absolute positioning,M107                  ;start with the fan off,M82                   ;set extruder to absolute mode,G28                   ;home all axes,M203 Z4               ;slow Z speed down for greater accuracy when probing,G29                   ;auto bed leveling procedure,M203 Z7               ;pick up z speed again for printing,G92 E0                ;reset the extruder position,G1 F1500 E15          ;extrude 15mm of feed stock,G92 E0                ;reset the extruder position again,M117 Print starting   ;write Print starting,;---------------------------------------------,; ; ; Jellybox Printer Start Script End ; ; ;,;_____________________________________________
;   layerChangeGcode,
;   retractionGcode,
;   toolChangeGcode,
;   endingGcode,; ---------------------------------,; ; ;  Jellybox End Script Begin ; ; ;,; _________________________________,M117 Finishing Up  ; write Finishing Up,M104 S0            ; extruder heater off,M140 S0            ; bed heater off (if you have it),G91                ; relative positioning,G1 E-1 F300        ; retract the filament a bit before lifting the nozzle to release some of the pressure,G1 Z+0.5 E-5 X-20 Y-20 F9000 ; move Z up a bit and retract filament even more,G90                ; absolute positioning,G28 X              ; home x so the head is out of the way,G1 Y100            ; move Y forward so the print is more accessible,M84                ; steppers off,M117 Print finished ; write Print finished,; ---------------------------------------,; ; ;  Jellybox End Script End ; ; ;,; _______________________________________
;   exportFileFormat,gcode
;   celebration,0
;   celebrationSong,Random Song
;   postProcessing,|{REPLACE "; layer" "M117 Layer"} ,{REPLACE ", Z = " " | Z="}
;   defaultSpeed,2700
;   outlineUnderspeed,0.55
;   solidInfillUnderspeed,0.55
;   supportUnderspeed,0.9
;   rapidXYspeed,7800
;   rapidZspeed,420
;   minBridgingArea,50
;   bridgingExtraInflation,0.2
;   bridgingExtrusionMultiplier,0.8
;   bridgingSpeedMultiplier,1.3
;   filamentDiameter,1.75
;   filamentPricePerKg,30
;   filamentDensity,1.38
;   useMinPrintHeight,0
;   minPrintHeight,0
;   useMaxPrintHeight,0
;   maxPrintHeight,1
;   useDiaphragm,0
;   diaphragmLayerInterval,20
;   robustSlicing,1
;   mergeAllIntoSolid,0
;   onlyRetractWhenCrossingOutline,1
;   retractBetweenLayers,1
;   useRetractionMinTravel,1
;   retractionMinTravel,1
;   retractWhileWiping,1
;   onlyWipeOutlines,1
;   avoidCrossingOutline,1
;   maxMovementDetourFactor,2.5
;   toolChangeRetractionDistance,1.3
;   toolChangeExtraRestartDistance,0
;   toolChangeRetractionSpeed,600
;   allowThinWallGapFill,1
;   thinWallAllowedOverlapPercentage,15
;   horizontalSizeCompensation,0
G90
M82
M106 S0
M140 S65
M190 S65
M104 S240 T0
M109 S240 T0
;---------------------------------------
; ; ; Jellybox Start Script Begin ; ; ;
;_______________________________________
; M92 E140            ;optionally adjust steps per mm for your filament
M117 Preparing        ;write Preparing
M206 X10.0 Y0.0       ;set x homing offset for default bed leveling
G21                   ;metric values
G90                   ;absolute positioning
M107                  ;start with the fan off
M82                   ;set extruder to absolute mode
G28                   ;home all axes
M203 Z4               ;slow Z speed down for greater accuracy when probing
G29                   ;auto bed leveling procedure
M203 Z7               ;pick up z speed again for printing
G92 E0                ;reset the extruder position
G1 F1500 E15          ;extrude 15mm of feed stock
G92 E0                ;reset the extruder position again
M117 Print starting   ;write Print starting
;---------------------------------------------
; ; ; Jellybox Printer Start Script End ; ; ;
;_____________________________________________
G92 E0
G1 E-1.4000 F2700
G1 Z0.400 F420
M117 Layer 1, Z = 0.3
T0
; tool H0.300 W0.480
; skirt
G1 X67.237 Y31.950 F7800
G1 Z0.300 F420
G1 E-0.1000 F810
G92 E0
G1 X68.028 Y30.391 E0.0942 F810
G1 X68.215 Y30.172 E0.1097
G1 X69.588 Y29.184 E0.2009
G1 X69.753 Y29.100 E0.2109
G1 X70.814 Y28.753 E0.2710
G1 X70.996 Y28.723 E0.2810
G1 X99.663 Y28.486 E1.8256
G1 X99.857 Y28.516 E1.8362
G1 X100.984 Y28.888 E1.9001
G1 X101.158 Y28.979 E1.9107
G1 X102.498 Y29.988 E2.0011
G1 X102.675 Y30.200 E2.0160
G1 X103.430 Y31.697 E2.1063
G1 X103.495 Y31.966 E2.1212
G1 X103.660 Y51.902 E3.1954
G1 X103.600 Y52.171 E3.2103
G1 X102.870 Y53.681 E3.3007
G1 X102.696 Y53.896 E3.3156
G1 X101.707 Y54.667 E3.3832
G1 X102.498 Y55.263 E3.4365
G1 X102.675 Y55.475 E3.4514
G1 X103.430 Y56.972 E3.5418
G1 X103.495 Y57.241 E3.5567
G1 X103.660 Y77.177 E4.6309
G1 X103.600 Y77.446 E4.6458
G1 X102.870 Y78.956 E4.7361
G1 X102.696 Y79.171 E4.7510
G1 X101.707 Y79.942 E4.8186
G1 X102.498 Y80.538 E4.8719
G1 X102.675 Y80.750 E4.8868
G1 X103.430 Y82.247 E4.9772
G1 X103.495 Y82.515 E4.9921
G1 X103.660 Y102.451 E6.0663
G1 X103.600 Y102.721 E6.0812
G1 X102.870 Y104.231 E6.1715
G1 X102.696 Y104.445 E6.1864
G1 X101.707 Y105.217 E6.2540
G1 X102.498 Y105.812 E6.3074
G1 X102.675 Y106.025 E6.3223
G1 X103.430 Y107.522 E6.4126
G1 X103.495 Y107.790 E6.4275
G1 X103.660 Y127.726 E7.5017
G1 X103.600 Y127.996 E7.5166
G1 X102.870 Y129.505 E7.6069
G1 X102.696 Y129.720 E7.6218
G1 X101.373 Y130.752 E7.7122
G1 X101.200 Y130.846 E7.7228
G1 X100.080 Y131.236 E7.7867
G1 X99.887 Y131.269 E7.7973
G1 X71.219 Y131.507 E9.3420
G1 X71.036 Y131.480 E9.3519
G1 X69.970 Y131.151 E9.4121
G1 X69.804 Y131.070 E9.4220
G1 X68.415 Y130.104 E9.5132
G1 X68.224 Y129.889 E9.5287
G1 X67.407 Y128.343 E9.6229
G1 X67.337 Y128.063 E9.6384
G1 X67.171 Y108.055 E10.7165
G1 X67.237 Y107.775 E10.7321
G1 X68.028 Y106.215 E10.8263
G1 X68.215 Y105.996 E10.8418
G1 X69.138 Y105.332 E10.9031
G1 X68.415 Y104.830 E10.9505
G1 X68.224 Y104.614 E10.9661
G1 X67.407 Y103.068 E11.0603
G1 X67.337 Y102.789 E11.0758
G1 X67.171 Y82.780 E12.1539
G1 X67.237 Y82.500 E12.1694
G1 X68.028 Y80.940 E12.2637
G1 X68.215 Y80.721 E12.2792
G1 X69.138 Y80.057 E12.3404
G1 X68.415 Y79.555 E12.3879
G1 X68.224 Y79.339 E12.4034
G1 X67.407 Y77.793 E12.4976
G1 X67.337 Y77.514 E12.5132
G1 X67.171 Y57.506 E13.5913
G1 X67.237 Y57.225 E13.6068
G1 X68.028 Y55.666 E13.7010
G1 X68.215 Y55.447 E13.7165
G1 X69.138 Y54.783 E13.7778
G1 X68.415 Y54.280 E13.8252
G1 X68.224 Y54.065 E13.8408
G1 X67.407 Y52.518 E13.9350
G1 X67.337 Y52.239 E13.9505
G1 X67.171 Y32.231 E15.0286
G1 X67.191 Y32.145 E15.0334
G1 X67.237 Y31.950 F810
G1 X67.691 Y32.116 F7800
G92 E0
G1 X68.430 Y30.659 E0.0880 F810
G1 X68.542 Y30.528 E0.0973
G1 X69.839 Y29.595 E0.1834
G1 X69.938 Y29.545 E0.1894
G1 X70.928 Y29.221 E0.2455
G1 X71.037 Y29.203 E0.2515
G1 X99.628 Y28.966 E1.7920
G1 X99.744 Y28.984 E1.7984
G1 X100.796 Y29.331 E1.8581
G1 X100.900 Y29.386 E1.8644
G1 X102.165 Y30.338 E1.9497
G1 X102.272 Y30.465 E1.9587
G1 X102.976 Y31.864 E2.0430
G1 X103.015 Y32.025 E2.0520
G1 X103.180 Y51.851 E3.1202
G1 X103.143 Y52.012 E3.1292
G1 X102.462 Y53.422 E3.2136
G1 X102.358 Y53.551 E3.2225
G1 X101.109 Y54.524 E3.3078
G1 X101.005 Y54.581 E3.3142
G1 X100.851 Y54.635 E3.3230
G1 X100.900 Y54.661 E3.3260
G1 X102.165 Y55.613 E3.4113
G1 X102.272 Y55.740 E3.4202
G1 X102.976 Y57.139 E3.5046
G1 X103.015 Y57.300 E3.5135
G1 X103.180 Y77.125 E4.5818
G1 X103.143 Y77.287 E4.5907
G1 X102.462 Y78.697 E4.6751
G1 X102.358 Y78.826 E4.6841
G1 X101.109 Y79.799 E4.7694
G1 X101.005 Y79.856 E4.7757
G1 X100.851 Y79.909 E4.7845
G1 X100.900 Y79.935 E4.7875
G1 X102.165 Y80.888 E4.8729
G1 X102.272 Y81.015 E4.8818
G1 X102.976 Y82.414 E4.9662
G1 X103.015 Y82.575 E4.9751
G1 X103.180 Y102.400 E6.0434
G1 X103.143 Y102.562 E6.0523
G1 X102.462 Y103.972 E6.1367
G1 X102.358 Y104.101 E6.1456
G1 X101.109 Y105.074 E6.2309
G1 X101.005 Y105.130 E6.2373
G1 X100.851 Y105.184 E6.2461
G1 X100.900 Y105.210 E6.2491
G1 X102.165 Y106.163 E6.3344
G1 X102.272 Y106.290 E6.3434
G1 X102.976 Y107.688 E6.4277
G1 X103.015 Y107.850 E6.4367
G1 X103.180 Y127.675 E7.5049
G1 X103.143 Y127.837 E7.5139
G1 X102.462 Y129.247 E7.5983
G1 X102.358 Y129.376 E7.6072
G1 X101.109 Y130.349 E7.6925
G1 X101.005 Y130.405 E7.6989
G1 X99.959 Y130.769 E7.7585
G1 X99.843 Y130.790 E7.7649
G1 X71.252 Y131.027 E9.3054
G1 X71.143 Y131.010 E9.3114
G1 X70.147 Y130.703 E9.3675
G1 X70.048 Y130.655 E9.3735
G1 X68.736 Y129.743 E9.4596
G1 X68.621 Y129.614 E9.4689
G1 X67.858 Y128.169 E9.5569
G1 X67.816 Y128.002 E9.5662
G1 X67.651 Y108.109 E10.6381
G1 X67.691 Y107.941 E10.6474
G1 X68.430 Y106.484 E10.7355
G1 X68.542 Y106.352 E10.7448
G1 X69.839 Y105.419 E10.8308
G1 X69.938 Y105.369 E10.8368
G1 X70.002 Y105.348 E10.8405
G1 X68.736 Y104.468 E10.9235
G1 X68.621 Y104.339 E10.9329
G1 X67.858 Y102.894 E11.0209
G1 X67.816 Y102.727 E11.0302
G1 X67.651 Y82.834 E12.1021
G1 X67.691 Y82.666 E12.1114
G1 X68.430 Y81.209 E12.1994
G1 X68.542 Y81.077 E12.2087
G1 X69.839 Y80.144 E12.2948
G1 X69.938 Y80.094 E12.3008
G1 X70.002 Y80.073 E12.3044
G1 X68.736 Y79.193 E12.3875
G1 X68.621 Y79.064 E12.3968
G1 X67.858 Y77.620 E12.4848
G1 X67.816 Y77.452 E12.4941
G1 X67.651 Y57.559 E13.5660
G1 X67.691 Y57.391 E13.5753
G1 X68.430 Y55.934 E13.6634
G1 X68.542 Y55.803 E13.6727
G1 X69.839 Y54.870 E13.7587
G1 X69.938 Y54.820 E13.7647
G1 X70.002 Y54.798 E13.7684
G1 X68.736 Y53.919 E13.8515
G1 X68.621 Y53.789 E13.8608
G1 X67.858 Y52.345 E13.9488
G1 X67.816 Y52.177 E13.9581
G1 X67.651 Y32.312 E15.0285
G1 X67.651 Y32.284 F810
G1 X67.691 Y32.116 F810
G1 X68.145 Y32.282 F7800
G92 E0
G1 X68.832 Y30.928 E0.0818 F810
G1 X68.869 Y30.884 E0.0849
G1 X70.089 Y30.006 E0.1659
G1 X70.122 Y29.989 E0.1679
G1 X71.042 Y29.689 E0.2200
G1 X71.078 Y29.683 E0.2220
G1 X99.592 Y29.446 E1.7585
G1 X99.631 Y29.452 E1.7606
G1 X100.608 Y29.775 E1.8160
G1 X100.643 Y29.793 E1.8181
G1 X101.832 Y30.688 E1.8983
G1 X101.868 Y30.731 E1.9013
G1 X102.523 Y32.031 E1.9797
G1 X102.536 Y32.084 E1.9827
G1 X102.699 Y51.799 E3.0450
G1 X102.687 Y51.853 E3.0480
G1 X102.054 Y53.164 E3.1264
G1 X102.019 Y53.207 E3.1294
G1 X100.845 Y54.122 E3.2096
G1 X100.810 Y54.141 E3.2117
G1 X99.839 Y54.479 E3.2672
G1 X99.800 Y54.486 E3.2693
G1 X71.286 Y54.722 E4.8057
G1 X71.249 Y54.716 E4.8077
G1 X70.325 Y54.431 E4.8599
G1 X70.291 Y54.415 E4.8619
G1 X69.057 Y53.557 E4.9428
G1 X69.019 Y53.514 E4.9459
G1 X68.310 Y52.172 E5.0277
G1 X68.296 Y52.116 E5.0308
G1 X68.133 Y32.480 E6.0889
G1 X68.132 Y32.338 F810
G1 X68.145 Y32.282 F810
G1 X71.078 Y54.958 F7800
G92 E0
G1 X99.592 Y54.721 E1.5364 F810
G1 X99.631 Y54.727 E1.5386
G1 X100.608 Y55.050 E1.5940
G1 X100.643 Y55.068 E1.5961
G1 X101.832 Y55.963 E1.6763
G1 X101.868 Y56.006 E1.6793
G1 X102.523 Y57.305 E1.7577
G1 X102.536 Y57.359 E1.7607
G1 X102.699 Y77.074 E2.8230
G1 X102.687 Y77.128 E2.8260
G1 X102.054 Y78.438 E2.9044
G1 X102.019 Y78.481 E2.9074
G1 X100.845 Y79.397 E2.9876
G1 X100.810 Y79.415 E2.9897
G1 X99.839 Y79.754 E3.0452
G1 X99.800 Y79.760 E3.0473
G1 X71.286 Y79.997 E4.5837
G1 X71.249 Y79.991 E4.5857
G1 X70.324 Y79.706 E4.6378
G1 X70.291 Y79.690 E4.6398
G1 X69.057 Y78.832 E4.7208
G1 X69.019 Y78.789 E4.7239
G1 X68.310 Y77.446 E4.8057
G1 X68.296 Y77.391 E4.8088
G1 X68.132 Y57.613 E5.8745
G1 X68.145 Y57.557 E5.8776
G1 X68.832 Y56.203 E5.9594
G1 X68.869 Y56.159 E5.9625
G1 X70.089 Y55.281 E6.0435
G1 X70.122 Y55.264 E6.0455
G1 X70.887 Y55.014 E6.0889
G1 X71.042 Y54.964 F810
G1 X71.078 Y54.958 F810
G1 X71.078 Y80.232 F7800
G92 E0
G1 X99.592 Y79.996 E1.5364 F810
G1 X99.631 Y80.002 E1.5386
G1 X100.608 Y80.324 E1.5940
G1 X100.643 Y80.343 E1.5961
G1 X101.832 Y81.238 E1.6763
G1 X101.868 Y81.280 E1.6793
G1 X102.523 Y82.580 E1.7577
G1 X102.536 Y82.634 E1.7607
G1 X102.699 Y102.349 E2.8230
G1 X102.687 Y102.403 E2.8260
G1 X102.054 Y103.713 E2.9044
G1 X102.019 Y103.756 E2.9074
G1 X100.845 Y104.671 E2.9876
G1 X100.810 Y104.690 E2.9897
G1 X99.839 Y105.028 E3.0451
G1 X99.800 Y105.035 E3.0473
