; G-Code generated by Simplify3D(R) Version 3.1.0
; Apr 3, 2017 at 8:53:59 PM
; Settings Summary
;   processName,Process1
;   applyToModels,quick release knob 2.0 green,quick release knob 2.0 green(2),quick release knob 2.0 green(3),quick release knob 2.0 green(4),quick release knob 2.0 green(5),quick release knob 2.0 green(6),quick release knob 2.0 green(7),quick release knob 2.0 green(8),quick release knob 2.0 green(9),quick release knob 2.0 green(6)(2),quick release knob 2.0 green(8)(2),quick release knob 2.0 green(9)(2)
;   profileName,PETG 0.3 he.20 bt50 (modified)
;   profileVersion,2017-02-27 23:31:17
;   baseProfile,Default (modified)
;   printMaterial,
;   printQuality,
;   printExtruders,
;   extruderName,Primary Extruder
;   extruderToolheadNumber,0
;   extruderDiameter,0.4
;   extruderAutoWidth,0
;   extruderWidth,0.48
;   extrusionMultiplier,1
;   extruderUseRetract,1
;   extruderRetractionDistance,1.4
;   extruderExtraRestartDistance,-0.1
;   extruderRetractionZLift,0.1
;   extruderRetractionSpeed,4200
;   extruderUseCoasting,1
;   extruderCoastingDistance,0.2
;   extruderUseWipe,1
;   extruderWipeDistance,0.2
;   primaryExtruder,0
;   layerHeight,0.3
;   topSolidLayers,3
;   bottomSolidLayers,2
;   perimeterOutlines,2
;   printPerimetersInsideOut,1
;   startPointOption,2
;   startPointOriginX,80
;   startPointOriginY,0
;   startPointOriginZ,5
;   sequentialIslands,0
;   spiralVaseMode,0
;   firstLayerHeightPercentage,100
;   firstLayerWidthPercentage,100
;   firstLayerUnderspeed,0.35
;   useRaft,0
;   raftExtruder,0
;   raftLayers,3
;   raftOffset,3
;   raftSeparationDistance,0.14
;   raftInfill,85
;   disableRaftBaseLayers,0
;   useSkirt,1
;   skirtExtruder,0
;   skirtLayers,1
;   skirtOutlines,2
;   skirtOffset,5
;   usePrimePillar,0
;   primePillarExtruder,999
;   primePillarWidth,12
;   primePillarLocation,7
;   primePillarSpeedMultiplier,1
;   useOozeShield,0
;   oozeShieldExtruder,999
;   oozeShieldOffset,2
;   oozeShieldOutlines,1
;   oozeShieldSidewallShape,1
;   oozeShieldSidewallAngle,30
;   oozeShieldSpeedMultiplier,1
;   infillExtruder,0
;   internalInfillPattern,Rectilinear
;   externalInfillPattern,Rectilinear
;   infillPercentage,30
;   outlineOverlapPercentage,30
;   infillExtrusionWidthPercentage,150
;   minInfillLength,2
;   infillLayerInterval,1
;   infillAngles,45,-45
;   overlapInfillAngles,0
;   generateSupport,0
;   supportExtruder,0
;   supportInfillPercentage,33
;   supportExtraInflation,0.5
;   denseSupportLayers,0
;   denseSupportInfillPercentage,70
;   supportLayerInterval,1
;   supportHorizontalPartOffset,0.8
;   supportUpperSeparationLayers,1
;   supportLowerSeparationLayers,1
;   supportType,0
;   supportGridSpacing,1.5
;   maxOverhangAngle,55
;   supportAngles,90
;   temperatureName,Primary Extruder,bed
;   temperatureNumber,0,0
;   temperatureSetpointCount,2,2
;   temperatureSetpointLayers,1,2,1,2
;   temperatureSetpointTemperatures,240,235,65,60
;   temperatureStabilizeAtStartup,1,1
;   temperatureHeatedBed,0,1
;   temperatureRelayBetweenLayers,0,0
;   temperatureRelayBetweenLoops,0,0
;   fanLayers,1,4
;   fanSpeeds,0,20
;   blipFanToFullPower,1
;   adjustSpeedForCooling,0
;   minSpeedLayerTime,15
;   minCoolingSpeedSlowdown,65
;   increaseFanForCooling,1
;   minFanLayerTime,15
;   maxCoolingFanSpeed,60
;   increaseFanForBridging,1
;   bridgingFanSpeed,100
;   use5D,1
;   relativeEdistances,0
;   allowEaxisZeroing,1
;   independentExtruderAxes,0
;   includeM10123,0
;   stickySupport,1
;   applyToolheadOffsets,0
;   gcodeXoffset,0
;   gcodeYoffset,0
;   gcodeZoffset,0
;   overrideMachineDefinition,1
;   machineTypeOverride,0
;   strokeXoverride,170
;   strokeYoverride,160
;   strokeZoverride,145
;   originOffsetXoverride,0
;   originOffsetYoverride,0
;   originOffsetZoverride,0
;   homeXdirOverride,-1
;   homeYdirOverride,-1
;   homeZdirOverride,-1
;   flipXoverride,1
;   flipYoverride,-1
;   flipZoverride,1
;   toolheadOffsets,0,0|0,0|0,0|0,0|0,0|0,0
;   overrideFirmwareConfiguration,1
;   firmwareTypeOverride,RepRap (Marlin/Repetier/Sprinter)
;   GPXconfigOverride,r2
;   baudRateOverride,250000
;   overridePrinterModels,0
;   printerModelsOverride
;   startingGcode,;---------------------------------------,; ; ; Jellybox Start Script Begin ; ; ;,;_______________________________________,M117 Preparing        ; write Preparing,; M92 E140            ; optionally adjust E steps/mm,M207 S1.5 F600 Z0     ; optionally adjust retract settings,M208 S-0.00 F600      ; optionally adjust unretract = recover settings,M206 X10.0 Y0.0       ; set x homing offset for default bed leveling,G21                   ; metric values,G90                   ; absolute positioning,M107                  ; start with the fan off,M82                   ; set extruder to absolute mode,G28                   ; home all axes,M203 Z4               ; slow Z speed down for greater accuracy when probing,G29                   ; auto bed leveling procedure,M203 Z7               ; pick up z speed again for printing,G92 E0                ; reset the extruder position,G1 F1500 E15          ; extrude 15mm of feed stock,G92 E0                ; reset the extruder position again,M117 Print starting   ; write Print starting,;---------------------------------------------,; ; ; Jellybox Printer Start Script End ; ; ;,;_____________________________________________
;   layerChangeGcode,
;   retractionGcode,
;   toolChangeGcode,
;   endingGcode,; ---------------------------------,; ; ;  Jellybox End Script Begin ; ; ;,; _________________________________,M117 Finishing Up ; write Finishing Up,M107                  ; sfan off,M104 S0            ; extruder heater off,M140 S0            ; bed heater off (if you have it),G91                ; relative positioning,G1 E-1 F300        ; retract the filament a bit before lifting the nozzle to release some of the pressure,G1 Z+0.5 E-5 X-20 Y-20 F9000 ; move Z up a bit and retract filament even more,G90                ; absolute positioning,G28 X              ; home x so the head is out of the way,G1 Y100            ; move Y forward so the print is more accessible,M84                ; steppers off,M117 Print finished ; write Print finisheds,; ---------------------------------------,; ; ;  Jellybox End Script End ; ; ;,; _______________________________________
;   exportFileFormat,gcode
;   celebration,0
;   celebrationSong,Random Song
;   postProcessing,|{REPLACE "; layer" "M117 Layer"},|{REPLACE ", Z = " " "Z="}
;   defaultSpeed,2700
;   outlineUnderspeed,0.55
;   solidInfillUnderspeed,0.55
;   supportUnderspeed,0.9
;   rapidXYspeed,7200
;   rapidZspeed,420
;   minBridgingArea,50
;   bridgingExtraInflation,0.3
;   bridgingExtrusionMultiplier,1
;   bridgingSpeedMultiplier,1
;   filamentDiameter,1.75
;   filamentPricePerKg,30
;   filamentDensity,1.38
;   useMinPrintHeight,0
;   minPrintHeight,30
;   useMaxPrintHeight,0
;   maxPrintHeight,40
;   useDiaphragm,0
;   diaphragmLayerInterval,20
;   robustSlicing,1
;   mergeAllIntoSolid,0
;   onlyRetractWhenCrossingOutline,0
;   retractBetweenLayers,1
;   useRetractionMinTravel,1
;   retractionMinTravel,1
;   retractWhileWiping,1
;   onlyWipeOutlines,1
;   avoidCrossingOutline,1
;   maxMovementDetourFactor,2.5
;   toolChangeRetractionDistance,1.3
;   toolChangeExtraRestartDistance,0
;   toolChangeRetractionSpeed,600
;   allowThinWallGapFill,1
;   thinWallAllowedOverlapPercentage,15
;   horizontalSizeCompensation,0
G90
M82
M106 S0
M140 S65
M190 S65
M104 S240 T0
M109 S240 T0
;---------------------------------------
; ; ; Jellybox Start Script Begin ; ; ;
;_______________________________________
M117 Preparing        ; write Preparing
; M92 E140            ; optionally adjust E steps/mm
M207 S1.5 F600 Z0     ; optionally adjust retract settings
M208 S-0.00 F600      ; optionally adjust unretract = recover settings
M206 X10.0 Y0.0       ; set x homing offset for default bed leveling
G21                   ; metric values
G90                   ; absolute positioning
M107                  ; start with the fan off
M82                   ; set extruder to absolute mode
G28                   ; home all axes
M203 Z4               ; slow Z speed down for greater accuracy when probing
G29                   ; auto bed leveling procedure
M203 Z7               ; pick up z speed again for printing
G92 E0                ; reset the extruder position
G1 F1500 E15          ; extrude 15mm of feed stock
G92 E0                ; reset the extruder position again
M117 Print starting   ; write Print starting
;---------------------------------------------
; ; ; Jellybox Printer Start Script End ; ; ;
;_____________________________________________
G92 E0
G1 E-1.4000 F4200
G1 Z0.400 F420
M117 Layer 1 0.3
T0
; tool H0.300 W0.480
; skirt
G1 X10.232 Y12.968 F7200
G1 Z0.300 F420
G1 E-0.1000 F1260
G92 E0
G1 X11.721 Y10.391 E0.1782 F945
G1 X11.885 Y10.240 E0.1915
G1 X14.082 Y9.225 E0.3364
G1 X15.554 Y6.434 E0.5253
G1 X15.731 Y6.268 E0.5398
G1 X19.574 Y4.557 E0.7917
G1 X19.609 Y4.544 E0.7940
G1 X20.143 Y4.370 E0.8276
G1 X20.180 Y4.360 E0.8298
G1 X22.477 Y3.872 E0.9704
G1 X22.689 Y3.890 E0.9832
G1 X24.873 Y4.759 E1.1239
G1 X27.057 Y3.890 E1.2646
G1 X27.269 Y3.872 E1.2774
G1 X29.566 Y4.360 E1.4180
G1 X29.603 Y4.370 E1.4202
G1 X30.137 Y4.544 E1.4538
G1 X30.172 Y4.557 E1.4561
G1 X34.015 Y6.268 E1.7080
G1 X34.192 Y6.434 E1.7225
G1 X35.664 Y9.225 E1.9114
G1 X37.861 Y10.240 E2.0563
G1 X38.025 Y10.391 E2.0696
G1 X39.162 Y12.360 E2.2057
G1 X40.299 Y10.391 E2.3418
G1 X40.463 Y10.240 E2.3552
G1 X42.660 Y9.225 E2.5000
G1 X44.132 Y6.434 E2.6890
G1 X44.309 Y6.268 E2.7035
G1 X48.152 Y4.557 E2.9553
G1 X48.187 Y4.544 E2.9576
G1 X48.722 Y4.370 E2.9912
G1 X48.758 Y4.360 E2.9935
G1 X51.055 Y3.872 E3.1341
G1 X51.267 Y3.890 E3.1468
G1 X53.451 Y4.759 E3.2875
G1 X55.635 Y3.890 E3.4282
G1 X55.848 Y3.872 E3.4410
G1 X58.145 Y4.360 E3.5816
G1 X58.181 Y4.370 E3.5838
G1 X58.715 Y4.544 E3.6175
G1 X58.750 Y4.557 E3.6197
G1 X62.594 Y6.268 E3.8716
G1 X62.770 Y6.434 E3.8861
G1 X64.243 Y9.225 E4.0750
G1 X66.439 Y10.240 E4.2199
G1 X66.604 Y10.391 E4.2332
G1 X67.741 Y12.360 E4.3693
G1 X68.877 Y10.391 E4.5055
G1 X69.042 Y10.240 E4.5188
G1 X71.238 Y9.225 E4.6637
G1 X72.710 Y6.434 E4.8526
G1 X72.887 Y6.268 E4.8671
G1 X76.731 Y4.557 E5.1190
G1 X76.766 Y4.544 E5.1212
G1 X77.300 Y4.370 E5.1549
G1 X77.337 Y4.360 E5.1571
G1 X79.633 Y3.872 E5.2977
G1 X79.846 Y3.890 E5.3105
G1 X82.030 Y4.759 E5.4512
G1 X84.214 Y3.890 E5.5919
G1 X84.426 Y3.872 E5.6046
G1 X86.723 Y4.360 E5.7452
G1 X86.759 Y4.370 E5.7475
G1 X87.294 Y4.544 E5.7811
G1 X87.329 Y4.557 E5.7834
G1 X91.172 Y6.268 E6.0352
G1 X91.349 Y6.434 E6.0497
G1 X92.821 Y9.225 E6.2387
G1 X95.018 Y10.240 E6.3835
G1 X95.182 Y10.391 E6.3969
G1 X96.670 Y12.968 E6.5751
G1 X96.687 Y13.002 E6.5773
G1 X96.916 Y13.515 E6.6110
G1 X96.930 Y13.550 E6.6132
G1 X98.040 Y16.969 E6.8284
G1 X98.039 Y17.202 E6.8424
G1 X97.148 Y19.836 E7.0088
G1 X98.039 Y22.469 E7.1753
G1 X98.040 Y22.702 E7.1892
G1 X96.930 Y26.121 E7.4044
G1 X96.916 Y26.156 E7.4067
G1 X96.687 Y26.669 E7.4403
G1 X96.670 Y26.703 E7.4425
G1 X95.182 Y29.280 E7.6207
G1 X95.018 Y29.431 E7.6341
G1 X92.821 Y30.446 E7.7790
G1 X91.349 Y33.237 E7.9679
G1 X91.172 Y33.403 E7.9824
G1 X89.580 Y34.111 E8.0867
G1 X91.172 Y34.820 E8.1910
G1 X91.349 Y34.985 E8.2055
G1 X92.821 Y37.777 E8.3944
G1 X95.018 Y38.792 E8.5393
G1 X95.182 Y38.942 E8.5526
G1 X96.670 Y41.520 E8.7308
G1 X96.688 Y41.554 E8.7331
G1 X96.916 Y42.067 E8.7667
G1 X96.930 Y42.102 E8.7690
G1 X98.040 Y45.521 E8.9842
G1 X98.039 Y45.754 E8.9981
G1 X97.148 Y48.387 E9.1646
G1 X98.039 Y51.021 E9.3310
G1 X98.040 Y51.253 E9.3449
G1 X96.930 Y54.672 E9.5602
G1 X96.916 Y54.707 E9.5624
G1 X96.688 Y55.221 E9.5960
G1 X96.670 Y55.254 E9.5983
G1 X95.182 Y57.832 E9.7765
G1 X95.018 Y57.982 E9.7898
G1 X92.821 Y58.998 E9.9347
G1 X91.349 Y61.789 E10.1236
G1 X91.172 Y61.954 E10.1381
G1 X89.580 Y62.663 E10.2424
G1 X91.172 Y63.372 E10.3467
G1 X91.349 Y63.537 E10.3612
G1 X92.821 Y66.328 E10.5502
G1 X95.018 Y67.344 E10.6950
G1 X95.182 Y67.494 E10.7084
G1 X96.670 Y70.072 E10.8866
G1 X96.687 Y70.105 E10.8888
G1 X96.916 Y70.618 E10.9225
G1 X96.930 Y70.654 E10.9247
G1 X98.040 Y74.073 E11.1399
G1 X98.039 Y74.305 E11.1539
G1 X97.148 Y76.939 E11.3203
G1 X98.039 Y79.572 E11.4868
G1 X98.040 Y79.805 E11.5007
G1 X96.930 Y83.224 E11.7159
G1 X96.916 Y83.259 E11.7182
G1 X96.687 Y83.772 E11.7518
G1 X96.670 Y83.806 E11.7541
G1 X95.182 Y86.384 E11.9323
G1 X95.018 Y86.534 E11.9456
G1 X92.821 Y87.549 E12.0905
G1 X91.349 Y90.340 E12.2794
G1 X91.172 Y90.506 E12.2939
G1 X89.580 Y91.215 E12.3982
G1 X91.172 Y91.923 E12.5025
G1 X91.349 Y92.089 E12.5170
G1 X92.821 Y94.880 E12.7059
G1 X95.018 Y95.895 E12.8508
G1 X95.182 Y96.046 E12.8641
G1 X96.670 Y98.623 E13.0423
G1 X96.688 Y98.657 E13.0446
G1 X96.916 Y99.170 E13.0782
G1 X96.930 Y99.205 E13.0805
G1 X98.040 Y102.624 E13.2957
G1 X98.039 Y102.857 E13.3096
G1 X97.148 Y105.490 E13.4761
G1 X98.039 Y108.124 E13.6425
G1 X98.040 Y108.357 E13.6564
G1 X96.930 Y111.775 E13.8717
G1 X96.916 Y111.811 E13.8739
G1 X96.688 Y112.324 E13.9076
G1 X96.670 Y112.357 E13.9098
G1 X95.182 Y114.935 E14.0880
G1 X95.018 Y115.085 E14.1014
G1 X92.821 Y116.101 E14.2462
G1 X91.349 Y118.892 E14.4352
G1 X91.172 Y119.058 E14.4497
G1 X87.329 Y120.769 E14.7015
G1 X87.294 Y120.782 E14.7038
G1 X86.759 Y120.956 E14.7374
G1 X86.723 Y120.966 E14.7397
G1 X84.426 Y121.454 E14.8802
G1 X84.214 Y121.436 E14.8930
G1 X82.030 Y120.567 E15.0337
G1 X79.846 Y121.436 E15.1744
G1 X79.633 Y121.454 E15.1872
G1 X77.337 Y120.966 E15.3278
G1 X77.300 Y120.956 E15.3300
G1 X76.766 Y120.782 E15.3637
G1 X76.731 Y120.769 E15.3659
G1 X72.887 Y119.058 E15.6178
G1 X72.711 Y118.892 E15.6323
G1 X71.238 Y116.101 E15.8212
G1 X69.042 Y115.085 E15.9661
G1 X68.877 Y114.935 E15.9794
G1 X67.741 Y112.966 E16.1155
G1 X66.604 Y114.935 E16.2516
G1 X66.439 Y115.085 E16.2650
G1 X64.243 Y116.101 E16.4099
G1 X62.770 Y118.892 E16.5988
G1 X62.594 Y119.058 E16.6133
G1 X58.750 Y120.769 E16.8651
G1 X58.715 Y120.782 E16.8674
G1 X58.181 Y120.956 E16.9010
G1 X58.145 Y120.966 E16.9033
G1 X55.848 Y121.454 E17.0439
G1 X55.635 Y121.436 E17.0566
G1 X53.451 Y120.567 E17.1974
G1 X51.267 Y121.436 E17.3381
G1 X51.055 Y121.454 E17.3508
G1 X48.758 Y120.966 E17.4914
G1 X48.722 Y120.956 E17.4937
G1 X48.187 Y120.782 E17.5273
G1 X48.152 Y120.769 E17.5296
G1 X44.309 Y119.058 E17.7814
G1 X44.132 Y118.892 E17.7959
G1 X42.660 Y116.101 E17.9848
G1 X40.463 Y115.085 E18.1297
G1 X40.299 Y114.935 E18.1431
G1 X39.162 Y112.966 E18.2792
G1 X38.025 Y114.935 E18.4153
G1 X37.861 Y115.085 E18.4286
G1 X35.664 Y116.101 E18.5735
G1 X34.192 Y118.892 E18.7624
G1 X34.015 Y119.058 E18.7769
G1 X30.172 Y120.769 E19.0288
G1 X30.137 Y120.782 E19.0310
G1 X29.603 Y120.956 E19.0647
G1 X29.566 Y120.966 E19.0669
G1 X27.269 Y121.454 E19.2075
G1 X27.057 Y121.436 E19.2203
G1 X24.873 Y120.567 E19.3610
G1 X22.689 Y121.436 E19.5017
G1 X22.477 Y121.454 E19.5145
G1 X20.180 Y120.966 E19.6550
G1 X20.143 Y120.956 E19.6573
G1 X19.609 Y120.782 E19.6909
G1 X19.574 Y120.769 E19.6932
G1 X15.731 Y119.058 E19.9450
G1 X15.554 Y118.892 E19.9595
G1 X14.082 Y116.101 E20.1485
G1 X11.885 Y115.085 E20.2933
G1 X11.721 Y114.935 E20.3067
G1 X10.232 Y112.357 E20.4849
G1 X10.215 Y112.324 E20.4871
G1 X9.987 Y111.811 E20.5208
G1 X9.973 Y111.775 E20.5230
G1 X8.862 Y108.357 E20.7383
G1 X8.864 Y108.124 E20.7522
G1 X9.755 Y105.490 E20.9186
G1 X8.864 Y102.857 E21.0851
G1 X8.862 Y102.624 E21.0990
G1 X9.973 Y99.205 E21.3142
G1 X9.987 Y99.170 E21.3165
G1 X10.215 Y98.657 E21.3501
G1 X10.232 Y98.623 E21.3524
G1 X11.721 Y96.046 E21.5306
G1 X11.885 Y95.895 E21.5439
G1 X14.082 Y94.880 E21.6888
G1 X15.554 Y92.089 E21.8777
G1 X15.731 Y91.923 E21.8922
G1 X17.322 Y91.215 E21.9965
G1 X15.731 Y90.506 E22.1008
G1 X15.554 Y90.340 E22.1153
G1 X14.082 Y87.549 E22.3042
G1 X11.885 Y86.534 E22.4491
G1 X11.721 Y86.384 E22.4624
G1 X10.232 Y83.806 E22.6406
G1 X10.215 Y83.772 E22.6429
G1 X9.987 Y83.259 E22.6765
G1 X9.973 Y83.224 E22.6788
G1 X8.862 Y79.805 E22.8940
G1 X8.864 Y79.572 E22.9079
G1 X9.755 Y76.939 E23.0744
G1 X8.864 Y74.305 E23.2408
