; G-Code generated by Simplify3D(R) Version 3.1.0
; Mar 27, 2017 at 2:06:31 AM
; Settings Summary
;   processName,Process
;   applyToModels,quick release clamp 4.5.1 green,quick release clamp 4.5.1 green(2),quick release clamp 4.5.1 green(3),quick release clamp 4.5.1 green(4)
;   profileName,PETG 0.2 he.20 bt50 (modified)
;   profileVersion,2017-03-15 14:01:12
;   baseProfile,Default (modified)
;   printMaterial,
;   printQuality,
;   printExtruders,
;   extruderName,Primary Extruder
;   extruderToolheadNumber,0
;   extruderDiameter,0.4
;   extruderAutoWidth,0
;   extruderWidth,0.48
;   extrusionMultiplier,1
;   extruderUseRetract,1
;   extruderRetractionDistance,1.4
;   extruderExtraRestartDistance,-0.1
;   extruderRetractionZLift,0.1
;   extruderRetractionSpeed,4200
;   extruderUseCoasting,1
;   extruderCoastingDistance,0.2
;   extruderUseWipe,1
;   extruderWipeDistance,0.2
;   primaryExtruder,0
;   layerHeight,0.2
;   topSolidLayers,4
;   bottomSolidLayers,2
;   perimeterOutlines,2
;   printPerimetersInsideOut,1
;   startPointOption,2
;   startPointOriginX,85
;   startPointOriginY,0
;   startPointOriginZ,5
;   sequentialIslands,0
;   spiralVaseMode,0
;   firstLayerHeightPercentage,150
;   firstLayerWidthPercentage,100
;   firstLayerUnderspeed,0.3
;   useRaft,0
;   raftExtruder,0
;   raftLayers,3
;   raftOffset,3
;   raftSeparationDistance,0.14
;   raftInfill,85
;   disableRaftBaseLayers,0
;   useSkirt,1
;   skirtExtruder,0
;   skirtLayers,1
;   skirtOutlines,2
;   skirtOffset,7
;   usePrimePillar,0
;   primePillarExtruder,999
;   primePillarWidth,12
;   primePillarLocation,7
;   primePillarSpeedMultiplier,1
;   useOozeShield,0
;   oozeShieldExtruder,999
;   oozeShieldOffset,2
;   oozeShieldOutlines,1
;   oozeShieldSidewallShape,1
;   oozeShieldSidewallAngle,30
;   oozeShieldSpeedMultiplier,1
;   infillExtruder,0
;   internalInfillPattern,Rectilinear
;   externalInfillPattern,Rectilinear
;   infillPercentage,22
;   outlineOverlapPercentage,30
;   infillExtrusionWidthPercentage,125
;   minInfillLength,5
;   infillLayerInterval,1
;   infillAngles,45,-45
;   overlapInfillAngles,0
;   generateSupport,0
;   supportExtruder,0
;   supportInfillPercentage,20
;   supportExtraInflation,0.5
;   denseSupportLayers,0
;   denseSupportInfillPercentage,70
;   supportLayerInterval,1
;   supportHorizontalPartOffset,0.8
;   supportUpperSeparationLayers,1
;   supportLowerSeparationLayers,1
;   supportType,0
;   supportGridSpacing,1.5
;   maxOverhangAngle,55
;   supportAngles,0
;   temperatureName,Primary Extruder,bed
;   temperatureNumber,0,0
;   temperatureSetpointCount,2,2
;   temperatureSetpointLayers,1,2,1,2
;   temperatureSetpointTemperatures,240,235,65,60
;   temperatureStabilizeAtStartup,1,1
;   temperatureHeatedBed,0,1
;   temperatureRelayBetweenLayers,0,0
;   temperatureRelayBetweenLoops,0,0
;   fanLayers,1,4
;   fanSpeeds,0,20
;   blipFanToFullPower,1
;   adjustSpeedForCooling,0
;   minSpeedLayerTime,15
;   minCoolingSpeedSlowdown,65
;   increaseFanForCooling,1
;   minFanLayerTime,15
;   maxCoolingFanSpeed,60
;   increaseFanForBridging,1
;   bridgingFanSpeed,100
;   use5D,1
;   relativeEdistances,0
;   allowEaxisZeroing,1
;   independentExtruderAxes,0
;   includeM10123,0
;   stickySupport,1
;   applyToolheadOffsets,0
;   gcodeXoffset,0
;   gcodeYoffset,0
;   gcodeZoffset,0
;   overrideMachineDefinition,1
;   machineTypeOverride,0
;   strokeXoverride,170
;   strokeYoverride,160
;   strokeZoverride,145
;   originOffsetXoverride,0
;   originOffsetYoverride,0
;   originOffsetZoverride,0
;   homeXdirOverride,-1
;   homeYdirOverride,-1
;   homeZdirOverride,-1
;   flipXoverride,1
;   flipYoverride,-1
;   flipZoverride,1
;   toolheadOffsets,0,0|0,0|0,0|0,0|0,0|0,0
;   overrideFirmwareConfiguration,1
;   firmwareTypeOverride,RepRap (Marlin/Repetier/Sprinter)
;   GPXconfigOverride,r2
;   baudRateOverride,250000
;   overridePrinterModels,0
;   printerModelsOverride
;   startingGcode,;---------------------------------------,; ; ; Jellybox Start Script Begin ; ; ;,;_______________________________________,; M92 E140            ;optionally adjust steps per mm for your filament,M117 Preparing        ;write Preparing,M206 X10.0 Y0.0       ;set x homing offset for default bed leveling,G21                   ;metric values,G90                   ;absolute positioning,M107                  ;start with the fan off,M82                   ;set extruder to absolute mode,G28                   ;home all axes,M203 Z4               ;slow Z speed down for greater accuracy when probing,G29                   ;auto bed leveling procedure,M203 Z7               ;pick up z speed again for printing,G92 E0                ;reset the extruder position,G1 F1500 E15          ;extrude 15mm of feed stock,G92 E0                ;reset the extruder position again,M117 Print starting   ;write Print starting,;---------------------------------------------,; ; ; Jellybox Printer Start Script End ; ; ;,;_____________________________________________
;   layerChangeGcode,
;   retractionGcode,
;   toolChangeGcode,
;   endingGcode,; ---------------------------------,; ; ;  Jellybox End Script Begin ; ; ;,; _________________________________,M117 Finishing Up  ; write Finishing Up,M104 S0            ; extruder heater off,M140 S0            ; bed heater off (if you have it),G91                ; relative positioning,G1 E-1 F300        ; retract the filament a bit before lifting the nozzle to release some of the pressure,G1 Z+0.5 E-5 X-20 Y-20 F9000 ; move Z up a bit and retract filament even more,G90                ; absolute positioning,G28 X              ; home x so the head is out of the way,G1 Y100            ; move Y forward so the print is more accessible,M84                ; steppers off,M117 Print finished ; write Print finished,; ---------------------------------------,; ; ;  Jellybox End Script End ; ; ;,; _______________________________________
;   exportFileFormat,gcode
;   celebration,0
;   celebrationSong,Random Song
;   postProcessing,|{REPLACE "; layer" "M117 Layer"} ,{REPLACE ", Z = " " | Z="}
;   defaultSpeed,2700
;   outlineUnderspeed,0.55
;   solidInfillUnderspeed,0.55
;   supportUnderspeed,0.9
;   rapidXYspeed,7800
;   rapidZspeed,420
;   minBridgingArea,50
;   bridgingExtraInflation,0.2
;   bridgingExtrusionMultiplier,0.8
;   bridgingSpeedMultiplier,1.3
;   filamentDiameter,1.75
;   filamentPricePerKg,30
;   filamentDensity,1.38
;   useMinPrintHeight,0
;   minPrintHeight,0
;   useMaxPrintHeight,0
;   maxPrintHeight,1
;   useDiaphragm,0
;   diaphragmLayerInterval,20
;   robustSlicing,1
;   mergeAllIntoSolid,0
;   onlyRetractWhenCrossingOutline,1
;   retractBetweenLayers,1
;   useRetractionMinTravel,1
;   retractionMinTravel,1
;   retractWhileWiping,1
;   onlyWipeOutlines,1
;   avoidCrossingOutline,1
;   maxMovementDetourFactor,2.5
;   toolChangeRetractionDistance,1.3
;   toolChangeExtraRestartDistance,0
;   toolChangeRetractionSpeed,600
;   allowThinWallGapFill,1
;   thinWallAllowedOverlapPercentage,15
;   horizontalSizeCompensation,0
G90
M82
M106 S0
M140 S65
M190 S65
M104 S240 T0
M109 S240 T0
;---------------------------------------
; ; ; Jellybox Start Script Begin ; ; ;
;_______________________________________
; M92 E140            ;optionally adjust steps per mm for your filament
M117 Preparing        ;write Preparing
M206 X10.0 Y0.0       ;set x homing offset for default bed leveling
G21                   ;metric values
G90                   ;absolute positioning
M107                  ;start with the fan off
M82                   ;set extruder to absolute mode
G28                   ;home all axes
M203 Z4               ;slow Z speed down for greater accuracy when probing
G29                   ;auto bed leveling procedure
M203 Z7               ;pick up z speed again for printing
G92 E0                ;reset the extruder position
G1 F1500 E15          ;extrude 15mm of feed stock
G92 E0                ;reset the extruder position again
M117 Print starting   ;write Print starting
;---------------------------------------------
; ; ; Jellybox Printer Start Script End ; ; ;
;_____________________________________________
G92 E0
G1 E-1.4000 F4200
G1 Z0.400 F420
M117 Layer 1, Z = 0.3
T0
; tool H0.300 W0.480
; skirt
G1 X20.113 Y18.970 F7800
G1 Z0.300 F420
G1 E-0.1000 F1260
G92 E0
G1 X22.704 Y17.106 E0.1911 F810
G1 X22.803 Y17.056 E0.1977
G1 X24.972 Y16.346 E0.3344
G1 X25.082 Y16.329 E0.3410
G1 X54.952 Y16.081 E2.1294
G1 X55.069 Y16.099 E2.1364
G1 X57.373 Y16.859 E2.2817
G1 X57.478 Y16.914 E2.2888
G1 X59.899 Y18.737 E2.4702
G1 X59.971 Y18.654 E2.4768
G1 X62.562 Y16.789 E2.6679
G1 X62.661 Y16.739 E2.6746
G1 X64.830 Y16.030 E2.8112
G1 X64.940 Y16.012 E2.8178
G1 X94.810 Y15.764 E4.6062
G1 X94.927 Y15.783 E4.6133
G1 X97.231 Y16.543 E4.7585
G1 X97.335 Y16.597 E4.7656
G1 X99.873 Y18.508 E4.9558
G1 X99.979 Y18.635 E4.9657
G1 X101.524 Y21.701 E5.1712
G1 X101.563 Y21.862 E5.1811
G1 X101.743 Y43.554 E6.4799
G1 X101.707 Y43.716 E6.4898
G1 X100.813 Y45.565 E6.6127
G1 X101.524 Y46.976 E6.7073
G1 X101.563 Y47.137 E6.7172
G1 X101.743 Y68.829 E8.0160
G1 X101.707 Y68.991 E8.0259
G1 X100.213 Y72.082 E8.2314
G1 X100.108 Y72.211 E8.2414
G1 X97.603 Y74.163 E8.4315
G1 X97.499 Y74.220 E8.4386
G1 X95.208 Y75.018 E8.5839
G1 X95.092 Y75.038 E8.5909
G1 X65.221 Y75.286 E10.3793
G1 X65.111 Y75.269 E10.3859
G1 X62.930 Y74.596 E10.5226
G1 X62.831 Y74.547 E10.5292
G1 X60.210 Y72.726 E10.7203
G1 X60.122 Y72.628 E10.7282
G1 X57.745 Y74.480 E10.9086
G1 X57.642 Y74.536 E10.9157
G1 X55.350 Y75.335 E11.0609
G1 X55.234 Y75.355 E11.0680
G1 X25.363 Y75.602 E12.8563
G1 X25.254 Y75.586 E12.8630
G1 X23.073 Y74.913 E12.9996
G1 X22.973 Y74.864 E13.0063
G1 X20.352 Y73.043 E13.1974
G1 X20.237 Y72.914 E13.2077
G1 X18.565 Y69.747 E13.4221
G1 X18.522 Y69.579 E13.4325
G1 X18.341 Y47.739 E14.7401
G1 X18.381 Y47.571 E14.7504
G1 X19.273 Y45.812 E14.8684
G1 X18.565 Y44.472 E14.9592
G1 X18.522 Y44.305 E14.9695
G1 X18.341 Y22.464 E16.2771
G1 X18.381 Y22.296 E16.2875
G1 X19.989 Y19.126 E16.5002
G1 X20.001 Y19.102 F810
G1 X20.113 Y18.970 F810
G1 X20.440 Y19.326 F7800
G92 E0
G1 X22.954 Y17.517 E0.1854 F810
G1 X22.987 Y17.501 E0.1876
G1 X25.086 Y16.814 E0.3198
G1 X25.123 Y16.808 E0.3221
G1 X54.917 Y16.561 E2.1058
G1 X54.956 Y16.567 E2.1082
G1 X57.186 Y17.303 E2.2488
G1 X57.220 Y17.321 E2.2511
G1 X59.682 Y19.175 E2.4356
G1 X59.718 Y19.217 E2.4389
G1 X59.947 Y19.672 E2.4694
G1 X60.261 Y19.053 E2.5109
G1 X60.298 Y19.010 E2.5144
G1 X62.812 Y17.201 E2.6998
G1 X62.845 Y17.184 E2.7020
G1 X64.944 Y16.498 E2.8342
G1 X64.981 Y16.492 E2.8364
G1 X94.775 Y16.245 E4.6202
G1 X94.814 Y16.251 E4.6226
G1 X97.043 Y16.986 E4.7631
G1 X97.078 Y17.004 E4.7655
G1 X99.540 Y18.858 E4.9500
G1 X99.575 Y18.900 E4.9533
G1 X101.071 Y21.868 E5.1522
G1 X101.084 Y21.921 E5.1555
G1 X101.263 Y43.503 E6.4476
G1 X101.251 Y43.557 E6.4510
G1 X100.278 Y45.569 E6.5848
G1 X101.071 Y47.142 E6.6902
G1 X101.084 Y47.196 E6.6935
G1 X101.263 Y68.778 E7.9856
G1 X101.251 Y68.832 E7.9890
G1 X99.805 Y71.823 E8.1879
G1 X99.770 Y71.866 E8.1912
G1 X97.339 Y73.761 E8.3757
G1 X97.304 Y73.779 E8.3780
G1 X95.087 Y74.552 E8.5186
G1 X95.049 Y74.558 E8.5210
G1 X65.254 Y74.805 E10.3047
G1 X65.218 Y74.800 E10.3070
G1 X63.107 Y74.148 E10.4392
G1 X63.074 Y74.132 E10.4414
G1 X60.531 Y72.365 E10.6268
G1 X60.493 Y72.322 E10.6303
G1 X60.162 Y71.695 E10.6727
G1 X59.947 Y72.140 E10.7022
G1 X59.912 Y72.183 E10.7055
G1 X57.481 Y74.077 E10.8900
G1 X57.447 Y74.096 E10.8924
G1 X55.230 Y74.868 E11.0329
G1 X55.191 Y74.875 E11.0353
G1 X25.397 Y75.122 E12.8191
G1 X25.360 Y75.117 E12.8213
G1 X23.250 Y74.465 E12.9535
G1 X23.217 Y74.449 E12.9557
G1 X20.673 Y72.682 E13.1412
G1 X20.635 Y72.639 E13.1446
G1 X19.016 Y69.574 E13.3521
G1 X19.002 Y69.518 E13.3556
G1 X18.822 Y47.792 E14.6563
G1 X18.835 Y47.736 E14.6597
G1 X19.813 Y45.808 E14.7892
G1 X19.016 Y44.299 E14.8913
G1 X19.002 Y44.243 E14.8948
G1 X18.822 Y22.517 E16.1955
G1 X18.835 Y22.461 E16.1989
G1 X20.339 Y19.497 E16.3979
G1 X20.403 Y19.370 F810
G1 X20.440 Y19.326 F810
; inner perimeter
G1 X26.801 Y24.755 F7800
G92 E0
G1 X53.285 Y24.535 E1.5856 F628
G1 X53.427 Y41.655 E2.6106
G1 X26.943 Y41.874 E4.1962
G1 X26.802 Y24.955 E5.2091
G1 X26.801 Y24.755 F628
; outer perimeter
G1 X26.317 Y24.313 F7800
G92 E0
G1 X26.365 Y24.278 E0.0035 F446
G1 X53.724 Y24.051 E1.6415
G1 X53.761 Y24.080 E1.6443
G1 X53.911 Y42.102 E2.7233
G1 X53.874 Y42.131 E2.7261
G1 X26.515 Y42.358 E4.3641
G1 X26.466 Y42.324 E4.3676
G1 X26.319 Y24.513 E5.4340
G1 X26.317 Y24.313 F446
G1 X26.365 Y24.278 F2700
G1 X27.206 Y24.271 F2700
; inner perimeter
G1 X30.813 Y30.579 F7800
G92 E0
G1 X30.480 Y30.967 E0.0306 F628
G1 X30.201 Y31.396 E0.0612
G1 X29.983 Y31.858 E0.0918
G1 X29.830 Y32.339 E0.1220
G1 X29.746 Y32.782 E0.1490
G1 X29.716 Y33.291 E0.1795
G1 X29.755 Y33.800 E0.2101
G1 X29.860 Y34.297 E0.2405
G1 X30.009 Y34.723 E0.2675
G1 X30.233 Y35.178 E0.2979
G1 X30.518 Y35.602 E0.3285
G1 X30.858 Y35.984 E0.3591
G1 X31.245 Y36.317 E0.3897
G1 X31.671 Y36.593 E0.4201
G1 X32.081 Y36.791 E0.4473
G1 X32.615 Y36.966 E0.4809
G1 X33.061 Y37.050 E0.5081
G1 X33.545 Y37.079 E0.5372
G1 X48.034 Y36.959 E1.4046
G1 X48.519 Y36.922 E1.4338
G1 X49.016 Y36.817 E1.4642
G1 X49.442 Y36.668 E1.4912
G1 X49.897 Y36.444 E1.5215
G1 X50.321 Y36.159 E1.5521
G1 X50.703 Y35.819 E1.5827
G1 X51.036 Y35.432 E1.6133
G1 X51.312 Y35.005 E1.6437
G1 X51.510 Y34.596 E1.6710
G1 X51.685 Y34.062 E1.7046
G1 X51.770 Y33.616 E1.7317
G1 X51.799 Y33.108 E1.7622
G1 X51.761 Y32.598 E1.7928
G1 X51.655 Y32.101 E1.8232
G1 X51.505 Y31.672 E1.8505
G1 X51.252 Y31.171 E1.8841
G1 X50.996 Y30.796 E1.9113
G1 X50.658 Y30.415 E1.9418
G1 X50.272 Y30.083 E1.9723
G1 X49.892 Y29.834 E1.9994
G1 X49.387 Y29.588 E2.0330
G1 X48.955 Y29.446 E2.0603
G1 X48.457 Y29.348 E2.0907
G1 X47.971 Y29.319 E2.1198
G1 X33.482 Y29.440 E2.9873
G1 X32.996 Y29.476 E3.0165
G1 X32.499 Y29.582 E3.0469
G1 X32.073 Y29.730 E3.0739
G1 X31.619 Y29.954 E3.1042
G1 X31.195 Y30.240 E3.1348
G1 X30.962 Y30.446 E3.1534
G1 X30.813 Y30.579 F628
; outer perimeter
G1 X31.156 Y30.917 F7800
G92 E0
G1 X30.865 Y31.255 E0.0267 F446
G1 X30.622 Y31.630 E0.0535
G1 X30.431 Y32.034 E0.0802
G1 X30.296 Y32.457 E0.1068
G1 X30.223 Y32.842 E0.1302
G1 X30.197 Y33.287 E0.1569
G1 X30.231 Y33.732 E0.1837
G1 X30.323 Y34.168 E0.2103
G1 X30.452 Y34.537 E0.2338
G1 X30.649 Y34.936 E0.2604
G1 X30.898 Y35.307 E0.2871
G1 X31.195 Y35.641 E0.3139
G1 X31.534 Y35.932 E0.3406
G1 X31.907 Y36.174 E0.3673
G1 X32.261 Y36.345 E0.3908
G1 X32.735 Y36.500 E0.4206
G1 X33.120 Y36.573 E0.4441
G1 X33.557 Y36.599 E0.4703
G1 X48.014 Y36.479 E1.3358
G1 X48.451 Y36.446 E1.3621
G1 X48.887 Y36.353 E1.3888
G1 X49.256 Y36.225 E1.4122
G1 X49.655 Y36.028 E1.4388
G1 X50.026 Y35.778 E1.4656
G1 X50.360 Y35.482 E1.4923
G1 X50.651 Y35.143 E1.5190
G1 X50.893 Y34.769 E1.5457
G1 X51.064 Y34.416 E1.5692
G1 X51.219 Y33.942 E1.5990
G1 X51.292 Y33.557 E1.6225
G1 X51.318 Y33.112 E1.6492
G1 X51.285 Y32.666 E1.6760
G1 X51.192 Y32.231 E1.7026
G1 X51.063 Y31.860 E1.7261
G1 X50.837 Y31.416 E1.7560
G1 X50.617 Y31.091 E1.7795
G1 X50.320 Y30.758 E1.8062
G1 X49.982 Y30.467 E1.8329
G1 X49.654 Y30.252 E1.8563
G1 X49.206 Y30.034 E1.8862
G1 X48.833 Y29.911 E1.9097
G1 X48.396 Y29.825 E1.9363
G1 X47.959 Y29.800 E1.9626
G1 X33.502 Y29.919 E2.8281
G1 X33.064 Y29.952 E2.8544
G1 X32.629 Y30.045 E2.8811
G1 X32.259 Y30.174 E2.9045
G1 X31.860 Y30.371 E2.9311
G1 X31.490 Y30.620 E2.9579
G1 X31.305 Y30.784 E2.9726
G1 X31.156 Y30.917 F446
G1 X30.865 Y31.255 F2700
G1 X30.622 Y31.630 F2700
G1 X30.619 Y31.636 F2700
; solid layer
G1 X30.621 Y31.642 F7800
G1 X30.435 Y32.035 F7800
G1 X30.301 Y32.458 F7800
G1 X30.228 Y32.842 F7800
G1 X30.202 Y33.287 F7800
G1 X30.235 Y33.731 F7800
G1 X30.328 Y34.167 F7800
G1 X30.457 Y34.535 F7800
G1 X30.653 Y34.934 F7800
G1 X30.902 Y35.304 F7800
G1 X31.198 Y35.637 F7800
G1 X31.537 Y35.928 F7800
G1 X31.910 Y36.170 F7800
G1 X32.263 Y36.340 F7800
G1 X32.609 Y36.454 F7800
G1 X32.991 Y37.379 F7800
G92 E0
G1 X37.066 Y41.454 E0.3450 F446
G1 X37.739 Y41.449 E0.3853
G1 X33.704 Y37.414 E0.7269
G1 X34.378 Y37.408 E0.7672
G1 X38.412 Y41.443 E1.1088
