; G-Code generated by Simplify3D(R) Version 3.1.0
; May 1, 2017 at 5:54:00 PM
; Settings Summary
;   processName,Process2
;   applyToModels,right fan shroud 4.3.1 green,right fan shroud 4.3.1 green(2)
;   profileName,PETG 0.2 he.20 bt50 (modified)
;   profileVersion,2017-03-22 16:24:12
;   baseProfile,Default (modified)
;   printMaterial,
;   printQuality,
;   printExtruders,
;   extruderName,Primary Extruder
;   extruderToolheadNumber,0
;   extruderDiameter,0.4
;   extruderAutoWidth,0
;   extruderWidth,0.48
;   extrusionMultiplier,1
;   extruderUseRetract,1
;   extruderRetractionDistance,1.4
;   extruderExtraRestartDistance,-0.1
;   extruderRetractionZLift,0.1
;   extruderRetractionSpeed,2700
;   extruderUseCoasting,1
;   extruderCoastingDistance,0.2
;   extruderUseWipe,1
;   extruderWipeDistance,0.2
;   primaryExtruder,0
;   layerHeight,0.2
;   topSolidLayers,4
;   bottomSolidLayers,2
;   perimeterOutlines,2
;   printPerimetersInsideOut,1
;   startPointOption,2
;   startPointOriginX,85
;   startPointOriginY,0
;   startPointOriginZ,5
;   sequentialIslands,0
;   spiralVaseMode,0
;   firstLayerHeightPercentage,150
;   firstLayerWidthPercentage,110
;   firstLayerUnderspeed,0.3
;   useRaft,0
;   raftExtruder,0
;   raftLayers,3
;   raftOffset,3
;   raftSeparationDistance,0.14
;   raftInfill,85
;   disableRaftBaseLayers,0
;   useSkirt,1
;   skirtExtruder,0
;   skirtLayers,1
;   skirtOutlines,3
;   skirtOffset,3
;   usePrimePillar,0
;   primePillarExtruder,999
;   primePillarWidth,12
;   primePillarLocation,7
;   primePillarSpeedMultiplier,1
;   useOozeShield,0
;   oozeShieldExtruder,999
;   oozeShieldOffset,2
;   oozeShieldOutlines,1
;   oozeShieldSidewallShape,1
;   oozeShieldSidewallAngle,30
;   oozeShieldSpeedMultiplier,1
;   infillExtruder,0
;   internalInfillPattern,Rectilinear
;   externalInfillPattern,Rectilinear
;   infillPercentage,22
;   outlineOverlapPercentage,30
;   infillExtrusionWidthPercentage,125
;   minInfillLength,5
;   infillLayerInterval,1
;   infillAngles,45,-45
;   overlapInfillAngles,0
;   generateSupport,0
;   supportExtruder,0
;   supportInfillPercentage,20
;   supportExtraInflation,0.5
;   denseSupportLayers,0
;   denseSupportInfillPercentage,70
;   supportLayerInterval,1
;   supportHorizontalPartOffset,0.8
;   supportUpperSeparationLayers,1
;   supportLowerSeparationLayers,1
;   supportType,0
;   supportGridSpacing,1.5
;   maxOverhangAngle,55
;   supportAngles,0
;   temperatureName,Primary Extruder,bed
;   temperatureNumber,0,0
;   temperatureSetpointCount,2,2
;   temperatureSetpointLayers,1,2,1,2
;   temperatureSetpointTemperatures,240,235,65,60
;   temperatureStabilizeAtStartup,1,1
;   temperatureHeatedBed,0,1
;   temperatureRelayBetweenLayers,0,0
;   temperatureRelayBetweenLoops,0,0
;   fanLayers,1,4
;   fanSpeeds,0,20
;   blipFanToFullPower,1
;   adjustSpeedForCooling,0
;   minSpeedLayerTime,15
;   minCoolingSpeedSlowdown,65
;   increaseFanForCooling,1
;   minFanLayerTime,15
;   maxCoolingFanSpeed,60
;   increaseFanForBridging,1
;   bridgingFanSpeed,100
;   use5D,1
;   relativeEdistances,0
;   allowEaxisZeroing,1
;   independentExtruderAxes,0
;   includeM10123,0
;   stickySupport,1
;   applyToolheadOffsets,0
;   gcodeXoffset,0
;   gcodeYoffset,0
;   gcodeZoffset,0
;   overrideMachineDefinition,1
;   machineTypeOverride,0
;   strokeXoverride,170
;   strokeYoverride,160
;   strokeZoverride,145
;   originOffsetXoverride,0
;   originOffsetYoverride,0
;   originOffsetZoverride,0
;   homeXdirOverride,-1
;   homeYdirOverride,-1
;   homeZdirOverride,-1
;   flipXoverride,1
;   flipYoverride,-1
;   flipZoverride,1
;   toolheadOffsets,0,0|0,0|0,0|0,0|0,0|0,0
;   overrideFirmwareConfiguration,1
;   firmwareTypeOverride,RepRap (Marlin/Repetier/Sprinter)
;   GPXconfigOverride,r2
;   baudRateOverride,250000
;   overridePrinterModels,0
;   printerModelsOverride
;   startingGcode,;---------------------------------------,; ; ; Jellybox Start Script Begin ; ; ;,;_______________________________________,; M92 E140            ;optionally adjust steps per mm for your filament,M117 Preparing        ;write Preparing,M206 X10.0 Y0.0       ;set x homing offset for default bed leveling,G21                   ;metric values,G90                   ;absolute positioning,M107                  ;start with the fan off,M82                   ;set extruder to absolute mode,G28                   ;home all axes,M203 Z4               ;slow Z speed down for greater accuracy when probing,G29                   ;auto bed leveling procedure,M203 Z7               ;pick up z speed again for printing,G92 E0                ;reset the extruder position,G1 F1500 E15          ;extrude 15mm of feed stock,G92 E0                ;reset the extruder position again,M117 Print starting   ;write Print starting,;---------------------------------------------,; ; ; Jellybox Printer Start Script End ; ; ;,;_____________________________________________
;   layerChangeGcode,
;   retractionGcode,
;   toolChangeGcode,
;   endingGcode,; ---------------------------------,; ; ;  Jellybox End Script Begin ; ; ;,; _________________________________,M117 Finishing Up  ; write Finishing Up,M104 S0            ; extruder heater off,M140 S0            ; bed heater off (if you have it),G91                ; relative positioning,G1 E-1 F300        ; retract the filament a bit before lifting the nozzle to release some of the pressure,G1 Z+0.5 E-5 X-20 Y-20 F9000 ; move Z up a bit and retract filament even more,G90                ; absolute positioning,G28 X              ; home x so the head is out of the way,G1 Y100            ; move Y forward so the print is more accessible,M84                ; steppers off,M117 Print finished ; write Print finished,; ---------------------------------------,; ; ;  Jellybox End Script End ; ; ;,; _______________________________________
;   exportFileFormat,gcode
;   celebration,0
;   celebrationSong,Random Song
;   postProcessing,|{REPLACE "; layer" "M117 Layer"} ,{REPLACE ", Z = " " | Z="}
;   defaultSpeed,2700
;   outlineUnderspeed,0.55
;   solidInfillUnderspeed,0.55
;   supportUnderspeed,0.9
;   rapidXYspeed,7800
;   rapidZspeed,420
;   minBridgingArea,50
;   bridgingExtraInflation,0.2
;   bridgingExtrusionMultiplier,0.8
;   bridgingSpeedMultiplier,1.3
;   filamentDiameter,1.75
;   filamentPricePerKg,30
;   filamentDensity,1.38
;   useMinPrintHeight,0
;   minPrintHeight,0
;   useMaxPrintHeight,0
;   maxPrintHeight,1
;   useDiaphragm,0
;   diaphragmLayerInterval,20
;   robustSlicing,1
;   mergeAllIntoSolid,0
;   onlyRetractWhenCrossingOutline,0
;   retractBetweenLayers,1
;   useRetractionMinTravel,1
;   retractionMinTravel,1
;   retractWhileWiping,1
;   onlyWipeOutlines,0
;   avoidCrossingOutline,1
;   maxMovementDetourFactor,2.5
;   toolChangeRetractionDistance,1.3
;   toolChangeExtraRestartDistance,0
;   toolChangeRetractionSpeed,600
;   allowThinWallGapFill,0
;   thinWallAllowedOverlapPercentage,0
;   horizontalSizeCompensation,0
G90
M82
M106 S0
M140 S65
M190 S65
M104 S240 T0
M109 S240 T0
;---------------------------------------
; ; ; Jellybox Start Script Begin ; ; ;
;_______________________________________
; M92 E140            ;optionally adjust steps per mm for your filament
M117 Preparing        ;write Preparing
M206 X10.0 Y0.0       ;set x homing offset for default bed leveling
G21                   ;metric values
G90                   ;absolute positioning
M107                  ;start with the fan off
M82                   ;set extruder to absolute mode
G28                   ;home all axes
M203 Z4               ;slow Z speed down for greater accuracy when probing
G29                   ;auto bed leveling procedure
M203 Z7               ;pick up z speed again for printing
G92 E0                ;reset the extruder position
G1 F1500 E15          ;extrude 15mm of feed stock
G92 E0                ;reset the extruder position again
M117 Print starting   ;write Print starting
;---------------------------------------------
; ; ; Jellybox Printer Start Script End ; ; ;
;_____________________________________________
G92 E0
G1 E-1.4000 F2700
G1 Z0.400 F420
M117 Layer 1, Z = 0.3
T0
; tool H0.300 W0.528
; skirt
G1 X65.439 Y46.363 F7800
G1 Z0.300 F420
G1 E-0.1000 F810
G92 E0
G1 X65.660 Y46.091 E0.0231 F810
G1 X65.699 Y46.048 E0.0269
G1 X66.281 Y45.459 E0.0815
G1 X66.324 Y45.419 E0.0853
G1 X66.594 Y45.195 E0.1084
G1 X66.640 Y45.160 E0.1122
G1 X67.210 Y44.773 E0.1576
G1 X67.253 Y44.747 E0.1609
G1 X67.518 Y44.598 E0.1809
G1 X67.563 Y44.575 E0.1843
G1 X68.169 Y44.299 E0.2281
G1 X68.216 Y44.279 E0.2315
G1 X68.502 Y44.177 E0.2515
G1 X68.551 Y44.162 E0.2548
G1 X69.194 Y43.992 E0.2987
G1 X69.244 Y43.981 E0.3020
G1 X69.543 Y43.928 E0.3220
G1 X69.594 Y43.921 E0.3254
G1 X70.181 Y43.868 E0.3642
G1 X70.206 Y43.867 E0.3659
G1 X70.359 Y43.859 E0.3759
G1 X70.384 Y43.859 E0.3776
G1 X95.913 Y43.722 E2.0588
G1 X95.939 Y43.722 E2.0605
G1 X96.092 Y43.728 E2.0706
G1 X96.118 Y43.730 E2.0723
G1 X96.561 Y43.765 E2.1016
G1 X96.589 Y43.768 E2.1035
G1 X96.757 Y43.790 E2.1146
G1 X96.785 Y43.794 E2.1165
G1 X97.323 Y43.888 E2.1525
G1 X97.360 Y43.896 E2.1549
G1 X97.580 Y43.949 E2.1699
G1 X97.617 Y43.959 E2.1724
G1 X98.260 Y44.158 E2.2167
G1 X98.294 Y44.170 E2.2190
G1 X98.497 Y44.246 E2.2333
G1 X98.530 Y44.260 E2.2357
G1 X99.039 Y44.487 E2.2724
G1 X99.070 Y44.502 E2.2747
G1 X99.254 Y44.597 E2.2883
G1 X99.284 Y44.614 E2.2906
G1 X99.785 Y44.912 E2.3290
G1 X99.824 Y44.937 E2.3320
G1 X100.048 Y45.094 E2.3500
G1 X100.084 Y45.122 E2.3530
G1 X100.735 Y45.656 E2.4085
G1 X100.774 Y45.691 E2.4120
G1 X100.998 Y45.910 E2.4326
G1 X101.034 Y45.948 E2.4360
G1 X101.490 Y46.480 E2.4822
G1 X101.515 Y46.511 E2.4848
G1 X101.660 Y46.705 E2.5007
G1 X101.683 Y46.738 E2.5034
G1 X101.964 Y47.172 E2.5374
G1 X101.982 Y47.201 E2.5397
G1 X102.085 Y47.382 E2.5534
G1 X102.101 Y47.413 E2.5557
G1 X102.328 Y47.870 E2.5893
G1 X102.344 Y47.906 E2.5919
G1 X102.434 Y48.122 E2.6073
G1 X102.448 Y48.159 E2.6099
G1 X102.637 Y48.712 E2.6484
G1 X102.648 Y48.750 E2.6510
G1 X102.709 Y48.976 E2.6664
G1 X102.718 Y49.014 E2.6690
G1 X102.834 Y49.587 E2.7075
G1 X102.842 Y49.644 E2.7113
G1 X102.878 Y49.989 E2.7341
G1 X102.881 Y50.047 E2.7379
G1 X103.047 Y76.658 E4.4904
G1 X102.867 Y77.100 E4.5219
G1 X101.257 Y78.729 E4.6727
G1 X101.293 Y78.739 E4.6751
G1 X101.580 Y78.839 E4.6951
G1 X101.627 Y78.857 E4.6985
G1 X102.236 Y79.126 E4.7423
G1 X102.282 Y79.149 E4.7457
G1 X102.548 Y79.295 E4.7657
G1 X102.592 Y79.321 E4.7690
G1 X103.166 Y79.702 E4.8144
G1 X103.213 Y79.736 E4.8182
G1 X103.484 Y79.957 E4.8413
G1 X103.528 Y79.996 E4.8451
G1 X104.117 Y80.579 E4.8997
G1 X104.156 Y80.622 E4.9035
G1 X104.380 Y80.891 E4.9266
G1 X104.415 Y80.938 E4.9304
G1 X104.802 Y81.508 E4.9758
G1 X104.829 Y81.551 E4.9791
G1 X104.978 Y81.816 E4.9992
G1 X105.001 Y81.861 E5.0025
G1 X105.277 Y82.467 E5.0463
G1 X105.296 Y82.514 E5.0497
G1 X105.398 Y82.800 E5.0697
G1 X105.413 Y82.848 E5.0730
G1 X105.584 Y83.492 E5.1169
G1 X105.595 Y83.542 E5.1202
G1 X105.647 Y83.841 E5.1403
G1 X105.654 Y83.891 E5.1436
G1 X105.707 Y84.479 E5.1824
G1 X105.709 Y84.504 E5.1841
G1 X105.716 Y84.656 E5.1941
G1 X105.717 Y84.681 E5.1958
G1 X105.856 Y109.833 E6.8522
G1 X105.855 Y109.858 E6.8538
G1 X105.850 Y110.010 E6.8638
G1 X105.848 Y110.035 E6.8655
G1 X105.802 Y110.623 E6.9043
G1 X105.796 Y110.673 E6.9077
G1 X105.746 Y110.973 E6.9277
G1 X105.736 Y111.023 E6.9310
G1 X105.573 Y111.668 E6.9749
G1 X105.558 Y111.717 E6.9782
G1 X105.459 Y112.004 E6.9982
G1 X105.441 Y112.052 E7.0016
G1 X105.161 Y112.684 E7.0471
G1 X105.134 Y112.737 E7.0510
G1 X104.959 Y113.046 E7.0744
G1 X104.927 Y113.096 E7.0783
G1 X104.450 Y113.773 E7.1329
G1 X104.415 Y113.819 E7.1367
G1 X104.190 Y114.081 E7.1594
G1 X104.150 Y114.122 E7.1632
G1 X103.656 Y114.598 E7.2084
G1 X103.618 Y114.631 E7.2117
G1 X103.381 Y114.823 E7.2317
G1 X103.341 Y114.853 E7.2351
G1 X102.801 Y115.219 E7.2781
G1 X102.761 Y115.244 E7.2811
G1 X102.519 Y115.382 E7.2994
G1 X102.478 Y115.404 E7.3025
G1 X102.011 Y115.625 E7.3366
G1 X101.970 Y115.642 E7.3395
G1 X101.719 Y115.739 E7.3572
G1 X101.677 Y115.753 E7.3601
G1 X100.916 Y115.983 E7.4125
G1 X100.856 Y115.998 E7.4165
G1 X100.497 Y116.067 E7.4406
G1 X100.437 Y116.076 E7.4446
G1 X99.819 Y116.132 E7.4855
G1 X99.794 Y116.133 E7.4871
G1 X99.642 Y116.141 E7.4972
G1 X99.617 Y116.141 E7.4988
G1 X74.305 Y116.281 E9.1657
G1 X74.283 Y116.281 E9.1672
G1 X74.147 Y116.276 E9.1761
G1 X74.125 Y116.275 E9.1776
G1 X73.286 Y116.217 E9.2330
G1 X73.234 Y116.211 E9.2365
G1 X72.918 Y116.160 E9.2575
G1 X72.866 Y116.150 E9.2610
G1 X72.015 Y115.935 E9.3188
G1 X71.969 Y115.921 E9.3219
G1 X71.698 Y115.829 E9.3408
G1 X71.653 Y115.812 E9.3440
G1 X71.004 Y115.533 E9.3905
G1 X70.969 Y115.517 E9.3931
G1 X70.761 Y115.411 E9.4084
G1 X70.727 Y115.392 E9.4110
G1 X70.236 Y115.101 E9.4486
G1 X70.204 Y115.081 E9.4510
G1 X70.019 Y114.955 E9.4658
G1 X69.989 Y114.933 E9.4683
G1 X69.490 Y114.546 E9.5098
G1 X69.452 Y114.513 E9.5131
G1 X69.231 Y114.310 E9.5329
G1 X69.196 Y114.275 E9.5362
G1 X68.548 Y113.572 E9.5991
G1 X68.505 Y113.519 E9.6036
G1 X68.264 Y113.189 E9.6305
G1 X68.227 Y113.132 E9.6350
G1 X67.755 Y112.303 E9.6978
G1 X67.730 Y112.253 E9.7015
G1 X67.590 Y111.943 E9.7239
G1 X67.569 Y111.891 E9.7276
G1 X67.345 Y111.234 E9.7733
G1 X67.329 Y111.178 E9.7772
G1 X67.249 Y110.839 E9.8001
G1 X67.238 Y110.782 E9.8039
G1 X67.120 Y109.917 E9.8614
G1 X67.116 Y109.878 E9.8640
G1 X67.099 Y109.644 E9.8794
G1 X67.098 Y109.605 E9.8820
G1 X66.954 Y83.339 E11.6118
G1 X67.135 Y82.897 E11.6432
G1 X68.743 Y81.271 E11.7938
G1 X68.707 Y81.261 E11.7963
G1 X68.420 Y81.161 E11.8163
G1 X68.373 Y81.143 E11.8196
G1 X67.740 Y80.863 E11.8652
G1 X67.688 Y80.837 E11.8691
G1 X67.378 Y80.661 E11.8925
G1 X67.328 Y80.630 E11.8964
G1 X66.651 Y80.152 E11.9510
G1 X66.606 Y80.117 E11.9547
G1 X66.344 Y79.892 E11.9775
G1 X66.302 Y79.853 E11.9812
G1 X65.827 Y79.358 E12.0264
G1 X65.793 Y79.320 E12.0298
G1 X65.602 Y79.084 E12.0498
G1 X65.572 Y79.043 E12.0531
G1 X65.205 Y78.503 E12.0961
G1 X65.180 Y78.464 E12.0992
G1 X65.042 Y78.222 E12.1175
G1 X65.021 Y78.181 E12.1206
G1 X64.800 Y77.713 E12.1546
G1 X64.782 Y77.672 E12.1576
G1 X64.686 Y77.422 E12.1752
G1 X64.671 Y77.380 E12.1782
G1 X64.441 Y76.618 E12.2306
G1 X64.427 Y76.559 E12.2346
G1 X64.357 Y76.200 E12.2587
G1 X64.349 Y76.139 E12.2627
G1 X64.293 Y75.521 E12.3035
G1 X64.291 Y75.496 E12.3052
G1 X64.284 Y75.344 E12.3152
G1 X64.283 Y75.319 E12.3169
G1 X64.144 Y50.167 E13.9733
G1 X64.145 Y50.142 E13.9749
G1 X64.150 Y49.990 E13.9849
G1 X64.152 Y49.965 E13.9866
G1 X64.198 Y49.377 E14.0255
G1 X64.204 Y49.327 E14.0288
G1 X64.254 Y49.026 E14.0488
G1 X64.264 Y48.977 E14.0522
G1 X64.427 Y48.332 E14.0960
G1 X64.442 Y48.283 E14.0993
G1 X64.541 Y47.996 E14.1194
G1 X64.559 Y47.949 E14.1227
G1 X64.829 Y47.340 E14.1665
G1 X64.851 Y47.294 E14.1699
G1 X64.997 Y47.027 E14.1899
G1 X65.023 Y46.984 E14.1932
G1 X65.326 Y46.528 E14.2293
G1 X65.404 Y46.410 F810
G1 X65.439 Y46.363 F810
G1 X65.660 Y46.091 F2700
G1 X65.699 Y46.048 F2700
G1 X66.281 Y45.459 F2700
G1 X66.324 Y45.419 F2700
G1 X66.405 Y45.352 F2700
G1 X66.640 Y45.781 F7800
G92 E0
G1 X66.892 Y45.572 E0.0215 F810
G1 X66.920 Y45.551 E0.0238
G1 X67.471 Y45.176 E0.0677
G1 X67.497 Y45.160 E0.0697
G1 X67.745 Y45.021 E0.0884
G1 X67.772 Y45.007 E0.0904
G1 X68.359 Y44.740 E0.1329
G1 X68.387 Y44.728 E0.1349
G1 X68.654 Y44.633 E0.1536
G1 X68.683 Y44.624 E0.1556
G1 X69.307 Y44.458 E0.1981
G1 X69.337 Y44.452 E0.2002
G1 X69.617 Y44.403 E0.2188
G1 X69.647 Y44.399 E0.2208
G1 X70.219 Y44.347 E0.2587
G1 X70.234 Y44.346 E0.2597
G1 X70.376 Y44.339 E0.2691
G1 X70.392 Y44.339 E0.2701
G1 X95.910 Y44.202 E1.9506
G1 X95.926 Y44.202 E1.9516
G1 X96.069 Y44.208 E1.9611
G1 X96.085 Y44.209 E1.9621
G1 X96.517 Y44.243 E1.9907
G1 X96.534 Y44.245 E1.9918
G1 X96.691 Y44.265 E2.0022
G1 X96.707 Y44.268 E2.0033
G1 X97.232 Y44.360 E2.0384
G1 X97.255 Y44.364 E2.0399
G1 X97.460 Y44.414 E2.0539
G1 X97.482 Y44.420 E2.0554
G1 X98.111 Y44.614 E2.0987
G1 X98.131 Y44.621 E2.1001
G1 X98.321 Y44.693 E2.1135
G1 X98.341 Y44.701 E2.1149
G1 X98.836 Y44.923 E2.1506
G1 X98.855 Y44.932 E2.1520
G1 X99.027 Y45.021 E2.1647
