; G-Code generated by Simplify3D(R) Version 3.1.0
; Mar 14, 2017 at 1:46:09 PM
; Settings Summary
;   processName,Process1
;   applyToModels,warp butterly shell
;   profileName,PETG 0.3 he.20 bt50
;   profileVersion,2017-02-27 23:31:17
;   baseProfile,Default (modified)
;   printMaterial,
;   printQuality,
;   printExtruders,
;   extruderName,Primary Extruder
;   extruderToolheadNumber,0
;   extruderDiameter,0.4
;   extruderAutoWidth,0
;   extruderWidth,0.48
;   extrusionMultiplier,0.95
;   extruderUseRetract,1
;   extruderRetractionDistance,1.4
;   extruderExtraRestartDistance,-0.1
;   extruderRetractionZLift,0.1
;   extruderRetractionSpeed,4200
;   extruderUseCoasting,1
;   extruderCoastingDistance,0.2
;   extruderUseWipe,1
;   extruderWipeDistance,0.2
;   primaryExtruder,0
;   layerHeight,0.3
;   topSolidLayers,3
;   bottomSolidLayers,2
;   perimeterOutlines,2
;   printPerimetersInsideOut,1
;   startPointOption,2
;   startPointOriginX,80
;   startPointOriginY,0
;   startPointOriginZ,5
;   sequentialIslands,0
;   spiralVaseMode,0
;   firstLayerHeightPercentage,100
;   firstLayerWidthPercentage,100
;   firstLayerUnderspeed,0.35
;   useRaft,0
;   raftExtruder,0
;   raftLayers,3
;   raftOffset,3
;   raftSeparationDistance,0.14
;   raftInfill,85
;   disableRaftBaseLayers,0
;   useSkirt,1
;   skirtExtruder,0
;   skirtLayers,1
;   skirtOutlines,3
;   skirtOffset,3
;   usePrimePillar,0
;   primePillarExtruder,999
;   primePillarWidth,12
;   primePillarLocation,7
;   primePillarSpeedMultiplier,1
;   useOozeShield,0
;   oozeShieldExtruder,999
;   oozeShieldOffset,2
;   oozeShieldOutlines,1
;   oozeShieldSidewallShape,1
;   oozeShieldSidewallAngle,30
;   oozeShieldSpeedMultiplier,1
;   infillExtruder,0
;   internalInfillPattern,Rectilinear
;   externalInfillPattern,Rectilinear
;   infillPercentage,22
;   outlineOverlapPercentage,30
;   infillExtrusionWidthPercentage,150
;   minInfillLength,2
;   infillLayerInterval,1
;   infillAngles,45,-45
;   overlapInfillAngles,0
;   generateSupport,1
;   supportExtruder,0
;   supportInfillPercentage,33
;   supportExtraInflation,0.5
;   denseSupportLayers,0
;   denseSupportInfillPercentage,70
;   supportLayerInterval,1
;   supportHorizontalPartOffset,0.8
;   supportUpperSeparationLayers,1
;   supportLowerSeparationLayers,1
;   supportType,0
;   supportGridSpacing,1.5
;   maxOverhangAngle,55
;   supportAngles,90
;   temperatureName,Primary Extruder,bed
;   temperatureNumber,0,0
;   temperatureSetpointCount,2,2
;   temperatureSetpointLayers,1,2,1,2
;   temperatureSetpointTemperatures,240,235,55,50
;   temperatureStabilizeAtStartup,1,0
;   temperatureHeatedBed,0,1
;   temperatureRelayBetweenLayers,0,0
;   temperatureRelayBetweenLoops,0,0
;   fanLayers,1,4
;   fanSpeeds,0,20
;   blipFanToFullPower,1
;   adjustSpeedForCooling,0
;   minSpeedLayerTime,15
;   minCoolingSpeedSlowdown,65
;   increaseFanForCooling,1
;   minFanLayerTime,15
;   maxCoolingFanSpeed,60
;   increaseFanForBridging,1
;   bridgingFanSpeed,100
;   use5D,1
;   relativeEdistances,0
;   allowEaxisZeroing,1
;   independentExtruderAxes,0
;   includeM10123,0
;   stickySupport,1
;   applyToolheadOffsets,0
;   gcodeXoffset,0
;   gcodeYoffset,0
;   gcodeZoffset,0
;   overrideMachineDefinition,1
;   machineTypeOverride,0
;   strokeXoverride,170
;   strokeYoverride,160
;   strokeZoverride,145
;   originOffsetXoverride,0
;   originOffsetYoverride,0
;   originOffsetZoverride,0
;   homeXdirOverride,-1
;   homeYdirOverride,-1
;   homeZdirOverride,-1
;   flipXoverride,1
;   flipYoverride,-1
;   flipZoverride,1
;   toolheadOffsets,0,0|0,0|0,0|0,0|0,0|0,0
;   overrideFirmwareConfiguration,1
;   firmwareTypeOverride,RepRap (Marlin/Repetier/Sprinter)
;   GPXconfigOverride,r2
;   baudRateOverride,250000
;   overridePrinterModels,0
;   printerModelsOverride
;   startingGcode,;---------------------------------------,; ; ; Jellybox Start Script Begin ; ; ;,;_______________________________________,M117 Preparing        ; write Preparing,; M92 E140            ; optionally adjust E steps/mm,M207 S1.5 F600 Z0     ; optionally adjust retract settings,M208 S-0.00 F600      ; optionally adjust unretract = recover settings,M206 X10.0 Y0.0       ; set x homing offset for default bed leveling,G21                   ; metric values,G90                   ; absolute positioning,M107                  ; start with the fan off,M82                   ; set extruder to absolute mode,G28                   ; home all axes,M203 Z4               ; slow Z speed down for greater accuracy when probing,G29                   ; auto bed leveling procedure,M203 Z7               ; pick up z speed again for printing,G92 E0                ; reset the extruder position,G1 F1500 E15          ; extrude 15mm of feed stock,G92 E0                ; reset the extruder position again,M117 Print starting   ; write Print starting,;---------------------------------------------,; ; ; Jellybox Printer Start Script End ; ; ;,;_____________________________________________
;   layerChangeGcode,
;   retractionGcode,
;   toolChangeGcode,
;   endingGcode,; ---------------------------------,; ; ;  Jellybox End Script Begin ; ; ;,; _________________________________,M117 Finishing Up ; write Finishing Up,M107                  ; sfan off,M104 S0            ; extruder heater off,M140 S0            ; bed heater off (if you have it),G91                ; relative positioning,G1 E-1 F300        ; retract the filament a bit before lifting the nozzle to release some of the pressure,G1 Z+0.5 E-5 X-20 Y-20 F9000 ; move Z up a bit and retract filament even more,G90                ; absolute positioning,G28 X              ; home x so the head is out of the way,G1 Y100            ; move Y forward so the print is more accessible,M84                ; steppers off,M117 Print finished ; write Print finisheds,; ---------------------------------------,; ; ;  Jellybox End Script End ; ; ;,; _______________________________________
;   exportFileFormat,gcode
;   celebration,0
;   celebrationSong,Random Song
;   postProcessing,|{REPLACE "; layer" "M117 Layer"},|{REPLACE ", Z = " " "Z="}
;   defaultSpeed,2700
;   outlineUnderspeed,0.55
;   solidInfillUnderspeed,0.55
;   supportUnderspeed,0.9
;   rapidXYspeed,7200
;   rapidZspeed,420
;   minBridgingArea,50
;   bridgingExtraInflation,0.3
;   bridgingExtrusionMultiplier,1
;   bridgingSpeedMultiplier,1
;   filamentDiameter,1.75
;   filamentPricePerKg,30
;   filamentDensity,1.38
;   useMinPrintHeight,0
;   minPrintHeight,30
;   useMaxPrintHeight,0
;   maxPrintHeight,40
;   useDiaphragm,0
;   diaphragmLayerInterval,20
;   robustSlicing,1
;   mergeAllIntoSolid,0
;   onlyRetractWhenCrossingOutline,1
;   retractBetweenLayers,1
;   useRetractionMinTravel,1
;   retractionMinTravel,1
;   retractWhileWiping,1
;   onlyWipeOutlines,1
;   avoidCrossingOutline,1
;   maxMovementDetourFactor,2.5
;   toolChangeRetractionDistance,1.3
;   toolChangeExtraRestartDistance,0
;   toolChangeRetractionSpeed,600
;   allowThinWallGapFill,1
;   thinWallAllowedOverlapPercentage,15
;   horizontalSizeCompensation,0
G90
M82
M106 S0
M140 S55
M104 S240 T0
M109 S240 T0
;---------------------------------------
; ; ; Jellybox Start Script Begin ; ; ;
;_______________________________________
M117 Preparing        ; write Preparing
; M92 E140            ; optionally adjust E steps/mm
M207 S1.5 F600 Z0     ; optionally adjust retract settings
M208 S-0.00 F600      ; optionally adjust unretract = recover settings
M206 X10.0 Y0.0       ; set x homing offset for default bed leveling
G21                   ; metric values
G90                   ; absolute positioning
M107                  ; start with the fan off
M82                   ; set extruder to absolute mode
G28                   ; home all axes
M203 Z4               ; slow Z speed down for greater accuracy when probing
G29                   ; auto bed leveling procedure
M203 Z7               ; pick up z speed again for printing
G92 E0                ; reset the extruder position
G1 F1500 E15          ; extrude 15mm of feed stock
G92 E0                ; reset the extruder position again
M117 Print starting   ; write Print starting
;---------------------------------------------
; ; ; Jellybox Printer Start Script End ; ; ;
;_____________________________________________
G92 E0
G1 E-1.4000 F4200
G1 Z0.400 F420
M117 Layer 1 0.3
T0
; tool H0.300 W0.480
; skirt
G1 X54.810 Y76.295 F7200
G1 Z0.300 F420
G1 E-0.1000 F1260
G92 E0
G1 X55.620 Y75.824 E0.0533 F945
G1 X55.763 Y75.764 E0.0621
G1 X56.613 Y75.532 E0.1122
G1 X56.691 Y75.516 E0.1168
G1 X57.169 Y75.451 E0.1442
G1 X57.249 Y75.446 E0.1488
G1 X73.265 Y75.445 E1.0597
G1 X73.265 Y75.439 E1.0601
G1 X73.341 Y74.851 E1.0937
G1 X73.355 Y74.778 E1.0980
G1 X73.466 Y74.344 E1.1235
G1 X73.489 Y74.273 E1.1277
G1 X73.752 Y73.609 E1.1683
G1 X73.783 Y73.541 E1.1726
G1 X74.001 Y73.145 E1.1983
G1 X74.041 Y73.081 E1.2025
G1 X74.458 Y72.506 E1.2430
G1 X74.505 Y72.449 E1.2472
G1 X74.807 Y72.125 E1.2724
G1 X74.860 Y72.074 E1.2766
G1 X75.394 Y71.626 E1.3162
G1 X75.453 Y71.582 E1.3204
G1 X75.825 Y71.341 E1.3456
G1 X75.889 Y71.305 E1.3498
G1 X76.528 Y70.994 E1.3902
G1 X76.598 Y70.966 E1.3945
G1 X77.026 Y70.820 E1.4202
G1 X77.099 Y70.801 E1.4244
G1 X77.800 Y70.657 E1.4652
G1 X77.874 Y70.647 E1.4694
G1 X78.325 Y70.613 E1.4951
G1 X78.400 Y70.612 E1.4994
G1 X79.002 Y70.641 E1.5337
G1 X79.040 Y70.644 E1.5358
G1 X79.264 Y70.669 E1.5487
G1 X79.301 Y70.675 E1.5508
G1 X85.000 Y71.680 E1.8800
G1 X90.711 Y70.673 E2.2098
G1 X90.749 Y70.668 E2.2119
G1 X90.977 Y70.643 E2.2250
G1 X91.016 Y70.640 E2.2272
G1 X91.608 Y70.612 E2.2609
G1 X91.682 Y70.613 E2.2651
G1 X92.129 Y70.648 E2.2906
G1 X92.203 Y70.658 E2.2948
G1 X92.902 Y70.801 E2.3354
G1 X92.974 Y70.821 E2.3397
G1 X93.402 Y70.966 E2.3654
G1 X93.472 Y70.994 E2.3697
G1 X94.111 Y71.305 E2.4101
G1 X94.175 Y71.341 E2.4143
G1 X94.547 Y71.582 E2.4395
G1 X94.606 Y71.626 E2.4437
G1 X95.140 Y72.074 E2.4833
G1 X95.193 Y72.125 E2.4875
G1 X95.495 Y72.449 E2.5127
G1 X95.542 Y72.506 E2.5169
G1 X95.959 Y73.082 E2.5573
G1 X95.999 Y73.145 E2.5616
G1 X96.217 Y73.542 E2.5873
G1 X96.249 Y73.610 E2.5916
G1 X96.511 Y74.275 E2.6323
G1 X96.535 Y74.347 E2.6366
G1 X96.647 Y74.784 E2.6623
G1 X96.661 Y74.858 E2.6665
G1 X96.735 Y75.446 E2.7002
G1 X112.751 Y75.446 E3.6111
G1 X112.831 Y75.452 E3.6157
G1 X113.309 Y75.516 E3.6431
G1 X113.388 Y75.532 E3.6477
G1 X114.237 Y75.765 E3.6978
G1 X114.380 Y75.825 E3.7066
G1 X115.190 Y76.296 E3.7599
G1 X115.314 Y76.391 E3.7688
G1 X116.116 Y77.194 E3.8333
G1 X116.213 Y77.319 E3.8423
G1 X116.688 Y78.147 E3.8966
G1 X116.749 Y78.294 E3.9056
G1 X117.007 Y79.273 E3.9633
G1 X117.026 Y79.390 E3.9700
G1 X117.069 Y80.100 E4.0104
G1 X117.064 Y80.218 E4.0171
G1 X116.955 Y81.015 E4.0629
G1 X116.928 Y81.129 E4.0696
G1 X116.698 Y81.798 E4.1098
G1 X116.649 Y81.904 E4.1165
G1 X116.145 Y82.769 E4.1734
G1 X116.051 Y82.891 E4.1822
G1 X115.391 Y83.551 E4.2352
G1 X115.269 Y83.645 E4.2440
G1 X114.404 Y84.149 E4.3009
G1 X114.297 Y84.198 E4.3076
G1 X113.629 Y84.428 E4.3478
G1 X113.514 Y84.455 E4.3545
G1 X112.948 Y84.533 E4.3870
G1 X112.907 Y84.537 E4.3893
G1 X112.663 Y84.553 E4.4032
G1 X112.623 Y84.555 E4.4056
G1 X96.735 Y84.555 E5.3091
G1 X96.735 Y84.561 E5.3095
G1 X96.659 Y85.149 E5.3432
G1 X96.645 Y85.222 E5.3475
G1 X96.534 Y85.656 E5.3729
G1 X96.511 Y85.727 E5.3772
G1 X96.248 Y86.391 E5.4178
G1 X96.216 Y86.459 E5.4220
G1 X95.999 Y86.855 E5.4477
G1 X95.959 Y86.919 E5.4520
G1 X95.542 Y87.494 E5.4925
G1 X95.495 Y87.551 E5.4967
G1 X95.193 Y87.875 E5.5218
G1 X95.140 Y87.926 E5.5260
G1 X94.606 Y88.374 E5.5657
G1 X94.547 Y88.418 E5.5699
G1 X94.175 Y88.659 E5.5950
G1 X94.111 Y88.695 E5.5992
G1 X93.471 Y89.006 E5.6397
G1 X93.402 Y89.034 E5.6440
G1 X92.974 Y89.180 E5.6697
G1 X92.901 Y89.199 E5.6739
G1 X92.200 Y89.343 E5.7146
G1 X92.126 Y89.353 E5.7189
G1 X91.675 Y89.387 E5.7446
G1 X91.600 Y89.388 E5.7489
G1 X90.998 Y89.359 E5.7832
G1 X90.960 Y89.356 E5.7853
G1 X90.736 Y89.331 E5.7981
G1 X90.699 Y89.325 E5.8003
G1 X85.000 Y88.320 E6.1294
G1 X79.289 Y89.327 E6.4592
G1 X79.251 Y89.332 E6.4614
G1 X79.023 Y89.357 E6.4745
G1 X78.984 Y89.360 E6.4767
G1 X78.393 Y89.388 E6.5104
G1 X78.318 Y89.387 E6.5146
G1 X77.871 Y89.352 E6.5401
G1 X77.798 Y89.342 E6.5443
G1 X77.099 Y89.199 E6.5849
G1 X77.026 Y89.179 E6.5892
G1 X76.598 Y89.034 E6.6149
G1 X76.528 Y89.006 E6.6192
G1 X75.889 Y88.695 E6.6596
G1 X75.825 Y88.659 E6.6638
G1 X75.453 Y88.418 E6.6890
G1 X75.394 Y88.374 E6.6932
G1 X74.860 Y87.926 E6.7328
G1 X74.807 Y87.875 E6.7370
G1 X74.505 Y87.551 E6.7622
G1 X74.458 Y87.494 E6.7664
G1 X74.041 Y86.918 E6.8068
G1 X74.001 Y86.855 E6.8111
G1 X73.783 Y86.458 E6.8368
G1 X73.751 Y86.390 E6.8411
G1 X73.489 Y85.725 E6.8818
G1 X73.465 Y85.653 E6.8860
G1 X73.353 Y85.216 E6.9117
G1 X73.339 Y85.142 E6.9160
G1 X73.265 Y84.554 E6.9497
G1 X57.249 Y84.554 E7.8606
G1 X57.169 Y84.548 E7.8652
G1 X56.691 Y84.484 E7.8926
G1 X56.612 Y84.468 E7.8972
G1 X55.883 Y84.268 E7.9402
G1 X55.775 Y84.227 E7.9467
G1 X55.157 Y83.922 E7.9859
G1 X55.060 Y83.862 E7.9924
G1 X54.426 Y83.381 E8.0377
G1 X54.340 Y83.300 E8.0444
G1 X53.868 Y82.768 E8.0848
G1 X53.799 Y82.672 E8.0916
G1 X53.351 Y81.904 E8.1421
G1 X53.302 Y81.797 E8.1488
G1 X53.072 Y81.129 E8.1890
G1 X53.045 Y81.014 E8.1957
G1 X52.936 Y80.217 E8.2415
G1 X52.931 Y80.099 E8.2482
G1 X52.974 Y79.389 E8.2886
G1 X52.993 Y79.273 E8.2954
G1 X53.252 Y78.293 E8.3530
G1 X53.312 Y78.146 E8.3620
G1 X53.787 Y77.319 E8.4163
G1 X53.884 Y77.193 E8.4253
G1 X54.655 Y76.422 E8.4873
G1 X54.686 Y76.390 F945
G1 X54.810 Y76.295 F945
G1 X55.078 Y76.695 F7200
G92 E0
G1 X55.834 Y76.255 E0.0497 F945
G1 X55.920 Y76.219 E0.0551
G1 X56.724 Y75.999 E0.1025
G1 X56.771 Y75.989 E0.1052
G1 X57.217 Y75.929 E0.1308
G1 X57.265 Y75.926 E0.1335
G1 X73.726 Y75.925 E1.0697
G1 X73.726 Y75.751 E1.0796
G1 X73.727 Y75.729 E1.0809
G1 X73.740 Y75.515 E1.0931
G1 X73.742 Y75.492 E1.0944
G1 X73.815 Y74.927 E1.1268
G1 X73.823 Y74.883 E1.1294
G1 X73.928 Y74.478 E1.1531
G1 X73.941 Y74.436 E1.1557
G1 X74.192 Y73.800 E1.1946
G1 X74.212 Y73.759 E1.1971
G1 X74.414 Y73.389 E1.2211
G1 X74.439 Y73.351 E1.2237
G1 X74.838 Y72.799 E1.2624
G1 X74.866 Y72.765 E1.2649
G1 X75.148 Y72.462 E1.2885
G1 X75.180 Y72.432 E1.2910
G1 X75.691 Y72.003 E1.3289
G1 X75.727 Y71.977 E1.3314
G1 X76.074 Y71.752 E1.3549
G1 X76.112 Y71.730 E1.3575
G1 X76.725 Y71.432 E1.3962
G1 X76.766 Y71.415 E1.3988
G1 X77.166 Y71.280 E1.4228
G1 X77.209 Y71.268 E1.4253
G1 X77.881 Y71.131 E1.4643
G1 X77.926 Y71.124 E1.4669
G1 X78.347 Y71.092 E1.4909
G1 X78.392 Y71.092 E1.4935
G1 X78.971 Y71.120 E1.5264
G1 X78.994 Y71.122 E1.5277
G1 X79.203 Y71.146 E1.5397
G1 X79.225 Y71.149 E1.5410
G1 X85.000 Y72.167 E1.8745
G1 X90.787 Y71.147 E2.2087
G1 X90.810 Y71.144 E2.2100
G1 X91.023 Y71.121 E2.2222
G1 X91.046 Y71.119 E2.2235
G1 X91.615 Y71.092 E2.2559
G1 X91.660 Y71.093 E2.2585
G1 X92.077 Y71.125 E2.2822
G1 X92.121 Y71.131 E2.2848
G1 X92.791 Y71.268 E2.3237
G1 X92.834 Y71.280 E2.3262
G1 X93.234 Y71.415 E2.3502
G1 X93.275 Y71.433 E2.3528
G1 X93.888 Y71.730 E2.3915
G1 X93.926 Y71.752 E2.3940
G1 X94.273 Y71.977 E2.4176
G1 X94.309 Y72.003 E2.4201
G1 X94.820 Y72.432 E2.4580
G1 X94.852 Y72.463 E2.4605
G1 X95.134 Y72.765 E2.4840
G1 X95.162 Y72.799 E2.4866
G1 X95.562 Y73.351 E2.5253
G1 X95.586 Y73.389 E2.5279
G1 X95.788 Y73.759 E2.5519
G1 X95.808 Y73.800 E2.5544
G1 X96.059 Y74.437 E2.5934
G1 X96.073 Y74.480 E2.5960
G1 X96.178 Y74.889 E2.6200
G1 X96.186 Y74.933 E2.6225
G1 X96.259 Y75.509 E2.6555
G1 X96.261 Y75.531 E2.6568
G1 X96.274 Y75.741 E2.6688
G1 X96.275 Y75.764 E2.6701
G1 X96.275 Y75.926 E2.6793
G1 X112.735 Y75.926 E3.6154
G1 X112.783 Y75.930 E3.6182
G1 X113.229 Y75.990 E3.6438
G1 X113.276 Y75.999 E3.6465
G1 X114.080 Y76.220 E3.6939
G1 X114.166 Y76.256 E3.6992
G1 X114.922 Y76.695 E3.7490
G1 X114.996 Y76.752 E3.7543
G1 X115.755 Y77.511 E3.8153
G1 X115.812 Y77.586 E3.8207
G1 X116.256 Y78.359 E3.8713
G1 X116.292 Y78.447 E3.8768
G1 X116.537 Y79.373 E3.9312
G1 X116.548 Y79.443 E3.9353
G1 X116.588 Y80.105 E3.9730
G1 X116.586 Y80.176 E3.9770
G1 X116.483 Y80.927 E4.0201
G1 X116.466 Y80.995 E4.0241
G1 X116.251 Y81.619 E4.0617
