; G-Code generated by Simplify3D(R) Version 3.1.0
<<<<<<< HEAD:Factory/x carriage green wipe retract.gcode
; Mar 22, 2017 at 5:11:54 PM
=======
; Mar 22, 2017 at 4:34:39 PM
>>>>>>> origin/factory:Factory/x carriage green.gcode
; Settings Summary
;   processName,Process1
;   applyToModels,x carriage 1.1.1 green
;   profileName,PETG 0.3 he.20 bt50 (modified)
;   profileVersion,2017-03-22 16:30:49
;   baseProfile,Default (modified)
;   printMaterial,
;   printQuality,
;   printExtruders,
;   extruderName,Primary Extruder
;   extruderToolheadNumber,0
;   extruderDiameter,0.4
;   extruderAutoWidth,0
;   extruderWidth,0.46
;   extrusionMultiplier,0.95
;   extruderUseRetract,1
;   extruderRetractionDistance,1.4
;   extruderExtraRestartDistance,-0.1
;   extruderRetractionZLift,0.1
;   extruderRetractionSpeed,4200
;   extruderUseCoasting,1
;   extruderCoastingDistance,0.2
;   extruderUseWipe,1
;   extruderWipeDistance,0.2
;   primaryExtruder,0
;   layerHeight,0.3
;   topSolidLayers,3
;   bottomSolidLayers,2
;   perimeterOutlines,2
;   printPerimetersInsideOut,1
;   startPointOption,2
;   startPointOriginX,80
;   startPointOriginY,0
;   startPointOriginZ,5
;   sequentialIslands,0
;   spiralVaseMode,0
;   firstLayerHeightPercentage,100
;   firstLayerWidthPercentage,140
;   firstLayerUnderspeed,0.3
;   useRaft,0
;   raftExtruder,0
;   raftLayers,3
;   raftOffset,3
;   raftSeparationDistance,0.14
;   raftInfill,85
;   disableRaftBaseLayers,0
;   useSkirt,1
;   skirtExtruder,0
;   skirtLayers,1
;   skirtOutlines,3
;   skirtOffset,3
;   usePrimePillar,0
;   primePillarExtruder,999
;   primePillarWidth,12
;   primePillarLocation,7
;   primePillarSpeedMultiplier,1
;   useOozeShield,0
;   oozeShieldExtruder,999
;   oozeShieldOffset,2
;   oozeShieldOutlines,1
;   oozeShieldSidewallShape,1
;   oozeShieldSidewallAngle,30
;   oozeShieldSpeedMultiplier,1
;   infillExtruder,0
;   internalInfillPattern,Rectilinear
;   externalInfillPattern,Rectilinear
;   infillPercentage,22
;   outlineOverlapPercentage,30
;   infillExtrusionWidthPercentage,150
;   minInfillLength,2
;   infillLayerInterval,1
;   infillAngles,45,-45
;   overlapInfillAngles,0
;   generateSupport,1
;   supportExtruder,0
;   supportInfillPercentage,33
;   supportExtraInflation,0.5
;   denseSupportLayers,0
;   denseSupportInfillPercentage,70
;   supportLayerInterval,1
;   supportHorizontalPartOffset,0.8
;   supportUpperSeparationLayers,1
;   supportLowerSeparationLayers,1
;   supportType,0
;   supportGridSpacing,1.5
;   maxOverhangAngle,55
;   supportAngles,90
;   temperatureName,Primary Extruder,bed
;   temperatureNumber,0,0
;   temperatureSetpointCount,2,2
;   temperatureSetpointLayers,1,2,1,2
;   temperatureSetpointTemperatures,240,235,65,60
;   temperatureStabilizeAtStartup,1,1
;   temperatureHeatedBed,0,1
;   temperatureRelayBetweenLayers,0,0
;   temperatureRelayBetweenLoops,0,0
;   fanLayers,1,4
;   fanSpeeds,0,20
;   blipFanToFullPower,1
;   adjustSpeedForCooling,0
;   minSpeedLayerTime,15
;   minCoolingSpeedSlowdown,65
;   increaseFanForCooling,1
;   minFanLayerTime,15
;   maxCoolingFanSpeed,60
;   increaseFanForBridging,1
;   bridgingFanSpeed,100
;   use5D,1
;   relativeEdistances,0
;   allowEaxisZeroing,1
;   independentExtruderAxes,0
;   includeM10123,0
;   stickySupport,1
;   applyToolheadOffsets,0
;   gcodeXoffset,0
;   gcodeYoffset,0
;   gcodeZoffset,0
;   overrideMachineDefinition,1
;   machineTypeOverride,0
;   strokeXoverride,170
;   strokeYoverride,160
;   strokeZoverride,145
;   originOffsetXoverride,0
;   originOffsetYoverride,0
;   originOffsetZoverride,0
;   homeXdirOverride,-1
;   homeYdirOverride,-1
;   homeZdirOverride,-1
;   flipXoverride,1
;   flipYoverride,-1
;   flipZoverride,1
;   toolheadOffsets,0,0|0,0|0,0|0,0|0,0|0,0
;   overrideFirmwareConfiguration,1
;   firmwareTypeOverride,RepRap (Marlin/Repetier/Sprinter)
;   GPXconfigOverride,r2
;   baudRateOverride,250000
;   overridePrinterModels,0
;   printerModelsOverride
;   startingGcode,;---------------------------------------,; ; ; Jellybox Start Script Begin ; ; ;,;_______________________________________,; M92 E140            ; optionally adjust steps per mm for your filament,M117 Preparing        ; write Preparing,M206 X10.0 Y0.0       ; set x homing offset for default bed leveling,G21                   ; metric values,G90                   ; absolute positioning,M107                  ; start with the fan off,M82                   ; set extruder to absolute mode,G28                   ; home all axes,M203 Z4               ; slow Z speed down for greater accuracy when probing,G29                   ; auto bed leveling procedure,M203 Z7               ; pick up z speed again for printing,G92 E0                ; reset the extruder position,G1 F1500 E15          ; extrude 15mm of feed stock,G92 E0                ; reset the extruder position again,M117 Print starting   ; write Print starting,;---------------------------------------------,; ; ; Jellybox Printer Start Script End ; ; ;,;_____________________________________________
;   layerChangeGcode,
;   retractionGcode,
;   toolChangeGcode,
;   endingGcode,; ; ;  Jellybox End Script Begin ; ; ;,; _________________________________,M117 Finishing Up  ; write Finishing Up,M107               ; start with the fan off,M104 S0            ; extruder heater off,M140 S0            ; bed heater off (if you have it),G91                ; relative positioning,G1 E-1 F300        ; retract the filament a bit before lifting the nozzle to release some of the pressure,G1 Z+0.5 E-5 X-20 Y-20 F9000 ; move Z up a bit and retract filament even more,G90                ; absolute positioning,G28 X              ; home x so the head is out of the way,G1 Y100            ; move Y forward so the print is more accessible,M84                ; steppers off,M107               ; fan off,M117 Print finished ; write Print finished,; ---------------------------------------,; ; ;  Jellybox End Script End ; ; ;,; _______________________________________
;   exportFileFormat,gcode
;   celebration,0
;   celebrationSong,Random Song
;   postProcessing,|{REPLACE "; layer" "M117 Layer"},|{REPLACE ", Z = " " "Z="}
;   defaultSpeed,2700
;   outlineUnderspeed,0.55
;   solidInfillUnderspeed,0.55
;   supportUnderspeed,0.9
;   rapidXYspeed,7800
;   rapidZspeed,420
;   minBridgingArea,50
;   bridgingExtraInflation,0.3
;   bridgingExtrusionMultiplier,1
;   bridgingSpeedMultiplier,1
;   filamentDiameter,1.75
;   filamentPricePerKg,30
;   filamentDensity,1.38
;   useMinPrintHeight,0
;   minPrintHeight,30
;   useMaxPrintHeight,0
;   maxPrintHeight,40
;   useDiaphragm,0
;   diaphragmLayerInterval,20
;   robustSlicing,1
;   mergeAllIntoSolid,0
;   onlyRetractWhenCrossingOutline,0
;   retractBetweenLayers,1
;   useRetractionMinTravel,1
;   retractionMinTravel,1
;   retractWhileWiping,1
;   onlyWipeOutlines,0
;   avoidCrossingOutline,1
;   maxMovementDetourFactor,2.5
;   toolChangeRetractionDistance,1.3
;   toolChangeExtraRestartDistance,0
;   toolChangeRetractionSpeed,600
;   allowThinWallGapFill,1
;   thinWallAllowedOverlapPercentage,15
;   horizontalSizeCompensation,0
G90
M82
M106 S0
M140 S65
M190 S65
M104 S240 T0
M109 S240 T0
;---------------------------------------
; ; ; Jellybox Start Script Begin ; ; ;
;_______________________________________
; M92 E140            ; optionally adjust steps per mm for your filament
M117 Preparing        ; write Preparing
M206 X10.0 Y0.0       ; set x homing offset for default bed leveling
G21                   ; metric values
G90                   ; absolute positioning
M107                  ; start with the fan off
M82                   ; set extruder to absolute mode
G28                   ; home all axes
M203 Z4               ; slow Z speed down for greater accuracy when probing
G29                   ; auto bed leveling procedure
M203 Z7               ; pick up z speed again for printing
G92 E0                ; reset the extruder position
G1 F1500 E15          ; extrude 15mm of feed stock
G92 E0                ; reset the extruder position again
M117 Print starting   ; write Print starting
;---------------------------------------------
; ; ; Jellybox Printer Start Script End ; ; ;
;_____________________________________________
G92 E0
G1 E-1.4000 F4200
G1 Z0.400 F420
M117 Layer 1 0.3
T0
; tool H0.300 W0.644
; skirt
G1 X31.070 Y43.818 F7800
G1 Z0.300 F420
G1 E-0.1000 F1260
G92 E0
G1 X52.039 Y34.154 E1.7618 F810
G1 X52.483 Y34.132 E1.7958
G1 X55.185 Y35.066 E2.0139
G1 X55.521 Y35.358 E2.0479
G1 X57.008 Y38.263 E2.2969
G1 X57.910 Y39.867 E2.4373
G1 X58.829 Y41.320 E2.5685
G1 X59.454 Y42.204 E2.6511
G1 X60.358 Y43.318 E2.7606
G1 X61.228 Y44.208 E2.8556
G1 X61.600 Y44.532 E2.8932
G1 X61.987 Y44.829 E2.9305
G1 X62.362 Y45.079 E2.9648
G1 X62.725 Y45.282 E2.9966
G1 X63.090 Y45.450 E3.0272
G1 X63.457 Y45.579 E3.0569
G1 X63.832 Y45.673 E3.0864
G1 X63.934 Y45.690 E3.0943
G1 X64.600 Y45.748 E3.1453
G1 X64.938 Y45.741 E3.1711
G1 X65.355 Y45.697 E3.2031
G1 X66.140 Y45.541 E3.2642
G1 X67.254 Y45.199 E3.3531
G1 X68.421 Y44.733 E3.4490
G1 X73.293 Y42.487 E3.8584
G1 X74.406 Y41.902 E3.9543
G1 X75.390 Y41.278 E4.0432
G1 X76.019 Y40.782 E4.1043
G1 X76.322 Y40.494 E4.1363
G1 X76.548 Y40.241 E4.1621
G1 X76.935 Y39.697 E4.2131
G1 X76.989 Y39.608 E4.2210
G1 X77.161 Y39.263 E4.2505
G1 X77.302 Y38.900 E4.2802
G1 X77.412 Y38.513 E4.3108
G1 X77.483 Y38.153 E4.3388
G1 X77.559 Y37.370 E4.3989
G1 X77.564 Y36.642 E4.4544
G1 X77.455 Y35.438 E4.5467
G1 X77.196 Y34.027 E4.6562
G1 X76.930 Y32.977 E4.7388
G1 X76.422 Y31.335 E4.8700
G1 X75.789 Y29.607 E5.0104
G1 X74.546 Y26.590 E5.2594
G1 X74.542 Y26.144 E5.2934
G1 X75.587 Y23.484 E5.5115
G1 X75.892 Y23.160 E5.5455
G1 X96.861 Y13.496 E7.3073
G1 X97.318 Y13.478 E7.3422
G1 X100.079 Y14.496 E7.5668
G1 X100.415 Y14.807 E7.6017
G1 X128.009 Y74.678 E12.6321
G1 X128.062 Y74.890 E12.6488
G1 X128.134 Y76.257 E12.7533
G1 X128.104 Y76.474 E12.7700
G1 X127.766 Y77.474 E12.8506
G1 X127.712 Y77.707 E12.8688
G1 X127.671 Y78.051 E12.8952
G1 X127.674 Y78.354 E12.9184
G1 X127.740 Y78.808 E12.9534
G1 X127.834 Y79.135 E12.9793
G1 X127.933 Y79.376 E12.9992
G1 X128.046 Y79.589 E13.0176
G1 X128.276 Y79.918 E13.0482
G1 X128.601 Y80.263 E13.0844
G1 X128.952 Y80.531 E13.1181
G1 X129.282 Y80.711 E13.1468
G1 X130.237 Y81.095 E13.2253
G1 X130.420 Y81.213 E13.2419
G1 X131.410 Y82.155 E13.3462
G1 X131.537 Y82.332 E13.3629
G1 X139.046 Y98.624 E14.7317
G1 X139.055 Y98.645 E14.7334
G1 X139.109 Y98.774 E14.7442
G1 X139.117 Y98.795 E14.7459
G1 X139.502 Y99.839 E14.8308
G1 X139.516 Y99.882 E14.8342
G1 X139.592 Y100.153 E14.8557
G1 X139.603 Y100.197 E14.8591
G1 X139.833 Y101.357 E14.9494
G1 X139.840 Y101.402 E14.9529
G1 X139.873 Y101.681 E14.9743
G1 X139.877 Y101.726 E14.9777
G1 X139.923 Y102.908 E15.0680
G1 X139.923 Y102.953 E15.0715
G1 X139.912 Y103.234 E15.0929
G1 X139.909 Y103.279 E15.0964
G1 X139.770 Y104.454 E15.1866
G1 X139.763 Y104.499 E15.1901
G1 X139.708 Y104.774 E15.2115
G1 X139.697 Y104.818 E15.2150
G1 X139.376 Y105.957 E15.3053
G1 X139.362 Y106.000 E15.3087
G1 X139.265 Y106.263 E15.3301
G1 X139.247 Y106.305 E15.3336
G1 X138.752 Y107.379 E15.4239
G1 X138.731 Y107.420 E15.4273
G1 X138.594 Y107.665 E15.4488
G1 X138.571 Y107.703 E15.4522
G1 X137.913 Y108.687 E15.5425
G1 X137.887 Y108.723 E15.5459
G1 X137.713 Y108.944 E15.5674
G1 X137.683 Y108.978 E15.5708
G1 X136.880 Y109.847 E15.6611
G1 X136.848 Y109.879 E15.6645
G1 X136.642 Y110.070 E15.6860
G1 X136.607 Y110.099 E15.6894
G1 X135.678 Y110.832 E15.7797
G1 X135.642 Y110.858 E15.7832
G1 X135.408 Y111.014 E15.8046
G1 X135.370 Y111.038 E15.8080
G1 X134.399 Y111.581 E15.8930
G1 X134.379 Y111.592 E15.8947
G1 X134.254 Y111.656 E15.9054
G1 X134.233 Y111.666 E15.9071
G1 X95.311 Y129.605 E19.1775
G1 X94.840 Y129.837 E19.2175
G1 X94.427 Y130.075 E19.2539
G1 X94.109 Y130.298 E19.2835
G1 X93.765 Y130.623 E19.3197
G1 X93.757 Y130.640 E19.3211
G1 X93.753 Y130.654 E19.3222
G1 X93.749 Y130.694 E19.3253
G1 X93.758 Y131.104 E19.3565
G1 X93.836 Y131.626 E19.3969
G1 X94.003 Y132.350 E19.4535
G1 X94.687 Y134.892 E19.6544
G1 X94.692 Y134.912 E19.6560
G1 X94.721 Y135.036 E19.6657
G1 X94.725 Y135.056 E19.6672
G1 X94.964 Y136.289 E19.7631
G1 X94.969 Y136.313 E19.7650
G1 X94.991 Y136.465 E19.7767
G1 X94.994 Y136.489 E19.7786
G1 X95.081 Y137.307 E19.8413
G1 X95.084 Y137.334 E19.8434
G1 X95.094 Y137.507 E19.8566
G1 X95.094 Y137.535 E19.8588
G1 X95.102 Y138.407 E19.9253
G1 X95.101 Y138.450 E19.9286
G1 X95.083 Y138.719 E19.9491
G1 X95.079 Y138.762 E19.9524
G1 X94.910 Y139.941 E20.0433
G1 X94.900 Y139.995 E20.0475
G1 X94.820 Y140.325 E20.0734
G1 X94.805 Y140.378 E20.0776
G1 X94.491 Y141.289 E20.1511
G1 X94.476 Y141.327 E20.1543
G1 X94.376 Y141.562 E20.1737
G1 X94.359 Y141.599 E20.1768
G1 X94.049 Y142.203 E20.2287
G1 X94.031 Y142.234 E20.2314
G1 X93.917 Y142.426 E20.2484
G1 X93.898 Y142.456 E20.2511
G1 X93.509 Y143.026 E20.3038
G1 X93.488 Y143.055 E20.3065
G1 X93.350 Y143.232 E20.3237
G1 X93.326 Y143.260 E20.3265
G1 X92.872 Y143.774 E20.3788
G1 X92.848 Y143.799 E20.3814
G1 X92.696 Y143.951 E20.3979
G1 X92.671 Y143.975 E20.4005
G1 X92.143 Y144.443 E20.4543
G1 X92.111 Y144.469 E20.4575
G1 X91.905 Y144.627 E20.4773
G1 X91.871 Y144.651 E20.4805
G1 X90.956 Y145.251 E20.5640
G1 X90.911 Y145.278 E20.5680
G1 X90.624 Y145.431 E20.5928
G1 X90.576 Y145.453 E20.5968
G1 X89.575 Y145.875 E20.6797
G1 X89.539 Y145.889 E20.6826
G1 X89.315 Y145.966 E20.7007
G1 X89.278 Y145.977 E20.7036
G1 X88.617 Y146.157 E20.7559
G1 X88.588 Y146.164 E20.7582
G1 X88.406 Y146.204 E20.7724
G1 X88.377 Y146.209 E20.7747
G1 X87.723 Y146.316 E20.8252
G1 X87.693 Y146.320 E20.8276
G1 X87.503 Y146.341 E20.8421
G1 X87.473 Y146.344 E20.8445
G1 X86.805 Y146.380 E20.8955
G1 X86.772 Y146.381 E20.8980
G1 X86.572 Y146.381 E20.9133
G1 X86.539 Y146.380 E20.9158
G1 X85.877 Y146.342 E20.9664
G1 X85.848 Y146.340 E20.9686
G1 X85.670 Y146.321 E20.9823
G1 X85.642 Y146.317 E20.9845
G1 X85.034 Y146.221 E21.0314
G1 X85.001 Y146.214 E21.0340
G1 X84.798 Y146.170 E21.0498
G1 X84.766 Y146.162 E21.0523
G1 X84.087 Y145.972 E21.1062
G1 X84.050 Y145.960 E21.1091
G1 X83.822 Y145.879 E21.1275
G1 X83.786 Y145.865 E21.1305
G1 X83.056 Y145.550 E21.1912
G1 X83.019 Y145.532 E21.1943
G1 X82.793 Y145.415 E21.2137
G1 X82.758 Y145.395 E21.2169
G1 X82.035 Y144.951 E21.2816
G1 X82.002 Y144.929 E21.2846
G1 X81.804 Y144.788 E21.3031
G1 X81.773 Y144.765 E21.3061
G1 X81.037 Y144.161 E21.3788
G1 X81.008 Y144.136 E21.3817
G1 X80.833 Y143.972 E21.3999
G1 X80.806 Y143.945 E21.4029
G1 X80.115 Y143.204 E21.4802
G1 X80.096 Y143.182 E21.4824
G1 X79.981 Y143.046 E21.4960
G1 X79.963 Y143.023 E21.4982
G1 X79.502 Y142.417 E21.5563
G1 X79.488 Y142.399 E21.5581
G1 X79.406 Y142.282 E21.5690
G1 X79.393 Y142.263 E21.5707
G1 X78.402 Y140.719 E21.7107
G1 X78.395 Y140.707 E21.7118
G1 X78.350 Y140.634 E21.7183
G1 X78.343 Y140.622 E21.7194
G1 X77.369 Y138.931 E21.8683
G1 X76.731 Y137.947 E21.9578
G1 X76.269 Y137.386 E22.0132
G1 X76.043 Y137.168 E22.0372
G1 X75.947 Y137.090 E22.0467
G1 X75.683 Y136.908 E22.0711
G1 X75.412 Y136.762 E22.0946
G1 X75.303 Y136.715 E22.1036
G1 X73.648 Y136.163 E22.2368
G1 X73.607 Y136.147 E22.2402
G1 X73.352 Y136.039 E22.2613
G1 X73.312 Y136.020 E22.2647
G1 X72.321 Y135.509 E22.3497
G1 X72.284 Y135.488 E22.3530
G1 X72.060 Y135.350 E22.3730
G1 X72.025 Y135.327 E22.3763
G1 X71.126 Y134.679 E22.4608
G1 X71.092 Y134.653 E22.4640
G1 X70.891 Y134.484 E22.4841
G1 X70.859 Y134.456 E22.4873
G1 X70.065 Y133.684 E22.5719
G1 X70.035 Y133.653 E22.5751
G1 X69.861 Y133.456 E22.5952
G1 X69.834 Y133.424 E22.5984
G1 X69.161 Y132.543 E22.6830
G1 X69.137 Y132.509 E22.6862
G1 X68.993 Y132.289 E22.7063
G1 X68.971 Y132.252 E22.7095
G1 X68.466 Y131.340 E22.7891
G1 X68.456 Y131.322 E22.7907
G1 X68.397 Y131.204 E22.8007
G1 X68.388 Y131.185 E22.8023
G1 X29.758 Y47.372 E29.8444
G1 X29.741 Y46.915 E29.8794
G1 X30.759 Y44.154 E30.1039
G1 X30.934 Y43.965 E30.1236
G1 X31.070 Y43.818 F810
<<<<<<< HEAD:Factory/x carriage green wipe retract.gcode
G92 E0
G1 X31.887 Y43.442 E-1.4000 F2700
G1 Z0.400 F420
G1 X31.159 Y44.399 F7800
G1 Z0.300 F420
G1 E-0.1000 F4200
