; G-Code generated by Simplify3D(R) Version 3.1.0
; Mar 3, 2017 at 12:28:27 AM
; Settings Summary
;   processName,Process1
;   applyToModels,x carriage 1.1.1 green
;   profileName,PETG 0.3 he.20 bt50 (modified)
;   profileVersion,2017-02-27 16:30:54
;   baseProfile,Default (modified)
;   printMaterial,
;   printQuality,
;   printExtruders,
;   extruderName,Primary Extruder
;   extruderToolheadNumber,0
;   extruderDiameter,0.4
;   extruderAutoWidth,0
;   extruderWidth,0.46
;   extrusionMultiplier,0.95
;   extruderUseRetract,1
;   extruderRetractionDistance,1.4
;   extruderExtraRestartDistance,-0.1
;   extruderRetractionZLift,0.1
;   extruderRetractionSpeed,4200
;   extruderUseCoasting,1
;   extruderCoastingDistance,0.2
;   extruderUseWipe,1
;   extruderWipeDistance,0.2
;   primaryExtruder,0
;   layerHeight,0.3
;   topSolidLayers,3
;   bottomSolidLayers,2
;   perimeterOutlines,2
;   printPerimetersInsideOut,1
;   startPointOption,2
;   startPointOriginX,80
;   startPointOriginY,0
;   startPointOriginZ,5
;   sequentialIslands,0
;   spiralVaseMode,0
;   firstLayerHeightPercentage,100
;   firstLayerWidthPercentage,120
;   firstLayerUnderspeed,0.35
;   useRaft,0
;   raftExtruder,0
;   raftLayers,3
;   raftOffset,3
;   raftSeparationDistance,0.14
;   raftInfill,85
;   disableRaftBaseLayers,0
;   useSkirt,1
;   skirtExtruder,0
;   skirtLayers,1
;   skirtOutlines,3
;   skirtOffset,3
;   usePrimePillar,0
;   primePillarExtruder,999
;   primePillarWidth,12
;   primePillarLocation,7
;   primePillarSpeedMultiplier,1
;   useOozeShield,0
;   oozeShieldExtruder,999
;   oozeShieldOffset,2
;   oozeShieldOutlines,1
;   oozeShieldSidewallShape,1
;   oozeShieldSidewallAngle,30
;   oozeShieldSpeedMultiplier,1
;   infillExtruder,0
;   internalInfillPattern,Rectilinear
;   externalInfillPattern,Rectilinear
;   infillPercentage,25
;   outlineOverlapPercentage,30
;   infillExtrusionWidthPercentage,155
;   minInfillLength,2
;   infillLayerInterval,1
;   infillAngles,45,-45
;   overlapInfillAngles,0
;   generateSupport,1
;   supportExtruder,0
;   supportInfillPercentage,20
;   supportExtraInflation,0.5
;   denseSupportLayers,0
;   denseSupportInfillPercentage,70
;   supportLayerInterval,1
;   supportHorizontalPartOffset,0.8
;   supportUpperSeparationLayers,1
;   supportLowerSeparationLayers,1
;   supportType,0
;   supportGridSpacing,2
;   maxOverhangAngle,70
;   supportAngles,0
;   temperatureName,Primary Extruder,bed
;   temperatureNumber,0,0
;   temperatureSetpointCount,2,2
;   temperatureSetpointLayers,1,2,1,2
;   temperatureSetpointTemperatures,240,235,55,50
;   temperatureStabilizeAtStartup,1,0
;   temperatureHeatedBed,0,1
;   temperatureRelayBetweenLayers,0,0
;   temperatureRelayBetweenLoops,0,0
;   fanLayers,1,4
;   fanSpeeds,0,20
;   blipFanToFullPower,1
;   adjustSpeedForCooling,0
;   minSpeedLayerTime,15
;   minCoolingSpeedSlowdown,65
;   increaseFanForCooling,1
;   minFanLayerTime,15
;   maxCoolingFanSpeed,60
;   increaseFanForBridging,1
;   bridgingFanSpeed,100
;   use5D,1
;   relativeEdistances,0
;   allowEaxisZeroing,1
;   independentExtruderAxes,0
;   includeM10123,0
;   stickySupport,1
;   applyToolheadOffsets,0
;   gcodeXoffset,0
;   gcodeYoffset,0
;   gcodeZoffset,0
;   overrideMachineDefinition,1
;   machineTypeOverride,0
;   strokeXoverride,170
;   strokeYoverride,160
;   strokeZoverride,145
;   originOffsetXoverride,0
;   originOffsetYoverride,0
;   originOffsetZoverride,0
;   homeXdirOverride,-1
;   homeYdirOverride,-1
;   homeZdirOverride,-1
;   flipXoverride,1
;   flipYoverride,-1
;   flipZoverride,1
;   toolheadOffsets,0,0|0,0|0,0|0,0|0,0|0,0
;   overrideFirmwareConfiguration,1
;   firmwareTypeOverride,RepRap (Marlin/Repetier/Sprinter)
;   GPXconfigOverride,r2
;   baudRateOverride,250000
;   overridePrinterModels,0
;   printerModelsOverride
;   startingGcode,;---------------------------------------,; ; ; Jellybox Start Script Begin ; ; ;,;_______________________________________,M117 Preparing        ; write Preparing,; M92 E140            ; optionally adjust E steps/mm,M207 S1.5 F600 Z0     ; optionally adjust retract settings,M208 S-0.00 F600      ; optionally adjust unretract = recover settings,M206 X10.0 Y0.0       ; set x homing offset for default bed leveling,G21                   ; metric values,G90                   ; absolute positioning,M107                  ; start with the fan off,M82                   ; set extruder to absolute mode,G28                   ; home all axes,M203 Z4               ; slow Z speed down for greater accuracy when probing,G29                   ; auto bed leveling procedure,M203 Z7               ; pick up z speed again for printing,G92 E0                ; reset the extruder position,G1 F1500 E15          ; extrude 15mm of feed stock,G92 E0                ; reset the extruder position again,M117 Print starting   ; write Print starting,;---------------------------------------------,; ; ; Jellybox Printer Start Script End ; ; ;,;_____________________________________________
;   layerChangeGcode,
;   retractionGcode,
;   toolChangeGcode,
;   endingGcode,; ---------------------------------,; ; ;  Jellybox End Script Begin ; ; ;,; _________________________________,M117 Finishing Up ; write Finishing Up,M107                  ; sfan off,M104 S0            ; extruder heater off,M140 S0            ; bed heater off (if you have it),G91                ; relative positioning,G1 E-1 F300        ; retract the filament a bit before lifting the nozzle to release some of the pressure,G1 Z+0.5 E-5 X-20 Y-20 F9000 ; move Z up a bit and retract filament even more,G90                ; absolute positioning,G28 X              ; home x so the head is out of the way,G1 Y100            ; move Y forward so the print is more accessible,M84                ; steppers off,M117 Print finished ; write Print finisheds,; ---------------------------------------,; ; ;  Jellybox End Script End ; ; ;,; _______________________________________
;   exportFileFormat,gcode
;   celebration,0
;   celebrationSong,Random Song
;   postProcessing,|{REPLACE "; layer" "M117 Layer"},|{REPLACE ", Z = " " "Z="}
;   defaultSpeed,3000
;   outlineUnderspeed,0.55
;   solidInfillUnderspeed,0.55
;   supportUnderspeed,0.9
;   rapidXYspeed,7200
;   rapidZspeed,420
;   minBridgingArea,50
;   bridgingExtraInflation,0.4
;   bridgingExtrusionMultiplier,1
;   bridgingSpeedMultiplier,1
;   filamentDiameter,1.75
;   filamentPricePerKg,30
;   filamentDensity,1.38
;   useMinPrintHeight,0
;   minPrintHeight,30
;   useMaxPrintHeight,0
;   maxPrintHeight,40
;   useDiaphragm,0
;   diaphragmLayerInterval,20
;   robustSlicing,1
;   mergeAllIntoSolid,0
;   onlyRetractWhenCrossingOutline,1
;   retractBetweenLayers,1
;   useRetractionMinTravel,1
;   retractionMinTravel,1
;   retractWhileWiping,1
;   onlyWipeOutlines,1
;   avoidCrossingOutline,1
;   maxMovementDetourFactor,2.5
;   toolChangeRetractionDistance,1.3
;   toolChangeExtraRestartDistance,0
;   toolChangeRetractionSpeed,600
;   allowThinWallGapFill,1
;   thinWallAllowedOverlapPercentage,15
;   horizontalSizeCompensation,0
G90
M82
M106 S0
M140 S55
M104 S240 T0
M109 S240 T0
;---------------------------------------
; ; ; Jellybox Start Script Begin ; ; ;
;_______________________________________
M117 Preparing        ; write Preparing
; M92 E140            ; optionally adjust E steps/mm
M207 S1.5 F600 Z0     ; optionally adjust retract settings
M208 S-0.00 F600      ; optionally adjust unretract = recover settings
M206 X10.0 Y0.0       ; set x homing offset for default bed leveling
G21                   ; metric values
G90                   ; absolute positioning
M107                  ; start with the fan off
M82                   ; set extruder to absolute mode
G28                   ; home all axes
M203 Z4               ; slow Z speed down for greater accuracy when probing
G29                   ; auto bed leveling procedure
M203 Z7               ; pick up z speed again for printing
G92 E0                ; reset the extruder position
G1 F1500 E15          ; extrude 15mm of feed stock
G92 E0                ; reset the extruder position again
M117 Print starting   ; write Print starting
;---------------------------------------------
; ; ; Jellybox Printer Start Script End ; ; ;
;_____________________________________________
G92 E0
G1 E-1.4000 F4200
G1 Z0.400 F420
M117 Layer 1 0.3
T0
; tool H0.300 W0.552
; skirt
G1 X31.070 Y43.818 F7200
G1 Z0.300 F420
G1 E-0.1000 F1260
G92 E0
G1 X52.039 Y34.154 E1.5101 F1050
G1 X52.483 Y34.132 E1.5393
G1 X55.185 Y35.066 E1.7262
G1 X55.521 Y35.358 E1.7553
G1 X57.008 Y38.263 E1.9688
G1 X57.910 Y39.867 E2.0891
G1 X58.829 Y41.320 E2.2016
G1 X59.454 Y42.204 E2.2724
G1 X60.358 Y43.318 E2.3662
G1 X61.228 Y44.208 E2.4476
G1 X61.600 Y44.532 E2.4799
G1 X61.987 Y44.829 E2.5118
G1 X62.362 Y45.079 E2.5413
G1 X62.725 Y45.282 E2.5685
G1 X63.090 Y45.450 E2.5948
G1 X63.457 Y45.579 E2.6202
G1 X63.832 Y45.673 E2.6455
G1 X63.934 Y45.690 E2.6523
G1 X64.600 Y45.748 E2.6960
G1 X64.938 Y45.741 E2.7181
G1 X65.355 Y45.697 E2.7455
G1 X66.140 Y45.541 E2.7979
G1 X67.254 Y45.199 E2.8741
G1 X68.421 Y44.733 E2.9563
G1 X73.293 Y42.487 E3.3072
G1 X74.406 Y41.902 E3.3894
G1 X75.390 Y41.278 E3.4656
G1 X76.019 Y40.782 E3.5180
G1 X76.322 Y40.494 E3.5454
G1 X76.548 Y40.241 E3.5675
G1 X76.935 Y39.697 E3.6112
G1 X76.989 Y39.608 E3.6180
G1 X77.161 Y39.263 E3.6433
G1 X77.302 Y38.900 E3.6687
G1 X77.412 Y38.513 E3.6950
G1 X77.483 Y38.153 E3.7190
G1 X77.559 Y37.370 E3.7705
G1 X77.564 Y36.642 E3.8181
G1 X77.455 Y35.438 E3.8972
G1 X77.196 Y34.027 E3.9910
G1 X76.930 Y32.977 E4.0618
G1 X76.422 Y31.335 E4.1743
G1 X75.789 Y29.607 E4.2946
G1 X74.546 Y26.590 E4.5081
G1 X74.542 Y26.144 E4.5372
G1 X75.587 Y23.484 E4.7241
G1 X75.892 Y23.160 E4.7533
G1 X96.861 Y13.496 E6.2634
G1 X97.318 Y13.478 E6.2933
G1 X100.079 Y14.496 E6.4858
G1 X100.415 Y14.807 E6.5157
G1 X128.009 Y74.678 E10.8276
G1 X128.062 Y74.890 E10.8418
G1 X128.134 Y76.257 E10.9314
G1 X128.104 Y76.474 E10.9457
G1 X127.766 Y77.474 E11.0148
G1 X127.712 Y77.707 E11.0304
G1 X127.671 Y78.051 E11.0531
G1 X127.674 Y78.354 E11.0729
G1 X127.740 Y78.808 E11.1029
G1 X127.834 Y79.135 E11.1251
G1 X127.933 Y79.376 E11.1422
G1 X128.046 Y79.589 E11.1579
G1 X128.276 Y79.918 E11.1842
G1 X128.601 Y80.263 E11.2152
G1 X128.952 Y80.531 E11.2441
G1 X129.282 Y80.711 E11.2687
G1 X130.237 Y81.095 E11.3360
G1 X130.420 Y81.213 E11.3502
G1 X131.410 Y82.155 E11.4396
G1 X131.537 Y82.332 E11.4539
G1 X139.046 Y98.624 E12.6272
G1 X139.055 Y98.645 E12.6287
G1 X139.109 Y98.774 E12.6379
G1 X139.117 Y98.795 E12.6393
G1 X139.502 Y99.839 E12.7121
G1 X139.516 Y99.882 E12.7151
G1 X139.592 Y100.153 E12.7334
G1 X139.603 Y100.197 E12.7364
G1 X139.833 Y101.357 E12.8138
G1 X139.840 Y101.402 E12.8167
G1 X139.873 Y101.681 E12.8351
G1 X139.877 Y101.726 E12.8381
G1 X139.923 Y102.908 E12.9155
G1 X139.923 Y102.953 E12.9184
G1 X139.912 Y103.234 E12.9368
G1 X139.909 Y103.279 E12.9397
G1 X139.770 Y104.454 E13.0171
G1 X139.763 Y104.499 E13.0201
G1 X139.708 Y104.774 E13.0385
G1 X139.697 Y104.818 E13.0414
G1 X139.376 Y105.957 E13.1188
G1 X139.362 Y106.000 E13.1218
G1 X139.265 Y106.263 E13.1401
G1 X139.247 Y106.305 E13.1431
G1 X138.752 Y107.379 E13.2205
G1 X138.731 Y107.420 E13.2234
G1 X138.594 Y107.665 E13.2418
G1 X138.571 Y107.703 E13.2447
G1 X137.913 Y108.687 E13.3221
G1 X137.887 Y108.723 E13.3251
G1 X137.713 Y108.944 E13.3435
G1 X137.683 Y108.978 E13.3464
G1 X136.880 Y109.847 E13.4238
G1 X136.848 Y109.879 E13.4268
G1 X136.642 Y110.070 E13.4451
G1 X136.607 Y110.099 E13.4481
G1 X135.678 Y110.832 E13.5255
G1 X135.642 Y110.858 E13.5284
G1 X135.408 Y111.014 E13.5468
G1 X135.370 Y111.038 E13.5498
G1 X134.399 Y111.581 E13.6225
G1 X134.379 Y111.592 E13.6240
G1 X134.254 Y111.656 E13.6332
G1 X134.233 Y111.666 E13.6347
G1 X95.311 Y129.605 E16.4378
G1 X94.840 Y129.837 E16.4721
G1 X94.427 Y130.075 E16.5033
G1 X94.109 Y130.298 E16.5287
G1 X93.765 Y130.623 E16.5597
G1 X93.757 Y130.640 E16.5609
G1 X93.753 Y130.654 E16.5619
G1 X93.749 Y130.694 E16.5645
G1 X93.758 Y131.104 E16.5913
G1 X93.836 Y131.626 E16.6259
G1 X94.003 Y132.350 E16.6745
G1 X94.687 Y134.892 E16.8467
G1 X94.692 Y134.912 E16.8480
G1 X94.721 Y135.036 E16.8563
G1 X94.725 Y135.056 E16.8576
G1 X94.964 Y136.289 E16.9398
G1 X94.969 Y136.313 E16.9414
G1 X94.991 Y136.465 E16.9514
G1 X94.994 Y136.489 E16.9531
G1 X95.081 Y137.307 E17.0068
G1 X95.084 Y137.334 E17.0086
G1 X95.094 Y137.507 E17.0200
G1 X95.094 Y137.535 E17.0218
G1 X95.102 Y138.407 E17.0788
G1 X95.101 Y138.450 E17.0816
G1 X95.083 Y138.719 E17.0992
G1 X95.079 Y138.762 E17.1021
G1 X94.910 Y139.941 E17.1800
G1 X94.900 Y139.995 E17.1835
G1 X94.820 Y140.325 E17.2058
G1 X94.805 Y140.378 E17.2094
G1 X94.491 Y141.289 E17.2724
G1 X94.476 Y141.327 E17.2751
G1 X94.376 Y141.562 E17.2918
G1 X94.359 Y141.599 E17.2944
G1 X94.049 Y142.203 E17.3389
G1 X94.031 Y142.234 E17.3412
G1 X93.917 Y142.426 E17.3558
G1 X93.898 Y142.456 E17.3581
G1 X93.509 Y143.026 E17.4032
G1 X93.488 Y143.055 E17.4056
G1 X93.350 Y143.232 E17.4203
G1 X93.326 Y143.260 E17.4227
G1 X92.872 Y143.774 E17.4675
G1 X92.848 Y143.799 E17.4698
G1 X92.696 Y143.951 E17.4839
G1 X92.671 Y143.975 E17.4861
G1 X92.143 Y144.443 E17.5323
G1 X92.111 Y144.469 E17.5350
G1 X91.905 Y144.627 E17.5520
G1 X91.871 Y144.651 E17.5547
G1 X90.956 Y145.251 E17.6263
G1 X90.911 Y145.278 E17.6297
G1 X90.624 Y145.431 E17.6510
G1 X90.576 Y145.453 E17.6544
G1 X89.575 Y145.875 E17.7255
G1 X89.539 Y145.889 E17.7280
G1 X89.315 Y145.966 E17.7435
G1 X89.278 Y145.977 E17.7460
G1 X88.617 Y146.157 E17.7908
G1 X88.588 Y146.164 E17.7928
G1 X88.406 Y146.204 E17.8049
G1 X88.377 Y146.209 E17.8069
G1 X87.723 Y146.316 E17.8502
G1 X87.693 Y146.320 E17.8522
G1 X87.503 Y146.341 E17.8647
G1 X87.473 Y146.344 E17.8667
G1 X86.805 Y146.380 E17.9104
G1 X86.772 Y146.381 E17.9126
G1 X86.572 Y146.381 E17.9257
G1 X86.539 Y146.380 E17.9278
G1 X85.877 Y146.342 E17.9712
G1 X85.848 Y146.340 E17.9731
G1 X85.670 Y146.321 E17.9848
G1 X85.642 Y146.317 E17.9867
G1 X85.034 Y146.221 E18.0269
G1 X85.001 Y146.214 E18.0291
G1 X84.798 Y146.170 E18.0427
G1 X84.766 Y146.162 E18.0449
G1 X84.087 Y145.972 E18.0910
G1 X84.050 Y145.960 E18.0935
G1 X83.822 Y145.879 E18.1093
G1 X83.786 Y145.865 E18.1119
G1 X83.056 Y145.550 E18.1639
G1 X83.019 Y145.532 E18.1665
G1 X82.793 Y145.415 E18.1832
G1 X82.758 Y145.395 E18.1859
G1 X82.035 Y144.951 E18.2413
G1 X82.002 Y144.929 E18.2439
G1 X81.804 Y144.788 E18.2598
G1 X81.773 Y144.765 E18.2624
G1 X81.037 Y144.161 E18.3247
G1 X81.008 Y144.136 E18.3272
G1 X80.833 Y143.972 E18.3428
G1 X80.806 Y143.945 E18.3453
G1 X80.115 Y143.204 E18.4116
G1 X80.096 Y143.182 E18.4135
G1 X79.981 Y143.046 E18.4252
G1 X79.963 Y143.023 E18.4270
G1 X79.502 Y142.417 E18.4769
G1 X79.488 Y142.399 E18.4784
G1 X79.406 Y142.282 E18.4877
G1 X79.393 Y142.263 E18.4892
G1 X78.402 Y140.719 E18.6092
G1 X78.395 Y140.707 E18.6101
G1 X78.350 Y140.634 E18.6157
G1 X78.343 Y140.622 E18.6166
G1 X77.369 Y138.931 E18.7442
G1 X76.731 Y137.947 E18.8210
G1 X76.269 Y137.386 E18.8685
G1 X76.043 Y137.168 E18.8890
G1 X75.947 Y137.090 E18.8972
G1 X75.683 Y136.908 E18.9181
G1 X75.412 Y136.762 E18.9382
G1 X75.303 Y136.715 E18.9460
G1 X73.648 Y136.163 E19.0601
G1 X73.607 Y136.147 E19.0630
G1 X73.352 Y136.039 E19.0811
G1 X73.312 Y136.020 E19.0840
G1 X72.321 Y135.509 E19.1569
G1 X72.284 Y135.488 E19.1597
G1 X72.060 Y135.350 E19.1769
G1 X72.025 Y135.327 E19.1796
G1 X71.126 Y134.679 E19.2521
G1 X71.092 Y134.653 E19.2549
G1 X70.891 Y134.484 E19.2721
G1 X70.859 Y134.456 E19.2749
G1 X70.065 Y133.684 E19.3473
G1 X70.035 Y133.653 E19.3501
G1 X69.861 Y133.456 E19.3673
G1 X69.834 Y133.424 E19.3701
G1 X69.161 Y132.543 E19.4426
G1 X69.137 Y132.509 E19.4453
G1 X68.993 Y132.289 E19.4625
G1 X68.971 Y132.252 E19.4653
G1 X68.466 Y131.340 E19.5335
G1 X68.456 Y131.322 E19.5349
G1 X68.397 Y131.204 E19.5435
G1 X68.388 Y131.185 E19.5449
G1 X29.758 Y47.372 E25.5810
G1 X29.741 Y46.915 E25.6109
G1 X30.759 Y44.154 E25.8034
G1 X30.934 Y43.965 E25.8202
G1 X31.070 Y43.818 F1050
G1 X31.159 Y44.399 F7200
G92 E0
G1 X31.346 Y44.198 E0.0180 F1050
G1 X52.150 Y34.609 E1.5163
