; G-Code generated by Simplify3D(R) Version 3.1.0
; Mar 15, 2017 at 1:52:50 PM
; Settings Summary
;   processName,Process1
;   applyToModels,zx coupler 1.5 green,zx coupler 1.5 green(2)
;   profileName,PETG 0.3 he.20 bt50 (modified)
;   profileVersion,2017-02-27 23:31:17
;   baseProfile,Default (modified)
;   printMaterial,
;   printQuality,
;   printExtruders,
;   extruderName,Primary Extruder
;   extruderToolheadNumber,0
;   extruderDiameter,0.4
;   extruderAutoWidth,0
;   extruderWidth,0.48
;   extrusionMultiplier,0.95
;   extruderUseRetract,1
;   extruderRetractionDistance,1.4
;   extruderExtraRestartDistance,-0.1
;   extruderRetractionZLift,0.1
;   extruderRetractionSpeed,4200
;   extruderUseCoasting,1
;   extruderCoastingDistance,0.2
;   extruderUseWipe,1
;   extruderWipeDistance,0.2
;   primaryExtruder,0
;   layerHeight,0.3
;   topSolidLayers,3
;   bottomSolidLayers,2
;   perimeterOutlines,2
;   printPerimetersInsideOut,1
;   startPointOption,2
;   startPointOriginX,80
;   startPointOriginY,0
;   startPointOriginZ,5
;   sequentialIslands,0
;   spiralVaseMode,0
;   firstLayerHeightPercentage,100
;   firstLayerWidthPercentage,100
;   firstLayerUnderspeed,0.35
;   useRaft,0
;   raftExtruder,0
;   raftLayers,3
;   raftOffset,3
;   raftSeparationDistance,0.14
;   raftInfill,85
;   disableRaftBaseLayers,0
;   useSkirt,1
;   skirtExtruder,0
;   skirtLayers,1
;   skirtOutlines,3
;   skirtOffset,3
;   usePrimePillar,0
;   primePillarExtruder,999
;   primePillarWidth,12
;   primePillarLocation,7
;   primePillarSpeedMultiplier,1
;   useOozeShield,0
;   oozeShieldExtruder,999
;   oozeShieldOffset,2
;   oozeShieldOutlines,1
;   oozeShieldSidewallShape,1
;   oozeShieldSidewallAngle,30
;   oozeShieldSpeedMultiplier,1
;   infillExtruder,0
;   internalInfillPattern,Rectilinear
;   externalInfillPattern,Rectilinear
;   infillPercentage,22
;   outlineOverlapPercentage,30
;   infillExtrusionWidthPercentage,150
;   minInfillLength,2
;   infillLayerInterval,1
;   infillAngles,45,-45
;   overlapInfillAngles,0
;   generateSupport,0
;   supportExtruder,0
;   supportInfillPercentage,33
;   supportExtraInflation,0.5
;   denseSupportLayers,0
;   denseSupportInfillPercentage,70
;   supportLayerInterval,1
;   supportHorizontalPartOffset,0.8
;   supportUpperSeparationLayers,1
;   supportLowerSeparationLayers,1
;   supportType,0
;   supportGridSpacing,1.5
;   maxOverhangAngle,55
;   supportAngles,90
;   temperatureName,Primary Extruder,bed
;   temperatureNumber,0,0
;   temperatureSetpointCount,2,2
;   temperatureSetpointLayers,1,2,1,2
;   temperatureSetpointTemperatures,240,235,55,50
;   temperatureStabilizeAtStartup,1,0
;   temperatureHeatedBed,0,1
;   temperatureRelayBetweenLayers,0,0
;   temperatureRelayBetweenLoops,0,0
;   fanLayers,1,4
;   fanSpeeds,0,20
;   blipFanToFullPower,1
;   adjustSpeedForCooling,0
;   minSpeedLayerTime,15
;   minCoolingSpeedSlowdown,65
;   increaseFanForCooling,1
;   minFanLayerTime,15
;   maxCoolingFanSpeed,60
;   increaseFanForBridging,1
;   bridgingFanSpeed,100
;   use5D,1
;   relativeEdistances,0
;   allowEaxisZeroing,1
;   independentExtruderAxes,0
;   includeM10123,0
;   stickySupport,1
;   applyToolheadOffsets,0
;   gcodeXoffset,0
;   gcodeYoffset,0
;   gcodeZoffset,0
;   overrideMachineDefinition,1
;   machineTypeOverride,0
;   strokeXoverride,170
;   strokeYoverride,160
;   strokeZoverride,145
;   originOffsetXoverride,0
;   originOffsetYoverride,0
;   originOffsetZoverride,0
;   homeXdirOverride,-1
;   homeYdirOverride,-1
;   homeZdirOverride,-1
;   flipXoverride,1
;   flipYoverride,-1
;   flipZoverride,1
;   toolheadOffsets,0,0|0,0|0,0|0,0|0,0|0,0
;   overrideFirmwareConfiguration,1
;   firmwareTypeOverride,RepRap (Marlin/Repetier/Sprinter)
;   GPXconfigOverride,r2
;   baudRateOverride,250000
;   overridePrinterModels,0
;   printerModelsOverride
;   startingGcode,;---------------------------------------,; ; ; Jellybox Start Script Begin ; ; ;,;_______________________________________,M117 Preparing        ; write Preparing,; M92 E140            ; optionally adjust E steps/mm,M207 S1.5 F600 Z0     ; optionally adjust retract settings,M208 S-0.00 F600      ; optionally adjust unretract = recover settings,M206 X10.0 Y0.0       ; set x homing offset for default bed leveling,G21                   ; metric values,G90                   ; absolute positioning,M107                  ; start with the fan off,M82                   ; set extruder to absolute mode,G28                   ; home all axes,M203 Z4               ; slow Z speed down for greater accuracy when probing,G29                   ; auto bed leveling procedure,M203 Z7               ; pick up z speed again for printing,G92 E0                ; reset the extruder position,G1 F1500 E15          ; extrude 15mm of feed stock,G92 E0                ; reset the extruder position again,M117 Print starting   ; write Print starting,;---------------------------------------------,; ; ; Jellybox Printer Start Script End ; ; ;,;_____________________________________________
;   layerChangeGcode,
;   retractionGcode,
;   toolChangeGcode,
;   endingGcode,; ---------------------------------,; ; ;  Jellybox End Script Begin ; ; ;,; _________________________________,M117 Finishing Up ; write Finishing Up,M107                  ; sfan off,M104 S0            ; extruder heater off,M140 S0            ; bed heater off (if you have it),G91                ; relative positioning,G1 E-1 F300        ; retract the filament a bit before lifting the nozzle to release some of the pressure,G1 Z+0.5 E-5 X-20 Y-20 F9000 ; move Z up a bit and retract filament even more,G90                ; absolute positioning,G28 X              ; home x so the head is out of the way,G1 Y100            ; move Y forward so the print is more accessible,M84                ; steppers off,M117 Print finished ; write Print finisheds,; ---------------------------------------,; ; ;  Jellybox End Script End ; ; ;,; _______________________________________
;   exportFileFormat,gcode
;   celebration,0
;   celebrationSong,Random Song
;   postProcessing,|{REPLACE "; layer" "M117 Layer"},|{REPLACE ", Z = " " "Z="}
;   defaultSpeed,2700
;   outlineUnderspeed,0.55
;   solidInfillUnderspeed,0.55
;   supportUnderspeed,0.9
;   rapidXYspeed,7200
;   rapidZspeed,420
;   minBridgingArea,50
;   bridgingExtraInflation,0.3
;   bridgingExtrusionMultiplier,1
;   bridgingSpeedMultiplier,1
;   filamentDiameter,1.75
;   filamentPricePerKg,30
;   filamentDensity,1.38
;   useMinPrintHeight,0
;   minPrintHeight,30
;   useMaxPrintHeight,0
;   maxPrintHeight,40
;   useDiaphragm,0
;   diaphragmLayerInterval,20
;   robustSlicing,1
;   mergeAllIntoSolid,0
;   onlyRetractWhenCrossingOutline,1
;   retractBetweenLayers,1
;   useRetractionMinTravel,1
;   retractionMinTravel,1
;   retractWhileWiping,1
;   onlyWipeOutlines,1
;   avoidCrossingOutline,1
;   maxMovementDetourFactor,2.5
;   toolChangeRetractionDistance,1.3
;   toolChangeExtraRestartDistance,0
;   toolChangeRetractionSpeed,600
;   allowThinWallGapFill,1
;   thinWallAllowedOverlapPercentage,15
;   horizontalSizeCompensation,0
G90
M82
M106 S0
M140 S55
M104 S240 T0
M109 S240 T0
;---------------------------------------
; ; ; Jellybox Start Script Begin ; ; ;
;_______________________________________
M117 Preparing        ; write Preparing
; M92 E140            ; optionally adjust E steps/mm
M207 S1.5 F600 Z0     ; optionally adjust retract settings
M208 S-0.00 F600      ; optionally adjust unretract = recover settings
M206 X10.0 Y0.0       ; set x homing offset for default bed leveling
G21                   ; metric values
G90                   ; absolute positioning
M107                  ; start with the fan off
M82                   ; set extruder to absolute mode
G28                   ; home all axes
M203 Z4               ; slow Z speed down for greater accuracy when probing
G29                   ; auto bed leveling procedure
M203 Z7               ; pick up z speed again for printing
G92 E0                ; reset the extruder position
G1 F1500 E15          ; extrude 15mm of feed stock
G92 E0                ; reset the extruder position again
M117 Print starting   ; write Print starting
;---------------------------------------------
; ; ; Jellybox Printer Start Script End ; ; ;
;_____________________________________________
G92 E0
G1 E-1.4000 F4200
G1 Z0.400 F420
M117 Layer 1 0.3
T0
; tool H0.300 W0.480
; skirt
G1 X71.638 Y57.613 F7200
G1 Z0.300 F420
G1 E-0.1000 F1260
G92 E0
G1 X71.744 Y57.490 E0.0092 F945
G1 X71.762 Y57.469 E0.0108
G1 X72.747 Y56.414 E0.0929
G1 X72.767 Y56.392 E0.0946
G1 X72.895 Y56.269 E0.1047
G1 X72.916 Y56.249 E0.1064
G1 X73.681 Y55.576 E0.1643
G1 X73.700 Y55.560 E0.1657
G1 X73.812 Y55.469 E0.1739
G1 X73.831 Y55.455 E0.1753
G1 X74.700 Y54.806 E0.2369
G1 X74.720 Y54.792 E0.2383
G1 X74.843 Y54.707 E0.2468
G1 X74.864 Y54.694 E0.2483
G1 X75.855 Y54.075 E0.3147
G1 X75.872 Y54.065 E0.3158
G1 X75.971 Y54.007 E0.3224
G1 X75.988 Y53.998 E0.3234
G1 X76.568 Y53.685 E0.3609
G1 X76.584 Y53.677 E0.3619
G1 X76.676 Y53.630 E0.3678
G1 X76.692 Y53.623 E0.3688
G1 X77.636 Y53.183 E0.4280
G1 X77.654 Y53.175 E0.4291
G1 X77.762 Y53.128 E0.4358
G1 X77.780 Y53.121 E0.4369
G1 X78.669 Y52.775 E0.4912
G1 X78.686 Y52.769 E0.4922
G1 X78.788 Y52.732 E0.4984
G1 X78.805 Y52.727 E0.4994
G1 X79.684 Y52.444 E0.5519
G1 X79.701 Y52.439 E0.5529
G1 X79.806 Y52.409 E0.5591
G1 X79.823 Y52.404 E0.5602
G1 X80.851 Y52.141 E0.6205
G1 X80.872 Y52.136 E0.6217
G1 X80.998 Y52.109 E0.6291
G1 X81.019 Y52.105 E0.6303
G1 X82.260 Y51.881 E0.7020
G1 X82.280 Y51.878 E0.7032
G1 X82.405 Y51.860 E0.7103
G1 X82.425 Y51.857 E0.7115
G1 X83.497 Y51.740 E0.7728
G1 X83.523 Y51.738 E0.7743
G1 X83.676 Y51.727 E0.7830
G1 X83.701 Y51.726 E0.7845
G1 X85.417 Y51.685 E0.8821
G1 X85.444 Y51.685 E0.8836
G1 X85.606 Y51.689 E0.8928
G1 X85.633 Y51.690 E0.8944
G1 X86.851 Y51.771 E0.9638
G1 X86.878 Y51.773 E0.9653
G1 X87.038 Y51.791 E0.9745
G1 X87.065 Y51.795 E0.9761
G1 X88.806 Y52.069 E1.0763
G1 X88.834 Y52.074 E1.0779
G1 X88.999 Y52.108 E1.0875
G1 X89.027 Y52.114 E1.0891
G1 X90.256 Y52.428 E1.1613
G1 X90.278 Y52.434 E1.1625
G1 X90.404 Y52.471 E1.1700
G1 X90.426 Y52.478 E1.1713
G1 X91.512 Y52.842 E1.2365
G1 X91.531 Y52.849 E1.2376
G1 X91.646 Y52.891 E1.2446
G1 X91.665 Y52.899 E1.2457
G1 X92.539 Y53.259 E1.2995
G1 X92.556 Y53.266 E1.3006
G1 X92.658 Y53.312 E1.3069
G1 X92.675 Y53.320 E1.3080
G1 X93.519 Y53.731 E1.3614
G1 X93.536 Y53.740 E1.3625
G1 X93.639 Y53.794 E1.3691
G1 X93.656 Y53.803 E1.3702
G1 X94.470 Y54.267 E1.4235
G1 X94.487 Y54.277 E1.4246
G1 X94.590 Y54.340 E1.4314
G1 X94.606 Y54.351 E1.4326
G1 X95.388 Y54.867 E1.4858
G1 X95.405 Y54.879 E1.4870
G1 X95.508 Y54.952 E1.4942
G1 X95.524 Y54.965 E1.4954
G1 X96.279 Y55.543 E1.5494
G1 X96.296 Y55.557 E1.5507
G1 X96.399 Y55.642 E1.5583
G1 X96.416 Y55.657 E1.5596
G1 X97.131 Y56.295 E1.6141
G1 X97.148 Y56.310 E1.6154
G1 X97.247 Y56.405 E1.6232
G1 X97.263 Y56.422 E1.6245
G1 X97.934 Y57.119 E1.6795
G1 X97.949 Y57.135 E1.6808
G1 X98.039 Y57.236 E1.6885
G1 X98.054 Y57.254 E1.6898
G1 X98.677 Y58.007 E1.7454
G1 X98.690 Y58.023 E1.7466
G1 X98.768 Y58.125 E1.7539
G1 X98.781 Y58.142 E1.7551
G1 X99.242 Y58.789 E1.8003
G1 X99.252 Y58.804 E1.8013
G1 X99.315 Y58.898 E1.8078
G1 X99.325 Y58.914 E1.8088
G1 X100.020 Y60.030 E1.8836
G1 X100.032 Y60.050 E1.8849
G1 X100.103 Y60.175 E1.8931
G1 X100.114 Y60.196 E1.8945
G1 X100.584 Y61.104 E1.9526
G1 X100.592 Y61.119 E1.9536
G1 X100.637 Y61.214 E1.9596
G1 X100.644 Y61.230 E1.9605
G1 X101.045 Y62.131 E2.0166
G1 X101.054 Y62.150 E2.0178
G1 X101.100 Y62.266 E2.0249
G1 X101.108 Y62.285 E2.0261
G1 X101.656 Y63.790 E2.1172
G1 X101.662 Y63.808 E2.1183
G1 X101.698 Y63.918 E2.1248
G1 X101.704 Y63.936 E2.1259
G1 X101.998 Y64.936 E2.1852
G1 X102.002 Y64.951 E2.1861
G1 X102.026 Y65.043 E2.1915
G1 X102.030 Y65.058 E2.1924
G1 X102.373 Y66.507 E2.2771
G1 X102.376 Y66.521 E2.2779
G1 X102.395 Y66.607 E2.2829
G1 X102.397 Y66.622 E2.2837
G1 X102.587 Y67.642 E2.3428
G1 X102.589 Y67.653 E2.3434
G1 X102.600 Y67.720 E2.3472
G1 X102.602 Y67.731 E2.3479
G1 X102.772 Y68.887 E2.4144
G1 X102.774 Y68.900 E2.4151
G1 X102.784 Y68.979 E2.4197
G1 X102.786 Y68.993 E2.4204
G1 X102.914 Y70.244 E2.4919
G1 X102.915 Y70.264 E2.4931
G1 X102.924 Y70.383 E2.4999
G1 X102.925 Y70.403 E2.5010
G1 X102.963 Y71.470 E2.5618
G1 X102.963 Y71.488 E2.5628
G1 X102.964 Y71.594 E2.5688
G1 X102.964 Y71.611 E2.5698
G1 X102.933 Y72.924 E2.6445
G1 X102.932 Y72.947 E2.6458
G1 X102.924 Y73.088 E2.6538
G1 X102.922 Y73.112 E2.6552
G1 X102.788 Y74.431 E2.7306
G1 X102.785 Y74.453 E2.7318
G1 X102.767 Y74.580 E2.7392
G1 X102.764 Y74.602 E2.7404
G1 X102.637 Y75.329 E2.7824
G1 X102.632 Y75.356 E2.7839
G1 X102.597 Y75.514 E2.7931
G1 X102.590 Y75.540 E2.7947
G1 X102.238 Y76.849 E2.8718
G1 X102.229 Y76.879 E2.8736
G1 X102.170 Y77.060 E2.8844
G1 X102.160 Y77.090 E2.8862
G1 X101.876 Y77.824 E2.9309
G1 X101.863 Y77.856 E2.9329
G1 X101.777 Y78.044 E2.9447
G1 X101.762 Y78.075 E2.9466
G1 X101.224 Y79.101 E3.0125
G1 X101.203 Y79.137 E3.0149
G1 X101.073 Y79.349 E3.0290
G1 X101.050 Y79.384 E3.0314
G1 X100.594 Y80.020 E3.0759
G1 X100.671 Y80.102 E3.0823
G1 X101.373 Y81.263 E3.1595
G1 X101.388 Y81.290 E3.1612
G1 X101.475 Y81.451 E3.1716
G1 X101.489 Y81.478 E3.1734
G1 X101.807 Y82.150 E3.2156
G1 X101.821 Y82.181 E3.2176
G1 X101.897 Y82.370 E3.2292
G1 X101.909 Y82.401 E3.2311
G1 X102.338 Y83.657 E3.3066
G1 X102.350 Y83.694 E3.3088
G1 X102.411 Y83.922 E3.3222
G1 X102.420 Y83.960 E3.3244
G1 X102.718 Y85.438 E3.4102
G1 X102.723 Y85.467 E3.4118
G1 X102.749 Y85.637 E3.4216
G1 X102.752 Y85.666 E3.4232
G1 X102.868 Y86.788 E3.4874
G1 X102.870 Y86.811 E3.4887
G1 X102.879 Y86.944 E3.4963
G1 X102.880 Y86.966 E3.4976
G1 X102.919 Y88.350 E3.5763
G1 X102.920 Y88.369 E3.5774
G1 X102.919 Y88.478 E3.5836
G1 X102.919 Y88.496 E3.5846
G1 X102.887 Y89.474 E3.6402
G1 X102.887 Y89.490 E3.6412
G1 X102.881 Y89.592 E3.6470
G1 X102.879 Y89.609 E3.6479
G1 X102.793 Y90.580 E3.7034
G1 X102.791 Y90.597 E3.7044
G1 X102.779 Y90.699 E3.7102
G1 X102.777 Y90.716 E3.7112
G1 X102.480 Y92.739 E3.8275
G1 X102.477 Y92.757 E3.8285
G1 X102.457 Y92.867 E3.8349
G1 X102.454 Y92.885 E3.8359
G1 X102.184 Y94.166 E3.9104
G1 X102.180 Y94.181 E3.9113
G1 X102.157 Y94.277 E3.9169
G1 X102.153 Y94.293 E3.9178
G1 X101.749 Y95.798 E4.0064
G1 X101.743 Y95.820 E4.0077
G1 X101.703 Y95.949 E4.0154
G1 X101.696 Y95.970 E4.0167
G1 X101.158 Y97.505 E4.1092
G1 X101.150 Y97.526 E4.1105
G1 X101.101 Y97.652 E4.1182
G1 X101.092 Y97.673 E4.1195
G1 X100.618 Y98.756 E4.1867
G1 X100.611 Y98.771 E4.1877
G1 X100.567 Y98.865 E4.1935
G1 X100.559 Y98.880 E4.1945
G1 X100.169 Y99.650 E4.2436
G1 X100.160 Y99.667 E4.2447
G1 X100.103 Y99.770 E4.2514
G1 X100.093 Y99.787 E4.2525
G1 X99.524 Y100.747 E4.3160
G1 X99.510 Y100.770 E4.3175
G1 X99.424 Y100.902 E4.3265
G1 X99.409 Y100.923 E4.3280
G1 X98.520 Y102.160 E4.4146
G1 X98.502 Y102.185 E4.4163
G1 X98.387 Y102.329 E4.4268
G1 X98.367 Y102.352 E4.4285
G1 X97.561 Y103.262 E4.4977
G1 X97.540 Y103.285 E4.4995
G1 X97.406 Y103.421 E4.5103
G1 X97.383 Y103.443 E4.5121
G1 X96.319 Y104.414 E4.5940
G1 X96.297 Y104.434 E4.5957
G1 X96.160 Y104.547 E4.6058
G1 X96.137 Y104.565 E4.6075
G1 X95.255 Y105.223 E4.6701
G1 X95.234 Y105.238 E4.6715
G1 X95.111 Y105.322 E4.6800
G1 X95.090 Y105.336 E4.6815
G1 X94.072 Y105.972 E4.7497
G1 X94.046 Y105.987 E4.7515
G1 X93.888 Y106.075 E4.7617
G1 X93.861 Y106.089 E4.7634
G1 X92.383 Y106.818 E4.8572
G1 X92.359 Y106.829 E4.8586
G1 X92.216 Y106.891 E4.8675
G1 X92.192 Y106.901 E4.8690
G1 X91.282 Y107.256 E4.9246
G1 X91.263 Y107.263 E4.9257
G1 X91.153 Y107.302 E4.9324
G1 X91.134 Y107.308 E4.9335
G1 X90.125 Y107.627 E4.9937
G1 X90.108 Y107.632 E4.9947
G1 X90.004 Y107.661 E5.0008
G1 X89.986 Y107.666 E5.0019
G1 X89.089 Y107.891 E5.0545
G1 X89.070 Y107.896 E5.0556
G1 X88.951 Y107.921 E5.0625
G1 X88.931 Y107.925 E5.0637
G1 X87.679 Y108.151 E5.1361
G1 X87.653 Y108.156 E5.1376
G1 X87.496 Y108.177 E5.1465
G1 X87.470 Y108.180 E5.1480
G1 X85.850 Y108.327 E5.2406
G1 X85.824 Y108.329 E5.2420
G1 X85.670 Y108.337 E5.2508
G1 X85.645 Y108.337 E5.2522
