;FLAVOR:Marlin
;TIME:2740
;Filament used: 2.02937m
;Layer height: 0.2
;Generated with Cura_SteamEngine 3.2.1
M82 ;absolute extrusion mode
;---------------------------------------
; ; ; Jellybox Start Script Begin ; ; ;
;_______________________________________
; M92 E140 ;optionally adjust steps per mm for your filament

;              Print Settings Summary
; (leave these alone: this is only a list of the slicing settings)
; (overwriting these values will NOT change your printer's behavior)
;             sliced for :  {machine_name}
;        nozzle diameter :  {machine_nozzle_size}
;      filament diameter :  {material_diameter}
;           layer height :  {layer_height}
;       1st layer height :  {layer_height_0}
;             line width :  {line_width}  
;  outer wall wipe dist. :  {wall_0_wipe_dist}
;      infill line width :  {infill_line_width}
;         wall thickness :  {wall_thickness}
;          top thickness :  {top_thickness}
;       bottom thickness :  {bottom_thickness}
;         infill density :  {infill_sparse_density}
;         infill pattern :  {infill_pattern}
;      print temperature :  {material_print_temperature}
;  1st layer print temp. :  {material_print_temperature_layer_0}
; heated bed temperature :  {material_bed_temperature}
;    1st layer bed temp. :  {material_bed_temperature_layer_0}
;      regular fan speed :  {cool_fan_speed_min}
;          max fan speed :  {cool_fan_speed_max}
;     retraction amount  :  {retraction_amount}
;   retr. retract speed  :  {retraction_retract_speed}
;     retr. prime speed  :  {retraction_prime_speed}
;   build plate adhesion :  {adhesion_type}
;                support ?  {support_enable}
;             spiralized ?  {magic_spiralize}

G21               ;metric values
G90               ;absolute positioning
M82               ;set extruder to absolute mode
M107              ;start with the fan off
M117 Preparing    ;write Preparing
M140 S45          ;set bed temperature and move on
M109 S180         ;wait for the extruder to reach 180C
G28               ;home all axes
M203 Z4           ;slow Z speed down for greater accuracy when probing
G29               ;auto bed leveling procedure
;M500              ;optionally save the mesh
M203 Z7           ;pick up z speed again for printing
G28 X             ;home x to get as far from the plate as possible
M420 S1           ;(re) enable bed leveling turned off by the G28
G0 Y0 F5000       ;position Y in front
G0 Z15 F3000      ;position Z
M190 S65              ;wait for the bed to reach desired temperature
M109 S235             ;wait for the extruder to reach desired temperature
M300 S440 P100    ;play a tone
G4 P200           ;pause
M300 S440 P100    ;play a tone
G4 P200           ;pause
M300 S440 P800    ;play a tone
M0
M420 S1           ;(re) enable bed leveling to make iron-sure
M117 Print starting   ;write Print starting
;================ ;PRINT:LINE start
G90               ;absolute positioning
G92 E0            ;reset the extruder position
M420 S1           ;(re) enable bed leveling to make iron-sure
G0 Z0             ;get Z down
M83               ;relative extrusion mode
G1 E22 F500       ;extrude __mm of feed stock
G1 E18 F400       ;extrude __mm of feed stock
G1 E10 F400       ;extrude __mm of feed stock
G4 S2             ;pause for ooze
M400              ;make sure all is finished
M420 S1           ;(re) enable bed leveling to make iron-sure
G0 F500 X3 Y0 Z0.6;get to the start of the LINE
G1 E2 F300        ;extrude __mm of feed stock
G1 F1000 X104 E10  ;print a thick LINE extruding __mm along the way
M82               ;absolute extrusion mode
G92 E0            ;reset the extruder position
;---------------------------------------------
; ; ; Jellybox Printer Start Script End ; ; ;
;_____________________________________________


M83 ;relative extrusion mode
;LAYER_COUNT:143
;LAYER:0
M107
G0 F3600 X33.972 Y94.278 Z0.3
;TYPE:SKIRT
G1 F1200 X34.581 Y94.067 E0.03216
G1 X35.174 Y93.94 E0.03026
G1 X35.882 Y93.83 E0.03575
G1 X36.524 Y93.77 E0.03217
G1 X37.055 Y93.782 E0.0265
G1 X43.356 Y94.237 E0.31518
G1 X48.716 Y94.328 E0.26745
G1 X54.11 Y94.114 E0.26932
G1 X58.017 Y93.786 E0.19561
G1 X58.753 Y93.777 E0.03672
G1 X61.184 Y93.918 E0.12149
G1 X66.607 Y94.056 E0.27064
G1 X72.018 Y93.887 E0.27009
G1 X75.2 Y93.698 E0.15903
G1 X75.961 Y93.709 E0.03797
G1 X79.315 Y94.002 E0.16797
G1 X84.702 Y94.23 E0.269
G1 X90.07 Y94.153 E0.26784
G1 X96.85 Y93.699 E0.33901
G1 X97.494 Y93.696 E0.03213
G1 X98.379 Y93.823 E0.04461
G1 X99.12 Y93.996 E0.03796
G1 X99.738 Y94.181 E0.03218
G1 X100.316 Y94.436 E0.03152
G1 X100.95 Y94.762 E0.03557
G1 X101.504 Y95.091 E0.03215
G1 X102.054 Y95.524 E0.03492
G1 X102.716 Y96.121 E0.04447
G1 X103.013 Y96.411 E0.02071
G1 X105.423 Y98.961 E0.17505
G1 X109.807 Y103.233 E0.30539
G1 X110.24 Y103.71 E0.03214
G1 X110.679 Y104.353 E0.03884
G1 X111.04 Y104.977 E0.03597
G1 X111.328 Y105.554 E0.03217
G1 X111.542 Y106.164 E0.03225
G1 X111.753 Y106.909 E0.03863
G1 X111.89 Y107.539 E0.03217
G1 X111.95 Y108.27 E0.03659
G1 X111.959 Y109.103 E0.04156
G1 X111.938 Y109.622 E0.02591
G1 X111.67 Y112.613 E0.14982
G1 X111.426 Y118.016 E0.26983
G1 X111.487 Y123.371 E0.26718
G1 X111.965 Y130.054 E0.33427
G1 X111.952 Y130.942 E0.04431
G1 X111.877 Y131.693 E0.03765
G1 X111.774 Y132.329 E0.03214
G1 X111.575 Y132.994 E0.03463
G1 X111.303 Y133.723 E0.03882
G1 X111.041 Y134.312 E0.03216
G1 X110.69 Y134.889 E0.03369
G1 X110.278 Y135.477 E0.03582
G1 X109.876 Y135.981 E0.03216
G1 X109.645 Y136.22 E0.01658
G1 X104.767 Y140.966 E0.33954
G1 X102.767 Y143.102 E0.14599
G1 X102.078 Y143.718 E0.04611
G1 X101.471 Y144.17 E0.03776
G1 X100.931 Y144.522 E0.03216
G1 X100.342 Y144.809 E0.03269
G1 X99.668 Y145.086 E0.03636
G1 X99.057 Y145.293 E0.03218
G1 X98.483 Y145.415 E0.02928
G1 X97.789 Y145.522 E0.03503
G1 X97.147 Y145.581 E0.03216
G1 X96.622 Y145.569 E0.0262
G1 X90.321 Y145.114 E0.31518
G1 X84.961 Y145.023 E0.26745
G1 X79.567 Y145.237 E0.26932
G1 X75.66 Y145.565 E0.19561
G1 X74.924 Y145.574 E0.03672
G1 X72.493 Y145.433 E0.12149
G1 X67.07 Y145.295 E0.27064
G1 X61.659 Y145.464 E0.27009
G1 X58.477 Y145.653 E0.15903
G1 X57.716 Y145.642 E0.03797
G1 X54.362 Y145.349 E0.16797
G1 X48.975 Y145.121 E0.269
G1 X43.607 Y145.198 E0.26784
G1 X36.827 Y145.652 E0.33901
G1 X36.183 Y145.655 E0.03213
G1 X35.298 Y145.528 E0.04461
G1 X34.557 Y145.355 E0.03796
G1 X33.939 Y145.17 E0.03218
G1 X33.361 Y144.915 E0.03152
G1 X32.727 Y144.589 E0.03557
G1 X32.173 Y144.26 E0.03215
G1 X31.623 Y143.827 E0.03492
G1 X30.961 Y143.23 E0.04447
G1 X30.664 Y142.94 E0.02071
G1 X28.254 Y140.39 E0.17505
G1 X23.87 Y136.118 E0.30539
G1 X23.437 Y135.641 E0.03214
G1 X22.997 Y134.997 E0.03891
G1 X22.635 Y134.371 E0.03608
G1 X22.348 Y133.794 E0.03215
G1 X22.132 Y133.179 E0.03252
G1 X21.922 Y132.434 E0.03862
G1 X21.786 Y131.804 E0.03215
G1 X21.727 Y131.079 E0.03629
G1 X21.718 Y130.248 E0.04146
G1 X21.739 Y129.729 E0.02591
G1 X22.007 Y126.738 E0.14982
G1 X22.251 Y121.335 E0.26983
G1 X22.19 Y115.98 E0.26718
G1 X21.712 Y109.297 E0.33427
G1 X21.725 Y108.409 E0.04431
G1 X21.8 Y107.658 E0.03765
G1 X21.903 Y107.022 E0.03214
G1 X22.102 Y106.359 E0.03454
G1 X22.373 Y105.632 E0.03871
G1 X22.635 Y105.043 E0.03216
G1 X22.991 Y104.458 E0.03417
G1 X23.417 Y103.852 E0.03696
G1 X24.041 Y103.118 E0.04806
G1 X29.059 Y98.227 E0.3496
G1 X30.916 Y96.241 E0.13565
G1 X31.632 Y95.605 E0.04778
G1 X32.23 Y95.165 E0.03704
G1 X32.772 Y94.815 E0.03219
G1 X33.312 Y94.553 E0.02994
G1 X33.972 Y94.278 E0.03567
G1 F2400 E-1.6
G1 F300 Z0.45
G0 F3600 X65.413 Y111.192 Z0.45
;TYPE:WALL-INNER
G1 F300 Z0.3
G1 F1800 E1.6
G1 F1200 X65.34 Y111.194 E0.00364
G1 X65.044 Y111.165 E0.01484
G1 X64.778 Y111.105 E0.0136
G1 X64.47 Y110.994 E0.01633
G1 X61.805 Y109.843 E0.14483
G1 X61.805 Y117.836 E0.39877
G1 X61.769 Y117.537 E0.01502
G1 X61.67 Y116.947 E0.02985
G1 X61.585 Y116.519 E0.02177
G1 X61.448 Y115.935 E0.02993
G1 X61.289 Y115.36 E0.02976
G1 X61.027 Y114.567 E0.04167
G1 X60.816 Y114.018 E0.02934
G1 X60.589 Y113.491 E0.02863
G1 X60.408 Y113.106 E0.02122
G1 X60.213 Y112.718 E0.02166
G1 X60.004 Y112.331 E0.02194
G1 X59.779 Y111.945 E0.02229
G1 X59.538 Y111.56 E0.02266
G1 X59.281 Y111.182 E0.0228
G1 X59.012 Y110.809 E0.02294
G1 X58.727 Y110.442 E0.02318
G1 X58.423 Y110.078 E0.02366
G1 X57.891 Y109.507 E0.03894
G1 X57.548 Y109.175 E0.02382
G1 X57.193 Y108.856 E0.02381
G1 X56.826 Y108.55 E0.02384
G1 X56.446 Y108.258 E0.02391
G1 X56.056 Y107.983 E0.02381
G1 X55.658 Y107.721 E0.02377
G1 X55.249 Y107.474 E0.02384
G1 X54.832 Y107.242 E0.02381
G1 X54.406 Y107.026 E0.02383
G1 X53.975 Y106.825 E0.02373
G1 X53.535 Y106.637 E0.02387
G1 X53.089 Y106.464 E0.02387
G1 X52.636 Y106.306 E0.02394
G1 X52.177 Y106.163 E0.02399
G1 X51.714 Y106.036 E0.02395
G1 X51.246 Y105.922 E0.02403
G1 X50.773 Y105.825 E0.02409
G1 X50.297 Y105.743 E0.0241
G1 X49.65 Y105.655 E0.03258
G1 X49.168 Y105.608 E0.02416
G1 X48.687 Y105.578 E0.02404
G1 X57.533 Y105.572 E0.44133
G1 X56.378 Y102.897 E0.14537
G1 X56.272 Y102.601 E0.01569
G1 X56.211 Y102.332 E0.01376
G1 X56.182 Y102.036 E0.01484
G1 X56.191 Y101.739 E0.01482
G1 X56.232 Y101.46 E0.01407
G1 X56.315 Y101.168 E0.01515
G1 X56.426 Y100.905 E0.01424
G1 X56.568 Y100.658 E0.01421
G1 X56.742 Y100.427 E0.01443
G1 X56.95 Y100.212 E0.01492
G1 X57.175 Y100.031 E0.01441
G1 X57.418 Y99.881 E0.01425
G1 X57.682 Y99.76 E0.01449
G1 X57.969 Y99.669 E0.01502
G1 X58.246 Y99.618 E0.01405
G1 X58.544 Y99.601 E0.01489
G1 X58.828 Y99.62 E0.0142
G1 X59.113 Y99.675 E0.01448
G1 X59.39 Y99.765 E0.01453
G1 X59.657 Y99.89 E0.01471
G1 X59.899 Y100.042 E0.01426
G1 X60.123 Y100.226 E0.01446
G1 X60.329 Y100.441 E0.01486
G1 X60.503 Y100.675 E0.01455
G1 X60.641 Y100.919 E0.01399
G1 X60.753 Y101.195 E0.01486
G1 X60.827 Y101.467 E0.01406
G1 X60.871 Y101.769 E0.01523
G1 X60.875 Y102.05 E0.01402
G1 X60.844 Y102.347 E0.0149
G1 X60.777 Y102.628 E0.01441
G1 X60.68 Y102.892 E0.01403
G1 X60.539 Y103.166 E0.01537
G1 X60.374 Y103.406 E0.01453
G1 X59.695 Y104.273 E0.05494
G1 X59.341 Y104.273 E0.01766
G1 X59.302 Y105.349 E0.05372
G1 X58.895 Y105.444 E0.02085
G1 X58.539 Y105.595 E0.01929
G1 X58.227 Y105.794 E0.01846
G1 X58.1 Y105.895 E0.0081
G1 X57.932 Y106.053 E0.01151
G1 X57.826 Y106.169 E0.00784
G1 X57.604 Y106.469 E0.01862
G1 X57.431 Y106.815 E0.0193
G1 X57.314 Y107.18 E0.01912
G1 X57.258 Y107.563 E0.01931
G1 X57.261 Y107.949 E0.01926
G1 X57.33 Y108.329 E0.01927
G1 X57.457 Y108.695 E0.01933
G1 X57.642 Y109.033 E0.01922
G1 X57.878 Y109.338 E0.01924
G1 X58.16 Y109.602 E0.01927
G1 X58.481 Y109.817 E0.01928
G1 X58.817 Y109.971 E0.01844
G1 X58.976 Y110.024 E0.00836
G1 X59.337 Y110.103 E0.01844
G1 X59.715 Y110.121 E0.01888
G1 X59.961 Y110.101 E0.01231
G1 X60.12 Y110.076 E0.00803
G1 X60.475 Y109.979 E0.01836
G1 X60.827 Y109.818 E0.01931
G1 X61.149 Y109.603 E0.01932
G1 X61.431 Y109.337 E0.01934
G1 X61.666 Y109.031 E0.01925
G1 X61.849 Y108.692 E0.01922
G1 X61.976 Y108.328 E0.01923
G1 X62.025 Y108.061 E0.01354
G1 X63.103 Y108.021 E0.05382
G1 X63.103 Y107.681 E0.01696
G1 X63.97 Y107.002 E0.05494
G1 X64.21 Y106.837 E0.01453
G1 X64.481 Y106.697 E0.01522
G1 X64.748 Y106.598 E0.01421
G1 X65.029 Y106.532 E0.0144
G1 X65.256 Y106.508 E0.01139
G1 X65.211 Y106.563 E0.00355
G1 X64.962 Y106.957 E0.02325
G1 X64.766 Y107.377 E0.02312
G1 X64.624 Y107.819 E0.02316
G1 X64.535 Y108.272 E0.02303
G1 X64.505 Y108.738 E0.0233
G1 X64.531 Y109.2 E0.02309
G1 X64.616 Y109.656 E0.02314
G1 X64.755 Y110.098 E0.02312
G1 X64.948 Y110.521 E0.0232
G1 X65.193 Y110.916 E0.02319
G1 X65.413 Y111.192 E0.01761
G1 F2400 E-1.6
G1 F300 Z0.45
G0 F3600 X65.259 Y128.259 Z0.45
G1 F300 Z0.3
G1 F1800 E1.6
G1 F1200 X65.193 Y128.341 E0.00525
G1 X64.948 Y128.736 E0.02319
G1 X64.755 Y129.159 E0.0232
G1 X64.616 Y129.601 E0.02312
G1 X64.531 Y130.057 E0.02314
G1 X64.505 Y130.519 E0.02309
G1 X64.535 Y130.985 E0.0233
G1 X64.624 Y131.438 E0.02303
G1 X64.766 Y131.88 E0.02316
G1 X64.962 Y132.3 E0.02312
G1 X65.211 Y132.694 E0.02325
G1 X65.415 Y132.943 E0.01606
G1 X65.326 Y132.944 E0.00444
G1 X65.029 Y132.913 E0.0149
G1 X64.748 Y132.847 E0.0144
G1 X64.481 Y132.748 E0.01421
G1 X64.21 Y132.608 E0.01522
G1 X63.97 Y132.443 E0.01453
G1 X63.103 Y131.764 E0.05494
G1 X63.103 Y131.408 E0.01776
G1 X62.02 Y131.371 E0.05406
G1 X61.994 Y131.194 E0.00893
G1 X61.954 Y131.041 E0.00789
G1 X61.877 Y130.821 E0.01163
G1 X61.812 Y130.675 E0.00797
G1 X61.628 Y130.356 E0.01837
G1 X61.384 Y130.058 E0.01922
G1 X61.096 Y129.802 E0.01922
G1 X60.769 Y129.594 E0.01933
G1 X60.413 Y129.443 E0.01929
G1 X60.038 Y129.351 E0.01926
G1 X59.653 Y129.321 E0.01927
G1 X59.269 Y129.352 E0.01922
G1 X58.895 Y129.444 E0.01922
G1 X58.539 Y129.595 E0.01929
G1 X58.227 Y129.794 E0.01846
G1 X58.1 Y129.895 E0.0081
G1 X57.932 Y130.053 E0.01151
G1 X57.825 Y130.17 E0.00791
G1 X57.606 Y130.469 E0.01849
G1 X57.43 Y130.814 E0.01932
G1 X57.313 Y131.181 E0.01922
G1 X57.258 Y131.563 E0.01925
G1 X57.261 Y131.949 E0.01926
G1 X57.33 Y132.329 E0.01927
G1 X57.457 Y132.695 E0.01933
G1 X57.642 Y133.033 E0.01922
G1 X57.878 Y133.338 E0.01924
G1 X58.16 Y133.602 E0.01927
G1 X58.481 Y133.817 E0.01928
G1 X58.817 Y133.971 E0.01844
G1 X58.976 Y134.024 E0.00836
G1 X59.305 Y134.096 E0.0168
G1 X59.339 Y135.172 E0.05371
G1 X59.695 Y135.172 E0.01776
G1 X60.366 Y136.029 E0.0543
G1 X60.541 Y136.283 E0.01539
G1 X60.679 Y136.55 E0.01499
G1 X60.778 Y136.817 E0.01421
G1 X60.844 Y137.098 E0.0144
G1 X60.875 Y137.395 E0.0149
G1 X60.871 Y137.676 E0.01402
G1 X60.827 Y137.977 E0.01518
G1 X60.753 Y138.252 E0.01421
G1 X60.647 Y138.512 E0.01401
G1 X60.503 Y138.768 E0.01465
G1 X60.328 Y139.005 E0.0147
G1 X60.127 Y139.215 E0.0145
G1 X59.899 Y139.402 E0.01471
G1 X59.656 Y139.555 E0.01433
G1 X59.391 Y139.68 E0.01462
G1 X59.114 Y139.77 E0.01453
G1 X58.836 Y139.824 E0.01413
G1 X58.536 Y139.843 E0.015
G1 X58.246 Y139.827 E0.01449
G1 X57.969 Y139.776 E0.01405
G1 X57.68 Y139.684 E0.01513
G1 X57.424 Y139.566 E0.01406
G1 X57.168 Y139.409 E0.01498
G1 X56.951 Y139.233 E0.01394
G1 X56.744 Y139.022 E0.01475
G1 X56.568 Y138.787 E0.01465
G1 X56.426 Y138.539 E0.01426
G1 X56.314 Y138.273 E0.0144
G1 X56.232 Y137.985 E0.01494
G1 X56.189 Y137.697 E0.01453
G1 X56.182 Y137.41 E0.01432
G1 X56.212 Y137.109 E0.01509
G1 X56.272 Y136.843 E0.0136
G1 X56.378 Y136.548 E0.01564
G1 X57.533 Y133.873 E0.14537
G1 X37.774 Y133.872 E0.98578
G1 X38.929 Y136.548 E0.14541
G1 X39.035 Y136.843 E0.01564
G1 X39.095 Y137.109 E0.0136
G1 X39.125 Y137.41 E0.01509
G1 X39.118 Y137.697 E0.01432
G1 X39.075 Y137.985 E0.01453
G1 X38.993 Y138.273 E0.01494
G1 X38.881 Y138.539 E0.0144
G1 X38.739 Y138.787 E0.01426
G1 X38.563 Y139.022 E0.01465
G1 X38.356 Y139.233 E0.01475
G1 X38.137 Y139.41 E0.01405
G1 X37.89 Y139.563 E0.0145
G1 X37.625 Y139.685 E0.01455
G1 X37.338 Y139.776 E0.01502
G1 X37.061 Y139.827 E0.01405
G1 X36.771 Y139.843 E0.01449
G1 X36.472 Y139.824 E0.01495
G1 X36.194 Y139.77 E0.01413
G1 X35.916 Y139.68 E0.01458
G1 X35.651 Y139.555 E0.01462
G1 X35.408 Y139.402 E0.01433
G1 X35.18 Y139.215 E0.01471
G1 X34.981 Y139.006 E0.0144
G1 X34.805 Y138.768 E0.01477
G1 X34.661 Y138.513 E0.01461
G1 X34.554 Y138.252 E0.01407
G1 X34.48 Y137.977 E0.01421
G1 X34.436 Y137.676 E0.01518
G1 X34.432 Y137.395 E0.01402
G1 X34.463 Y137.098 E0.0149
G1 X34.529 Y136.817 E0.0144
G1 X34.628 Y136.55 E0.01421
G1 X34.766 Y136.283 E0.01499
G1 X34.941 Y136.029 E0.01539
G1 X35.612 Y135.172 E0.0543
G1 X35.984 Y135.172 E0.01856
G1 X36.024 Y133.915 E0.06274
G1 X35.103 Y133.854 E0.04605
G1 X34.86 Y133.803 E0.01239
G1 X34.616 Y133.717 E0.01291
G1 X34.4 Y133.606 E0.01212
G1 X34.189 Y133.457 E0.01289
G1 X34.087 Y133.369 E0.00672
G1 X33.921 Y133.192 E0.01211
G1 X33.771 Y132.98 E0.01296
G1 X33.657 Y132.759 E0.01241
G1 X33.574 Y132.521 E0.01258
G1 X33.521 Y132.271 E0.01275
G1 X33.461 Y131.366 E0.04525
G1 X32.204 Y131.406 E0.06274
G1 X32.204 Y131.764 E0.01786
G1 X31.337 Y132.443 E0.05494
G1 X31.097 Y132.608 E0.01453
G1 X30.826 Y132.748 E0.01522
G1 X30.559 Y132.847 E0.01421
G1 X30.278 Y132.913 E0.0144
G1 X29.981 Y132.944 E0.0149
G1 X29.7 Y132.94 E0.01402
G1 X29.398 Y132.896 E0.01523
G1 X29.124 Y132.822 E0.01416
G1 X28.863 Y132.715 E0.01407
G1 X28.604 Y132.568 E0.01486
G1 X28.37 Y132.395 E0.01452
