;FLAVOR:Marlin
;TIME:1483
;Filament used: 1.02511m
;Layer height: 0.2
;MINX:46.049
;MINY:52.74
;MINZ:0.3
;MAXX:97.942
;MAXY:104.638
;MAXZ:28.5
;Generated with Cura_SteamEngine 4.1.0
M82 ;absolute extrusion mode
;---------------------------------------


G21               ;metric values
G90               ;absolute positioning
M82               ;set extruder to absolute mode
M107              ;start with the fan off
M117 Preparing    ;write Preparing
M140 S45          ;set bed temperature and move on
M109 S180         ;wait for the extruder to reach 180C
G28               ;home all axes
M203 Z4           ;slow Z speed down for greater accuracy when probing
G29               ;auto bed leveling procedure
M203 Z7           ;pick up z speed again for printing
G28 X             ;home x to get as far from the plate as possible
M420 S1           ;(re) enable bed leveling turned off by the G28
G0 Y0 F5000       ;position Y in front
G0 Z15 F3000      ;position Z
M190 S65              ;wait for the bed to reach desired temperature
M109 S235.0             ;wait for the extruder to reach desired temperature
M300 S440 P100    ;play a tone
G4 P200           ;pause
M300 S440 P100    ;play a tone
G4 P200           ;pause
M300 S440 P800    ;play a tone
M0
M420 S1           ;(re) enable bed leveling to make iron-sure
M117 Print starting   ;write Print starting
G90               ;absolute positioning
G92 E0            ;reset the extruder position
G0 Z0             ;get Z down
M83               ;relative extrusion mode
G1 E22 F500       ;extrude __mm of feed stock
G1 E18 F400       ;extrude __mm of feed stock
G1 E10 F400       ;extrude __mm of feed stock
G4 S2             ;pause for ooze
M400              ;make sure all is finished
M420 S1           ;(re) enable bed leveling to make iron-sure
G0 F500 X3 Y0 Z0.6;get to the start of the LINE
G1 E2 F300        ;extrude __mm of feed stock
G1 F1000 X104 E10  ;print a thick LINE extruding __mm along the way
M82               ;absolute extrusion mode
G92 E0            ;reset the extruder position
M83 ;relative extrusion mode
G1 F2400 E-1.6
;LAYER_COUNT:142
;LAYER:0
M107
G0 F3600 X55.373 Y55.097 Z0.3
;TYPE:SKIRT
G1 F1800 E1.6
G1 F1350 X55.535 Y54.944 E0.01112
G1 X55.691 Y54.801 E0.01056
G1 X55.93 Y54.593 E0.01581
G1 X56.654 Y54.066 E0.04468
G1 X57.046 Y53.829 E0.02285
G1 X57.662 Y53.51 E0.03461
G1 X58.023 Y53.353 E0.01964
G1 X58.356 Y53.222 E0.01785
G1 X58.615 Y53.13 E0.01371
G1 X59.458 Y52.908 E0.04349
G1 X59.823 Y52.844 E0.01849
G1 X60.064 Y52.808 E0.01216
G1 X60.268 Y52.782 E0.01026
G1 X60.925 Y52.74 E0.03284
G1 X61.169 Y52.74 E0.01217
G1 X61.309 Y52.742 E0.00699
G1 X61.607 Y52.75 E0.01487
G1 X61.905 Y52.766 E0.01489
G1 X62.591 Y52.824 E0.03435
G1 X62.663 Y52.831 E0.00361
G1 X64.104 Y52.973 E0.07224
G1 X66.743 Y53.158 E0.13198
G1 X69.446 Y53.27 E0.13497
G1 X72.159 Y53.306 E0.13536
G1 X74.794 Y53.267 E0.13148
G1 X77.472 Y53.151 E0.13373
G1 X80.172 Y52.957 E0.13505
G1 X81.253 Y52.849 E0.0542
G1 X81.328 Y52.842 E0.00376
G1 X82.414 Y52.749 E0.05438
G1 X83.316 Y52.75 E0.045
G1 X83.734 Y52.787 E0.02094
G1 X84.203 Y52.85 E0.02361
G1 X84.49 Y52.902 E0.01455
G1 X85.012 Y53.025 E0.02676
G1 X85.367 Y53.128 E0.01844
G1 X86.21 Y53.454 E0.04509
G1 X86.711 Y53.7 E0.02785
G1 X87.497 Y54.177 E0.04587
G1 X87.945 Y54.506 E0.02773
G1 X88.44 Y54.919 E0.03216
G1 X88.69 Y55.172 E0.01774
G1 X89.072 Y55.586 E0.0281
G1 X90.942 Y57.567 E0.13591
G1 X92.846 Y59.472 E0.13437
G1 X94.667 Y61.199 E0.12521
G1 X95.327 Y61.808 E0.0448
G1 X95.578 Y62.056 E0.0176
G1 X95.718 Y62.204 E0.01016
G1 X95.863 Y62.364 E0.01077
G1 X96.104 Y62.641 E0.01832
G1 X96.63 Y63.362 E0.04453
G1 X96.826 Y63.686 E0.01889
G1 X96.973 Y63.946 E0.0149
G1 X97.073 Y64.135 E0.01067
G1 X97.311 Y64.651 E0.02835
G1 X97.397 Y64.868 E0.01165
G1 X97.467 Y65.054 E0.00991
G1 X97.558 Y65.312 E0.01365
G1 X97.775 Y66.141 E0.04275
G1 X97.841 Y66.516 E0.019
G1 X97.913 Y67.153 E0.03198
G1 X97.937 Y67.625 E0.02358
G1 X97.942 Y68.043 E0.02086
G1 X97.934 Y68.313 E0.01348
G1 X97.917 Y68.6 E0.01434
G1 X97.838 Y69.529 E0.04652
G1 X97.831 Y69.608 E0.00396
G1 X97.731 Y70.6 E0.04974
G1 X97.536 Y73.313 E0.1357
G1 X97.421 Y75.981 E0.13323
G1 X97.381 Y78.624 E0.13187
G1 X97.416 Y81.365 E0.13676
G1 X97.526 Y83.994 E0.13128
G1 X97.712 Y86.666 E0.13363
G1 X97.811 Y87.665 E0.05008
G1 X97.816 Y87.725 E0.003
G1 X97.934 Y89.079 E0.06781
G1 X97.934 Y89.98 E0.04495
G1 X97.889 Y90.498 E0.02594
G1 X97.805 Y91.082 E0.02944
G1 X97.764 Y91.284 E0.01028
G1 X97.663 Y91.697 E0.02121
G1 X97.557 Y92.063 E0.01901
G1 X97.229 Y92.909 E0.04527
G1 X97.002 Y93.371 E0.02568
G1 X96.688 Y93.922 E0.03164
G1 X96.541 Y94.147 E0.01341
G1 X96.31 Y94.473 E0.01993
G1 X96.11 Y94.733 E0.01637
G1 X95.508 Y95.39 E0.04446
G1 X95.122 Y95.745 E0.02616
G1 X93.118 Y97.637 E0.1375
G1 X91.212 Y99.542 E0.13444
G1 X89.498 Y101.349 E0.12426
G1 X88.871 Y102.028 E0.04611
G1 X88.642 Y102.261 E0.0163
G1 X88.487 Y102.409 E0.01069
G1 X88.303 Y102.577 E0.01243
G1 X88.062 Y102.786 E0.01592
G1 X87.344 Y103.308 E0.04429
G1 X86.912 Y103.569 E0.02518
G1 X86.319 Y103.877 E0.03334
G1 X86.033 Y104.003 E0.01559
G1 X85.676 Y104.144 E0.01915
G1 X85.383 Y104.248 E0.01551
G1 X84.545 Y104.469 E0.04324
G1 X84.147 Y104.539 E0.02016
G1 X83.507 Y104.611 E0.03213
G1 X83.069 Y104.633 E0.02188
G1 X82.662 Y104.638 E0.02031
G1 X82.378 Y104.63 E0.01417
G1 X82.084 Y104.613 E0.01469
G1 X81.389 Y104.554 E0.0348
G1 X81.32 Y104.548 E0.00346
G1 X79.897 Y104.408 E0.07134
G1 X77.203 Y104.221 E0.13473
G1 X74.523 Y104.11 E0.13382
G1 X71.814 Y104.075 E0.13516
G1 X69.175 Y104.115 E0.13168
G1 X66.501 Y104.231 E0.13353
G1 X63.798 Y104.426 E0.1352
G1 X62.883 Y104.516 E0.04587
G1 X62.827 Y104.521 E0.0028
G1 X61.608 Y104.628 E0.06105
G1 X60.703 Y104.628 E0.04515
G1 X60.185 Y104.583 E0.02594
G1 X59.591 Y104.497 E0.02994
G1 X59.391 Y104.456 E0.01019
G1 X58.996 Y104.359 E0.02029
G1 X58.628 Y104.253 E0.01911
G1 X57.774 Y103.923 E0.04568
G1 X57.316 Y103.698 E0.02546
G1 X56.821 Y103.42 E0.02832
G1 X56.651 Y103.312 E0.01005
G1 X56.29 Y103.061 E0.02194
G1 X55.972 Y102.819 E0.01994
G1 X55.292 Y102.2 E0.04588
G1 X54.906 Y101.78 E0.02846
G1 X53.061 Y99.825 E0.13411
G1 X51.157 Y97.919 E0.13441
G1 X49.423 Y96.274 E0.11924
G1 X48.654 Y95.562 E0.05228
G1 X48.325 Y95.228 E0.02339
G1 X47.958 Y94.821 E0.02734
G1 X47.557 Y94.317 E0.03213
G1 X47.366 Y94.022 E0.01753
G1 X47.107 Y93.592 E0.02504
G1 X46.777 Y92.947 E0.03615
G1 X46.656 Y92.663 E0.0154
G1 X46.546 Y92.382 E0.01506
G1 X46.443 Y92.095 E0.01521
G1 X46.215 Y91.234 E0.04444
G1 X46.148 Y90.851 E0.0194
G1 X46.076 Y90.214 E0.03198
G1 X46.053 Y89.752 E0.02308
G1 X46.049 Y89.35 E0.02006
G1 X46.057 Y89.06 E0.01447
G1 X46.075 Y88.753 E0.01534
G1 X46.15 Y87.89 E0.04322
G1 X46.156 Y87.824 E0.00331
G1 X46.262 Y86.76 E0.05335
G1 X46.456 Y84.052 E0.13545
G1 X46.571 Y81.38 E0.13343
G1 X46.61 Y78.739 E0.13177
G1 X46.574 Y75.993 E0.13701
G1 X46.463 Y73.356 E0.13168
G1 X46.275 Y70.664 E0.13463
G1 X46.179 Y69.686 E0.04903
G1 X46.174 Y69.635 E0.00256
G1 X46.057 Y68.301 E0.06681
G1 X46.057 Y67.396 E0.04515
G1 X46.102 Y66.879 E0.02589
G1 X46.197 Y66.24 E0.03223
G1 X46.245 Y66.016 E0.01143
G1 X46.335 Y65.66 E0.01832
G1 X46.436 Y65.311 E0.01813
G1 X46.761 Y64.469 E0.04503
G1 X46.979 Y64.024 E0.02472
G1 X47.317 Y63.436 E0.03384
G1 X47.483 Y63.186 E0.01497
G1 X47.696 Y62.888 E0.01827
G1 X47.891 Y62.635 E0.01594
G1 X48.496 Y61.976 E0.04463
G1 X48.832 Y61.668 E0.02274
G1 X50.824 Y59.79 E0.13658
G1 X52.729 Y57.889 E0.13427
G1 X54.522 Y56 E0.12994
G1 X55.122 Y55.35 E0.04413
G1 X55.373 Y55.097 E0.01778
G1 F2400 E-1.6
G1 F600 Z0.45
;MESH:Object 3
G0 F3600 X91.958 Y88.724 Z0.45
;TYPE:WALL-INNER
G1 F600 Z0.3
G1 F1800 E1.6
G1 F1350 X92.067 Y89.117 E0.02035
G1 X92.114 Y89.575 E0.02297
G1 X92.07 Y89.988 E0.02072
G1 X91.949 Y90.429 E0.02281
G1 X91.759 Y90.799 E0.02075
G1 X91.489 Y91.161 E0.02253
G1 X91.177 Y91.437 E0.02078
G1 X90.791 Y91.677 E0.02268
G1 X90.401 Y91.821 E0.02074
G1 X89.954 Y91.905 E0.02269
G1 X89.541 Y91.896 E0.02061
G1 X89.092 Y91.812 E0.02279
G1 X88.708 Y91.653 E0.02074
G1 X88.295 Y91.396 E0.02427
G1 X87.445 Y90.731 E0.05384
G1 X87.445 Y88.007 E0.1359
G1 X87.808 Y87.85 E0.01973
G1 X89.113 Y87.313 E0.0704
G1 X89.519 Y87.236 E0.02062
G1 X89.978 Y87.228 E0.0229
G1 X90.38 Y87.305 E0.02042
G1 X90.809 Y87.462 E0.02279
G1 X91.161 Y87.683 E0.02074
G1 X91.501 Y87.984 E0.02265
G1 X91.751 Y88.319 E0.02085
G1 X91.958 Y88.724 E0.02269
G0 F3600 X92.355 Y88.567
;TYPE:WALL-OUTER
G1 F1350 X92.487 Y89.041 E0.02762
G1 X92.542 Y89.577 E0.03024
G1 X92.49 Y90.065 E0.02754
G1 X92.347 Y90.586 E0.03032
G1 X92.121 Y91.024 E0.02766
G1 X91.804 Y91.45 E0.0298
G1 X91.433 Y91.778 E0.02779
G1 X90.976 Y92.062 E0.0302
G1 X90.517 Y92.232 E0.02747
G1 X89.989 Y92.331 E0.03015
G1 X89.496 Y92.32 E0.02768
G1 X88.969 Y92.222 E0.03009
G1 X88.516 Y92.034 E0.02753
G1 X88.048 Y91.743 E0.03093
G1 X87.02 Y90.938 E0.07328
G1 X87.02 Y87.728 E0.18017
G1 X87.646 Y87.457 E0.03829
G1 X88.993 Y86.903 E0.08175
G1 X89.473 Y86.812 E0.02742
G1 X90.012 Y86.802 E0.03026
G1 X90.495 Y86.895 E0.02761
G1 X90.998 Y87.079 E0.03006
G1 X91.416 Y87.341 E0.02769
G1 X91.816 Y87.695 E0.02998
G1 X92.112 Y88.092 E0.02779
G1 X92.355 Y88.567 E0.02995
G0 F3600 X92.487 Y89.041
G0 X92.498 Y89.148
G0 X91.643 Y89.2
;TYPE:SKIN
G1 F1350 X91.682 Y89.573 E0.02245
G1 X91.646 Y89.907 E0.02011
G1 X91.545 Y90.273 E0.02273
G1 X91.392 Y90.571 E0.02005
G1 X91.17 Y90.868 E0.0222
G1 X90.918 Y91.091 E0.02015
G1 X90.604 Y91.287 E0.02216
G1 X90.285 Y91.405 E0.02036
G1 X89.917 Y91.474 E0.02242
G1 X89.587 Y91.466 E0.01976
G1 X89.213 Y91.397 E0.02277
G1 X88.905 Y91.269 E0.01997
G1 X88.545 Y91.045 E0.02538
G1 X87.875 Y90.521 E0.05092
G1 X87.875 Y88.29 E0.13357
G1 X87.974 Y88.247 E0.00646
G1 X89.239 Y87.727 E0.08188
G1 X89.56 Y87.666 E0.01956
G1 X89.943 Y87.658 E0.02293
G1 X90.262 Y87.719 E0.01944
G1 X90.622 Y87.852 E0.02298
G1 X90.897 Y88.024 E0.01942
G1 X91.185 Y88.279 E0.02303
G1 X91.386 Y88.548 E0.0201
G1 X91.553 Y88.877 E0.02209
G1 X91.643 Y89.2 E0.02007
G0 F3600 X91.17 Y89.29
G1 F1350 X91.2 Y89.572 E0.01698
G1 X91.174 Y89.813 E0.01451
G1 X91.094 Y90.1 E0.01784
G1 X90.982 Y90.319 E0.01473
G1 X90.816 Y90.541 E0.0166
G1 X90.631 Y90.705 E0.0148
G1 X90.393 Y90.853 E0.01678
G1 X90.157 Y90.94 E0.01506
G1 X89.878 Y90.993 E0.017
G1 X89.635 Y90.987 E0.01455
G1 X89.349 Y90.934 E0.01741
G1 X89.13 Y90.843 E0.0142
G1 X88.817 Y90.648 E0.02208
G1 X88.355 Y90.287 E0.0351
G1 X88.355 Y88.609 E0.10046
G1 X89.373 Y88.191 E0.06588
G1 X89.613 Y88.145 E0.01463
G1 X89.905 Y88.139 E0.01749
G1 X90.132 Y88.182 E0.01383
G1 X90.407 Y88.284 E0.01756
G1 X90.612 Y88.412 E0.01447
G1 X90.828 Y88.603 E0.01726
G1 X90.978 Y88.804 E0.01501
G1 X91.104 Y89.053 E0.01671
G1 X91.17 Y89.29 E0.01473
G0 F3600 X90.955 Y89.597
;TYPE:SKIN
G1 F1350 X89.741 Y88.383 E0.10279
G0 F3600 X89.2 Y88.521
G1 F1350 X90.808 Y90.129 E0.13614
G0 F3600 X90.499 Y90.499
G1 F1350 X88.718 Y88.718 E0.15079
G0 F3600 X88.594 Y89.273
G1 F1350 X90.038 Y90.716 E0.12222
G0 F3600 X89.291 Y90.648
G1 F1350 X88.594 Y89.952 E0.05897
G1 X88.524 Y89.882
G1 F2400 E-1.6
G1 F600 Z0.45
G0 F3600 X86.095 Y80.453 Z0.45
;TYPE:WALL-INNER
G1 F600 Z0.3
G1 F1800 E1.6
G1 F1350 X86.095 Y81.765 E0.06546
G1 X86.088 Y89.44 E0.38291
G1 X85.995 Y89.269 E0.00971
G1 X85.609 Y88.844 E0.02864
G1 X85.113 Y88.502 E0.03006
G1 X84.384 Y88.263 E0.03827
G1 X83.634 Y88.263 E0.03742
G1 X83.215 Y88.365 E0.02151
G1 X82.696 Y88.612 E0.02868
G1 X82.246 Y88.97 E0.02869
G1 X81.884 Y89.44 E0.0296
G1 X81.654 Y89.966 E0.02864
G1 X81.543 Y90.556 E0.02995
G1 X81.62 Y91.319 E0.03826
G1 X81.935 Y92.029 E0.03875
G1 X82.449 Y92.597 E0.03822
G1 X82.763 Y92.791 E0.01841
G1 X68.92 Y92.79 E0.69063
G1 X60.671 Y92.783 E0.41154
G1 X61.096 Y92.598 E0.02313
G1 X61.61 Y92.195 E0.03259
G1 X62.018 Y91.573 E0.03711
G1 X62.185 Y90.942 E0.03256
G1 X62.184 Y90.436 E0.02524
G1 X62.019 Y89.805 E0.03254
G1 X61.609 Y89.185 E0.03708
G1 X61.082 Y88.769 E0.0335
G1 X60.374 Y88.513 E0.03756
G1 X59.651 Y88.514 E0.03607
G1 X59.33 Y88.593 E0.01649
G1 X58.895 Y88.782 E0.02366
G1 X58.386 Y89.179 E0.0322
G1 X58.024 Y89.714 E0.03223
G1 X57.894 Y90.067 E0.01877
G1 X57.898 Y80.122 E0.49616
G1 X57.922 Y80.353 E0.01159
G1 X58.075 Y81.23 E0.04441
G1 X58.265 Y82.001 E0.03962
G1 X58.426 Y82.54 E0.02806
G1 X58.652 Y83.173 E0.03353
G1 X58.89 Y83.757 E0.03146
G1 X59.172 Y84.357 E0.03308
G1 X59.462 Y84.909 E0.03111
G1 X59.814 Y85.506 E0.03458
G1 X60.137 Y85.997 E0.02932
G1 X60.556 Y86.575 E0.03562
G1 X60.911 Y87.017 E0.02828
G1 X61.392 Y87.565 E0.03638
G1 X61.777 Y87.958 E0.02745
G1 X62.294 Y88.447 E0.0355
G1 X62.916 Y88.969 E0.04051
G1 X63.545 Y89.44 E0.0392
G1 X64.176 Y89.86 E0.03782
G1 X64.715 Y90.185 E0.0314
G1 X65.338 Y90.521 E0.03531
G1 X65.852 Y90.773 E0.02856
G1 X66.369 Y91.002 E0.02821
G1 X66.898 Y91.213 E0.02841
G1 X67.533 Y91.435 E0.03356
G1 X68.077 Y91.601 E0.02838
G1 X68.629 Y91.748 E0.0285
G1 X69.29 Y91.891 E0.03374
G1 X69.851 Y91.99 E0.02842
G1 X70.418 Y92.067 E0.02855
G1 X70.99 Y92.122 E0.02867
G1 X71.667 Y92.153 E0.03381
G1 X72.227 Y92.156 E0.02794
G1 X72.777 Y92.137 E0.02746
G1 X73.316 Y92.097 E0.02696
G1 X73.946 Y92.023 E0.03165
G1 X74.835 Y91.873 E0.04498
G1 X75.426 Y91.737 E0.03026
G1 X76.223 Y91.518 E0.04124
G1 X76.761 Y91.341 E0.02826
G1 X77.49 Y91.068 E0.03884
G1 X78.005 Y90.846 E0.02798
G1 X78.612 Y90.555 E0.03358
G1 X79.11 Y90.294 E0.02805
G1 X79.783 Y89.895 E0.03903
G1 X80.257 Y89.589 E0.02815
G1 X80.874 Y89.144 E0.03795
G1 X81.307 Y88.802 E0.02753
G1 X81.858 Y88.325 E0.03636
G1 X82.295 Y87.904 E0.03027
G1 X82.821 Y87.348 E0.03819
G1 X83.31 Y86.769 E0.03781
G1 X83.764 Y86.166 E0.03766
G1 X84.18 Y85.545 E0.03729
G1 X84.561 Y84.905 E0.03716
G1 X84.899 Y84.254 E0.0366
G1 X85.199 Y83.597 E0.03603
G1 X85.454 Y82.944 E0.03497
G1 X85.632 Y82.428 E0.02723
G1 X85.829 Y81.742 E0.03561
G1 X86.006 Y80.968 E0.03961
G1 X86.095 Y80.453 E0.02607
G1 F2400 E-1.6
G1 F600 Z0.45
G0 F3600 X86.084 Y76.328 Z0.45
G1 F600 Z0.3
G1 F1800 E1.6
G1 F1350 X85.939 Y75.542 E0.03988
G1 X85.797 Y74.922 E0.03173
G1 X85.574 Y74.142 E0.04047
G1 X85.376 Y73.549 E0.03119
G1 X85.152 Y72.969 E0.03102
G1 X84.909 Y72.406 E0.03059
G1 X84.639 Y71.845 E0.03106
G1 X84.337 Y71.279 E0.03201
G1 X83.996 Y70.708 E0.03318
G1 X83.624 Y70.147 E0.03358
G1 X83.214 Y69.59 E0.03451
G1 X82.768 Y69.047 E0.03506
G1 X82.285 Y68.527 E0.03541
G1 X81.763 Y68.021 E0.03627
G1 X81.209 Y67.549 E0.03631
G1 X80.629 Y67.11 E0.03629
G1 X80.024 Y66.703 E0.03638
G1 X79.4 Y66.333 E0.03619
G1 X78.752 Y65.993 E0.03651
G1 X78.081 Y65.689 E0.03675
G1 X77.409 Y65.422 E0.03608
G1 X76.707 Y65.185 E0.03697
G1 X76.004 Y64.989 E0.03641
G1 X75.283 Y64.822 E0.03692
G1 X74.56 Y64.698 E0.0366
G1 X73.829 Y64.604 E0.03677
G1 X75.07 Y64.59 E0.06192
G1 X82.728 Y64.597 E0.38206
G1 X82.696 Y64.612 E0.00176
G1 X82.246 Y64.97 E0.02869
G1 X81.884 Y65.44 E0.0296
G1 X81.654 Y65.966 E0.02864
G1 X81.543 Y66.556 E0.02995
G1 X81.62 Y67.319 E0.03826
G1 X81.935 Y68.029 E0.03875
G1 X82.449 Y68.597 E0.03822
G1 X82.961 Y68.913 E0.03002
G1 X83.508 Y69.094 E0.02875
G1 X84.096 Y69.141 E0.02943
G1 X84.665 Y69.049 E0.02876
G1 X85.221 Y68.818 E0.03004
G1 X85.818 Y68.339 E0.03819
G1 X86.096 Y67.911 E0.02546
G1 X86.095 Y76.415 E0.42427
G1 X86.084 Y76.328 E0.00438
G1 F2400 E-1.6
G1 F600 Z0.45
G0 F3600 X71.057 Y64.59 Z0.45
G1 F600 Z0.3
G1 F1800 E1.6
G1 F1350 X70.892 Y64.602 E0.00825
G1 X70.176 Y64.689 E0.03598
G1 X69.472 Y64.81 E0.03564
G1 X68.78 Y64.962 E0.03535
G1 X68.107 Y65.144 E0.03478
G1 X67.445 Y65.355 E0.03466
G1 X66.807 Y65.592 E0.03396
G1 X66.179 Y65.856 E0.03399
G1 X65.565 Y66.148 E0.03392
G1 X64.967 Y66.468 E0.03384
G1 X64.38 Y66.816 E0.03405
G1 X63.817 Y67.188 E0.03367
G1 X63.263 Y67.596 E0.03433
G1 X62.742 Y68.017 E0.03342
G1 X62.227 Y68.478 E0.03448
G1 X61.753 Y68.95 E0.03337
G1 X61.284 Y69.464 E0.03471
G1 X60.861 Y69.978 E0.03321
G1 X60.442 Y70.54 E0.03497
G1 X60.074 Y71.089 E0.03297
G1 X59.706 Y71.693 E0.03529
G1 X59.394 Y72.269 E0.03268
G1 X59.08 Y72.913 E0.03574
G1 X58.827 Y73.505 E0.03212
G1 X58.573 Y74.184 E0.03617
G1 X58.379 Y74.781 E0.03132
G1 X58.184 Y75.496 E0.03697
G1 X58.054 Y76.092 E0.03043
G1 X57.929 Y76.817 E0.0367
G1 X57.899 Y77.071 E0.01276
