;FLAVOR:Marlin
;TIME:1478
;Filament used: 1.02538m
;Layer height: 0.2
;MINX:84.419
;MINY:52.65
;MINZ:0.3
;MAXX:136.311
;MAXY:104.542
;MAXZ:28.5
;Generated with Cura_SteamEngine 4.1.0
M82 ;absolute extrusion mode
;---------------------------------------


G21               ;metric values
G90               ;absolute positioning
M82               ;set extruder to absolute mode
M107              ;start with the fan off
M117 Preparing    ;write Preparing
M140 S45          ;set bed temperature and move on
M109 S180         ;wait for the extruder to reach 180C
G28               ;home all axes
M203 Z4           ;slow Z speed down for greater accuracy when probing
G29               ;auto bed leveling procedure
M203 Z7           ;pick up z speed again for printing
G28 X             ;home x to get as far from the plate as possible
M420 S1           ;(re) enable bed leveling turned off by the G28
G0 Y0 F5000       ;position Y in front
G0 Z15 F3000      ;position Z
M190 S65              ;wait for the bed to reach desired temperature
M109 S235.0             ;wait for the extruder to reach desired temperature
M300 S440 P100    ;play a tone
G4 P200           ;pause
M300 S440 P100    ;play a tone
G4 P200           ;pause
M300 S440 P800    ;play a tone
M0
M420 S1           ;(re) enable bed leveling to make iron-sure
M117 Print starting   ;write Print starting
G90               ;absolute positioning
G92 E0            ;reset the extruder position
G0 Z0             ;get Z down
M83               ;relative extrusion mode
G1 E22 F500       ;extrude __mm of feed stock
G1 E18 F400       ;extrude __mm of feed stock
G1 E10 F400       ;extrude __mm of feed stock
G4 S2             ;pause for ooze
M400              ;make sure all is finished
M420 S1           ;(re) enable bed leveling to make iron-sure
G0 F500 X3 Y0 Z0.6;get to the start of the LINE
G1 E2 F300        ;extrude __mm of feed stock
G1 F1000 X104 E10  ;print a thick LINE extruding __mm along the way
M82               ;absolute extrusion mode
G92 E0            ;reset the extruder position
M83 ;relative extrusion mode
G1 F2400 E-1.6
;LAYER_COUNT:142
;LAYER:0
M107
G0 F3600 X86.211 Y62.609 Z0.3
;TYPE:SKIRT
G1 F1800 E1.6
G1 F1350 X86.541 Y62.228 E0.02515
G1 X86.862 Y61.889 E0.02329
G1 X87.171 Y61.591 E0.02142
G1 X87.22 Y61.545 E0.00335
G1 X89.219 Y59.666 E0.13687
G1 X91.132 Y57.766 E0.13451
G1 X93.407 Y55.355 E0.16538
G1 X93.603 Y55.141 E0.01448
G1 X94.25 Y54.546 E0.04385
G1 X94.618 Y54.261 E0.02322
G1 X94.977 Y54.006 E0.02197
G1 X95.198 Y53.863 E0.01313
G1 X95.697 Y53.578 E0.02867
G1 X96.035 Y53.409 E0.01885
G1 X96.892 Y53.072 E0.04594
G1 X97.391 Y52.925 E0.02595
G1 X97.912 Y52.8 E0.02673
G1 X98.144 Y52.757 E0.01177
G1 X98.605 Y52.693 E0.02322
G1 X98.945 Y52.661 E0.01704
G1 X99.862 Y52.656 E0.04575
G1 X101.358 Y52.78 E0.07489
G1 X101.452 Y52.788 E0.00471
G1 X102.127 Y52.856 E0.03385
G1 X104.759 Y53.048 E0.13166
G1 X107.467 Y53.167 E0.13523
G1 X110.106 Y53.209 E0.13168
G1 X112.816 Y53.176 E0.13521
G1 X115.5 Y53.067 E0.13402
G1 X119.275 Y52.784 E0.18886
G1 X120.264 Y52.691 E0.04956
G1 X120.576 Y52.671 E0.0156
G1 X121.199 Y52.65 E0.0311
G1 X121.914 Y52.675 E0.03569
G1 X122.259 Y52.711 E0.01731
G1 X122.601 Y52.758 E0.01722
G1 X122.845 Y52.8 E0.01235
G1 X123.701 Y53.024 E0.04414
G1 X124.076 Y53.157 E0.01985
G1 X124.244 Y53.22 E0.00895
G1 X124.442 Y53.298 E0.01062
G1 X125.128 Y53.628 E0.03798
G1 X125.542 Y53.866 E0.02382
G1 X126.08 Y54.221 E0.03216
G1 X126.356 Y54.445 E0.01773
G1 X126.754 Y54.79 E0.02628
G1 X127.116 Y55.136 E0.02498
G1 X127.387 Y55.421 E0.01962
G1 X127.408 Y55.443 E0.00152
G1 X129.287 Y57.442 E0.13687
G1 X131.195 Y59.364 E0.13511
G1 X133.863 Y61.874 E0.18275
G1 X134.409 Y62.474 E0.04047
G1 X134.717 Y62.871 E0.02507
G1 X134.989 Y63.257 E0.02356
G1 X135.113 Y63.451 E0.01149
G1 X135.38 Y63.921 E0.02697
G1 X135.546 Y64.252 E0.01847
G1 X135.884 Y65.105 E0.04578
G1 X136.042 Y65.638 E0.02774
G1 X136.178 Y66.218 E0.02972
G1 X136.215 Y66.429 E0.01069
G1 X136.272 Y66.859 E0.02164
G1 X136.304 Y67.213 E0.01773
G1 X136.307 Y68.113 E0.0449
G1 X136.207 Y69.313 E0.06008
G1 X136.199 Y69.399 E0.00431
G1 X136.102 Y70.368 E0.04859
G1 X135.91 Y73.019 E0.13261
G1 X135.793 Y75.722 E0.13498
G1 X135.752 Y78.365 E0.13188
G1 X135.786 Y81.071 E0.13501
G1 X135.897 Y83.744 E0.13347
G1 X136.167 Y87.384 E0.1821
G1 X136.273 Y88.521 E0.05697
G1 X136.292 Y88.825 E0.0152
G1 X136.311 Y89.384 E0.0279
G1 X136.306 Y89.842 E0.02285
G1 X136.293 Y90.082 E0.01199
G1 X136.235 Y90.63 E0.02749
G1 X136.173 Y91.014 E0.01941
G1 X135.941 Y91.921 E0.04671
G1 X135.794 Y92.336 E0.02196
G1 X135.562 Y92.887 E0.02983
G1 X135.371 Y93.277 E0.02167
G1 X135.164 Y93.659 E0.02168
G1 X135.042 Y93.863 E0.01186
G1 X134.511 Y94.597 E0.0452
G1 X134.222 Y94.931 E0.02204
G1 X133.895 Y95.275 E0.02368
G1 X133.499 Y95.656 E0.02742
G1 X133.456 Y95.697 E0.00296
G1 X131.459 Y97.574 E0.13673
G1 X129.561 Y99.466 E0.1337
G1 X127.213 Y101.957 E0.17078
G1 X126.805 Y102.345 E0.02809
G1 X126.279 Y102.794 E0.0345
G1 X125.704 Y103.22 E0.0357
G1 X125.51 Y103.344 E0.01149
G1 X125.04 Y103.611 E0.02697
G1 X124.703 Y103.78 E0.01881
G1 X123.836 Y104.122 E0.0465
G1 X123.335 Y104.269 E0.02605
G1 X122.819 Y104.392 E0.02646
G1 X122.587 Y104.435 E0.01177
G1 X122.126 Y104.499 E0.02322
G1 X121.786 Y104.531 E0.01704
G1 X120.869 Y104.536 E0.04575
G1 X119.35 Y104.41 E0.07604
G1 X119.261 Y104.402 E0.00446
G1 X118.536 Y104.329 E0.03635
G1 X115.842 Y104.137 E0.13475
G1 X113.165 Y104.022 E0.13368
G1 X110.526 Y103.983 E0.13167
G1 X107.781 Y104.019 E0.13696
G1 X105.154 Y104.129 E0.13118
G1 X101.468 Y104.407 E0.18442
G1 X100.469 Y104.502 E0.05007
G1 X100.147 Y104.522 E0.0161
G1 X99.532 Y104.542 E0.0307
G1 X98.852 Y104.52 E0.03394
G1 X98.528 Y104.488 E0.01624
G1 X98.175 Y104.441 E0.01777
G1 X97.902 Y104.395 E0.01381
G1 X97.018 Y104.164 E0.04558
G1 X96.637 Y104.028 E0.02018
G1 X96.498 Y103.976 E0.0074
G1 X96.308 Y103.902 E0.01017
G1 X95.591 Y103.558 E0.03968
G1 X95.171 Y103.315 E0.02421
G1 X94.634 Y102.958 E0.03217
G1 X94.378 Y102.751 E0.01642
G1 X93.992 Y102.418 E0.02543
G1 X93.617 Y102.061 E0.02583
G1 X93.262 Y101.687 E0.02573
G1 X93.247 Y101.671 E0.00109
G1 X91.353 Y99.659 E0.13786
G1 X89.466 Y97.764 E0.13342
G1 X86.861 Y95.313 E0.17845
G1 X86.313 Y94.71 E0.04065
G1 X86.021 Y94.333 E0.02379
G1 X85.699 Y93.867 E0.02826
G1 X85.531 Y93.593 E0.01603
G1 X85.31 Y93.194 E0.02276
G1 X85.174 Y92.921 E0.01522
G1 X84.838 Y92.064 E0.04592
G1 X84.693 Y91.569 E0.02573
G1 X84.57 Y91.056 E0.02632
G1 X84.526 Y90.819 E0.01203
G1 X84.462 Y90.357 E0.02327
G1 X84.43 Y90.017 E0.01704
G1 X84.425 Y89.101 E0.0457
G1 X84.539 Y87.723 E0.06898
G1 X84.549 Y87.614 E0.00546
G1 X84.603 Y87.094 E0.02608
G1 X84.807 Y84.37 E0.13628
G1 X84.929 Y81.732 E0.13175
G1 X84.977 Y79.058 E0.13343
G1 X84.95 Y76.344 E0.13541
G1 X84.848 Y73.699 E0.13206
G1 X84.567 Y69.842 E0.19294
G1 X84.455 Y68.638 E0.06033
G1 X84.436 Y68.335 E0.01515
G1 X84.419 Y67.841 E0.02466
G1 X84.434 Y67.227 E0.03064
G1 X84.468 Y66.822 E0.02028
G1 X84.521 Y66.402 E0.02112
G1 X84.564 Y66.144 E0.01305
G1 X84.795 Y65.253 E0.04592
G1 X84.934 Y64.863 E0.02066
G1 X85.054 Y64.556 E0.01644
G1 X85.161 Y64.307 E0.01352
G1 X85.451 Y63.734 E0.03204
G1 X85.654 Y63.387 E0.02006
G1 X86.211 Y62.609 E0.04774
G1 F2400 E-1.6
G1 F600 Z0.45
;MESH:Object 2
G0 F3600 X130.328 Y68.562 Z0.45
;TYPE:WALL-INNER
G1 F600 Z0.3
G1 F1800 E1.6
G1 F1350 X130.121 Y68.967 E0.02269
G1 X129.871 Y69.302 E0.02085
G1 X129.531 Y69.603 E0.02265
G1 X129.179 Y69.824 E0.02074
G1 X128.75 Y69.98 E0.02277
G1 X128.347 Y70.058 E0.02048
G1 X127.888 Y70.049 E0.0229
G1 X127.484 Y69.973 E0.02051
G1 X126.178 Y69.435 E0.07047
G1 X125.815 Y69.279 E0.01971
G1 X125.815 Y66.554 E0.13595
G1 X126.658 Y65.893 E0.05344
G1 X127.077 Y65.633 E0.0246
G1 X127.462 Y65.474 E0.02078
G1 X127.911 Y65.39 E0.02279
G1 X128.324 Y65.381 E0.02061
G1 X128.772 Y65.465 E0.02274
G1 X129.16 Y65.609 E0.02065
G1 X129.547 Y65.849 E0.02272
G1 X129.859 Y66.125 E0.02078
G1 X130.129 Y66.487 E0.02253
G1 X130.319 Y66.857 E0.02075
G1 X130.44 Y67.299 E0.02286
G1 X130.484 Y67.709 E0.02057
G1 X130.437 Y68.17 E0.02312
G1 X130.328 Y68.562 E0.0203
G0 F3600 X130.725 Y68.719
;TYPE:WALL-OUTER
G1 F1350 X130.482 Y69.194 E0.02995
G1 X130.186 Y69.591 E0.02779
G1 X129.786 Y69.945 E0.02998
G1 X129.368 Y70.207 E0.02769
G1 X128.864 Y70.391 E0.03011
G1 X128.382 Y70.484 E0.02755
G1 X127.843 Y70.473 E0.03026
G1 X127.363 Y70.383 E0.02741
G1 X126.016 Y69.828 E0.08177
G1 X125.39 Y69.558 E0.03826
G1 X125.39 Y66.348 E0.18017
G1 X126.417 Y65.543 E0.07324
G1 X126.886 Y65.252 E0.03098
G1 X127.339 Y65.064 E0.02753
G1 X127.866 Y64.966 E0.03009
G1 X128.359 Y64.955 E0.02768
G1 X128.886 Y65.054 E0.0301
G1 X129.346 Y65.224 E0.02752
G1 X129.803 Y65.508 E0.0302
G1 X130.174 Y65.836 E0.02779
G1 X130.491 Y66.262 E0.0298
G1 X130.717 Y66.7 E0.02766
G1 X130.86 Y67.222 E0.03038
G1 X130.911 Y67.708 E0.02743
G1 X130.857 Y68.245 E0.03029
G1 X130.725 Y68.719 E0.02762
G0 F3600 X130.482 Y69.194
G0 X130.442 Y69.247
G0 X129.754 Y68.74
;TYPE:SKIN
G1 F1350 X129.555 Y69.007 E0.01994
G1 X129.269 Y69.26 E0.02286
G1 X128.988 Y69.437 E0.01988
G1 X128.637 Y69.564 E0.02235
G1 X128.311 Y69.627 E0.01988
G1 X127.935 Y69.619 E0.02252
G1 X127.607 Y69.558 E0.01997
G1 X126.245 Y68.996 E0.08821
G1 X126.245 Y66.763 E0.13369
G1 X126.902 Y66.248 E0.04998
G1 X127.27 Y66.019 E0.02595
G1 X127.585 Y65.889 E0.0204
G1 X127.957 Y65.82 E0.02265
G1 X128.287 Y65.812 E0.01976
G1 X128.654 Y65.881 E0.02236
G1 X128.977 Y66 E0.02061
G1 X129.286 Y66.193 E0.02181
G1 X129.54 Y66.418 E0.02031
G1 X129.762 Y66.715 E0.0222
G1 X129.915 Y67.013 E0.02005
G1 X130.016 Y67.379 E0.02273
G1 X130.051 Y67.711 E0.01999
G1 X130.013 Y68.087 E0.02263
G1 X129.924 Y68.407 E0.01989
G1 X129.754 Y68.74 E0.02238
G0 F3600 X129.344 Y68.486
G1 F1350 X129.2 Y68.68 E0.01446
G1 X128.978 Y68.876 E0.01773
G1 X128.774 Y69.004 E0.01442
G1 X128.51 Y69.1 E0.01682
G1 X128.272 Y69.146 E0.01451
G1 X127.985 Y69.14 E0.01719
G1 X127.744 Y69.095 E0.01468
G1 X126.725 Y68.675 E0.06598
G1 X126.725 Y66.997 E0.10046
G1 X127.174 Y66.645 E0.03416
G1 X127.492 Y66.447 E0.02243
G1 X127.722 Y66.352 E0.0149
G1 X128.007 Y66.299 E0.01735
G1 X128.247 Y66.293 E0.01437
G1 X128.53 Y66.346 E0.01724
G1 X128.764 Y66.433 E0.01495
G1 X128.999 Y66.579 E0.01656
G1 X129.186 Y66.745 E0.01497
G1 X129.352 Y66.967 E0.0166
G1 X129.464 Y67.186 E0.01473
G1 X129.544 Y67.473 E0.01784
G1 X129.568 Y67.708 E0.01414
G1 X129.539 Y68.002 E0.01769
G1 X129.476 Y68.229 E0.0141
G1 X129.344 Y68.486 E0.0173
G0 F3600 X129.308 Y67.535
;TYPE:SKIN
G1 F1350 X128.325 Y66.552 E0.08323
G0 F3600 X127.71 Y66.616
G1 F1350 X129.245 Y68.151 E0.12996
G0 F3600 X128.974 Y68.558
G1 F1350 X127.28 Y66.865 E0.14338
G0 F3600 X126.964 Y67.228
G1 F1350 X128.561 Y68.824 E0.13517
G0 F3600 X127.945 Y68.887
G1 F1350 X126.964 Y67.906 E0.08306
G1 X126.894 Y67.836
G1 F2400 E-1.6
G1 F600 Z0.45
G0 F3600 X123.428 Y61.663 Z0.45
;TYPE:WALL-INNER
G1 F600 Z0.3
G1 F1800 E1.6
G1 F1350 X123.256 Y62.027 E0.02009
G1 X122.59 Y62.913 E0.0553
G1 X122.407 Y63.147 E0.01482
G1 X119.684 Y63.146 E0.13585
G1 X119.096 Y61.785 E0.07397
G1 X118.952 Y61.318 E0.02438
G1 X118.896 Y60.906 E0.02074
G1 X118.926 Y60.456 E0.0225
G1 X119.026 Y60.049 E0.02091
G1 X119.222 Y59.637 E0.02276
G1 X119.454 Y59.302 E0.02033
G1 X119.793 Y58.982 E0.02326
G1 X120.129 Y58.758 E0.02015
G1 X120.56 Y58.584 E0.02319
G1 X120.959 Y58.494 E0.02041
G1 X121.42 Y58.488 E0.023
G1 X121.821 Y58.55 E0.02024
G1 X122.254 Y58.712 E0.02306
G1 X122.612 Y58.92 E0.02066
G1 X122.951 Y59.224 E0.02272
G1 X123.209 Y59.546 E0.02059
G1 X123.416 Y59.956 E0.02291
G1 X123.538 Y60.349 E0.02053
G1 X123.582 Y60.803 E0.02276
G1 X123.555 Y61.216 E0.02065
G1 X123.428 Y61.663 E0.02318
G0 F3600 X123.828 Y61.812
;TYPE:WALL-OUTER
G1 F1350 X123.622 Y62.248 E0.02707
G1 X122.925 Y63.175 E0.0651
G1 X122.614 Y63.572 E0.02831
G1 X119.405 Y63.571 E0.18011
G1 X118.698 Y61.934 E0.10008
G1 X118.536 Y61.409 E0.03084
G1 X118.469 Y60.921 E0.02765
G1 X118.505 Y60.39 E0.02987
G1 X118.623 Y59.907 E0.02791
G1 X118.852 Y59.425 E0.02995
G1 X119.132 Y59.022 E0.02754
G1 X119.525 Y58.651 E0.03033
G1 X119.93 Y58.38 E0.02735
G1 X120.436 Y58.176 E0.03062
G1 X120.907 Y58.07 E0.0271
G1 X121.451 Y58.062 E0.03054
G1 X121.929 Y58.137 E0.02716
G1 X122.437 Y58.327 E0.03044
G1 X122.865 Y58.575 E0.02776
G1 X123.258 Y58.927 E0.02961
G1 X123.568 Y59.315 E0.02787
G1 X123.812 Y59.797 E0.03032
G1 X123.957 Y60.264 E0.02745
G1 X124.008 Y60.797 E0.03005
G1 X123.976 Y61.289 E0.02767
G1 X123.828 Y61.812 E0.03051
G0 F3600 X123.622 Y62.248
G0 X123.552 Y62.342
G0 X122.886 Y61.803
;TYPE:SKIN
G1 F1350 X122.197 Y62.717 E0.06853
G1 X119.967 Y62.716 E0.13351
G1 X119.501 Y61.637 E0.07036
G1 X119.373 Y61.223 E0.02594
G1 X119.328 Y60.891 E0.02006
G1 X119.353 Y60.521 E0.0222
G1 X119.432 Y60.2 E0.01979
G1 X119.599 Y59.848 E0.02333
G1 X119.783 Y59.582 E0.01936
G1 X120.061 Y59.32 E0.02287
G1 X120.332 Y59.139 E0.01951
G1 X120.686 Y58.996 E0.02286
G1 X121.008 Y58.924 E0.01975
G1 X121.39 Y58.918 E0.02287
G1 X121.715 Y58.968 E0.01969
G1 X122.068 Y59.101 E0.02258
G1 X122.357 Y59.269 E0.02001
G1 X122.639 Y59.521 E0.02264
G1 X122.844 Y59.777 E0.01963
G1 X123.016 Y60.118 E0.02287
G1 X123.114 Y60.436 E0.01992
G1 X123.15 Y60.803 E0.02208
G1 X123.127 Y61.149 E0.02076
G1 X123.025 Y61.509 E0.0224
G1 X122.886 Y61.803 E0.01947
G0 F3600 X122.473 Y61.554
G1 F1350 X121.958 Y62.237 E0.05121
G1 X120.283 Y62.236 E0.10028
G1 X119.953 Y61.473 E0.04977
G1 X119.843 Y61.117 E0.02231
G1 X119.81 Y60.874 E0.01468
G1 X119.829 Y60.595 E0.01674
G1 X119.886 Y60.364 E0.01424
G1 X120.017 Y60.088 E0.01829
G1 X120.151 Y59.895 E0.01407
G1 X120.359 Y59.698 E0.01715
G1 X120.558 Y59.565 E0.01433
G1 X120.831 Y59.455 E0.01762
G1 X121.063 Y59.403 E0.01423
G1 X121.36 Y59.399 E0.01778
G1 X121.592 Y59.434 E0.01405
G1 X121.861 Y59.536 E0.01722
G1 X122.072 Y59.659 E0.01462
G1 X122.289 Y59.852 E0.01739
G1 X122.438 Y60.038 E0.01427
G1 X122.569 Y60.299 E0.01748
G1 X122.641 Y60.53 E0.01449
G1 X122.668 Y60.812 E0.01696
G1 X122.651 Y61.066 E0.01524
G1 X122.573 Y61.341 E0.01711
G1 X122.473 Y61.554 E0.01409
G0 F3600 X122.409 Y60.636
;TYPE:SKIN
G1 F1350 X121.424 Y59.651 E0.0834
G0 F3600 X120.814 Y59.72
G1 F1350 X122.347 Y61.253 E0.12979
G0 F3600 X122.084 Y61.669
G1 F1350 X120.402 Y59.987 E0.14241
G0 F3600 X120.134 Y60.398
G1 F1350 X121.732 Y61.996 E0.1353
G0 F3600 X121.053 Y61.995
G1 F1350 X120.069 Y61.012 E0.08327
G1 X119.999 Y60.942
G1 F2400 E-1.6
G1 F600 Z0.45
G0 F3600 X101.743 Y61.478 Z0.45
;TYPE:WALL-INNER
G1 F600 Z0.3
G1 F1800 E1.6
G1 F1350 X101.204 Y62.783 E0.07044
G1 X101.048 Y63.146 E0.01971
G1 X98.323 Y63.146 E0.13595
G1 X97.659 Y62.297 E0.05377
G1 X97.402 Y61.884 E0.02427
G1 X97.242 Y61.499 E0.0208
G1 X97.16 Y61.053 E0.02262
G1 X97.15 Y60.638 E0.02071
G1 X97.234 Y60.191 E0.02269
G1 X97.377 Y59.803 E0.02063
G1 X97.625 Y59.406 E0.02335
G1 X97.892 Y59.105 E0.02007
G1 X98.257 Y58.832 E0.02274
G1 X98.626 Y58.643 E0.02068
G1 X99.067 Y58.522 E0.02281
G1 X99.48 Y58.478 E0.02072
G1 X99.936 Y58.524 E0.02287
G1 X100.334 Y58.634 E0.0206
G1 X100.738 Y58.841 E0.02265
G1 X101.068 Y59.087 E0.02053
G1 X101.374 Y59.435 E0.02312
G1 X101.591 Y59.781 E0.02038
G1 X101.751 Y60.217 E0.02317
G1 X101.827 Y60.613 E0.02012
G1 X101.819 Y61.076 E0.0231
G1 X101.743 Y61.478 E0.02041
G0 F3600 X102.153 Y61.599
;TYPE:WALL-OUTER
G1 F1350 X101.597 Y62.945 E0.08174
G1 X101.327 Y63.571 E0.03826
G1 X98.116 Y63.571 E0.18022
G1 X97.312 Y62.544 E0.0732
G1 X97.021 Y62.076 E0.03093
G1 X96.833 Y61.622 E0.02758
G1 X96.736 Y61.096 E0.03002
G1 X96.724 Y60.603 E0.02768
G1 X96.823 Y60.075 E0.03015
G1 X96.993 Y59.616 E0.02747
G1 X97.28 Y59.155 E0.03048
G1 X97.603 Y58.79 E0.02736
G1 X98.032 Y58.47 E0.03004
G1 X98.469 Y58.245 E0.02759
G1 X98.99 Y58.102 E0.03032
G1 X99.478 Y58.05 E0.02754
G1 X100.015 Y58.105 E0.0303
G1 X100.487 Y58.235 E0.02748
G1 X100.965 Y58.48 E0.03015
G1 X101.357 Y58.772 E0.02743
G1 X101.716 Y59.18 E0.0305
G1 X101.975 Y59.593 E0.02736
G1 X102.161 Y60.099 E0.03026
G1 X102.253 Y60.579 E0.02743
G1 X102.243 Y61.12 E0.03037
G1 X102.153 Y61.599 E0.02736
G0 F3600 X101.924 Y62.153
G0 X101.329 Y61.353
;TYPE:SKIN
G1 F1350 X100.765 Y62.716 E0.08831
