;FLAVOR:Marlin
;TIME:553
;Filament used: 0.623627m
;Layer height: 0.3
;Generated with Cura_SteamEngine 3.5.1
M82 ;absolute extrusion mode
;;---------------------------------------


G21               ;metric values
G90               ;absolute positioning
M82               ;set extruder to absolute mode
M107              ;start with the fan off
M117 Preparing    ;write Preparing
M190 S45          ;wait for the bed to reach bed leveling temperature
M109 S180         ;wait for the extruder to reach 180C
G28               ;home all axes
M203 Z4           ;slow Z speed down for greater accuracy when probing
G29               ;auto bed leveling procedure
M203 Z7           ;pick up z speed again for printing
G28 X             ;home x to get as far from the plate as possible
M420 S1           ;(re) enable bed leveling turned off by the G28
G0 Y0 F5000       ;position Y in front
G0 Z15 F3000      ;position Z
M190 S70              ;wait for the bed to reach desired temperature
M109 S235             ;wait for the extruder to reach desired temperature
M300 S440 P300    ;play a tone
G4 P200           ;pause
M420 S1           ;(re) enable bed leveling to make iron-sure
M117 Print starting   ;write Print starting
G90               ;absolute positioning
G92 E0            ;reset the extruder position
M420 S1           ;(re) enable bed leveling to make iron-sure
G0 Z0             ;get Z down
M83               ;relative extrusion mode
G1 E22 F500       ;extrude __mm of feed stock
G1 E18 F400       ;extrude __mm of feed stock
G1 E10 F400       ;extrude __mm of feed stock
G4 S2             ;pause for ooze
M400              ;make sure all is finished
M420 S1           ;(re) enable bed leveling to make iron-sure
G0 F500 X3 Y0 Z0.6;get to the start of the LINE
G1 E2 F300        ;extrude __mm of feed stock
G1 F1000 X104 E10  ;print a thick LINE extruding __mm along the way
M82               ;absolute extrusion mode
G92 E0            ;reset the extruder position
M83 ;relative extrusion mode
G1 F2400 E-1.7
;LAYER_COUNT:27
;LAYER:0
M107
G0 F3600 X74.765 Y72.673 Z0.3
;TYPE:SKIRT
G1 F600 E1.7
G1 F1200 X75.231 Y72.224 E0.03874
G1 X75.749 Y71.835 E0.03878
G1 X76.31 Y71.514 E0.0387
G1 X76.907 Y71.263 E0.03877
G1 X77.53 Y71.089 E0.03873
G1 X78.17 Y70.992 E0.03875
G1 X78.646 Y70.972 E0.02852
G1 X96.382 Y71.026 E1.06183
G1 X101.314 Y70.973 E0.29529
G1 X101.695 Y70.983 E0.02282
G1 X105.961 Y71.248 E0.25589
G1 X109.49 Y71.324 E0.21132
G1 X109.49 Y71.325 E0.00006
G1 X110.861 Y71.345 E0.08209
G1 X111.507 Y71.394 E0.03879
G1 X112.141 Y71.523 E0.03873
G1 X112.754 Y71.729 E0.03872
G1 X113.338 Y72.009 E0.03877
G1 X113.882 Y72.359 E0.03873
G1 X114.379 Y72.773 E0.03873
G1 X114.822 Y73.245 E0.03875
G1 X115.202 Y73.769 E0.03875
G1 X115.516 Y74.335 E0.03875
G1 X115.757 Y74.935 E0.03871
G1 X115.922 Y75.561 E0.03876
G1 X116.009 Y76.202 E0.03873
G1 X116.023 Y76.584 E0.02289
G1 X116.023 Y89.163 E0.75308
G1 X115.983 Y89.809 E0.03875
G1 X115.864 Y90.445 E0.03874
G1 X115.667 Y91.061 E0.03872
G1 X115.396 Y91.649 E0.03876
G1 X115.054 Y92.199 E0.03877
G1 X114.647 Y92.702 E0.03874
G1 X114.182 Y93.151 E0.0387
G1 X113.664 Y93.54 E0.03878
G1 X113.103 Y93.862 E0.03873
G1 X112.506 Y94.112 E0.03875
G1 X111.883 Y94.286 E0.03873
G1 X111.243 Y94.383 E0.03875
G1 X110.657 Y94.401 E0.0351
G1 X106.503 Y94.301 E0.24876
G1 X106.387 Y94.297 E0.00695
G1 X101.152 Y94.055 E0.31374
G1 X96.486 Y93.979 E0.27938
G1 X91.042 Y94.041 E0.32594
G1 X90.936 Y94.041 E0.00635
G1 X83.659 Y93.977 E0.43568
G1 X78.688 Y94.031 E0.29762
G1 X78.042 Y93.998 E0.03873
G1 X77.405 Y93.886 E0.03872
G1 X76.786 Y93.696 E0.03876
G1 X76.196 Y93.431 E0.03872
G1 X75.642 Y93.095 E0.03879
G1 X75.135 Y92.694 E0.0387
G1 X74.68 Y92.233 E0.03878
G1 X74.286 Y91.72 E0.03873
G1 X73.958 Y91.162 E0.03875
G1 X73.701 Y90.568 E0.03875
G1 X73.52 Y89.947 E0.03873
G1 X73.417 Y89.308 E0.03875
G1 X73.391 Y88.791 E0.03099
G1 X73.39 Y76.212 E0.75308
G1 X73.43 Y75.567 E0.03869
G1 X73.549 Y74.93 E0.0388
G1 X73.746 Y74.314 E0.03872
G1 X74.017 Y73.726 E0.03876
G1 X74.359 Y73.177 E0.03872
G1 X74.627 Y72.844 E0.02559
G0 F1080 X74.765 Y72.673
G1 F2400 E-1.7
G1 F300 Z0.5
G0 F3600 X80.66 Y87.841 Z0.5
;TYPE:WALL-INNER
G1 F300 Z0.3
G1 F600 E1.71317
G1 F1200 X80.66 Y88.081 E0.01437
G1 X80.42 Y88.081 E0.00929
G1 X79.341 Y88.08 E0.0646
G1 X79.341 Y76.923 E0.66795
G1 X80.659 Y76.923 E0.07891
G1 X80.66 Y87.621 E0.64047
G0 F1080 X80.66 Y87.841
G0 F3600 X81.14 Y88.321
;TYPE:WALL-OUTER
G1 F600 E0.01317
G1 F1200 X81.14 Y88.561 E0.01437
G1 X80.9 Y88.561 E0.00929
G1 X78.861 Y88.56 E0.12207
G1 X78.861 Y76.443 E0.72542
G1 X81.139 Y76.443 E0.13638
G1 X81.14 Y88.101 E0.69794
G0 F1080 X81.14 Y88.321
G0 F3600 X81.14 Y88.561
G0 X80.9 Y88.561
G0 X80.78 Y88.561
G0 X80.142 Y87.563
;TYPE:SKIN
G1 F600 E0.01317
G1 F1200 X79.859 Y87.562 E0.02033
G1 X79.859 Y77.441 E0.72711
G1 X80.141 Y77.441 E0.02026
G1 X80.142 Y87.379 E0.71396
G0 F1080 X80.142 Y87.563
G0 F3600 X80.141 Y87.841
G1 F2400 E-1.7
G1 F300 Z0.5
G0 F3600 X80.141 Y87.841 Z0.5
G0 X90.66 Y87.841
;TYPE:WALL-INNER
G1 F300 Z0.3
G1 F600 E1.71322
G1 F1200 X90.66 Y88.081 E0.01437
G1 X90.42 Y88.081 E0.00929
G1 X89.341 Y88.08 E0.0646
G1 X89.341 Y76.923 E0.66795
G1 X90.659 Y76.923 E0.07891
G1 X90.66 Y87.621 E0.64047
G0 F1080 X90.66 Y87.841
G0 F3600 X91.14 Y88.321
;TYPE:WALL-OUTER
G1 F600 E0.01317
G1 F1200 X91.14 Y88.561 E0.01437
G1 X90.9 Y88.561 E0.00929
G1 X88.861 Y88.56 E0.12207
G1 X88.861 Y76.443 E0.72542
G1 X91.139 Y76.443 E0.13638
G1 X91.14 Y88.101 E0.69794
G0 F1080 X91.14 Y88.321
G0 F3600 X91.14 Y88.561
G0 X90.9 Y88.561
G0 X90.78 Y88.561
G0 X90.142 Y87.563
;TYPE:SKIN
G1 F600 E0.01317
G1 F1200 X89.859 Y87.562 E0.02033
G1 X89.859 Y77.441 E0.72711
G1 X90.141 Y77.441 E0.02026
G1 X90.142 Y87.379 E0.71396
G0 F1080 X90.142 Y87.563
G0 F3600 X90.141 Y87.841
G1 F2400 E-1.7
G1 F300 Z0.5
G0 F3600 X90.141 Y87.841 Z0.5
G0 X100.66 Y87.841
;TYPE:WALL-INNER
G1 F300 Z0.3
G1 F600 E1.71322
G1 F1200 X100.66 Y88.081 E0.01437
G1 X100.42 Y88.081 E0.00929
G1 X99.341 Y88.08 E0.0646
G1 X99.341 Y76.923 E0.66795
G1 X100.659 Y76.923 E0.07891
G1 X100.66 Y87.621 E0.64047
G0 F1080 X100.66 Y87.841
G0 F3600 X101.14 Y88.321
;TYPE:WALL-OUTER
G1 F600 E0.01317
G1 F1200 X101.14 Y88.561 E0.01437
G1 X100.9 Y88.561 E0.00929
G1 X98.861 Y88.56 E0.12207
G1 X98.861 Y76.443 E0.72542
G1 X101.139 Y76.443 E0.13638
G1 X101.14 Y88.101 E0.69794
G0 F1080 X101.14 Y88.321
G0 F3600 X101.14 Y88.561
G0 X100.9 Y88.561
G0 X100.78 Y88.561
G0 X100.142 Y87.563
;TYPE:SKIN
G1 F600 E0.01317
G1 F1200 X99.859 Y87.562 E0.02033
G1 X99.859 Y77.441 E0.72711
G1 X100.141 Y77.441 E0.02026
G1 X100.142 Y87.379 E0.71396
G0 F1080 X100.142 Y87.563
G0 F3600 X100.141 Y87.841
G1 F2400 E-1.7
G1 F300 Z0.5
G0 F3600 X100.141 Y87.841 Z0.5
G0 X110.072 Y88.212
;TYPE:WALL-INNER
G1 F300 Z0.3
G1 F600 E1.71322
G1 F1200 X110.072 Y88.452 E0.01437
G1 X109.832 Y88.452 E0.00929
G1 X108.753 Y88.451 E0.0646
G1 X108.753 Y77.294 E0.66795
G1 X110.072 Y77.294 E0.07897
G1 X110.072 Y87.992 E0.64047
G0 F1080 X110.072 Y88.212
G0 F3600 X110.552 Y88.692
;TYPE:WALL-OUTER
G1 F600 E0.01317
G1 F1200 X110.552 Y88.932 E0.01437
G1 X110.312 Y88.932 E0.00929
G1 X108.273 Y88.931 E0.12207
G1 X108.273 Y76.814 E0.72542
G1 X110.552 Y76.814 E0.13644
G1 X110.552 Y88.472 E0.69794
G0 F1080 X110.552 Y88.692
G0 F3600 X110.552 Y88.932
G0 X110.312 Y88.932
G0 X110.192 Y88.932
G0 X109.554 Y87.934
M104 S230
;TYPE:SKIN
G1 F600 E0.01317
G1 F1200 X109.271 Y87.933 E0.02033
G1 X109.271 Y77.812 E0.72711
G1 X109.554 Y77.812 E0.02033
G1 X109.554 Y87.75 E0.71396
G0 F1080 X109.554 Y87.934
G0 F3600 X109.553 Y88.212
G1 F2400 E-1.7
G1 F300 Z0.5
G0 F3600 X109.553 Y88.212 Z0.5
G0 X79.107 Y84.333
;TIME_ELAPSED:31.954087
;LAYER:1
M140 S65
M106 S76.5
G0 F5400 X79.107 Y84.333 Z0.8
;TYPE:WALL-INNER
G1 F300 Z0.6
G1 F600 E1.71322
G1 F1950 X79.107 Y87.273 E0.17601
G1 X80.697 Y87.273 E0.09519
G1 X80.894 Y87.273 E0.01179
G1 X80.894 Y84.333 E0.17601
G1 X79.303 Y84.333 E0.09525
G1 X79.208 Y84.333 E0.00569
G0 F1755 X79.107 Y84.333
G0 F5400 X80.98 Y84.333
G1 F600 E0.00605
G1 F1950 X80.98 Y87.273 E0.03154
G1 X80.98 Y87.47 E0.00838
G1 X80.979 Y88.223 E0.04508
G1 X79.26 Y88.224 E0.10291
G1 X79.02 Y88.224 E0.01437
G1 X79.02 Y87.984 E0.00929
G1 X79.02 Y87.273 E0.04257
G1 X79.02 Y84.333 E0.0319
G1 X79.02 Y84.137 E0.00834
G1 X79.021 Y76.773 E0.44087
G1 X80.98 Y76.773 E0.11728
G1 X80.98 Y84.185 E0.44374
G0 F1755 X80.98 Y84.333
G1 F2400 E-1.7
G0 F5400 X79.319 Y84.545
G0 X79.247 Y84.813
G0 X79.587 Y84.813
;TYPE:WALL-OUTER
G1 F600 E1.70886
G1 F1275 X79.587 Y86.793 E0.11854
G1 X80.414 Y86.793 E0.04951
G1 X80.414 Y84.813 E0.11854
G1 X79.643 Y84.813 E0.04616
G0 F1147.5 X79.587 Y84.813
G0 F5400 X79.587 Y85.413
G1 F2400 E-1.7
G0 F5400 X79.247 Y85.413
G0 X79.319 Y84.545
G0 X80.757 Y84.111
G0 X81.15 Y76.603
G0 X81.46 Y76.366
G1 F600 E1.70335
G1 F1275 X81.46 Y76.549 E0.01096
G1 X81.459 Y88.632 E0.72339
G1 X81.373 Y88.703 E0.00668
G1 X78.811 Y88.704 E0.15338
G1 X78.628 Y88.704 E0.01096
G1 X78.54 Y88.631 E0.00685
G1 X78.54 Y88.448 E0.01096
G1 X78.541 Y76.365 E0.72339
G1 X78.627 Y76.293 E0.00671
G1 X81.189 Y76.293 E0.15338
G1 X81.266 Y76.293 E0.00461
G0 F1147.5 X81.372 Y76.293
G0 X81.46 Y76.366
G0 F5400 X81.46 Y76.549
G0 X81.46 Y76.966
G0 X80.462 Y77.291
;TYPE:SKIN
G1 F600 E0.01317
G1 F1350 X80.461 Y83.815 E0.4687
G1 X79.538 Y83.815 E0.06631
G1 X79.539 Y77.291 E0.4687
G1 X80.332 Y77.291 E0.05697
G0 F1215 X80.462 Y77.291
G0 F5400 X80.199 Y77.83
G1 F600 E0.00934
G1 F1350 X79.8 Y78.229 E0.04054
G0 F5400 X80.199 Y78.645
G1 F1350 X79.8 Y79.043 E0.04049
G0 F5400 X80.199 Y79.459
G1 F1350 X79.8 Y79.858 E0.04054
G0 F5400 X80.199 Y80.274
G1 F1350 X79.8 Y80.673 E0.04054
G0 F5400 X80.199 Y81.088
G1 F1350 X79.8 Y81.487 E0.04054
G0 F5400 X80.199 Y81.903
G1 F1350 X79.8 Y82.302 E0.04054
G0 F5400 X80.199 Y82.718
G1 F1350 X79.8 Y83.116 E0.04049
G0 F5400 X79.171 Y83.115
G0 X79.17 Y87.756
G0 X79.234 Y87.756
G1 F1350 X79.504 Y87.486 E0.02743
G0 F5400 X79.795 Y88.009
G1 F1350 X80.318 Y87.486 E0.05314
G0 F5400 X80.765 Y87.854
G1 F1350 X80.61 Y88.009 E0.01575
G0 F5400 X80.61 Y87.983
G1 F2400 E-1.7
G1 F300 Z0.8
G0 F5400 X80.61 Y87.983 Z0.8
G0 X89.107 Y84.333
;TYPE:WALL-INNER
G1 F300 Z0.6
G1 F600 E1.7
G1 F1950 X89.107 Y87.273 E0.17601
G1 X90.697 Y87.273 E0.09519
G1 X90.894 Y87.273 E0.01179
G1 X90.894 Y84.333 E0.17601
G1 X89.303 Y84.333 E0.09525
G1 X89.208 Y84.333 E0.00569
G0 F1755 X89.107 Y84.333
G0 F5400 X90.98 Y84.333
G1 F600 E0.00605
G1 F1950 X90.98 Y87.273 E0.03154
G1 X90.98 Y87.47 E0.00838
G1 X90.979 Y88.223 E0.04508
G1 X89.26 Y88.224 E0.10291
G1 X89.02 Y88.224 E0.01437
G1 X89.02 Y87.984 E0.00929
G1 X89.02 Y87.273 E0.04257
G1 X89.02 Y84.333 E0.0319
G1 X89.02 Y84.137 E0.00834
G1 X89.021 Y76.773 E0.44087
G1 X90.98 Y76.773 E0.11728
G1 X90.98 Y84.185 E0.44374
G0 F1755 X90.98 Y84.333
G1 F2400 E-1.7
G0 F5400 X89.319 Y84.545
G0 X89.247 Y84.813
G0 X89.587 Y84.813
;TYPE:WALL-OUTER
G1 F600 E1.70886
G1 F1275 X89.587 Y86.793 E0.11854
G1 X90.414 Y86.793 E0.04951
G1 X90.414 Y84.813 E0.11854
G1 X89.643 Y84.813 E0.04616
G0 F1147.5 X89.587 Y84.813
G0 F5400 X89.587 Y85.413
G1 F2400 E-1.7
G0 F5400 X89.247 Y85.413
G0 X89.319 Y84.545
G0 X90.757 Y84.111
G0 X91.15 Y76.603
G0 X91.46 Y76.366
G1 F600 E1.70335
G1 F1275 X91.46 Y76.549 E0.01096
G1 X91.459 Y88.632 E0.72339
G1 X91.373 Y88.703 E0.00668
G1 X88.811 Y88.704 E0.15338
G1 X88.628 Y88.704 E0.01096
G1 X88.54 Y88.631 E0.00685
G1 X88.54 Y88.448 E0.01096
G1 X88.541 Y76.365 E0.72339
G1 X88.627 Y76.293 E0.00671
G1 X91.189 Y76.293 E0.15338
G1 X91.266 Y76.293 E0.00461
G0 F1147.5 X91.372 Y76.293
G0 X91.46 Y76.366
G0 F5400 X91.46 Y76.549
G0 X91.46 Y76.966
G0 X90.462 Y77.291
;TYPE:SKIN
G1 F600 E0.01317
G1 F1350 X90.461 Y83.815 E0.4687
G1 X89.538 Y83.815 E0.06631
G1 X89.539 Y77.291 E0.4687
G1 X90.332 Y77.291 E0.05697
G0 F1215 X90.462 Y77.291
G0 F5400 X90.198 Y77.606
G1 F600 E0.00934
G1 F1350 X89.8 Y78.004 E0.04044
G0 F5400 X90.198 Y78.42
G1 F1350 X89.8 Y78.819 E0.04049
G0 F5400 X90.198 Y79.235
G1 F1350 X89.8 Y79.633 E0.04044
G0 F5400 X90.198 Y80.05
G1 F1350 X89.8 Y80.448 E0.04044
G0 F5400 X90.198 Y80.864
G1 F1350 X89.8 Y81.262 E0.04044
G0 F5400 X90.198 Y81.679
G1 F1350 X89.8 Y82.077 E0.04044
G0 F5400 X90.198 Y82.493
G1 F1350 X89.8 Y82.892 E0.04049
G0 F5400 X90.198 Y83.308
G1 F1350 X89.953 Y83.553 E0.02489
G0 F5400 X89.953 Y84.183
G0 X89.319 Y84.545
G0 X89.242 Y88.002
G0 X89.568 Y88.074
G0 X89.569 Y88.01
G1 F1350 X90.093 Y87.486 E0.05324
G0 F5400 X90.384 Y88.01
G1 F1350 X90.764 Y87.63 E0.03861
G0 F5400 X90.74 Y87.63
G1 F2400 E-1.7
G1 F300 Z0.8
G0 F5400 X90.74 Y87.63 Z0.8
G0 X99.107 Y84.333
;TYPE:WALL-INNER
G1 F300 Z0.6
G1 F600 E1.7
G1 F1950 X99.107 Y87.273 E0.17601
G1 X100.697 Y87.273 E0.09519
G1 X100.894 Y87.273 E0.01179
G1 X100.894 Y84.333 E0.17601
G1 X99.303 Y84.333 E0.09525
G1 X99.208 Y84.333 E0.00569
G0 F1755 X99.107 Y84.333
G0 F5400 X100.98 Y84.333
G1 F600 E0.00605
G1 F1950 X100.98 Y87.273 E0.03154
G1 X100.98 Y87.47 E0.00838
G1 X100.979 Y88.223 E0.04508
G1 X99.26 Y88.224 E0.10291
G1 X99.02 Y88.224 E0.01437
G1 X99.02 Y87.984 E0.00929
G1 X99.02 Y87.273 E0.04257
G1 X99.02 Y84.333 E0.0319
G1 X99.02 Y84.137 E0.00834
G1 X99.021 Y76.773 E0.44087
G1 X100.98 Y76.773 E0.11728
G1 X100.98 Y84.185 E0.44374
G0 F1755 X100.98 Y84.333
G1 F2400 E-1.7
G0 F5400 X99.319 Y84.545
G0 X99.247 Y84.813
G0 X99.587 Y84.813
;TYPE:WALL-OUTER
G1 F600 E1.70886
G1 F1275 X99.587 Y86.793 E0.11854
G1 X100.414 Y86.793 E0.04951
G1 X100.414 Y84.813 E0.11854
G1 X99.643 Y84.813 E0.04616
G0 F1147.5 X99.587 Y84.813
G0 F5400 X99.587 Y85.413
G1 F2400 E-1.7
G0 F5400 X99.247 Y85.413
G0 X99.319 Y84.545
G0 X100.757 Y84.111
G0 X101.15 Y76.603
G0 X101.46 Y76.366
G1 F600 E1.70335
G1 F1275 X101.46 Y76.549 E0.01096
G1 X101.459 Y88.632 E0.72339
G1 X101.373 Y88.703 E0.00668
G1 X98.811 Y88.704 E0.15338
G1 X98.628 Y88.704 E0.01096
G1 X98.54 Y88.631 E0.00685
G1 X98.54 Y88.448 E0.01096
G1 X98.541 Y76.365 E0.72339
G1 X98.627 Y76.293 E0.00671
G1 X101.189 Y76.293 E0.15338
G1 X101.266 Y76.293 E0.00461
G0 F1147.5 X101.372 Y76.293
G0 X101.46 Y76.366
G0 F5400 X101.46 Y76.549
G0 X101.46 Y76.966
G0 X100.462 Y77.291
;TYPE:SKIN
G1 F600 E0.01317
G1 F1350 X100.461 Y83.815 E0.4687
G1 X99.538 Y83.815 E0.06631
G1 X99.539 Y77.291 E0.4687
G1 X100.332 Y77.291 E0.05697
G0 F1215 X100.462 Y77.291
G0 F5400 X100.026 Y77.553
G1 F600 E0.00934
G1 F1350 X99.8 Y77.779 E0.02296
G0 F5400 X100.198 Y78.196
G1 F1350 X99.8 Y78.594 E0.04044
G0 F5400 X100.198 Y79.01
G1 F1350 X99.8 Y79.408 E0.04044
G0 F5400 X100.198 Y79.825
G1 F1350 X99.8 Y80.223 E0.04044
G0 F5400 X100.198 Y80.639
G1 F1350 X99.8 Y81.037 E0.04044
G0 F5400 X100.198 Y81.454
G1 F1350 X99.8 Y81.852 E0.04044
G0 F5400 X100.198 Y82.269
G1 F1350 X99.8 Y82.667 E0.04044
G0 F5400 X100.198 Y83.083
G1 F1350 X99.8 Y83.481 E0.04044
G0 F5400 X99.171 Y83.48
G0 X99.242 Y88.002
G0 X99.343 Y88.074
G0 X99.344 Y88.01
G1 F1350 X99.868 Y87.486 E0.05324
G0 F5400 X100.159 Y88.01
G1 F1350 X100.682 Y87.486 E0.05319
G0 F5400 X100.993 Y87.372
G1 F2400 E-1.7
G1 F300 Z0.8
G0 F5400 X101.068 Y87.184 Z0.8
G0 X108.52 Y84.704
;TYPE:WALL-INNER
G1 F300 Z0.6
G1 F600 E1.7
G1 F1950 X108.52 Y87.644 E0.17601
G1 X110.109 Y87.644 E0.09513
G1 X110.306 Y87.644 E0.01179
G1 X110.306 Y84.704 E0.17601
G1 X108.716 Y84.704 E0.09519
G1 X108.621 Y84.704 E0.00569
G0 F1755 X108.52 Y84.704
G0 F5400 X110.392 Y84.704
G1 F600 E0.00605
G1 F1950 X110.392 Y87.644 E0.03154
G1 X110.392 Y87.841 E0.00838
G1 X110.391 Y88.595 E0.04514
G1 X108.672 Y88.596 E0.10291
G1 X108.432 Y88.596 E0.01437
G1 X108.432 Y88.356 E0.00929
G1 X108.432 Y87.644 E0.04263
G1 X108.432 Y84.704 E0.03227
G1 X108.432 Y84.508 E0.00835
G1 X108.433 Y77.144 E0.44087
G1 X110.392 Y77.144 E0.11728
G1 X110.392 Y84.556 E0.44374
G0 F1755 X110.392 Y84.704
G1 F2400 E-1.7
G0 F5400 X108.732 Y84.916
G0 X108.66 Y85.184
G0 X109 Y85.184
;TYPE:WALL-OUTER
G1 F600 E1.70886
G1 F1275 X109 Y87.164 E0.11854
G1 X109.826 Y87.164 E0.04945
G1 X109.826 Y85.184 E0.11854
G1 X109.056 Y85.184 E0.0461
G0 F1147.5 X109 Y85.184
G0 F5400 X109 Y85.784
G1 F2400 E-1.7
G0 F5400 X108.66 Y85.784
G0 X108.732 Y84.916
G0 X110.169 Y84.482
G0 X110.562 Y76.974
G0 X110.872 Y76.737
G1 F600 E1.70335
G1 F1275 X110.872 Y76.92 E0.01096
G1 X110.871 Y89.004 E0.72345
