; G-Code generated by Simplify3D(R) Version 3.1.0
; Mar 22, 2017 at 10:38:44 PM
; Settings Summary
;   processName,Process1
;   applyToModels,fan cover thick plastite
;   profileName,PETG 0.3 he.20 bt50 (modified)
;   profileVersion,2017-03-22 16:34:17
;   baseProfile,Default (modified)
;   printMaterial,
;   printQuality,
;   printExtruders,
;   extruderName,Primary Extruder
;   extruderToolheadNumber,0
;   extruderDiameter,0.4
;   extruderAutoWidth,0
;   extruderWidth,0.45
;   extrusionMultiplier,0.95
;   extruderUseRetract,1
;   extruderRetractionDistance,1.4
;   extruderExtraRestartDistance,-0.1
;   extruderRetractionZLift,0.1
;   extruderRetractionSpeed,4200
;   extruderUseCoasting,1
;   extruderCoastingDistance,0.2
;   extruderUseWipe,1
;   extruderWipeDistance,0.2
;   primaryExtruder,0
;   layerHeight,0.3
;   topSolidLayers,0
;   bottomSolidLayers,0
;   perimeterOutlines,2
;   printPerimetersInsideOut,1
;   startPointOption,2
;   startPointOriginX,80
;   startPointOriginY,0
;   startPointOriginZ,5
;   sequentialIslands,0
;   spiralVaseMode,0
;   firstLayerHeightPercentage,100
;   firstLayerWidthPercentage,80
;   firstLayerUnderspeed,0.8
;   useRaft,0
;   raftExtruder,0
;   raftLayers,3
;   raftOffset,3
;   raftSeparationDistance,0.14
;   raftInfill,85
;   disableRaftBaseLayers,0
;   useSkirt,1
;   skirtExtruder,0
;   skirtLayers,1
;   skirtOutlines,3
;   skirtOffset,3
;   usePrimePillar,0
;   primePillarExtruder,999
;   primePillarWidth,12
;   primePillarLocation,7
;   primePillarSpeedMultiplier,1
;   useOozeShield,0
;   oozeShieldExtruder,999
;   oozeShieldOffset,2
;   oozeShieldOutlines,1
;   oozeShieldSidewallShape,1
;   oozeShieldSidewallAngle,30
;   oozeShieldSpeedMultiplier,1
;   infillExtruder,0
;   internalInfillPattern,Triangular
;   externalInfillPattern,Rectilinear
;   infillPercentage,66
;   outlineOverlapPercentage,30
;   infillExtrusionWidthPercentage,95
;   minInfillLength,2
;   infillLayerInterval,1
;   infillAngles,0,60,-60
;   overlapInfillAngles,1
;   generateSupport,1
;   supportExtruder,0
;   supportInfillPercentage,38
;   supportExtraInflation,0
;   denseSupportLayers,0
;   denseSupportInfillPercentage,70
;   supportLayerInterval,1
;   supportHorizontalPartOffset,1
;   supportUpperSeparationLayers,1
;   supportLowerSeparationLayers,1
;   supportType,0
;   supportGridSpacing,3.5
;   maxOverhangAngle,55
;   supportAngles,0
;   temperatureName,Primary Extruder,bed
;   temperatureNumber,0,0
;   temperatureSetpointCount,2,2
;   temperatureSetpointLayers,1,2,1,2
;   temperatureSetpointTemperatures,240,235,50,50
;   temperatureStabilizeAtStartup,1,1
;   temperatureHeatedBed,0,1
;   temperatureRelayBetweenLayers,0,0
;   temperatureRelayBetweenLoops,0,0
;   fanLayers,1,4
;   fanSpeeds,0,20
;   blipFanToFullPower,1
;   adjustSpeedForCooling,0
;   minSpeedLayerTime,15
;   minCoolingSpeedSlowdown,65
;   increaseFanForCooling,1
;   minFanLayerTime,15
;   maxCoolingFanSpeed,60
;   increaseFanForBridging,1
;   bridgingFanSpeed,100
;   use5D,1
;   relativeEdistances,0
;   allowEaxisZeroing,1
;   independentExtruderAxes,0
;   includeM10123,0
;   stickySupport,1
;   applyToolheadOffsets,0
;   gcodeXoffset,0
;   gcodeYoffset,0
;   gcodeZoffset,0
;   overrideMachineDefinition,1
;   machineTypeOverride,0
;   strokeXoverride,170
;   strokeYoverride,160
;   strokeZoverride,145
;   originOffsetXoverride,0
;   originOffsetYoverride,0
;   originOffsetZoverride,0
;   homeXdirOverride,-1
;   homeYdirOverride,-1
;   homeZdirOverride,-1
;   flipXoverride,1
;   flipYoverride,-1
;   flipZoverride,1
;   toolheadOffsets,0,0|0,0|0,0|0,0|0,0|0,0
;   overrideFirmwareConfiguration,1
;   firmwareTypeOverride,RepRap (Marlin/Repetier/Sprinter)
;   GPXconfigOverride,r2
;   baudRateOverride,250000
;   overridePrinterModels,0
;   printerModelsOverride
;   startingGcode,;---------------------------------------,; ; ; Jellybox Start Script Begin ; ; ;,;_______________________________________,; M92 E140            ; optionally adjust steps per mm for your filament,M117 Preparing        ; write Preparing,M206 X10.0 Y0.0       ; set x homing offset for default bed leveling,G21                   ; metric values,G90                   ; absolute positioning,M107                  ; start with the fan off,M82                   ; set extruder to absolute mode,G28                   ; home all axes,M203 Z4               ; slow Z speed down for greater accuracy when probing,G29                   ; auto bed leveling procedure,M203 Z7               ; pick up z speed again for printing,G92 E0                ; reset the extruder position,G1 F1500 E15          ; extrude 15mm of feed stock,G92 E0                ; reset the extruder position again,M117 Print starting   ; write Print starting,;---------------------------------------------,; ; ; Jellybox Printer Start Script End ; ; ;,;_____________________________________________
;   layerChangeGcode,
;   retractionGcode,
;   toolChangeGcode,
;   endingGcode,; ; ;  Jellybox End Script Begin ; ; ;,; _________________________________,M117 Finishing Up  ; write Finishing Up,M107               ; start with the fan off,M104 S0            ; extruder heater off,M140 S0            ; bed heater off (if you have it),G91                ; relative positioning,G1 E-1 F300        ; retract the filament a bit before lifting the nozzle to release some of the pressure,G1 Z+0.5 E-5 X-20 Y-20 F9000 ; move Z up a bit and retract filament even more,G90                ; absolute positioning,G28 X              ; home x so the head is out of the way,G1 Y100            ; move Y forward so the print is more accessible,M84                ; steppers off,M107               ; fan off,M117 Print finished ; write Print finished,; ---------------------------------------,; ; ;  Jellybox End Script End ; ; ;,; _______________________________________
;   exportFileFormat,gcode
;   celebration,0
;   celebrationSong,Random Song
;   postProcessing,|{REPLACE "; layer" "M117 Layer"},|{REPLACE ", Z = " " "Z="}
;   defaultSpeed,2100
;   outlineUnderspeed,1
;   solidInfillUnderspeed,1
;   supportUnderspeed,0.9
;   rapidXYspeed,7800
;   rapidZspeed,420
;   minBridgingArea,50
;   bridgingExtraInflation,0.3
;   bridgingExtrusionMultiplier,1
;   bridgingSpeedMultiplier,1
;   filamentDiameter,1.75
;   filamentPricePerKg,30
;   filamentDensity,1.38
;   useMinPrintHeight,0
;   minPrintHeight,30
;   useMaxPrintHeight,0
;   maxPrintHeight,40
;   useDiaphragm,0
;   diaphragmLayerInterval,20
;   robustSlicing,1
;   mergeAllIntoSolid,0
;   onlyRetractWhenCrossingOutline,0
;   retractBetweenLayers,1
;   useRetractionMinTravel,1
;   retractionMinTravel,1
;   retractWhileWiping,1
;   onlyWipeOutlines,0
;   avoidCrossingOutline,1
;   maxMovementDetourFactor,2.5
;   toolChangeRetractionDistance,1.3
;   toolChangeExtraRestartDistance,0
;   toolChangeRetractionSpeed,600
;   allowThinWallGapFill,1
;   thinWallAllowedOverlapPercentage,15
;   horizontalSizeCompensation,0
G90
M82
M106 S0
M140 S50
M190 S50
M104 S240 T0
M109 S240 T0
;---------------------------------------
; ; ; Jellybox Start Script Begin ; ; ;
;_______________________________________
; M92 E140            ; optionally adjust steps per mm for your filament
M117 Preparing        ; write Preparing
M206 X10.0 Y0.0       ; set x homing offset for default bed leveling
G21                   ; metric values
G90                   ; absolute positioning
M107                  ; start with the fan off
M82                   ; set extruder to absolute mode
G28                   ; home all axes
M203 Z4               ; slow Z speed down for greater accuracy when probing
G29                   ; auto bed leveling procedure
M203 Z7               ; pick up z speed again for printing
G92 E0                ; reset the extruder position
G1 F1500 E15          ; extrude 15mm of feed stock
G92 E0                ; reset the extruder position again
M117 Print starting   ; write Print starting
;---------------------------------------------
; ; ; Jellybox Printer Start Script End ; ; ;
;_____________________________________________
G92 E0
G1 E-1.4000 F4200
G1 Z0.400 F420
M117 Layer 1 0.3
T0
; tool H0.300 W0.360
; skirt
G1 X63.009 Y58.892 F7800
G1 Z0.300 F420
G1 E-0.1000 F1260
G92 E0
G1 X63.033 Y58.863 E0.0016 F1680
G1 X63.190 Y58.683 E0.0118
G1 X63.215 Y58.656 E0.0134
G1 X63.739 Y58.134 E0.0449
G1 X63.767 Y58.108 E0.0465
G1 X63.946 Y57.952 E0.0567
G1 X63.975 Y57.928 E0.0583
G1 X64.564 Y57.480 E0.0898
G1 X64.594 Y57.458 E0.0914
G1 X64.793 Y57.327 E0.1016
G1 X64.825 Y57.307 E0.1032
G1 X65.468 Y56.942 E0.1347
G1 X65.502 Y56.925 E0.1364
G1 X65.716 Y56.821 E0.1465
G1 X65.751 Y56.806 E0.1481
G1 X66.436 Y56.530 E0.1797
G1 X66.472 Y56.517 E0.1813
G1 X66.698 Y56.443 E0.1914
G1 X66.734 Y56.432 E0.1930
G1 X67.451 Y56.250 E0.2246
G1 X67.488 Y56.242 E0.2262
G1 X67.722 Y56.198 E0.2363
G1 X67.759 Y56.193 E0.2379
G1 X68.494 Y56.108 E0.2695
G1 X68.531 Y56.105 E0.2711
G1 X68.769 Y56.093 E0.2813
G1 X68.807 Y56.092 E0.2829
G1 X69.545 Y56.106 E0.3143
G1 X69.582 Y56.108 E0.3159
G1 X69.817 Y56.128 E0.3260
G1 X69.854 Y56.132 E0.3276
G1 X70.569 Y56.241 E0.3584
G1 X70.606 Y56.247 E0.3600
G1 X70.835 Y56.298 E0.3700
G1 X70.871 Y56.307 E0.3716
G1 X71.579 Y56.512 E0.4031
G1 X71.615 Y56.524 E0.4047
G1 X71.839 Y56.606 E0.4148
G1 X71.874 Y56.620 E0.4164
G1 X72.550 Y56.918 E0.4480
G1 X72.584 Y56.935 E0.4496
G1 X72.795 Y57.045 E0.4598
G1 X72.828 Y57.064 E0.4614
G1 X73.458 Y57.450 E0.4929
G1 X73.489 Y57.471 E0.4945
G1 X73.684 Y57.609 E0.5047
G1 X73.714 Y57.632 E0.5063
G1 X74.013 Y57.875 E0.5227
G1 X78.303 Y57.875 E0.7057
G1 X78.860 Y57.705 E0.7306
G1 X78.877 Y57.700 E0.7313
G1 X78.980 Y57.672 E0.7359
G1 X78.997 Y57.668 E0.7366
G1 X80.213 Y57.376 E0.7900
G1 X80.230 Y57.372 E0.7907
G1 X80.335 Y57.350 E0.7953
G1 X80.352 Y57.347 E0.7960
G1 X81.584 Y57.129 E0.8494
G1 X81.600 Y57.126 E0.8501
G1 X81.706 Y57.111 E0.8547
G1 X81.723 Y57.108 E0.8554
G1 X82.966 Y56.965 E0.9088
G1 X82.983 Y56.963 E0.9095
G1 X83.090 Y56.954 E0.9141
G1 X83.107 Y56.953 E0.9148
G1 X84.356 Y56.884 E0.9682
G1 X84.373 Y56.883 E0.9689
G1 X84.480 Y56.881 E0.9735
G1 X84.497 Y56.881 E0.9742
G1 X85.749 Y56.887 E1.0276
G1 X85.765 Y56.888 E1.0283
G1 X85.873 Y56.891 E1.0328
G1 X85.890 Y56.892 E1.0336
G1 X87.138 Y56.974 E1.0869
G1 X87.155 Y56.976 E1.0877
G1 X87.262 Y56.986 E1.0922
G1 X87.279 Y56.988 E1.0930
G1 X88.520 Y57.145 E1.1463
G1 X88.537 Y57.147 E1.1471
G1 X88.643 Y57.164 E1.1516
G1 X88.659 Y57.167 E1.1524
G1 X89.889 Y57.398 E1.2057
G1 X89.906 Y57.401 E1.2065
G1 X90.010 Y57.424 E1.2110
G1 X90.027 Y57.428 E1.2118
G1 X91.240 Y57.733 E1.2651
G1 X91.257 Y57.737 E1.2659
G1 X91.360 Y57.767 E1.2704
G1 X91.376 Y57.772 E1.2711
G1 X91.911 Y57.941 E1.2951
G1 X96.059 Y57.941 E1.4720
G1 X96.349 Y57.704 E1.4880
G1 X96.378 Y57.681 E1.4896
G1 X96.573 Y57.543 E1.4997
G1 X96.604 Y57.523 E1.5013
G1 X97.234 Y57.136 E1.5329
G1 X97.267 Y57.117 E1.5345
G1 X97.478 Y57.006 E1.5446
G1 X97.512 Y56.990 E1.5462
G1 X98.188 Y56.690 E1.5778
G1 X98.223 Y56.676 E1.5794
G1 X98.447 Y56.595 E1.5896
G1 X98.482 Y56.583 E1.5912
G1 X99.192 Y56.376 E1.6227
G1 X99.229 Y56.367 E1.6243
G1 X99.461 Y56.316 E1.6345
G1 X99.498 Y56.309 E1.6361
G1 X100.230 Y56.199 E1.6676
G1 X100.267 Y56.194 E1.6692
G1 X100.504 Y56.175 E1.6794
G1 X100.542 Y56.173 E1.6810
G1 X101.281 Y56.161 E1.7125
G1 X101.319 Y56.162 E1.7141
G1 X101.557 Y56.174 E1.7243
G1 X101.594 Y56.177 E1.7259
G1 X102.329 Y56.264 E1.7574
G1 X102.366 Y56.270 E1.7590
G1 X102.600 Y56.314 E1.7692
G1 X102.637 Y56.322 E1.7708
G1 X103.353 Y56.506 E1.8024
G1 X103.389 Y56.517 E1.8040
G1 X103.615 Y56.591 E1.8141
G1 X103.651 Y56.604 E1.8157
G1 X104.336 Y56.882 E1.8473
G1 X104.370 Y56.898 E1.8489
G1 X104.585 Y57.002 E1.8590
G1 X104.618 Y57.019 E1.8606
G1 X105.260 Y57.386 E1.8922
G1 X105.292 Y57.406 E1.8938
G1 X105.490 Y57.538 E1.9040
G1 X105.521 Y57.560 E1.9056
G1 X106.108 Y58.009 E1.9371
G1 X106.137 Y58.033 E1.9387
G1 X106.317 Y58.190 E1.9489
G1 X106.344 Y58.215 E1.9505
G1 X106.866 Y58.739 E1.9820
G1 X106.892 Y58.767 E1.9836
G1 X107.048 Y58.946 E1.9938
G1 X107.072 Y58.975 E1.9954
G1 X107.520 Y59.564 E2.0269
G1 X107.542 Y59.594 E2.0285
G1 X107.673 Y59.793 E2.0387
G1 X107.693 Y59.825 E2.0403
G1 X108.058 Y60.468 E2.0718
G1 X108.075 Y60.502 E2.0735
G1 X108.179 Y60.716 E2.0836
G1 X108.194 Y60.751 E2.0852
G1 X108.470 Y61.436 E2.1168
G1 X108.483 Y61.472 E2.1184
G1 X108.557 Y61.698 E2.1285
G1 X108.568 Y61.734 E2.1301
G1 X108.750 Y62.451 E2.1617
G1 X108.758 Y62.488 E2.1633
G1 X108.802 Y62.722 E2.1734
G1 X108.807 Y62.759 E2.1750
G1 X108.892 Y63.494 E2.2066
G1 X108.895 Y63.531 E2.2082
G1 X108.907 Y63.769 E2.2184
G1 X108.908 Y63.807 E2.2200
G1 X108.894 Y64.545 E2.2515
G1 X108.892 Y64.582 E2.2530
G1 X108.872 Y64.817 E2.2631
G1 X108.868 Y64.854 E2.2647
G1 X108.759 Y65.569 E2.2955
G1 X108.753 Y65.606 E2.2971
G1 X108.702 Y65.835 E2.3071
G1 X108.693 Y65.871 E2.3087
G1 X108.488 Y66.579 E2.3402
G1 X108.476 Y66.615 E2.3418
G1 X108.394 Y66.839 E2.3519
G1 X108.380 Y66.874 E2.3535
G1 X108.082 Y67.550 E2.3851
G1 X108.065 Y67.584 E2.3867
G1 X107.955 Y67.795 E2.3969
G1 X107.936 Y67.828 E2.3985
G1 X107.550 Y68.458 E2.4300
G1 X107.529 Y68.489 E2.4316
G1 X107.391 Y68.684 E2.4418
G1 X107.368 Y68.714 E2.4434
G1 X107.125 Y69.013 E2.4598
G1 X107.125 Y73.303 E2.6428
G1 X107.295 Y73.860 E2.6677
G1 X107.300 Y73.877 E2.6684
G1 X107.328 Y73.980 E2.6730
G1 X107.332 Y73.997 E2.6737
G1 X107.624 Y75.213 E2.7271
G1 X107.628 Y75.230 E2.7278
G1 X107.650 Y75.335 E2.7324
G1 X107.653 Y75.352 E2.7331
G1 X107.871 Y76.584 E2.7865
G1 X107.874 Y76.600 E2.7872
G1 X107.889 Y76.706 E2.7918
G1 X107.892 Y76.723 E2.7925
G1 X108.035 Y77.966 E2.8459
G1 X108.037 Y77.983 E2.8466
G1 X108.046 Y78.090 E2.8512
G1 X108.047 Y78.107 E2.8519
G1 X108.116 Y79.356 E2.9053
G1 X108.117 Y79.373 E2.9060
G1 X108.119 Y79.480 E2.9106
G1 X108.119 Y79.497 E2.9113
G1 X108.113 Y80.748 E2.9647
G1 X108.112 Y80.765 E2.9654
G1 X108.109 Y80.873 E2.9700
G1 X108.108 Y80.890 E2.9707
G1 X108.026 Y82.138 E3.0240
G1 X108.024 Y82.155 E3.0248
G1 X108.014 Y82.262 E3.0293
G1 X108.012 Y82.279 E3.0301
G1 X107.855 Y83.520 E3.0834
G1 X107.853 Y83.537 E3.0842
G1 X107.836 Y83.643 E3.0887
G1 X107.833 Y83.659 E3.0895
G1 X107.602 Y84.889 E3.1428
G1 X107.599 Y84.906 E3.1436
G1 X107.576 Y85.010 E3.1481
G1 X107.572 Y85.027 E3.1489
G1 X107.267 Y86.240 E3.2022
G1 X107.263 Y86.257 E3.2030
G1 X107.233 Y86.360 E3.2075
G1 X107.228 Y86.376 E3.2082
G1 X107.059 Y86.911 E3.2322
G1 X107.059 Y91.059 E3.4091
G1 X107.296 Y91.348 E3.4251
G1 X107.319 Y91.378 E3.4267
G1 X107.457 Y91.573 E3.4368
G1 X107.477 Y91.604 E3.4384
G1 X107.864 Y92.234 E3.4700
G1 X107.883 Y92.267 E3.4716
G1 X107.994 Y92.478 E3.4817
G1 X108.010 Y92.512 E3.4833
G1 X108.310 Y93.188 E3.5149
G1 X108.324 Y93.223 E3.5165
G1 X108.405 Y93.446 E3.5267
G1 X108.417 Y93.482 E3.5283
G1 X108.624 Y94.192 E3.5598
G1 X108.633 Y94.229 E3.5614
G1 X108.684 Y94.461 E3.5716
G1 X108.691 Y94.498 E3.5732
G1 X108.801 Y95.230 E3.6047
G1 X108.806 Y95.267 E3.6063
G1 X108.825 Y95.504 E3.6165
G1 X108.827 Y95.542 E3.6181
G1 X108.839 Y96.281 E3.6496
G1 X108.838 Y96.319 E3.6512
G1 X108.826 Y96.557 E3.6614
G1 X108.823 Y96.594 E3.6630
G1 X108.736 Y97.329 E3.6945
G1 X108.730 Y97.366 E3.6961
G1 X108.686 Y97.600 E3.7063
G1 X108.678 Y97.637 E3.7079
G1 X108.494 Y98.353 E3.7395
G1 X108.483 Y98.389 E3.7411
G1 X108.409 Y98.615 E3.7512
G1 X108.396 Y98.651 E3.7528
G1 X108.118 Y99.336 E3.7844
G1 X108.102 Y99.370 E3.7860
G1 X107.998 Y99.585 E3.7961
G1 X107.981 Y99.618 E3.7977
G1 X107.614 Y100.260 E3.8293
G1 X107.594 Y100.292 E3.8309
G1 X107.462 Y100.490 E3.8411
G1 X107.440 Y100.521 E3.8427
G1 X106.991 Y101.108 E3.8742
G1 X106.967 Y101.137 E3.8758
G1 X106.810 Y101.317 E3.8860
G1 X106.784 Y101.344 E3.8876
G1 X106.261 Y101.866 E3.9191
G1 X106.234 Y101.892 E3.9207
G1 X106.054 Y102.048 E3.9309
G1 X106.025 Y102.072 E3.9325
G1 X105.436 Y102.520 E3.9640
G1 X105.406 Y102.542 E3.9656
G1 X105.207 Y102.673 E3.9758
G1 X105.175 Y102.693 E3.9774
G1 X104.532 Y103.058 E4.0089
G1 X104.498 Y103.075 E4.0106
G1 X104.284 Y103.179 E4.0207
G1 X104.249 Y103.194 E4.0223
G1 X103.564 Y103.470 E4.0539
