; G-Code generated by Simplify3D(R) Version 3.1.0
; Mar 22, 2017 at 10:10:47 PM
; Settings Summary
;   processName,Process1
;   applyToModels,fan cover thick plastite
;   profileName,PETG 0.3 he.20 bt50 (modified)
;   profileVersion,2017-03-22 16:34:17
;   baseProfile,Default (modified)
;   printMaterial,
;   printQuality,
;   printExtruders,
;   extruderName,Primary Extruder
;   extruderToolheadNumber,0
;   extruderDiameter,0.4
;   extruderAutoWidth,0
;   extruderWidth,0.48
;   extrusionMultiplier,0.95
;   extruderUseRetract,1
;   extruderRetractionDistance,1.4
;   extruderExtraRestartDistance,-0.1
;   extruderRetractionZLift,0.1
;   extruderRetractionSpeed,4200
;   extruderUseCoasting,1
;   extruderCoastingDistance,0.2
;   extruderUseWipe,1
;   extruderWipeDistance,0.2
;   primaryExtruder,0
;   layerHeight,0.3
;   topSolidLayers,0
;   bottomSolidLayers,0
;   perimeterOutlines,2
;   printPerimetersInsideOut,1
;   startPointOption,2
;   startPointOriginX,80
;   startPointOriginY,0
;   startPointOriginZ,5
;   sequentialIslands,0
;   spiralVaseMode,0
;   firstLayerHeightPercentage,100
;   firstLayerWidthPercentage,80
;   firstLayerUnderspeed,0.3
;   useRaft,0
;   raftExtruder,0
;   raftLayers,3
;   raftOffset,3
;   raftSeparationDistance,0.14
;   raftInfill,85
;   disableRaftBaseLayers,0
;   useSkirt,1
;   skirtExtruder,0
;   skirtLayers,1
;   skirtOutlines,3
;   skirtOffset,3
;   usePrimePillar,0
;   primePillarExtruder,999
;   primePillarWidth,12
;   primePillarLocation,7
;   primePillarSpeedMultiplier,1
;   useOozeShield,0
;   oozeShieldExtruder,999
;   oozeShieldOffset,2
;   oozeShieldOutlines,1
;   oozeShieldSidewallShape,1
;   oozeShieldSidewallAngle,30
;   oozeShieldSpeedMultiplier,1
;   infillExtruder,0
;   internalInfillPattern,Triangular
;   externalInfillPattern,Rectilinear
;   infillPercentage,66
;   outlineOverlapPercentage,30
;   infillExtrusionWidthPercentage,80
;   minInfillLength,2
;   infillLayerInterval,1
;   infillAngles,0,60,-60
;   overlapInfillAngles,1
;   generateSupport,1
;   supportExtruder,0
;   supportInfillPercentage,38
;   supportExtraInflation,0
;   denseSupportLayers,0
;   denseSupportInfillPercentage,70
;   supportLayerInterval,1
;   supportHorizontalPartOffset,1
;   supportUpperSeparationLayers,1
;   supportLowerSeparationLayers,1
;   supportType,0
;   supportGridSpacing,3.5
;   maxOverhangAngle,55
;   supportAngles,0
;   temperatureName,Primary Extruder,bed
;   temperatureNumber,0,0
;   temperatureSetpointCount,2,2
;   temperatureSetpointLayers,1,2,1,2
;   temperatureSetpointTemperatures,240,235,65,60
;   temperatureStabilizeAtStartup,1,1
;   temperatureHeatedBed,0,1
;   temperatureRelayBetweenLayers,0,0
;   temperatureRelayBetweenLoops,0,0
;   fanLayers,1,4
;   fanSpeeds,0,20
;   blipFanToFullPower,1
;   adjustSpeedForCooling,0
;   minSpeedLayerTime,15
;   minCoolingSpeedSlowdown,65
;   increaseFanForCooling,1
;   minFanLayerTime,15
;   maxCoolingFanSpeed,60
;   increaseFanForBridging,1
;   bridgingFanSpeed,100
;   use5D,1
;   relativeEdistances,0
;   allowEaxisZeroing,1
;   independentExtruderAxes,0
;   includeM10123,0
;   stickySupport,1
;   applyToolheadOffsets,0
;   gcodeXoffset,0
;   gcodeYoffset,0
;   gcodeZoffset,0
;   overrideMachineDefinition,1
;   machineTypeOverride,0
;   strokeXoverride,170
;   strokeYoverride,160
;   strokeZoverride,145
;   originOffsetXoverride,0
;   originOffsetYoverride,0
;   originOffsetZoverride,0
;   homeXdirOverride,-1
;   homeYdirOverride,-1
;   homeZdirOverride,-1
;   flipXoverride,1
;   flipYoverride,-1
;   flipZoverride,1
;   toolheadOffsets,0,0|0,0|0,0|0,0|0,0|0,0
;   overrideFirmwareConfiguration,1
;   firmwareTypeOverride,RepRap (Marlin/Repetier/Sprinter)
;   GPXconfigOverride,r2
;   baudRateOverride,250000
;   overridePrinterModels,0
;   printerModelsOverride
;   startingGcode,;---------------------------------------,; ; ; Jellybox Start Script Begin ; ; ;,;_______________________________________,; M92 E140            ; optionally adjust steps per mm for your filament,M117 Preparing        ; write Preparing,M206 X10.0 Y0.0       ; set x homing offset for default bed leveling,G21                   ; metric values,G90                   ; absolute positioning,M107                  ; start with the fan off,M82                   ; set extruder to absolute mode,G28                   ; home all axes,M203 Z4               ; slow Z speed down for greater accuracy when probing,G29                   ; auto bed leveling procedure,M203 Z7               ; pick up z speed again for printing,G92 E0                ; reset the extruder position,G1 F1500 E15          ; extrude 15mm of feed stock,G92 E0                ; reset the extruder position again,M117 Print starting   ; write Print starting,;---------------------------------------------,; ; ; Jellybox Printer Start Script End ; ; ;,;_____________________________________________
;   layerChangeGcode,
;   retractionGcode,
;   toolChangeGcode,
;   endingGcode,; ; ;  Jellybox End Script Begin ; ; ;,; _________________________________,M117 Finishing Up  ; write Finishing Up,M107               ; start with the fan off,M104 S0            ; extruder heater off,M140 S0            ; bed heater off (if you have it),G91                ; relative positioning,G1 E-1 F300        ; retract the filament a bit before lifting the nozzle to release some of the pressure,G1 Z+0.5 E-5 X-20 Y-20 F9000 ; move Z up a bit and retract filament even more,G90                ; absolute positioning,G28 X              ; home x so the head is out of the way,G1 Y100            ; move Y forward so the print is more accessible,M84                ; steppers off,M107               ; fan off,M117 Print finished ; write Print finished,; ---------------------------------------,; ; ;  Jellybox End Script End ; ; ;,; _______________________________________
;   exportFileFormat,gcode
;   celebration,0
;   celebrationSong,Random Song
;   postProcessing,|{REPLACE "; layer" "M117 Layer"},|{REPLACE ", Z = " " "Z="}
;   defaultSpeed,2700
;   outlineUnderspeed,0.55
;   solidInfillUnderspeed,0.55
;   supportUnderspeed,0.9
;   rapidXYspeed,7800
;   rapidZspeed,420
;   minBridgingArea,50
;   bridgingExtraInflation,0.3
;   bridgingExtrusionMultiplier,1
;   bridgingSpeedMultiplier,1
;   filamentDiameter,1.75
;   filamentPricePerKg,30
;   filamentDensity,1.38
;   useMinPrintHeight,0
;   minPrintHeight,30
;   useMaxPrintHeight,0
;   maxPrintHeight,40
;   useDiaphragm,0
;   diaphragmLayerInterval,20
;   robustSlicing,1
;   mergeAllIntoSolid,0
;   onlyRetractWhenCrossingOutline,0
;   retractBetweenLayers,1
;   useRetractionMinTravel,1
;   retractionMinTravel,1
;   retractWhileWiping,1
;   onlyWipeOutlines,0
;   avoidCrossingOutline,1
;   maxMovementDetourFactor,2.5
;   toolChangeRetractionDistance,1.3
;   toolChangeExtraRestartDistance,0
;   toolChangeRetractionSpeed,600
;   allowThinWallGapFill,1
;   thinWallAllowedOverlapPercentage,15
;   horizontalSizeCompensation,0
G90
M82
M106 S0
M140 S65
M190 S65
M104 S240 T0
M109 S240 T0
;---------------------------------------
; ; ; Jellybox Start Script Begin ; ; ;
;_______________________________________
; M92 E140            ; optionally adjust steps per mm for your filament
M117 Preparing        ; write Preparing
M206 X10.0 Y0.0       ; set x homing offset for default bed leveling
G21                   ; metric values
G90                   ; absolute positioning
M107                  ; start with the fan off
M82                   ; set extruder to absolute mode
G28                   ; home all axes
M203 Z4               ; slow Z speed down for greater accuracy when probing
G29                   ; auto bed leveling procedure
M203 Z7               ; pick up z speed again for printing
G92 E0                ; reset the extruder position
G1 F1500 E15          ; extrude 15mm of feed stock
G92 E0                ; reset the extruder position again
M117 Print starting   ; write Print starting
;---------------------------------------------
; ; ; Jellybox Printer Start Script End ; ; ;
;_____________________________________________
G92 E0
G1 E-1.4000 F4200
G1 Z0.400 F420
M117 Layer 1 0.3
T0
; tool H0.300 W0.384
; skirt
G1 X62.950 Y58.845 F7800
G1 Z0.300 F420
G1 E-0.1000 F1260
G92 E0
G1 X62.975 Y58.814 E0.0018 F810
G1 X63.134 Y58.633 E0.0128
G1 X63.162 Y58.604 E0.0146
G1 X63.687 Y58.080 E0.0484
G1 X63.716 Y58.052 E0.0502
G1 X63.898 Y57.894 E0.0612
G1 X63.929 Y57.869 E0.0630
G1 X64.519 Y57.420 E0.0967
G1 X64.552 Y57.396 E0.0986
G1 X64.753 Y57.264 E0.1095
G1 X64.787 Y57.243 E0.1113
G1 X65.432 Y56.876 E0.1451
G1 X65.468 Y56.858 E0.1469
G1 X65.685 Y56.753 E0.1579
G1 X65.721 Y56.737 E0.1597
G1 X66.410 Y56.459 E0.1935
G1 X66.447 Y56.446 E0.1953
G1 X66.676 Y56.371 E0.2062
G1 X66.715 Y56.360 E0.2081
G1 X67.434 Y56.177 E0.2418
G1 X67.473 Y56.168 E0.2437
G1 X67.710 Y56.124 E0.2546
G1 X67.749 Y56.119 E0.2564
G1 X68.486 Y56.033 E0.2902
G1 X68.526 Y56.030 E0.2920
G1 X68.767 Y56.018 E0.3030
G1 X68.807 Y56.017 E0.3048
G1 X69.547 Y56.031 E0.3385
G1 X69.587 Y56.033 E0.3403
G1 X69.825 Y56.053 E0.3511
G1 X69.864 Y56.058 E0.3530
G1 X70.582 Y56.167 E0.3860
G1 X70.621 Y56.174 E0.3878
G1 X70.852 Y56.225 E0.3986
G1 X70.890 Y56.235 E0.4004
G1 X71.601 Y56.441 E0.4340
G1 X71.639 Y56.453 E0.4359
G1 X71.866 Y56.536 E0.4468
G1 X71.903 Y56.551 E0.4486
G1 X72.581 Y56.850 E0.4824
G1 X72.618 Y56.868 E0.4842
G1 X72.831 Y56.980 E0.4952
G1 X72.866 Y56.999 E0.4970
G1 X73.498 Y57.387 E0.5308
G1 X73.532 Y57.409 E0.5326
G1 X73.728 Y57.548 E0.5435
G1 X73.760 Y57.573 E0.5454
G1 X74.039 Y57.800 E0.5618
G1 X78.292 Y57.800 E0.7552
G1 X78.839 Y57.633 E0.7813
G1 X78.857 Y57.628 E0.7821
G1 X78.961 Y57.600 E0.7870
G1 X78.979 Y57.595 E0.7879
G1 X80.196 Y57.303 E0.8448
G1 X80.214 Y57.299 E0.8457
G1 X80.320 Y57.277 E0.8506
G1 X80.338 Y57.273 E0.8514
G1 X81.571 Y57.055 E0.9084
G1 X81.589 Y57.052 E0.9092
G1 X81.696 Y57.036 E0.9141
G1 X81.714 Y57.034 E0.9150
G1 X82.958 Y56.890 E0.9720
G1 X82.976 Y56.888 E0.9728
G1 X83.084 Y56.879 E0.9777
G1 X83.102 Y56.878 E0.9785
G1 X84.353 Y56.809 E1.0355
G1 X84.371 Y56.808 E1.0363
G1 X84.479 Y56.806 E1.0413
G1 X84.497 Y56.806 E1.0421
G1 X85.749 Y56.812 E1.0991
G1 X85.768 Y56.813 E1.0999
G1 X85.876 Y56.816 E1.1048
G1 X85.894 Y56.817 E1.1056
G1 X87.144 Y56.899 E1.1626
G1 X87.162 Y56.901 E1.1634
G1 X87.269 Y56.911 E1.1684
G1 X87.287 Y56.913 E1.1692
G1 X88.530 Y57.070 E1.2262
G1 X88.548 Y57.073 E1.2270
G1 X88.655 Y57.090 E1.2319
G1 X88.673 Y57.093 E1.2328
G1 X89.903 Y57.324 E1.2897
G1 X89.921 Y57.328 E1.2906
G1 X90.027 Y57.351 E1.2955
G1 X90.045 Y57.355 E1.2963
G1 X91.259 Y57.660 E1.3533
G1 X91.277 Y57.665 E1.3541
G1 X91.381 Y57.695 E1.3591
G1 X91.398 Y57.700 E1.3599
G1 X91.922 Y57.866 E1.3849
G1 X96.032 Y57.866 E1.5719
G1 X96.302 Y57.645 E1.5877
G1 X96.334 Y57.621 E1.5896
G1 X96.530 Y57.481 E1.6005
G1 X96.564 Y57.459 E1.6023
G1 X97.196 Y57.071 E1.6361
G1 X97.231 Y57.051 E1.6379
G1 X97.444 Y56.939 E1.6489
G1 X97.480 Y56.922 E1.6507
G1 X98.159 Y56.621 E1.6845
G1 X98.196 Y56.606 E1.6863
G1 X98.422 Y56.524 E1.6973
G1 X98.460 Y56.511 E1.6991
G1 X99.172 Y56.304 E1.7328
G1 X99.211 Y56.294 E1.7347
G1 X99.446 Y56.242 E1.7456
G1 X99.486 Y56.235 E1.7474
G1 X100.220 Y56.124 E1.7812
G1 X100.260 Y56.120 E1.7830
G1 X100.500 Y56.100 E1.7940
G1 X100.540 Y56.098 E1.7958
G1 X101.281 Y56.086 E1.8296
G1 X101.322 Y56.087 E1.8314
G1 X101.562 Y56.099 E1.8424
G1 X101.602 Y56.103 E1.8442
G1 X102.339 Y56.190 E1.8779
G1 X102.378 Y56.196 E1.8798
G1 X102.615 Y56.240 E1.8907
G1 X102.654 Y56.249 E1.8925
G1 X103.373 Y56.434 E1.9263
G1 X103.411 Y56.445 E1.9281
G1 X103.640 Y56.521 E1.9391
G1 X103.678 Y56.534 E1.9409
G1 X104.365 Y56.813 E1.9747
G1 X104.402 Y56.830 E1.9765
G1 X104.618 Y56.935 E1.9875
G1 X104.654 Y56.954 E1.9893
G1 X105.298 Y57.322 E2.0230
G1 X105.332 Y57.343 E2.0249
G1 X105.533 Y57.476 E2.0358
G1 X105.566 Y57.499 E2.0376
G1 X106.155 Y57.950 E2.0714
G1 X106.186 Y57.975 E2.0732
G1 X106.367 Y58.134 E2.0842
G1 X106.396 Y58.162 E2.0860
G1 X106.920 Y58.687 E2.1198
G1 X106.948 Y58.716 E2.1216
G1 X107.106 Y58.898 E2.1325
G1 X107.131 Y58.929 E2.1344
G1 X107.580 Y59.519 E2.1681
G1 X107.604 Y59.552 E2.1700
G1 X107.736 Y59.753 E2.1809
G1 X107.757 Y59.787 E2.1827
G1 X108.124 Y60.432 E2.2165
G1 X108.142 Y60.468 E2.2183
G1 X108.247 Y60.685 E2.2293
G1 X108.263 Y60.721 E2.2311
G1 X108.540 Y61.409 E2.2649
G1 X108.554 Y61.447 E2.2667
G1 X108.629 Y61.676 E2.2776
G1 X108.640 Y61.715 E2.2795
G1 X108.823 Y62.434 E2.3132
G1 X108.832 Y62.473 E2.3151
G1 X108.876 Y62.710 E2.3260
G1 X108.881 Y62.749 E2.3278
G1 X108.967 Y63.486 E2.3616
G1 X108.970 Y63.526 E2.3634
G1 X108.982 Y63.767 E2.3744
G1 X108.983 Y63.807 E2.3762
G1 X108.969 Y64.548 E2.4099
G1 X108.967 Y64.587 E2.4117
G1 X108.947 Y64.825 E2.4225
G1 X108.942 Y64.864 E2.4244
G1 X108.833 Y65.582 E2.4574
G1 X108.826 Y65.621 E2.4592
G1 X108.775 Y65.852 E2.4700
G1 X108.765 Y65.890 E2.4718
G1 X108.559 Y66.601 E2.5054
G1 X108.547 Y66.639 E2.5073
G1 X108.464 Y66.866 E2.5182
G1 X108.449 Y66.903 E2.5200
G1 X108.150 Y67.581 E2.5538
G1 X108.132 Y67.618 E2.5556
G1 X108.020 Y67.831 E2.5666
G1 X108.001 Y67.866 E2.5684
G1 X107.613 Y68.498 E2.6022
G1 X107.591 Y68.532 E2.6040
G1 X107.452 Y68.728 E2.6149
G1 X107.427 Y68.760 E2.6168
G1 X107.200 Y69.039 E2.6331
G1 X107.200 Y73.292 E2.8266
G1 X107.367 Y73.839 E2.8527
G1 X107.372 Y73.856 E2.8535
G1 X107.400 Y73.961 E2.8584
G1 X107.405 Y73.979 E2.8593
G1 X107.697 Y75.196 E2.9162
G1 X107.701 Y75.214 E2.9171
G1 X107.723 Y75.320 E2.9220
G1 X107.727 Y75.338 E2.9228
G1 X107.945 Y76.571 E2.9798
G1 X107.948 Y76.589 E2.9806
G1 X107.964 Y76.696 E2.9855
G1 X107.966 Y76.714 E2.9864
G1 X108.110 Y77.958 E3.0434
G1 X108.112 Y77.976 E3.0442
G1 X108.121 Y78.084 E3.0491
G1 X108.122 Y78.102 E3.0499
G1 X108.191 Y79.353 E3.1069
G1 X108.192 Y79.371 E3.1077
G1 X108.194 Y79.479 E3.1127
G1 X108.194 Y79.497 E3.1135
G1 X108.188 Y80.749 E3.1705
G1 X108.187 Y80.767 E3.1713
G1 X108.184 Y80.876 E3.1762
G1 X108.183 Y80.894 E3.1770
G1 X108.101 Y82.144 E3.2340
G1 X108.099 Y82.162 E3.2349
G1 X108.089 Y82.270 E3.2398
G1 X108.087 Y82.287 E3.2406
G1 X107.930 Y83.530 E3.2976
G1 X107.927 Y83.548 E3.2984
G1 X107.910 Y83.655 E3.3033
G1 X107.907 Y83.673 E3.3042
G1 X107.676 Y84.903 E3.3611
G1 X107.672 Y84.921 E3.3620
G1 X107.649 Y85.027 E3.3669
G1 X107.645 Y85.045 E3.3677
G1 X107.340 Y86.259 E3.4247
G1 X107.335 Y86.277 E3.4255
G1 X107.305 Y86.381 E3.4305
G1 X107.300 Y86.398 E3.4313
G1 X107.134 Y86.922 E3.4563
G1 X107.134 Y91.032 E3.6433
G1 X107.355 Y91.302 E3.6591
G1 X107.379 Y91.334 E3.6610
G1 X107.519 Y91.530 E3.6719
G1 X107.541 Y91.564 E3.6737
G1 X107.929 Y92.196 E3.7075
G1 X107.949 Y92.231 E3.7093
G1 X108.061 Y92.444 E3.7203
G1 X108.078 Y92.480 E3.7221
G1 X108.379 Y93.159 E3.7559
G1 X108.394 Y93.196 E3.7577
G1 X108.476 Y93.422 E3.7687
G1 X108.489 Y93.460 E3.7705
G1 X108.696 Y94.172 E3.8042
G1 X108.706 Y94.211 E3.8061
G1 X108.758 Y94.447 E3.8170
G1 X108.765 Y94.486 E3.8188
G1 X108.876 Y95.220 E3.8526
G1 X108.880 Y95.260 E3.8544
G1 X108.900 Y95.500 E3.8654
G1 X108.902 Y95.540 E3.8672
G1 X108.914 Y96.281 E3.9010
G1 X108.913 Y96.322 E3.9028
G1 X108.901 Y96.562 E3.9138
G1 X108.897 Y96.602 E3.9156
G1 X108.810 Y97.339 E3.9493
G1 X108.804 Y97.378 E3.9512
G1 X108.760 Y97.615 E3.9621
G1 X108.751 Y97.654 E3.9639
G1 X108.566 Y98.373 E3.9977
G1 X108.555 Y98.411 E3.9995
G1 X108.479 Y98.640 E4.0105
G1 X108.466 Y98.678 E4.0123
G1 X108.187 Y99.365 E4.0461
G1 X108.170 Y99.402 E4.0479
G1 X108.065 Y99.618 E4.0588
G1 X108.046 Y99.654 E4.0607
G1 X107.678 Y100.298 E4.0944
G1 X107.657 Y100.332 E4.0963
G1 X107.524 Y100.533 E4.1072
G1 X107.501 Y100.566 E4.1090
G1 X107.050 Y101.155 E4.1428
G1 X107.025 Y101.186 E4.1446
G1 X106.866 Y101.367 E4.1556
G1 X106.838 Y101.396 E4.1574
G1 X106.313 Y101.920 E4.1912
G1 X106.284 Y101.948 E4.1930
G1 X106.102 Y102.106 E4.2039
G1 X106.071 Y102.131 E4.2058
G1 X105.481 Y102.580 E4.2395
G1 X105.448 Y102.604 E4.2414
G1 X105.247 Y102.736 E4.2523
G1 X105.213 Y102.757 E4.2541
G1 X104.568 Y103.124 E4.2879
G1 X104.532 Y103.142 E4.2897
G1 X104.315 Y103.247 E4.3007
G1 X104.279 Y103.263 E4.3025
G1 X103.590 Y103.541 E4.3363
