; G-Code generated by Simplify3D(R) Version 3.1.0
; Mar 22, 2017 at 6:10:58 PM
; Settings Summary
;   processName,Process1
;   applyToModels,feeder arm 2.0.1 green,ear
;   profileName,PETG 0.2 he.20 bt50 (modified)
;   profileVersion,2017-02-27 13:22:29
;   baseProfile,Default (modified)
;   printMaterial,
;   printQuality,
;   printExtruders,
;   extruderName,Primary Extruder
;   extruderToolheadNumber,0
;   extruderDiameter,0.4
;   extruderAutoWidth,0
;   extruderWidth,0.48
;   extrusionMultiplier,0.95
;   extruderUseRetract,1
;   extruderRetractionDistance,1.4
;   extruderExtraRestartDistance,-0.1
;   extruderRetractionZLift,0
;   extruderRetractionSpeed,4200
;   extruderUseCoasting,1
;   extruderCoastingDistance,0.2
;   extruderUseWipe,1
;   extruderWipeDistance,0.2
;   primaryExtruder,0
;   layerHeight,0.2
;   topSolidLayers,5
;   bottomSolidLayers,3
;   perimeterOutlines,2
;   printPerimetersInsideOut,1
;   startPointOption,2
;   startPointOriginX,85
;   startPointOriginY,0
;   startPointOriginZ,80
;   sequentialIslands,0
;   spiralVaseMode,0
;   firstLayerHeightPercentage,150
;   firstLayerWidthPercentage,100
;   firstLayerUnderspeed,0.35
;   useRaft,0
;   raftExtruder,0
;   raftLayers,2
;   raftOffset,2
;   raftSeparationDistance,0.14
;   raftInfill,85
;   disableRaftBaseLayers,1
;   useSkirt,1
;   skirtExtruder,0
;   skirtLayers,1
;   skirtOutlines,3
;   skirtOffset,3
;   usePrimePillar,0
;   primePillarExtruder,999
;   primePillarWidth,12
;   primePillarLocation,7
;   primePillarSpeedMultiplier,1
;   useOozeShield,0
;   oozeShieldExtruder,999
;   oozeShieldOffset,2
;   oozeShieldOutlines,1
;   oozeShieldSidewallShape,1
;   oozeShieldSidewallAngle,30
;   oozeShieldSpeedMultiplier,1
;   infillExtruder,0
;   internalInfillPattern,Rectilinear
;   externalInfillPattern,Rectilinear
;   infillPercentage,22
;   outlineOverlapPercentage,30
;   infillExtrusionWidthPercentage,145
;   minInfillLength,4
;   infillLayerInterval,1
;   infillAngles,45,-45
;   overlapInfillAngles,0
;   generateSupport,1
;   supportExtruder,0
;   supportInfillPercentage,36
;   supportExtraInflation,0.5
;   denseSupportLayers,0
;   denseSupportInfillPercentage,70
;   supportLayerInterval,1
;   supportHorizontalPartOffset,0.8
;   supportUpperSeparationLayers,1
;   supportLowerSeparationLayers,1
;   supportType,0
;   supportGridSpacing,1.5
;   maxOverhangAngle,55
;   supportAngles,0
;   temperatureName,Primary Extruder,bed
;   temperatureNumber,0,0
;   temperatureSetpointCount,2,2
;   temperatureSetpointLayers,1,2,1,2
;   temperatureSetpointTemperatures,240,235,65,60
;   temperatureStabilizeAtStartup,1,1
;   temperatureHeatedBed,0,1
;   temperatureRelayBetweenLayers,0,0
;   temperatureRelayBetweenLoops,0,0
;   fanLayers,1,4
;   fanSpeeds,0,20
;   blipFanToFullPower,1
;   adjustSpeedForCooling,0
;   minSpeedLayerTime,15
;   minCoolingSpeedSlowdown,65
;   increaseFanForCooling,1
;   minFanLayerTime,15
;   maxCoolingFanSpeed,60
;   increaseFanForBridging,1
;   bridgingFanSpeed,100
;   use5D,1
;   relativeEdistances,0
;   allowEaxisZeroing,1
;   independentExtruderAxes,0
;   includeM10123,0
;   stickySupport,1
;   applyToolheadOffsets,0
;   gcodeXoffset,0
;   gcodeYoffset,0
;   gcodeZoffset,0
;   overrideMachineDefinition,1
;   machineTypeOverride,0
;   strokeXoverride,170
;   strokeYoverride,160
;   strokeZoverride,145
;   originOffsetXoverride,0
;   originOffsetYoverride,0
;   originOffsetZoverride,0
;   homeXdirOverride,-1
;   homeYdirOverride,-1
;   homeZdirOverride,-1
;   flipXoverride,1
;   flipYoverride,-1
;   flipZoverride,1
;   toolheadOffsets,0,0|0,0|0,0|0,0|0,0|0,0
;   overrideFirmwareConfiguration,1
;   firmwareTypeOverride,RepRap (Marlin/Repetier/Sprinter)
;   GPXconfigOverride,r2
;   baudRateOverride,250000
;   overridePrinterModels,0
;   printerModelsOverride
;   startingGcode,;---------------------------------------,; ; ; Jellybox Start Script Begin ; ; ;,;_______________________________________,M117 Preparing        ; write Preparing,; M92 E140            ; optionally adjust E steps/mm,M207 S1.5 F600 Z0     ; optionally adjust retract settings,M208 S-0.00 F600      ; optionally adjust unretract = recover settings,M206 X10.0 Y0.0       ; set x homing offset for default bed leveling,G21                   ; metric values,G90                   ; absolute positioning,M107                  ; start with the fan off,M82                   ; set extruder to absolute mode,G28                   ; home all axes,M203 Z4               ; slow Z speed down for greater accuracy when probing,G29                   ; auto bed leveling procedure,M203 Z7               ; pick up z speed again for printing,G92 E0                ; reset the extruder position,G1 F1500 E15          ; extrude 15mm of feed stock,G92 E0                ; reset the extruder position again,M117 Print starting   ; write Print starting,;---------------------------------------------,; ; ; Jellybox Printer Start Script End ; ; ;,;_____________________________________________
;   layerChangeGcode,
;   retractionGcode,
;   toolChangeGcode,
;   endingGcode,; ---------------------------------,; ; ;  Jellybox End Script Begin ; ; ;,; _________________________________,M117 Finishing Up ; write Finishing Up,M104 S0            ; extruder heater off,M140 S0            ; bed heater off (if you have it),G91                ; relative positioning,G1 E-1 F300        ; retract the filament a bit before lifting the nozzle to release some of the pressure,G1 Z+0.5 E-5 X-20 Y-20 F9000 ; move Z up a bit and retract filament even more,G90                ; absolute positioning,G28 X              ; home x so the head is out of the way,G1 Y100            ; move Y forward so the print is more accessible,M84                ; steppers off,M117 Print finished ; write Print finisheds,; ---------------------------------------,; ; ;  Jellybox End Script End ; ; ;,; _______________________________________
;   exportFileFormat,gcode
;   celebration,0
;   celebrationSong,Random Song
;   postProcessing,|{REPLACE "; layer" "M117 Layer"},|{REPLACE ", Z = " " "Z="}|
;   defaultSpeed,2700
;   outlineUnderspeed,0.55
;   solidInfillUnderspeed,0.55
;   supportUnderspeed,0.9
;   rapidXYspeed,7200
;   rapidZspeed,420
;   minBridgingArea,50
;   bridgingExtraInflation,0.3
;   bridgingExtrusionMultiplier,1
;   bridgingSpeedMultiplier,1
;   filamentDiameter,1.75
;   filamentPricePerKg,30
;   filamentDensity,1.38
;   useMinPrintHeight,0
;   minPrintHeight,0
;   useMaxPrintHeight,0
;   maxPrintHeight,1
;   useDiaphragm,0
;   diaphragmLayerInterval,20
;   robustSlicing,1
;   mergeAllIntoSolid,0
;   onlyRetractWhenCrossingOutline,1
;   retractBetweenLayers,1
;   useRetractionMinTravel,1
;   retractionMinTravel,0.5
;   retractWhileWiping,1
;   onlyWipeOutlines,1
;   avoidCrossingOutline,1
;   maxMovementDetourFactor,2.5
;   toolChangeRetractionDistance,1.3
;   toolChangeExtraRestartDistance,0
;   toolChangeRetractionSpeed,600
;   allowThinWallGapFill,1
;   thinWallAllowedOverlapPercentage,15
;   horizontalSizeCompensation,0
G90
M82
M106 S0
M140 S65
M190 S65
M104 S240 T0
M109 S240 T0
;---------------------------------------
; ; ; Jellybox Start Script Begin ; ; ;
;_______________________________________
M117 Preparing        ; write Preparing
; M92 E140            ; optionally adjust E steps/mm
M207 S1.5 F600 Z0     ; optionally adjust retract settings
M208 S-0.00 F600      ; optionally adjust unretract = recover settings
M206 X10.0 Y0.0       ; set x homing offset for default bed leveling
G21                   ; metric values
G90                   ; absolute positioning
M107                  ; start with the fan off
M82                   ; set extruder to absolute mode
G28                   ; home all axes
M203 Z4               ; slow Z speed down for greater accuracy when probing
G29                   ; auto bed leveling procedure
M203 Z7               ; pick up z speed again for printing
G92 E0                ; reset the extruder position
G1 F1500 E15          ; extrude 15mm of feed stock
G92 E0                ; reset the extruder position again
M117 Print starting   ; write Print starting
;---------------------------------------------
; ; ; Jellybox Printer Start Script End ; ; ;
;_____________________________________________
G92 E0
G1 E-1.4000 F4200
G1 Z0.300 F420
M117 Layer 1 0.3
T0
; tool H0.300 W0.480
; skirt
G1 X73.672 Y81.588 F7200
G1 E-0.1000 F1260
G92 E0
G1 X73.886 Y81.412 E0.0157 F945
G1 X75.391 Y80.668 E0.1112
G1 X75.660 Y80.605 E0.1270
G1 X81.131 Y80.605 E0.4381
G1 X81.572 Y80.787 E0.4653
G1 X83.000 Y82.215 E0.5801
G1 X84.427 Y80.787 E0.6949
G1 X84.868 Y80.605 E0.7221
G1 X90.340 Y80.605 E1.0333
G1 X90.609 Y80.668 E1.0490
G1 X92.114 Y81.412 E1.1445
G1 X92.328 Y81.588 E1.1602
G1 X92.626 Y81.979 E1.1882
G1 X93.212 Y82.156 E1.2230
G1 X93.267 Y82.176 E1.2263
G1 X93.594 Y82.311 E1.2464
G1 X93.647 Y82.336 E1.2498
G1 X94.564 Y82.827 E1.3089
G1 X94.615 Y82.857 E1.3123
G1 X94.909 Y83.054 E1.3325
G1 X94.957 Y83.089 E1.3358
G1 X95.760 Y83.749 E1.3949
G1 X95.804 Y83.788 E1.3983
G1 X96.053 Y84.038 E1.4183
G1 X96.093 Y84.081 E1.4217
G1 X96.752 Y84.885 E1.4808
G1 X96.787 Y84.932 E1.4842
G1 X96.984 Y85.227 E1.5043
G1 X97.015 Y85.277 E1.5077
G1 X97.505 Y86.195 E1.5668
G1 X97.530 Y86.248 E1.5702
G1 X97.665 Y86.574 E1.5903
G1 X97.685 Y86.630 E1.5936
G1 X97.987 Y87.625 E1.6528
G1 X98.001 Y87.682 E1.6561
G1 X98.070 Y88.029 E1.6762
G1 X98.079 Y88.087 E1.6796
G1 X98.181 Y89.122 E1.7387
G1 X98.183 Y89.181 E1.7421
G1 X98.183 Y89.534 E1.7622
G1 X98.181 Y89.593 E1.7655
G1 X98.079 Y90.628 E1.8246
G1 X98.070 Y90.686 E1.8280
G1 X98.001 Y91.033 E1.8481
G1 X97.987 Y91.090 E1.8515
G1 X97.685 Y92.085 E1.9106
G1 X97.665 Y92.140 E1.9139
G1 X97.530 Y92.467 E1.9341
G1 X97.505 Y92.520 E1.9374
G1 X97.015 Y93.438 E1.9966
G1 X96.984 Y93.488 E1.9999
G1 X96.787 Y93.783 E2.0201
G1 X96.752 Y93.830 E2.0234
G1 X96.093 Y94.634 E2.0825
G1 X96.053 Y94.677 E2.0859
G1 X95.804 Y94.927 E2.1059
G1 X95.760 Y94.966 E2.1093
G1 X94.957 Y95.626 E2.1684
G1 X94.909 Y95.661 E2.1718
G1 X94.615 Y95.858 E2.1919
G1 X94.564 Y95.888 E2.1953
G1 X93.647 Y96.378 E2.2544
G1 X93.594 Y96.404 E2.2578
G1 X93.267 Y96.539 E2.2779
G1 X93.212 Y96.559 E2.2812
G1 X92.863 Y96.665 E2.3020
G1 X91.964 Y97.563 E2.3742
G1 X91.768 Y97.694 E2.3877
G1 X90.447 Y98.241 E2.4690
G1 X90.215 Y98.288 E2.4824
G1 X84.868 Y98.288 E2.7865
G1 X84.427 Y98.105 E2.8137
G1 X83.000 Y96.677 E2.9285
G1 X81.572 Y98.105 E3.0433
G1 X81.131 Y98.288 E3.0705
G1 X75.785 Y98.288 E3.3745
G1 X75.553 Y98.241 E3.3880
G1 X74.232 Y97.694 E3.4693
G1 X74.036 Y97.563 E3.4828
G1 X72.875 Y96.402 E3.5761
G1 X72.743 Y96.205 E3.5896
G1 X72.196 Y94.884 E3.6709
G1 X72.150 Y94.652 E3.6844
G1 X72.150 Y84.409 E4.2669
G1 X72.182 Y84.216 E4.2781
G1 X72.561 Y83.095 E4.3454
G1 X72.653 Y82.922 E4.3565
G1 X73.551 Y81.747 E4.4406
G1 X73.672 Y81.588 F945
G1 X74.020 Y81.923 F7200
G92 E0
G1 X74.148 Y81.818 E0.0094 F945
G1 X75.554 Y81.123 E0.0987
G1 X75.716 Y81.085 E0.1081
G1 X81.035 Y81.085 E0.4107
G1 X81.300 Y81.194 E0.4269
G1 X83.000 Y82.894 E0.5636
G1 X84.699 Y81.194 E0.7003
G1 X84.964 Y81.085 E0.7166
G1 X90.284 Y81.085 E1.0192
G1 X90.446 Y81.123 E1.0287
G1 X91.852 Y81.818 E1.1179
G1 X91.980 Y81.923 E1.1273
G1 X92.339 Y82.393 E1.1609
G1 X93.061 Y82.612 E1.2039
G1 X93.094 Y82.624 E1.2059
G1 X93.399 Y82.750 E1.2246
G1 X93.431 Y82.765 E1.2266
G1 X94.328 Y83.244 E1.2845
G1 X94.358 Y83.263 E1.2865
G1 X94.633 Y83.447 E1.3053
G1 X94.661 Y83.468 E1.3073
G1 X95.447 Y84.112 E1.3651
G1 X95.473 Y84.136 E1.3671
G1 X95.705 Y84.369 E1.3858
G1 X95.729 Y84.395 E1.3878
G1 X96.374 Y85.180 E1.4456
G1 X96.395 Y85.209 E1.4476
G1 X96.579 Y85.484 E1.4664
G1 X96.597 Y85.514 E1.4684
G1 X97.076 Y86.410 E1.5262
G1 X97.091 Y86.442 E1.5283
G1 X97.217 Y86.747 E1.5470
G1 X97.229 Y86.781 E1.5490
G1 X97.524 Y87.753 E1.6068
G1 X97.533 Y87.787 E1.6088
G1 X97.597 Y88.111 E1.6276
G1 X97.602 Y88.146 E1.6296
G1 X97.702 Y89.157 E1.6874
G1 X97.703 Y89.193 E1.6894
G1 X97.703 Y89.522 E1.7082
G1 X97.702 Y89.558 E1.7102
G1 X97.602 Y90.569 E1.7680
G1 X97.597 Y90.604 E1.7700
G1 X97.533 Y90.928 E1.7888
G1 X97.524 Y90.962 E1.7908
G1 X97.229 Y91.934 E1.8486
G1 X97.217 Y91.968 E1.8506
G1 X97.091 Y92.273 E1.8694
G1 X97.076 Y92.304 E1.8714
G1 X96.597 Y93.201 E1.9292
G1 X96.579 Y93.231 E1.9312
G1 X96.395 Y93.506 E1.9500
G1 X96.374 Y93.535 E1.9520
G1 X95.729 Y94.320 E2.0098
G1 X95.705 Y94.346 E2.0118
G1 X95.473 Y94.579 E2.0305
G1 X95.447 Y94.603 E2.0325
G1 X94.661 Y95.247 E2.0903
G1 X94.633 Y95.268 E2.0923
G1 X94.358 Y95.452 E2.1111
G1 X94.328 Y95.470 E2.1132
G1 X93.431 Y95.950 E2.1710
G1 X93.399 Y95.965 E2.1730
G1 X93.094 Y96.091 E2.1918
G1 X93.061 Y96.103 E2.1938
G1 X92.608 Y96.240 E2.2207
G1 X91.658 Y97.190 E2.2971
G1 X91.540 Y97.269 E2.3051
G1 X90.307 Y97.780 E2.3811
G1 X90.168 Y97.808 E2.3891
G1 X84.964 Y97.808 E2.6851
G1 X84.699 Y97.698 E2.7014
G1 X83.000 Y95.998 E2.8381
G1 X81.300 Y97.698 E2.9748
G1 X81.036 Y97.808 E2.9911
G1 X75.832 Y97.808 E3.2870
G1 X75.693 Y97.780 E3.2951
G1 X74.459 Y97.269 E3.3710
G1 X74.342 Y97.190 E3.3791
G1 X73.247 Y96.096 E3.4671
G1 X73.169 Y95.978 E3.4752
G1 X72.658 Y94.744 E3.5511
G1 X72.630 Y94.605 E3.5592
G1 X72.630 Y84.449 E4.1368
G1 X72.649 Y84.332 E4.1435
G1 X73.003 Y83.286 E4.2064
G1 X73.058 Y83.182 E4.2131
G1 X73.898 Y82.082 E4.2918
G1 X74.020 Y81.923 F945
G1 X74.368 Y82.259 F7200
G92 E0
G1 X74.410 Y82.224 E0.0031 F945
G1 X75.717 Y81.577 E0.0861
G1 X75.771 Y81.565 E0.0892
G1 X80.940 Y81.565 E0.3832
G1 X81.028 Y81.601 E0.3886
G1 X82.853 Y83.426 E0.5354
G1 X82.890 Y83.514 E0.5408
G1 X82.890 Y95.378 E1.2156
G1 X82.853 Y95.466 E1.2210
G1 X81.028 Y97.291 E1.3678
G1 X80.940 Y97.328 E1.3732
G1 X75.880 Y97.328 E1.6610
G1 X75.833 Y97.318 E1.6637
G1 X74.687 Y96.843 E1.7343
G1 X74.648 Y96.817 E1.7370
G1 X73.620 Y95.790 E1.8196
G1 X73.594 Y95.751 E1.8223
G1 X73.119 Y94.604 E1.8929
G1 X73.110 Y94.558 E1.8955
G1 X73.110 Y84.488 E2.4683
G1 X73.116 Y84.449 E2.4705
G1 X73.445 Y83.477 E2.5289
G1 X73.464 Y83.442 E2.5311
G1 X74.246 Y82.418 E2.6044
G1 X74.368 Y82.259 F945
G1 X83.110 Y83.514 F7200
G92 E0
G1 X83.146 Y83.426 E0.0054 F945
G1 X84.971 Y81.601 E0.1522
G1 X85.059 Y81.565 E0.1576
G1 X90.229 Y81.565 E0.4517
G1 X90.283 Y81.577 E0.4548
G1 X91.589 Y82.223 E0.5377
G1 X91.632 Y82.259 E0.5409
G1 X92.051 Y82.807 E0.5801
G1 X92.910 Y83.068 E0.6312
G1 X92.921 Y83.072 E0.6319
G1 X93.205 Y83.189 E0.6493
G1 X93.215 Y83.194 E0.6500
G1 X94.091 Y83.662 E0.7064
G1 X94.101 Y83.668 E0.7071
G1 X94.356 Y83.839 E0.7246
G1 X94.366 Y83.846 E0.7252
G1 X95.133 Y84.476 E0.7817
G1 X95.142 Y84.484 E0.7824
G1 X95.358 Y84.700 E0.7997
G1 X95.366 Y84.709 E0.8004
G1 X95.995 Y85.476 E0.8568
G1 X96.002 Y85.485 E0.8575
G1 X96.173 Y85.740 E0.8750
G1 X96.179 Y85.751 E0.8757
G1 X96.647 Y86.626 E0.9321
G1 X96.652 Y86.637 E0.9328
G1 X96.769 Y86.920 E0.9502
G1 X96.773 Y86.931 E0.9509
G1 X97.061 Y87.881 E1.0074
G1 X97.064 Y87.892 E1.0080
G1 X97.124 Y88.193 E1.0255
G1 X97.126 Y88.205 E1.0261
G1 X97.223 Y89.193 E1.0826
G1 X97.223 Y89.204 E1.0832
G1 X97.223 Y89.511 E1.1007
G1 X97.223 Y89.522 E1.1013
G1 X97.126 Y90.510 E1.1578
G1 X97.124 Y90.522 E1.1585
G1 X97.064 Y90.822 E1.1759
G1 X97.061 Y90.834 E1.1766
G1 X96.773 Y91.784 E1.2330
G1 X96.769 Y91.795 E1.2337
G1 X96.652 Y92.078 E1.2511
G1 X96.647 Y92.089 E1.2518
G1 X96.179 Y92.964 E1.3083
G1 X96.173 Y92.974 E1.3089
G1 X96.002 Y93.230 E1.3264
G1 X95.995 Y93.239 E1.3271
G1 X95.366 Y94.006 E1.3835
G1 X95.358 Y94.015 E1.3842
G1 X95.141 Y94.231 E1.4016
G1 X95.133 Y94.239 E1.4022
G1 X94.366 Y94.869 E1.4587
G1 X94.356 Y94.876 E1.4593
G1 X94.101 Y95.047 E1.4768
G1 X94.091 Y95.053 E1.4775
G1 X93.215 Y95.521 E1.5340
G1 X93.205 Y95.526 E1.5346
G1 X92.921 Y95.643 E1.5521
G1 X92.910 Y95.647 E1.5527
G1 X92.354 Y95.816 E1.5858
G1 X91.352 Y96.817 E1.6664
G1 X91.313 Y96.843 E1.6690
G1 X90.167 Y97.318 E1.7396
G1 X90.120 Y97.328 E1.7423
G1 X85.059 Y97.328 E2.0301
G1 X84.971 Y97.291 E2.0356
G1 X83.146 Y95.466 E2.1824
G1 X83.110 Y95.378 E2.1878
G1 X83.110 Y83.714 E2.8512
G1 X83.110 Y83.514 F945
; inner perimeter
G1 X87.070 Y85.525 F7200
G92 E0
G1 X88.930 Y85.525 E0.1058 F732
