; G-Code generated by Simplify3D(R) Version 3.1.0
; Mar 22, 2017 at 6:15:49 PM
; Settings Summary
;   processName,Process1
;   applyToModels,feeder yoke 2.0 pink,feeder yoke 2.0 pink(2)
;   profileName,PETG 0.2 he.20 bt50 (modified)
;   profileVersion,2017-03-22 16:13:03
;   baseProfile,Default (modified)
;   printMaterial,
;   printQuality,
;   printExtruders,
;   extruderName,Primary Extruder
;   extruderToolheadNumber,0
;   extruderDiameter,0.4
;   extruderAutoWidth,0
;   extruderWidth,0.48
;   extrusionMultiplier,0.9
;   extruderUseRetract,1
;   extruderRetractionDistance,1.4
;   extruderExtraRestartDistance,-0.1
;   extruderRetractionZLift,0.1
;   extruderRetractionSpeed,2700
;   extruderUseCoasting,1
;   extruderCoastingDistance,0.2
;   extruderUseWipe,1
;   extruderWipeDistance,0.2
;   primaryExtruder,0
;   layerHeight,0.2
;   topSolidLayers,4
;   bottomSolidLayers,2
;   perimeterOutlines,2
;   printPerimetersInsideOut,1
;   startPointOption,2
;   startPointOriginX,85
;   startPointOriginY,0
;   startPointOriginZ,5
;   sequentialIslands,0
;   spiralVaseMode,0
;   firstLayerHeightPercentage,150
;   firstLayerWidthPercentage,100
;   firstLayerUnderspeed,0.3
;   useRaft,0
;   raftExtruder,0
;   raftLayers,3
;   raftOffset,3
;   raftSeparationDistance,0.14
;   raftInfill,85
;   disableRaftBaseLayers,0
;   useSkirt,1
;   skirtExtruder,0
;   skirtLayers,1
;   skirtOutlines,2
;   skirtOffset,4
;   usePrimePillar,0
;   primePillarExtruder,999
;   primePillarWidth,12
;   primePillarLocation,7
;   primePillarSpeedMultiplier,1
;   useOozeShield,0
;   oozeShieldExtruder,999
;   oozeShieldOffset,2
;   oozeShieldOutlines,1
;   oozeShieldSidewallShape,1
;   oozeShieldSidewallAngle,30
;   oozeShieldSpeedMultiplier,1
;   infillExtruder,0
;   internalInfillPattern,Rectilinear
;   externalInfillPattern,Rectilinear
;   infillPercentage,22
;   outlineOverlapPercentage,30
;   infillExtrusionWidthPercentage,125
;   minInfillLength,5
;   infillLayerInterval,1
;   infillAngles,45,-45
;   overlapInfillAngles,0
;   generateSupport,0
;   supportExtruder,0
;   supportInfillPercentage,20
;   supportExtraInflation,0.5
;   denseSupportLayers,0
;   denseSupportInfillPercentage,70
;   supportLayerInterval,1
;   supportHorizontalPartOffset,0.8
;   supportUpperSeparationLayers,1
;   supportLowerSeparationLayers,1
;   supportType,0
;   supportGridSpacing,1.5
;   maxOverhangAngle,55
;   supportAngles,0
;   temperatureName,Primary Extruder,bed
;   temperatureNumber,0,0
;   temperatureSetpointCount,2,2
;   temperatureSetpointLayers,1,2,1,2
;   temperatureSetpointTemperatures,240,235,65,60
;   temperatureStabilizeAtStartup,1,1
;   temperatureHeatedBed,0,1
;   temperatureRelayBetweenLayers,0,0
;   temperatureRelayBetweenLoops,0,0
;   fanLayers,1,4
;   fanSpeeds,0,20
;   blipFanToFullPower,1
;   adjustSpeedForCooling,0
;   minSpeedLayerTime,15
;   minCoolingSpeedSlowdown,65
;   increaseFanForCooling,1
;   minFanLayerTime,15
;   maxCoolingFanSpeed,60
;   increaseFanForBridging,1
;   bridgingFanSpeed,100
;   use5D,1
;   relativeEdistances,0
;   allowEaxisZeroing,1
;   independentExtruderAxes,0
;   includeM10123,0
;   stickySupport,1
;   applyToolheadOffsets,0
;   gcodeXoffset,0
;   gcodeYoffset,0
;   gcodeZoffset,0
;   overrideMachineDefinition,1
;   machineTypeOverride,0
;   strokeXoverride,170
;   strokeYoverride,160
;   strokeZoverride,145
;   originOffsetXoverride,0
;   originOffsetYoverride,0
;   originOffsetZoverride,0
;   homeXdirOverride,-1
;   homeYdirOverride,-1
;   homeZdirOverride,-1
;   flipXoverride,1
;   flipYoverride,-1
;   flipZoverride,1
;   toolheadOffsets,0,0|0,0|0,0|0,0|0,0|0,0
;   overrideFirmwareConfiguration,1
;   firmwareTypeOverride,RepRap (Marlin/Repetier/Sprinter)
;   GPXconfigOverride,r2
;   baudRateOverride,250000
;   overridePrinterModels,0
;   printerModelsOverride
;   startingGcode,;---------------------------------------,; ; ; Jellybox Start Script Begin ; ; ;,;_______________________________________,; M92 E140            ;optionally adjust steps per mm for your filament,M117 Preparing        ;write Preparing,M206 X10.0 Y0.0       ;set x homing offset for default bed leveling,G21                   ;metric values,G90                   ;absolute positioning,M107                  ;start with the fan off,M82                   ;set extruder to absolute mode,G28                   ;home all axes,M203 Z4               ;slow Z speed down for greater accuracy when probing,G29                   ;auto bed leveling procedure,M203 Z7               ;pick up z speed again for printing,G92 E0                ;reset the extruder position,G1 F1500 E15          ;extrude 15mm of feed stock,G92 E0                ;reset the extruder position again,M117 Print starting   ;write Print starting,;---------------------------------------------,; ; ; Jellybox Printer Start Script End ; ; ;,;_____________________________________________
;   layerChangeGcode,
;   retractionGcode,
;   toolChangeGcode,
;   endingGcode,; ---------------------------------,; ; ;  Jellybox End Script Begin ; ; ;,; _________________________________,M117 Finishing Up  ; write Finishing Up,M104 S0            ; extruder heater off,M140 S0            ; bed heater off (if you have it),G91                ; relative positioning,G1 E-1 F300        ; retract the filament a bit before lifting the nozzle to release some of the pressure,G1 Z+0.5 E-5 X-20 Y-20 F9000 ; move Z up a bit and retract filament even more,G90                ; absolute positioning,G28 X              ; home x so the head is out of the way,G1 Y100            ; move Y forward so the print is more accessible,M84                ; steppers off,M117 Print finished ; write Print finished,; ---------------------------------------,; ; ;  Jellybox End Script End ; ; ;,; _______________________________________
;   exportFileFormat,gcode
;   celebration,0
;   celebrationSong,Random Song
;   postProcessing,|{REPLACE "; layer" "M117 Layer"} ,{REPLACE ", Z = " " | Z="}
;   defaultSpeed,2700
;   outlineUnderspeed,0.55
;   solidInfillUnderspeed,0.55
;   supportUnderspeed,0.9
;   rapidXYspeed,7800
;   rapidZspeed,420
;   minBridgingArea,50
;   bridgingExtraInflation,0.2
;   bridgingExtrusionMultiplier,0.8
;   bridgingSpeedMultiplier,1.3
;   filamentDiameter,1.75
;   filamentPricePerKg,30
;   filamentDensity,1.38
;   useMinPrintHeight,0
;   minPrintHeight,0
;   useMaxPrintHeight,0
;   maxPrintHeight,1
;   useDiaphragm,0
;   diaphragmLayerInterval,20
;   robustSlicing,1
;   mergeAllIntoSolid,0
;   onlyRetractWhenCrossingOutline,1
;   retractBetweenLayers,1
;   useRetractionMinTravel,1
;   retractionMinTravel,1
;   retractWhileWiping,1
;   onlyWipeOutlines,1
;   avoidCrossingOutline,1
;   maxMovementDetourFactor,2.5
;   toolChangeRetractionDistance,1.3
;   toolChangeExtraRestartDistance,0
;   toolChangeRetractionSpeed,600
;   allowThinWallGapFill,1
;   thinWallAllowedOverlapPercentage,15
;   horizontalSizeCompensation,0
G90
M82
M106 S0
M140 S65
M190 S65
M104 S240 T0
M109 S240 T0
;---------------------------------------
; ; ; Jellybox Start Script Begin ; ; ;
;_______________________________________
; M92 E140            ;optionally adjust steps per mm for your filament
M117 Preparing        ;write Preparing
M206 X10.0 Y0.0       ;set x homing offset for default bed leveling
G21                   ;metric values
G90                   ;absolute positioning
M107                  ;start with the fan off
M82                   ;set extruder to absolute mode
G28                   ;home all axes
M203 Z4               ;slow Z speed down for greater accuracy when probing
G29                   ;auto bed leveling procedure
M203 Z7               ;pick up z speed again for printing
G92 E0                ;reset the extruder position
G1 F1500 E15          ;extrude 15mm of feed stock
G92 E0                ;reset the extruder position again
M117 Print starting   ;write Print starting
;---------------------------------------------
; ; ; Jellybox Printer Start Script End ; ; ;
;_____________________________________________
G92 E0
G1 E-1.4000 F2700
G1 Z0.400 F420
M117 Layer 1, Z = 0.3
T0
; tool H0.300 W0.480
; skirt
G1 X20.458 Y18.637 F7800
G1 Z0.300 F420
G1 E-0.1000 F810
G92 E0
G1 X20.472 Y18.621 E0.0012 F810
G1 X20.908 Y18.128 E0.0366
G1 X20.918 Y18.117 E0.0374
G1 X21.039 Y17.992 E0.0468
G1 X21.049 Y17.981 E0.0476
G1 X21.523 Y17.525 E0.0830
G1 X21.539 Y17.511 E0.0842
G1 X21.738 Y17.341 E0.0983
G1 X21.755 Y17.328 E0.0995
G1 X22.701 Y16.615 E0.1633
G1 X22.725 Y16.598 E0.1648
G1 X23.020 Y16.411 E0.1837
G1 X23.044 Y16.397 E0.1852
G1 X24.092 Y15.843 E0.2490
G1 X24.111 Y15.834 E0.2502
G1 X24.350 Y15.726 E0.2643
G1 X24.370 Y15.718 E0.2655
G1 X25.025 Y15.467 E0.3033
G1 X25.045 Y15.460 E0.3044
G1 X25.295 Y15.381 E0.3185
G1 X25.316 Y15.375 E0.3197
G1 X26.422 Y15.097 E0.3812
G1 X26.444 Y15.093 E0.3823
G1 X26.701 Y15.044 E0.3964
G1 X26.722 Y15.041 E0.3976
G1 X27.418 Y14.953 E0.4354
G1 X27.440 Y14.951 E0.4366
G1 X27.701 Y14.934 E0.4507
G1 X27.723 Y14.933 E0.4518
G1 X28.863 Y14.926 E0.5133
G1 X28.885 Y14.927 E0.5145
G1 X29.146 Y14.941 E0.5286
G1 X29.168 Y14.943 E0.5298
G1 X29.852 Y15.022 E0.5668
G1 X29.871 Y15.024 E0.5679
G1 X30.102 Y15.063 E0.5805
G1 X30.121 Y15.067 E0.5816
G1 X31.026 Y15.271 E0.6315
G1 X31.045 Y15.276 E0.6326
G1 X31.276 Y15.342 E0.6455
G1 X31.295 Y15.348 E0.6466
G1 X32.108 Y15.628 E0.6930
G1 X32.126 Y15.635 E0.6940
G1 X32.333 Y15.718 E0.7060
G1 X32.350 Y15.726 E0.7070
G1 X32.956 Y16.007 E0.7430
G1 X32.974 Y16.016 E0.7441
G1 X33.180 Y16.125 E0.7567
G1 X33.197 Y16.135 E0.7577
G1 X33.992 Y16.613 E0.8077
G1 X34.009 Y16.624 E0.8088
G1 X34.208 Y16.760 E0.8218
G1 X34.224 Y16.771 E0.8228
G1 X34.908 Y17.294 E0.8692
G1 X34.923 Y17.305 E0.8702
G1 X35.092 Y17.449 E0.8822
G1 X35.106 Y17.462 E0.8832
G1 X35.603 Y17.929 E0.9200
G1 X35.619 Y17.944 E0.9211
G1 X35.798 Y18.134 E0.9352
G1 X35.813 Y18.151 E0.9364
G1 X36.544 Y19.026 E0.9979
G1 X36.558 Y19.043 E0.9990
G1 X36.713 Y19.253 E1.0131
G1 X36.726 Y19.271 E1.0143
G1 X36.860 Y19.479 E1.0276
G1 X50.019 Y19.479 E1.7366
G1 X50.242 Y18.712 E1.7797
G1 X50.250 Y18.687 E1.7811
G1 X50.362 Y18.387 E1.7983
G1 X50.372 Y18.363 E1.7997
G1 X50.902 Y17.206 E1.8683
G1 X50.914 Y17.182 E1.8697
G1 X51.068 Y16.902 E1.8870
G1 X51.082 Y16.879 E1.8884
G1 X51.754 Y15.846 E1.9548
G1 X51.765 Y15.829 E1.9559
G1 X51.907 Y15.636 E1.9688
G1 X51.919 Y15.620 E1.9699
G1 X52.361 Y15.080 E2.0075
G1 X52.372 Y15.067 E2.0084
G1 X52.508 Y14.916 E2.0194
G1 X52.520 Y14.904 E2.0203
G1 X53.148 Y14.268 E2.0684
G1 X53.162 Y14.255 E2.0694
G1 X53.326 Y14.105 E2.0814
G1 X53.340 Y14.093 E2.0824
G1 X54.086 Y13.478 E2.1345
G1 X54.100 Y13.468 E2.1355
G1 X54.271 Y13.340 E2.1470
G1 X54.286 Y13.330 E2.1479
G1 X54.870 Y12.938 E2.1858
G1 X54.887 Y12.927 E2.1869
G1 X55.093 Y12.805 E2.1998
G1 X55.110 Y12.795 E2.2009
G1 X56.203 Y12.225 E2.2673
G1 X56.227 Y12.213 E2.2687
G1 X56.521 Y12.087 E2.2860
G1 X56.545 Y12.077 E2.2874
G1 X57.748 Y11.660 E2.3560
G1 X57.773 Y11.652 E2.3574
G1 X58.082 Y11.569 E2.3746
G1 X58.108 Y11.564 E2.3761
G1 X59.358 Y11.326 E2.4446
G1 X59.384 Y11.322 E2.4461
G1 X59.702 Y11.286 E2.4633
G1 X59.729 Y11.284 E2.4647
G1 X61.000 Y11.232 E2.5333
G1 X61.027 Y11.232 E2.5347
G1 X61.346 Y11.242 E2.5520
G1 X61.373 Y11.244 E2.5534
G1 X62.638 Y11.379 E2.6220
G1 X62.664 Y11.382 E2.6234
G1 X62.979 Y11.439 E2.6406
G1 X63.005 Y11.445 E2.6420
G1 X64.237 Y11.763 E2.7106
G1 X64.263 Y11.771 E2.7120
G1 X64.566 Y11.873 E2.7293
G1 X64.591 Y11.883 E2.7307
G1 X65.763 Y12.377 E2.7993
G1 X65.787 Y12.389 E2.8007
G1 X66.072 Y12.534 E2.8179
G1 X66.095 Y12.547 E2.8194
G1 X67.148 Y13.187 E2.8858
G1 X67.165 Y13.198 E2.8869
G1 X67.363 Y13.334 E2.8998
G1 X67.379 Y13.345 E2.9008
G1 X67.915 Y13.758 E2.9373
G1 X67.925 Y13.766 E2.9380
G1 X68.048 Y13.868 E2.9466
G1 X68.058 Y13.877 E2.9473
G1 X68.563 Y14.328 E2.9838
G1 X68.577 Y14.342 E2.9849
G1 X68.747 Y14.511 E2.9978
G1 X68.761 Y14.526 E2.9989
G1 X69.557 Y15.413 E3.0631
G1 X69.570 Y15.428 E3.0642
G1 X69.720 Y15.615 E3.0771
G1 X69.732 Y15.631 E3.0782
G1 X70.149 Y16.214 E3.1168
G1 X70.160 Y16.230 E3.1179
G1 X70.289 Y16.433 E3.1308
G1 X70.299 Y16.450 E3.1319
G1 X70.902 Y17.525 E3.1983
G1 X70.915 Y17.548 E3.1997
G1 X71.050 Y17.838 E3.2169
G1 X71.061 Y17.863 E3.2184
G1 X71.514 Y19.052 E3.2869
G1 X71.523 Y19.077 E3.2884
G1 X71.615 Y19.383 E3.3056
G1 X71.621 Y19.409 E3.3070
G1 X71.888 Y20.612 E3.3735
G1 X71.891 Y20.632 E3.3745
G1 X71.930 Y20.868 E3.3874
G1 X71.933 Y20.888 E3.3885
G1 X72.006 Y21.561 E3.4250
G1 X72.007 Y21.574 E3.4257
G1 X72.018 Y21.733 E3.4343
G1 X72.019 Y21.747 E3.4350
G1 X72.042 Y22.423 E3.4715
G1 X72.043 Y22.443 E3.4725
G1 X72.038 Y22.683 E3.4855
G1 X72.037 Y22.702 E3.4865
G1 X71.944 Y23.931 E3.5530
G1 X71.941 Y23.958 E3.5544
G1 X71.893 Y24.274 E3.5716
G1 X71.888 Y24.300 E3.5730
G1 X71.608 Y25.541 E3.6416
G1 X71.601 Y25.567 E3.6430
G1 X71.508 Y25.873 E3.6603
G1 X71.499 Y25.898 E3.6617
G1 X71.040 Y27.085 E3.7303
G1 X71.030 Y27.109 E3.7317
G1 X70.893 Y27.399 E3.7489
G1 X70.880 Y27.422 E3.7504
G1 X70.273 Y28.494 E3.8168
G1 X70.262 Y28.511 E3.8178
G1 X70.133 Y28.713 E3.8308
G1 X70.122 Y28.729 E3.8318
G1 X69.158 Y30.063 E3.9205
G1 X69.028 Y30.174 E3.9297
G1 X67.415 Y30.999 E4.0273
G1 X69.028 Y31.823 E4.1249
G1 X69.158 Y31.934 E4.1341
G1 X70.121 Y33.268 E4.2227
G1 X70.133 Y33.284 E4.2238
G1 X70.262 Y33.486 E4.2367
G1 X70.273 Y33.503 E4.2378
G1 X70.880 Y34.575 E4.3042
G1 X70.893 Y34.599 E4.3056
G1 X71.030 Y34.888 E4.3229
G1 X71.040 Y34.912 E4.3243
G1 X71.485 Y36.062 E4.3907
G1 X71.491 Y36.081 E4.3918
G1 X71.565 Y36.309 E4.4047
G1 X71.571 Y36.328 E4.4058
G1 X71.744 Y36.982 E4.4423
G1 X71.747 Y36.995 E4.4430
G1 X71.783 Y37.151 E4.4516
G1 X71.785 Y37.164 E4.4523
G1 X71.910 Y37.829 E4.4887
G1 X71.913 Y37.848 E4.4898
G1 X71.945 Y38.086 E4.5027
G1 X71.947 Y38.106 E4.5038
G1 X72.040 Y39.335 E4.5702
G1 X72.041 Y39.361 E4.5717
G1 X72.041 Y39.681 E4.5889
G1 X72.040 Y39.708 E4.5903
G1 X72.019 Y40.003 E4.6062
G1 X72.174 Y40.226 E4.6209
G1 X72.189 Y40.250 E4.6224
G1 X72.364 Y40.552 E4.6412
G1 X72.378 Y40.578 E4.6428
G1 X72.906 Y41.687 E4.7090
G1 X72.918 Y41.713 E4.7105
G1 X73.042 Y42.039 E4.7293
G1 X73.051 Y42.066 E4.7309
G1 X73.384 Y43.203 E4.7947
G1 X73.390 Y43.224 E4.7959
G1 X73.448 Y43.479 E4.8100
G1 X73.452 Y43.501 E4.8111
G1 X73.567 Y44.193 E4.8489
G1 X73.570 Y44.214 E4.8501
G1 X73.598 Y44.474 E4.8642
G1 X73.599 Y44.496 E4.8654
G1 X73.652 Y45.679 E4.9292
G1 X73.652 Y45.708 E4.9308
G1 X73.640 Y46.057 E4.9496
G1 X73.638 Y46.086 E4.9511
G1 X73.502 Y47.263 E5.0150
G1 X73.499 Y47.284 E5.0161
G1 X73.453 Y47.542 E5.0302
G1 X73.449 Y47.563 E5.0314
G1 X73.285 Y48.245 E5.0692
G1 X73.279 Y48.266 E5.0704
G1 X73.203 Y48.517 E5.0845
G1 X73.196 Y48.537 E5.0856
G1 X72.784 Y49.648 E5.1495
G1 X72.773 Y49.674 E5.1510
G1 X72.626 Y49.991 E5.1698
G1 X72.613 Y50.016 E5.1714
G1 X72.029 Y51.047 E5.2352
G1 X72.018 Y51.066 E5.2364
G1 X71.875 Y51.285 E5.2505
G1 X71.863 Y51.303 E5.2516
G1 X71.790 Y51.402 E5.2583
G1 X72.224 Y52.043 E5.3000
G1 X72.239 Y52.068 E5.3015
G1 X72.411 Y52.372 E5.3204
G1 X72.424 Y52.397 E5.3219
G1 X72.942 Y53.511 E5.3881
G1 X72.954 Y53.538 E5.3896
G1 X73.075 Y53.865 E5.4085
G1 X73.084 Y53.892 E5.4100
G1 X73.418 Y55.074 E5.4762
G1 X73.424 Y55.102 E5.4777
G1 X73.492 Y55.445 E5.4965
G1 X73.497 Y55.473 E5.4981
G1 X73.638 Y56.693 E5.5643
G1 X73.640 Y56.722 E5.5658
G1 X73.652 Y57.071 E5.5846
G1 X73.652 Y57.100 E5.5862
G1 X73.599 Y58.283 E5.6500
G1 X73.598 Y58.305 E5.6512
G1 X73.570 Y58.565 E5.6653
G1 X73.567 Y58.586 E5.6665
G1 X73.452 Y59.279 E5.7043
G1 X73.448 Y59.300 E5.7054
G1 X73.390 Y59.555 E5.7195
G1 X73.384 Y59.576 E5.7207
G1 X73.051 Y60.713 E5.7845
G1 X73.042 Y60.740 E5.7861
G1 X72.918 Y61.066 E5.8049
G1 X72.906 Y61.093 E5.8064
G1 X72.378 Y62.201 E5.8726
G1 X72.364 Y62.227 E5.8742
G1 X72.189 Y62.529 E5.8930
G1 X72.174 Y62.553 E5.8945
G1 X71.500 Y63.528 E5.9584
G1 X71.487 Y63.545 E5.9595
G1 X71.326 Y63.751 E5.9736
G1 X71.312 Y63.768 E5.9748
G1 X70.847 Y64.293 E6.0126
G1 X70.832 Y64.309 E6.0138
G1 X70.647 Y64.494 E6.0279
G1 X70.631 Y64.508 E6.0290
G1 X69.745 Y65.295 E6.0929
G1 X69.723 Y65.313 E6.0944
