; G-Code generated by Simplify3D(R) Version 3.1.0
; Mar 22, 2017 at 6:19:31 PM
; Settings Summary
;   processName,Process1
;   applyToModels,harness stand-off short 1.2 green(2),harness stand-off short 1.2 green(4),harness stand-off short 1.2 green(5)
;   profileName,PETG 0.3 he.20 bt50
;   profileVersion,2017-02-27 23:31:17
;   baseProfile,Default (modified)
;   printMaterial,
;   printQuality,
;   printExtruders,
;   extruderName,Primary Extruder
;   extruderToolheadNumber,0
;   extruderDiameter,0.4
;   extruderAutoWidth,0
;   extruderWidth,0.48
;   extrusionMultiplier,0.95
;   extruderUseRetract,1
;   extruderRetractionDistance,1.4
;   extruderExtraRestartDistance,-0.1
;   extruderRetractionZLift,0.1
;   extruderRetractionSpeed,4200
;   extruderUseCoasting,1
;   extruderCoastingDistance,0.2
;   extruderUseWipe,1
;   extruderWipeDistance,0.2
;   primaryExtruder,0
;   layerHeight,0.3
;   topSolidLayers,3
;   bottomSolidLayers,2
;   perimeterOutlines,2
;   printPerimetersInsideOut,1
;   startPointOption,2
;   startPointOriginX,80
;   startPointOriginY,0
;   startPointOriginZ,5
;   sequentialIslands,0
;   spiralVaseMode,0
;   firstLayerHeightPercentage,100
;   firstLayerWidthPercentage,100
;   firstLayerUnderspeed,0.3
;   useRaft,0
;   raftExtruder,0
;   raftLayers,3
;   raftOffset,3
;   raftSeparationDistance,0.14
;   raftInfill,85
;   disableRaftBaseLayers,0
;   useSkirt,1
;   skirtExtruder,0
;   skirtLayers,1
;   skirtOutlines,3
;   skirtOffset,3
;   usePrimePillar,0
;   primePillarExtruder,999
;   primePillarWidth,12
;   primePillarLocation,7
;   primePillarSpeedMultiplier,1
;   useOozeShield,0
;   oozeShieldExtruder,999
;   oozeShieldOffset,2
;   oozeShieldOutlines,1
;   oozeShieldSidewallShape,1
;   oozeShieldSidewallAngle,30
;   oozeShieldSpeedMultiplier,1
;   infillExtruder,0
;   internalInfillPattern,Rectilinear
;   externalInfillPattern,Rectilinear
;   infillPercentage,22
;   outlineOverlapPercentage,30
;   infillExtrusionWidthPercentage,150
;   minInfillLength,2
;   infillLayerInterval,1
;   infillAngles,45,-45
;   overlapInfillAngles,0
;   generateSupport,1
;   supportExtruder,0
;   supportInfillPercentage,33
;   supportExtraInflation,0.5
;   denseSupportLayers,0
;   denseSupportInfillPercentage,70
;   supportLayerInterval,1
;   supportHorizontalPartOffset,0.8
;   supportUpperSeparationLayers,1
;   supportLowerSeparationLayers,1
;   supportType,0
;   supportGridSpacing,1.5
;   maxOverhangAngle,55
;   supportAngles,90
;   temperatureName,Primary Extruder,bed
;   temperatureNumber,0,0
;   temperatureSetpointCount,2,2
;   temperatureSetpointLayers,1,2,1,2
;   temperatureSetpointTemperatures,240,235,65,60
;   temperatureStabilizeAtStartup,1,1
;   temperatureHeatedBed,0,1
;   temperatureRelayBetweenLayers,0,0
;   temperatureRelayBetweenLoops,0,0
;   fanLayers,1,4
;   fanSpeeds,0,20
;   blipFanToFullPower,1
;   adjustSpeedForCooling,0
;   minSpeedLayerTime,15
;   minCoolingSpeedSlowdown,65
;   increaseFanForCooling,1
;   minFanLayerTime,15
;   maxCoolingFanSpeed,60
;   increaseFanForBridging,1
;   bridgingFanSpeed,100
;   use5D,1
;   relativeEdistances,0
;   allowEaxisZeroing,1
;   independentExtruderAxes,0
;   includeM10123,0
;   stickySupport,1
;   applyToolheadOffsets,0
;   gcodeXoffset,0
;   gcodeYoffset,0
;   gcodeZoffset,0
;   overrideMachineDefinition,1
;   machineTypeOverride,0
;   strokeXoverride,170
;   strokeYoverride,160
;   strokeZoverride,145
;   originOffsetXoverride,0
;   originOffsetYoverride,0
;   originOffsetZoverride,0
;   homeXdirOverride,-1
;   homeYdirOverride,-1
;   homeZdirOverride,-1
;   flipXoverride,1
;   flipYoverride,-1
;   flipZoverride,1
;   toolheadOffsets,0,0|0,0|0,0|0,0|0,0|0,0
;   overrideFirmwareConfiguration,1
;   firmwareTypeOverride,RepRap (Marlin/Repetier/Sprinter)
;   GPXconfigOverride,r2
;   baudRateOverride,250000
;   overridePrinterModels,0
;   printerModelsOverride
;   startingGcode,;---------------------------------------,; ; ; Jellybox Start Script Begin ; ; ;,;_______________________________________,; M92 E140            ; optionally adjust steps per mm for your filament,M117 Preparing        ; write Preparing,M206 X10.0 Y0.0       ; set x homing offset for default bed leveling,G21                   ; metric values,G90                   ; absolute positioning,M107                  ; start with the fan off,M82                   ; set extruder to absolute mode,G28                   ; home all axes,M203 Z4               ; slow Z speed down for greater accuracy when probing,G29                   ; auto bed leveling procedure,M203 Z7               ; pick up z speed again for printing,G92 E0                ; reset the extruder position,G1 F1500 E15          ; extrude 15mm of feed stock,G92 E0                ; reset the extruder position again,M117 Print starting   ; write Print starting,;---------------------------------------------,; ; ; Jellybox Printer Start Script End ; ; ;,;_____________________________________________
;   layerChangeGcode,
;   retractionGcode,
;   toolChangeGcode,
;   endingGcode,; ; ;  Jellybox End Script Begin ; ; ;,; _________________________________,M117 Finishing Up  ; write Finishing Up,M107               ; start with the fan off,M104 S0            ; extruder heater off,M140 S0            ; bed heater off (if you have it),G91                ; relative positioning,G1 E-1 F300        ; retract the filament a bit before lifting the nozzle to release some of the pressure,G1 Z+0.5 E-5 X-20 Y-20 F9000 ; move Z up a bit and retract filament even more,G90                ; absolute positioning,G28 X              ; home x so the head is out of the way,G1 Y100            ; move Y forward so the print is more accessible,M84                ; steppers off,M107               ; fan off,M117 Print finished ; write Print finished,; ---------------------------------------,; ; ;  Jellybox End Script End ; ; ;,; _______________________________________
;   exportFileFormat,gcode
;   celebration,0
;   celebrationSong,Random Song
;   postProcessing,|{REPLACE "; layer" "M117 Layer"},|{REPLACE ", Z = " " "Z="}
;   defaultSpeed,2700
;   outlineUnderspeed,0.55
;   solidInfillUnderspeed,0.55
;   supportUnderspeed,0.9
;   rapidXYspeed,7200
;   rapidZspeed,420
;   minBridgingArea,50
;   bridgingExtraInflation,0.3
;   bridgingExtrusionMultiplier,1
;   bridgingSpeedMultiplier,1
;   filamentDiameter,1.75
;   filamentPricePerKg,30
;   filamentDensity,1.38
;   useMinPrintHeight,0
;   minPrintHeight,30
;   useMaxPrintHeight,0
;   maxPrintHeight,40
;   useDiaphragm,0
;   diaphragmLayerInterval,20
;   robustSlicing,1
;   mergeAllIntoSolid,0
;   onlyRetractWhenCrossingOutline,1
;   retractBetweenLayers,1
;   useRetractionMinTravel,1
;   retractionMinTravel,1
;   retractWhileWiping,1
;   onlyWipeOutlines,1
;   avoidCrossingOutline,1
;   maxMovementDetourFactor,2.5
;   toolChangeRetractionDistance,1.3
;   toolChangeExtraRestartDistance,0
;   toolChangeRetractionSpeed,600
;   allowThinWallGapFill,1
;   thinWallAllowedOverlapPercentage,15
;   horizontalSizeCompensation,0
G90
M82
M106 S0
M140 S65
M190 S65
M104 S240 T0
M109 S240 T0
;---------------------------------------
; ; ; Jellybox Start Script Begin ; ; ;
;_______________________________________
; M92 E140            ; optionally adjust steps per mm for your filament
M117 Preparing        ; write Preparing
M206 X10.0 Y0.0       ; set x homing offset for default bed leveling
G21                   ; metric values
G90                   ; absolute positioning
M107                  ; start with the fan off
M82                   ; set extruder to absolute mode
G28                   ; home all axes
M203 Z4               ; slow Z speed down for greater accuracy when probing
G29                   ; auto bed leveling procedure
M203 Z7               ; pick up z speed again for printing
G92 E0                ; reset the extruder position
G1 F1500 E15          ; extrude 15mm of feed stock
G92 E0                ; reset the extruder position again
M117 Print starting   ; write Print starting
;---------------------------------------------
; ; ; Jellybox Printer Start Script End ; ; ;
;_____________________________________________
G92 E0
G1 E-1.4000 F4200
G1 Z0.400 F420
M117 Layer 1 0.3
T0
; tool H0.300 W0.480
; skirt
G1 X24.300 Y24.973 F7200
G1 Z0.300 F420
G1 E-0.1000 F1260
G92 E0
G1 X24.323 Y24.950 E0.0019 F810
G1 X24.766 Y24.543 E0.0361
G1 X24.791 Y24.522 E0.0380
G1 X24.945 Y24.396 E0.0493
G1 X24.971 Y24.375 E0.0511
G1 X25.468 Y24.011 E0.0862
G1 X25.499 Y23.989 E0.0884
G1 X25.692 Y23.866 E0.1014
G1 X25.725 Y23.847 E0.1036
G1 X26.433 Y23.455 E0.1495
G1 X26.482 Y23.431 E0.1527
G1 X26.783 Y23.298 E0.1714
G1 X26.834 Y23.279 E0.1745
G1 X27.893 Y22.924 E0.2380
G1 X27.941 Y22.911 E0.2408
G1 X28.231 Y22.840 E0.2578
G1 X28.279 Y22.830 E0.2606
G1 X28.922 Y22.728 E0.2977
G1 X28.955 Y22.724 E0.2995
G1 X29.153 Y22.704 E0.3108
G1 X29.186 Y22.701 E0.3127
G1 X29.786 Y22.673 E0.3469
G1 X29.820 Y22.672 E0.3488
G1 X30.018 Y22.674 E0.3601
G1 X30.051 Y22.675 E0.3620
G1 X30.651 Y22.713 E0.3962
G1 X30.684 Y22.716 E0.3981
G1 X30.882 Y22.740 E0.4094
G1 X30.915 Y22.745 E0.4113
G1 X31.507 Y22.849 E0.4454
G1 X31.539 Y22.856 E0.4473
G1 X31.733 Y22.901 E0.4586
G1 X31.765 Y22.909 E0.4605
G1 X32.342 Y23.078 E0.4947
G1 X32.373 Y23.088 E0.4966
G1 X32.561 Y23.154 E0.5079
G1 X32.592 Y23.166 E0.5098
G1 X33.147 Y23.397 E0.5440
G1 X33.177 Y23.411 E0.5459
G1 X33.356 Y23.497 E0.5572
G1 X33.385 Y23.513 E0.5590
G1 X33.911 Y23.804 E0.5932
G1 X33.940 Y23.820 E0.5951
G1 X34.108 Y23.926 E0.6064
G1 X34.136 Y23.944 E0.6083
G1 X34.667 Y24.320 E0.6453
G1 X34.706 Y24.351 E0.6482
G1 X34.935 Y24.542 E0.6651
G1 X34.971 Y24.576 E0.6679
G1 X35.754 Y25.352 E0.7306
G1 X35.788 Y25.388 E0.7334
G1 X35.981 Y25.615 E0.7504
G1 X36.012 Y25.654 E0.7532
G1 X36.392 Y26.182 E0.7903
G1 X36.411 Y26.210 E0.7921
G1 X36.518 Y26.377 E0.8034
G1 X36.535 Y26.406 E0.8053
G1 X36.831 Y26.929 E0.8395
G1 X36.846 Y26.958 E0.8414
G1 X36.934 Y27.137 E0.8527
G1 X36.948 Y27.167 E0.8546
G1 X37.184 Y27.720 E0.8888
G1 X37.196 Y27.750 E0.8907
G1 X37.264 Y27.937 E0.9020
G1 X37.274 Y27.969 E0.9038
G1 X37.448 Y28.544 E0.9380
G1 X37.456 Y28.576 E0.9399
G1 X37.503 Y28.769 E0.9512
G1 X37.510 Y28.802 E0.9531
G1 X37.622 Y29.408 E0.9882
G1 X37.628 Y29.446 E0.9904
G1 X37.655 Y29.675 E1.0035
G1 X37.658 Y29.713 E1.0056
G1 X37.700 Y30.471 E1.0488
G1 X37.701 Y30.509 E1.0510
G1 X37.699 Y30.737 E1.0640
G1 X37.697 Y30.775 E1.0661
G1 X37.653 Y31.389 E1.1011
G1 X37.649 Y31.422 E1.1030
G1 X37.624 Y31.619 E1.1143
G1 X37.619 Y31.652 E1.1162
G1 X37.510 Y32.243 E1.1504
G1 X37.503 Y32.276 E1.1523
G1 X37.456 Y32.469 E1.1636
G1 X37.448 Y32.501 E1.1655
G1 X37.274 Y33.077 E1.1997
G1 X37.264 Y33.108 E1.2016
G1 X37.196 Y33.295 E1.2129
G1 X37.184 Y33.326 E1.2147
G1 X36.948 Y33.879 E1.2489
G1 X36.934 Y33.909 E1.2508
G1 X36.846 Y34.087 E1.2621
G1 X36.831 Y34.116 E1.2640
G1 X36.535 Y34.640 E1.2982
G1 X36.518 Y34.668 E1.3001
G1 X36.411 Y34.836 E1.3114
G1 X36.392 Y34.863 E1.3133
G1 X36.041 Y35.351 E1.3475
G1 X36.021 Y35.377 E1.3493
G1 X35.896 Y35.532 E1.3606
G1 X35.875 Y35.557 E1.3625
G1 X35.472 Y36.003 E1.3967
G1 X35.449 Y36.027 E1.3986
G1 X35.308 Y36.167 E1.4099
G1 X35.284 Y36.190 E1.4118
G1 X34.834 Y36.589 E1.4460
G1 X34.809 Y36.610 E1.4479
G1 X34.653 Y36.734 E1.4592
G1 X34.626 Y36.754 E1.4611
G1 X34.248 Y37.021 E1.4874
G1 X34.667 Y37.317 E1.5166
G1 X34.706 Y37.348 E1.5194
G1 X34.935 Y37.540 E1.5364
G1 X34.971 Y37.573 E1.5392
G1 X35.754 Y38.349 E1.6019
G1 X35.788 Y38.385 E1.6047
G1 X35.981 Y38.612 E1.6217
G1 X36.012 Y38.651 E1.6245
G1 X36.392 Y39.179 E1.6615
G1 X36.411 Y39.207 E1.6634
G1 X36.518 Y39.374 E1.6747
G1 X36.535 Y39.403 E1.6766
G1 X36.831 Y39.926 E1.7108
G1 X36.846 Y39.956 E1.7127
G1 X36.934 Y40.134 E1.7240
G1 X36.948 Y40.164 E1.7258
G1 X37.184 Y40.717 E1.7600
G1 X37.196 Y40.748 E1.7619
G1 X37.264 Y40.934 E1.7732
G1 X37.274 Y40.966 E1.7751
G1 X37.448 Y41.541 E1.8093
G1 X37.456 Y41.573 E1.8112
G1 X37.503 Y41.767 E1.8225
G1 X37.510 Y41.799 E1.8244
G1 X37.622 Y42.406 E1.8595
G1 X37.628 Y42.443 E1.8616
G1 X37.655 Y42.672 E1.8747
G1 X37.658 Y42.710 E1.8769
G1 X37.700 Y43.468 E1.9201
G1 X37.701 Y43.506 E1.9222
G1 X37.699 Y43.734 E1.9352
G1 X37.697 Y43.772 E1.9374
G1 X37.653 Y44.387 E1.9724
G1 X37.649 Y44.420 E1.9743
G1 X37.624 Y44.617 E1.9856
G1 X37.619 Y44.649 E1.9875
G1 X37.510 Y45.241 E2.0217
G1 X37.503 Y45.273 E2.0236
G1 X37.456 Y45.466 E2.0349
G1 X37.448 Y45.498 E2.0367
G1 X37.274 Y46.074 E2.0709
G1 X37.264 Y46.105 E2.0728
G1 X37.196 Y46.292 E2.0841
G1 X37.184 Y46.323 E2.0860
G1 X36.948 Y46.876 E2.1202
G1 X36.934 Y46.906 E2.1221
G1 X36.846 Y47.084 E2.1334
G1 X36.831 Y47.113 E2.1353
G1 X36.535 Y47.637 E2.1695
G1 X36.518 Y47.665 E2.1713
G1 X36.411 Y47.833 E2.1826
G1 X36.392 Y47.860 E2.1845
G1 X36.041 Y48.348 E2.2187
G1 X36.021 Y48.374 E2.2206
G1 X35.896 Y48.529 E2.2319
G1 X35.875 Y48.554 E2.2338
G1 X35.472 Y49.000 E2.2680
G1 X35.449 Y49.024 E2.2699
G1 X35.308 Y49.164 E2.2812
G1 X35.284 Y49.187 E2.2831
G1 X34.834 Y49.586 E2.3173
G1 X34.809 Y49.607 E2.3191
G1 X34.653 Y49.731 E2.3304
G1 X34.626 Y49.751 E2.3323
G1 X34.248 Y50.018 E2.3587
G1 X34.626 Y50.286 E2.3850
G1 X34.653 Y50.306 E2.3869
G1 X34.809 Y50.429 E2.3982
G1 X34.834 Y50.451 E2.4001
G1 X35.284 Y50.850 E2.4343
G1 X35.308 Y50.872 E2.4362
G1 X35.449 Y51.012 E2.4475
G1 X35.472 Y51.036 E2.4494
G1 X35.875 Y51.483 E2.4836
G1 X35.896 Y51.508 E2.4855
G1 X36.021 Y51.662 E2.4968
G1 X36.041 Y51.689 E2.4986
G1 X36.392 Y52.177 E2.5328
G1 X36.411 Y52.204 E2.5347
G1 X36.518 Y52.372 E2.5460
G1 X36.535 Y52.400 E2.5479
G1 X36.831 Y52.924 E2.5821
G1 X36.846 Y52.953 E2.5840
G1 X36.934 Y53.131 E2.5953
G1 X36.948 Y53.161 E2.5972
G1 X37.184 Y53.714 E2.6314
G1 X37.196 Y53.745 E2.6332
G1 X37.264 Y53.932 E2.6445
G1 X37.274 Y53.963 E2.6464
G1 X37.448 Y54.539 E2.6806
G1 X37.456 Y54.571 E2.6825
G1 X37.503 Y54.764 E2.6938
G1 X37.510 Y54.796 E2.6957
G1 X37.619 Y55.387 E2.7299
G1 X37.624 Y55.420 E2.7318
G1 X37.649 Y55.617 E2.7431
G1 X37.653 Y55.650 E2.7450
G1 X37.697 Y56.264 E2.7800
G1 X37.699 Y56.302 E2.7821
G1 X37.701 Y56.531 E2.7951
G1 X37.700 Y56.569 E2.7973
G1 X37.658 Y57.327 E2.8405
G1 X37.655 Y57.365 E2.8426
G1 X37.628 Y57.593 E2.8557
G1 X37.622 Y57.631 E2.8579
G1 X37.510 Y58.238 E2.8930
G1 X37.503 Y58.270 E2.8949
G1 X37.456 Y58.463 E2.9062
G1 X37.448 Y58.495 E2.9081
G1 X37.274 Y59.071 E2.9422
G1 X37.264 Y59.102 E2.9441
G1 X37.196 Y59.289 E2.9554
G1 X37.184 Y59.320 E2.9573
G1 X36.948 Y59.873 E2.9915
G1 X36.934 Y59.903 E2.9934
G1 X36.846 Y60.081 E3.0047
G1 X36.831 Y60.110 E3.0066
G1 X36.516 Y60.667 E3.0430
G1 X36.492 Y60.707 E3.0456
G1 X36.339 Y60.936 E3.0613
G1 X36.312 Y60.973 E3.0639
G1 X35.722 Y61.722 E3.1181
G1 X35.692 Y61.757 E3.1207
G1 X35.504 Y61.961 E3.1365
G1 X35.472 Y61.994 E3.1391
G1 X34.894 Y62.532 E3.1840
G1 X34.864 Y62.559 E3.1863
G1 X34.676 Y62.711 E3.2001
G1 X34.644 Y62.736 E3.2024
G1 X34.136 Y63.095 E3.2378
G1 X34.108 Y63.114 E3.2397
G1 X33.940 Y63.219 E3.2510
G1 X33.911 Y63.236 E3.2528
G1 X33.385 Y63.527 E3.2870
G1 X33.356 Y63.542 E3.2889
G1 X33.177 Y63.629 E3.3002
G1 X33.147 Y63.642 E3.3021
G1 X32.592 Y63.873 E3.3363
G1 X32.561 Y63.885 E3.3382
G1 X32.373 Y63.952 E3.3495
G1 X32.342 Y63.962 E3.3514
G1 X31.717 Y64.144 E3.3884
G1 X31.669 Y64.156 E3.3912
G1 X31.377 Y64.216 E3.4082
G1 X31.327 Y64.224 E3.4110
G1 X30.233 Y64.355 E3.4737
G1 X30.184 Y64.358 E3.4765
G1 X29.886 Y64.369 E3.4935
G1 X29.836 Y64.369 E3.4963
G1 X29.186 Y64.338 E3.5333
G1 X29.153 Y64.336 E3.5352
G1 X28.955 Y64.316 E3.5465
G1 X28.922 Y64.312 E3.5484
G1 X28.328 Y64.217 E3.5826
G1 X28.296 Y64.211 E3.5845
G1 X28.102 Y64.169 E3.5958
G1 X28.070 Y64.162 E3.5976
G1 X27.490 Y64.003 E3.6318
G1 X27.458 Y63.993 E3.6337
G1 X27.270 Y63.930 E3.6450
G1 X27.239 Y63.919 E3.6469
G1 X26.680 Y63.697 E3.6811
G1 X26.649 Y63.684 E3.6830
G1 X26.469 Y63.600 E3.6943
G1 X26.439 Y63.586 E3.6962
G1 X25.896 Y63.297 E3.7312
G1 X25.863 Y63.278 E3.7333
G1 X25.669 Y63.159 E3.7463
G1 X25.637 Y63.138 E3.7484
G1 X25.017 Y62.700 E3.7916
G1 X24.986 Y62.677 E3.7938
G1 X24.807 Y62.532 E3.8069
G1 X24.778 Y62.507 E3.8091
G1 X24.323 Y62.090 E3.8442
