; G-Code generated by Simplify3D(R) Version 3.1.0
; Mar 22, 2017 at 6:18:59 PM
; Settings Summary
;   processName,Process1
;   applyToModels,harness stand-off long 1.2.1 green,harness stand-off long 1.2.1 green(2),harness stand-off long 1.2.1 green(3)
;   profileName,PETG 0.3 he.20 bt50 (modified)
;   profileVersion,2017-02-27 23:31:17
;   baseProfile,Default (modified)
;   printMaterial,
;   printQuality,
;   printExtruders,
;   extruderName,Primary Extruder
;   extruderToolheadNumber,0
;   extruderDiameter,0.4
;   extruderAutoWidth,0
;   extruderWidth,0.48
;   extrusionMultiplier,0.95
;   extruderUseRetract,1
;   extruderRetractionDistance,1.4
;   extruderExtraRestartDistance,-0.1
;   extruderRetractionZLift,0.1
;   extruderRetractionSpeed,4200
;   extruderUseCoasting,1
;   extruderCoastingDistance,0.2
;   extruderUseWipe,1
;   extruderWipeDistance,0.2
;   primaryExtruder,0
;   layerHeight,0.3
;   topSolidLayers,3
;   bottomSolidLayers,2
;   perimeterOutlines,2
;   printPerimetersInsideOut,1
;   startPointOption,2
;   startPointOriginX,80
;   startPointOriginY,0
;   startPointOriginZ,5
;   sequentialIslands,0
;   spiralVaseMode,0
;   firstLayerHeightPercentage,100
;   firstLayerWidthPercentage,100
;   firstLayerUnderspeed,0.35
;   useRaft,0
;   raftExtruder,0
;   raftLayers,3
;   raftOffset,3
;   raftSeparationDistance,0.14
;   raftInfill,85
;   disableRaftBaseLayers,0
;   useSkirt,1
;   skirtExtruder,0
;   skirtLayers,1
;   skirtOutlines,3
;   skirtOffset,3
;   usePrimePillar,0
;   primePillarExtruder,999
;   primePillarWidth,12
;   primePillarLocation,7
;   primePillarSpeedMultiplier,1
;   useOozeShield,0
;   oozeShieldExtruder,999
;   oozeShieldOffset,2
;   oozeShieldOutlines,1
;   oozeShieldSidewallShape,1
;   oozeShieldSidewallAngle,30
;   oozeShieldSpeedMultiplier,1
;   infillExtruder,0
;   internalInfillPattern,Rectilinear
;   externalInfillPattern,Rectilinear
;   infillPercentage,22
;   outlineOverlapPercentage,30
;   infillExtrusionWidthPercentage,150
;   minInfillLength,2
;   infillLayerInterval,1
;   infillAngles,45,-45
;   overlapInfillAngles,0
;   generateSupport,1
;   supportExtruder,0
;   supportInfillPercentage,33
;   supportExtraInflation,0.5
;   denseSupportLayers,0
;   denseSupportInfillPercentage,70
;   supportLayerInterval,1
;   supportHorizontalPartOffset,0.8
;   supportUpperSeparationLayers,1
;   supportLowerSeparationLayers,1
;   supportType,0
;   supportGridSpacing,1.5
;   maxOverhangAngle,55
;   supportAngles,90
;   temperatureName,Primary Extruder,bed
;   temperatureNumber,0,0
;   temperatureSetpointCount,2,2
;   temperatureSetpointLayers,1,2,1,2
;   temperatureSetpointTemperatures,240,235,65,60
;   temperatureStabilizeAtStartup,1,1
;   temperatureHeatedBed,0,1
;   temperatureRelayBetweenLayers,0,0
;   temperatureRelayBetweenLoops,0,0
;   fanLayers,1,4
;   fanSpeeds,0,20
;   blipFanToFullPower,1
;   adjustSpeedForCooling,0
;   minSpeedLayerTime,15
;   minCoolingSpeedSlowdown,65
;   increaseFanForCooling,1
;   minFanLayerTime,15
;   maxCoolingFanSpeed,60
;   increaseFanForBridging,1
;   bridgingFanSpeed,100
;   use5D,1
;   relativeEdistances,0
;   allowEaxisZeroing,1
;   independentExtruderAxes,0
;   includeM10123,0
;   stickySupport,1
;   applyToolheadOffsets,0
;   gcodeXoffset,0
;   gcodeYoffset,0
;   gcodeZoffset,0
;   overrideMachineDefinition,1
;   machineTypeOverride,0
;   strokeXoverride,170
;   strokeYoverride,160
;   strokeZoverride,145
;   originOffsetXoverride,0
;   originOffsetYoverride,0
;   originOffsetZoverride,0
;   homeXdirOverride,-1
;   homeYdirOverride,-1
;   homeZdirOverride,-1
;   flipXoverride,1
;   flipYoverride,-1
;   flipZoverride,1
;   toolheadOffsets,0,0|0,0|0,0|0,0|0,0|0,0
;   overrideFirmwareConfiguration,1
;   firmwareTypeOverride,RepRap (Marlin/Repetier/Sprinter)
;   GPXconfigOverride,r2
;   baudRateOverride,250000
;   overridePrinterModels,0
;   printerModelsOverride
;   startingGcode,;---------------------------------------,; ; ; Jellybox Start Script Begin ; ; ;,;_______________________________________,M117 Preparing        ; write Preparing,; M92 E140            ; optionally adjust E steps/mm,M207 S1.5 F600 Z0     ; optionally adjust retract settings,M208 S-0.00 F600      ; optionally adjust unretract = recover settings,M206 X10.0 Y0.0       ; set x homing offset for default bed leveling,G21                   ; metric values,G90                   ; absolute positioning,M107                  ; start with the fan off,M82                   ; set extruder to absolute mode,G28                   ; home all axes,M203 Z4               ; slow Z speed down for greater accuracy when probing,G29                   ; auto bed leveling procedure,M203 Z7               ; pick up z speed again for printing,G92 E0                ; reset the extruder position,G1 F1500 E15          ; extrude 15mm of feed stock,G92 E0                ; reset the extruder position again,M117 Print starting   ; write Print starting,;---------------------------------------------,; ; ; Jellybox Printer Start Script End ; ; ;,;_____________________________________________
;   layerChangeGcode,
;   retractionGcode,
;   toolChangeGcode,
;   endingGcode,; ---------------------------------,; ; ;  Jellybox End Script Begin ; ; ;,; _________________________________,M117 Finishing Up ; write Finishing Up,M107                  ; sfan off,M104 S0            ; extruder heater off,M140 S0            ; bed heater off (if you have it),G91                ; relative positioning,G1 E-1 F300        ; retract the filament a bit before lifting the nozzle to release some of the pressure,G1 Z+0.5 E-5 X-20 Y-20 F9000 ; move Z up a bit and retract filament even more,G90                ; absolute positioning,G28 X              ; home x so the head is out of the way,G1 Y100            ; move Y forward so the print is more accessible,M84                ; steppers off,M117 Print finished ; write Print finisheds,; ---------------------------------------,; ; ;  Jellybox End Script End ; ; ;,; _______________________________________
;   exportFileFormat,gcode
;   celebration,0
;   celebrationSong,Random Song
;   postProcessing,|{REPLACE "; layer" "M117 Layer"},|{REPLACE ", Z = " " "Z="}
;   defaultSpeed,2700
;   outlineUnderspeed,0.55
;   solidInfillUnderspeed,0.55
;   supportUnderspeed,0.9
;   rapidXYspeed,7200
;   rapidZspeed,420
;   minBridgingArea,50
;   bridgingExtraInflation,0.3
;   bridgingExtrusionMultiplier,1
;   bridgingSpeedMultiplier,1
;   filamentDiameter,1.75
;   filamentPricePerKg,30
;   filamentDensity,1.38
;   useMinPrintHeight,0
;   minPrintHeight,30
;   useMaxPrintHeight,0
;   maxPrintHeight,40
;   useDiaphragm,0
;   diaphragmLayerInterval,20
;   robustSlicing,1
;   mergeAllIntoSolid,0
;   onlyRetractWhenCrossingOutline,1
;   retractBetweenLayers,1
;   useRetractionMinTravel,1
;   retractionMinTravel,1
;   retractWhileWiping,1
;   onlyWipeOutlines,1
;   avoidCrossingOutline,1
;   maxMovementDetourFactor,2.5
;   toolChangeRetractionDistance,1.3
;   toolChangeExtraRestartDistance,0
;   toolChangeRetractionSpeed,600
;   allowThinWallGapFill,1
;   thinWallAllowedOverlapPercentage,15
;   horizontalSizeCompensation,0
G90
M82
M106 S0
M140 S65
M190 S65
M104 S240 T0
M109 S240 T0
;---------------------------------------
; ; ; Jellybox Start Script Begin ; ; ;
;_______________________________________
M117 Preparing        ; write Preparing
; M92 E140            ; optionally adjust E steps/mm
M207 S1.5 F600 Z0     ; optionally adjust retract settings
M208 S-0.00 F600      ; optionally adjust unretract = recover settings
M206 X10.0 Y0.0       ; set x homing offset for default bed leveling
G21                   ; metric values
G90                   ; absolute positioning
M107                  ; start with the fan off
M82                   ; set extruder to absolute mode
G28                   ; home all axes
M203 Z4               ; slow Z speed down for greater accuracy when probing
G29                   ; auto bed leveling procedure
M203 Z7               ; pick up z speed again for printing
G92 E0                ; reset the extruder position
G1 F1500 E15          ; extrude 15mm of feed stock
G92 E0                ; reset the extruder position again
M117 Print starting   ; write Print starting
;---------------------------------------------
; ; ; Jellybox Printer Start Script End ; ; ;
;_____________________________________________
G92 E0
G1 E-1.4000 F4200
G1 Z0.400 F420
M117 Layer 1 0.3
T0
; tool H0.300 W0.480
; skirt
G1 X22.609 Y30.679 F7200
G1 Z0.300 F420
G1 E-0.1000 F1260
G92 E0
G1 X22.806 Y30.518 E0.0145 F945
G1 X22.839 Y30.493 E0.0169
G1 X23.399 Y30.098 E0.0558
G1 X23.430 Y30.078 E0.0579
G1 X23.618 Y29.962 E0.0705
G1 X23.650 Y29.944 E0.0726
G1 X24.239 Y29.628 E0.1106
G1 X24.272 Y29.612 E0.1127
G1 X24.473 Y29.520 E0.1253
G1 X24.507 Y29.506 E0.1274
G1 X25.131 Y29.265 E0.1654
G1 X25.165 Y29.253 E0.1675
G1 X25.376 Y29.186 E0.1800
G1 X25.411 Y29.176 E0.1821
G1 X26.060 Y29.014 E0.2201
G1 X26.096 Y29.006 E0.2222
G1 X26.313 Y28.965 E0.2348
G1 X26.349 Y28.960 E0.2369
G1 X27.012 Y28.878 E0.2749
G1 X27.049 Y28.875 E0.2770
G1 X27.270 Y28.861 E0.2896
G1 X27.307 Y28.860 E0.2917
G1 X27.975 Y28.860 E0.3297
G1 X28.012 Y28.861 E0.3318
G1 X28.232 Y28.875 E0.3443
G1 X28.269 Y28.878 E0.3464
G1 X28.932 Y28.960 E0.3844
G1 X28.969 Y28.965 E0.3865
G1 X29.186 Y29.006 E0.3991
G1 X29.222 Y29.014 E0.4012
G1 X29.870 Y29.176 E0.4392
G1 X29.906 Y29.186 E0.4413
G1 X30.116 Y29.253 E0.4539
G1 X30.151 Y29.265 E0.4560
G1 X30.774 Y29.506 E0.4940
G1 X30.808 Y29.520 E0.4961
G1 X31.009 Y29.612 E0.5086
G1 X31.042 Y29.628 E0.5107
G1 X31.631 Y29.944 E0.5487
G1 X31.663 Y29.962 E0.5508
G1 X31.852 Y30.078 E0.5634
G1 X31.882 Y30.098 E0.5655
G1 X32.442 Y30.493 E0.6044
G1 X32.476 Y30.518 E0.6068
G1 X32.673 Y30.679 E0.6213
G1 X32.705 Y30.707 E0.6237
G1 X33.317 Y31.283 E0.6715
G1 X33.346 Y31.313 E0.6739
G1 X33.518 Y31.499 E0.6883
G1 X33.545 Y31.531 E0.6907
G1 X33.966 Y32.055 E0.7289
G1 X33.985 Y32.082 E0.7308
G1 X34.100 Y32.242 E0.7420
G1 X34.119 Y32.270 E0.7439
G1 X34.391 Y32.699 E0.7728
G1 X34.409 Y32.728 E0.7748
G1 X34.508 Y32.907 E0.7864
G1 X34.524 Y32.937 E0.7883
G1 X34.882 Y33.674 E0.8349
G1 X34.899 Y33.714 E0.8374
G1 X34.996 Y33.956 E0.8522
G1 X35.011 Y33.997 E0.8547
G1 X35.219 Y34.653 E0.8939
G1 X35.229 Y34.689 E0.8960
G1 X35.282 Y34.903 E0.9085
G1 X35.290 Y34.939 E0.9106
G1 X35.413 Y35.596 E0.9486
G1 X35.418 Y35.633 E0.9507
G1 X35.445 Y35.852 E0.9633
G1 X35.449 Y35.889 E0.9654
G1 X35.490 Y36.556 E1.0034
G1 X35.491 Y36.593 E1.0055
G1 X35.491 Y36.813 E1.0181
G1 X35.490 Y36.850 E1.0202
G1 X35.449 Y37.517 E1.0582
G1 X35.445 Y37.554 E1.0603
G1 X35.418 Y37.773 E1.0728
G1 X35.413 Y37.810 E1.0749
G1 X35.290 Y38.467 E1.1129
G1 X35.282 Y38.503 E1.1150
G1 X35.229 Y38.717 E1.1276
G1 X35.219 Y38.753 E1.1297
G1 X35.011 Y39.409 E1.1688
G1 X34.996 Y39.450 E1.1713
G1 X34.899 Y39.692 E1.1862
G1 X34.882 Y39.732 E1.1887
G1 X34.498 Y40.522 E1.2386
G1 X34.473 Y40.569 E1.2416
G1 X34.307 Y40.844 E1.2599
G1 X34.278 Y40.889 E1.2629
G1 X33.640 Y41.762 E1.3244
G1 X33.605 Y41.806 E1.3276
G1 X33.385 Y42.056 E1.3466
G1 X33.346 Y42.096 E1.3497
G1 X32.705 Y42.699 E1.3998
G1 X32.673 Y42.727 E1.4022
G1 X32.476 Y42.888 E1.4167
G1 X32.442 Y42.913 E1.4191
G1 X32.041 Y43.196 E1.4470
G1 X32.442 Y43.479 E1.4749
G1 X32.476 Y43.505 E1.4774
G1 X32.673 Y43.666 E1.4918
G1 X32.705 Y43.693 E1.4942
G1 X33.317 Y44.269 E1.5420
G1 X33.346 Y44.299 E1.5444
G1 X33.518 Y44.485 E1.5588
G1 X33.545 Y44.517 E1.5612
G1 X33.966 Y45.042 E1.5994
G1 X33.985 Y45.068 E1.6013
G1 X34.100 Y45.229 E1.6126
G1 X34.119 Y45.256 E1.6144
G1 X34.391 Y45.686 E1.6434
G1 X34.409 Y45.715 E1.6453
G1 X34.508 Y45.893 E1.6569
G1 X34.524 Y45.923 E1.6588
G1 X34.882 Y46.660 E1.7054
G1 X34.899 Y46.700 E1.7079
G1 X34.996 Y46.943 E1.7228
G1 X35.011 Y46.984 E1.7252
G1 X35.219 Y47.640 E1.7644
G1 X35.229 Y47.675 E1.7665
G1 X35.282 Y47.890 E1.7791
G1 X35.290 Y47.926 E1.7811
G1 X35.413 Y48.583 E1.8192
G1 X35.418 Y48.619 E1.8212
G1 X35.445 Y48.839 E1.8338
G1 X35.449 Y48.875 E1.8359
G1 X35.490 Y49.542 E1.8739
G1 X35.491 Y49.579 E1.8760
G1 X35.491 Y49.800 E1.8886
G1 X35.490 Y49.837 E1.8907
G1 X35.449 Y50.504 E1.9287
G1 X35.445 Y50.540 E1.9308
G1 X35.418 Y50.760 E1.9434
G1 X35.413 Y50.796 E1.9454
G1 X35.290 Y51.453 E1.9835
G1 X35.282 Y51.489 E1.9856
G1 X35.229 Y51.704 E1.9981
G1 X35.219 Y51.739 E2.0002
G1 X35.011 Y52.395 E2.0394
G1 X34.996 Y52.436 E2.0418
G1 X34.899 Y52.679 E2.0567
G1 X34.882 Y52.719 E2.0592
G1 X34.498 Y53.508 E2.1091
G1 X34.473 Y53.555 E2.1121
G1 X34.307 Y53.831 E2.1304
G1 X34.278 Y53.875 E2.1335
G1 X33.640 Y54.749 E2.1950
G1 X33.605 Y54.792 E2.1981
G1 X33.385 Y55.042 E2.2171
G1 X33.346 Y55.082 E2.2203
G1 X32.705 Y55.685 E2.2703
G1 X32.673 Y55.713 E2.2727
G1 X32.476 Y55.874 E2.2872
G1 X32.442 Y55.900 E2.2896
G1 X32.041 Y56.183 E2.3175
G1 X32.442 Y56.465 E2.3455
G1 X32.476 Y56.491 E2.3479
G1 X32.673 Y56.652 E2.3624
G1 X32.705 Y56.680 E2.3648
G1 X33.317 Y57.256 E2.4125
G1 X33.346 Y57.286 E2.4149
G1 X33.518 Y57.472 E2.4293
G1 X33.545 Y57.503 E2.4317
G1 X33.966 Y58.028 E2.4700
G1 X33.985 Y58.055 E2.4718
G1 X34.100 Y58.215 E2.4831
G1 X34.119 Y58.243 E2.4849
G1 X34.391 Y58.672 E2.5139
G1 X34.409 Y58.701 E2.5158
G1 X34.508 Y58.880 E2.5274
G1 X34.524 Y58.910 E2.5294
G1 X34.882 Y59.647 E2.5759
G1 X34.899 Y59.687 E2.5784
G1 X34.996 Y59.929 E2.5933
G1 X35.011 Y59.970 E2.5958
G1 X35.219 Y60.626 E2.6349
G1 X35.229 Y60.662 E2.6370
G1 X35.282 Y60.876 E2.6496
G1 X35.290 Y60.912 E2.6517
G1 X35.413 Y61.569 E2.6897
G1 X35.418 Y61.606 E2.6918
G1 X35.445 Y61.825 E2.7043
G1 X35.449 Y61.862 E2.7064
G1 X35.490 Y62.529 E2.7444
G1 X35.491 Y62.565 E2.7465
G1 X35.491 Y62.786 E2.7591
G1 X35.490 Y62.823 E2.7612
G1 X35.449 Y63.490 E2.7992
G1 X35.445 Y63.527 E2.8013
G1 X35.418 Y63.746 E2.8139
G1 X35.413 Y63.783 E2.8160
G1 X35.290 Y64.440 E2.8540
G1 X35.282 Y64.476 E2.8561
G1 X35.229 Y64.690 E2.8686
G1 X35.219 Y64.725 E2.8707
G1 X35.011 Y65.382 E2.9099
G1 X34.996 Y65.423 E2.9124
G1 X34.899 Y65.665 E2.9272
G1 X34.882 Y65.705 E2.9297
G1 X34.498 Y66.495 E2.9796
G1 X34.473 Y66.542 E2.9827
G1 X34.307 Y66.817 E3.0009
G1 X34.278 Y66.862 E3.0040
G1 X33.640 Y67.735 E3.0655
G1 X33.605 Y67.778 E3.0686
G1 X33.385 Y68.029 E3.0876
G1 X33.346 Y68.069 E3.0908
G1 X32.705 Y68.672 E3.1408
G1 X32.673 Y68.700 E3.1433
G1 X32.476 Y68.861 E3.1577
G1 X32.442 Y68.886 E3.1601
G1 X31.882 Y69.281 E3.1991
G1 X31.852 Y69.301 E3.2012
G1 X31.663 Y69.417 E3.2137
G1 X31.632 Y69.435 E3.2158
G1 X31.042 Y69.750 E3.2538
G1 X31.009 Y69.767 E3.2559
G1 X30.808 Y69.859 E3.2685
G1 X30.774 Y69.873 E3.2706
G1 X30.151 Y70.114 E3.3086
G1 X30.116 Y70.126 E3.3107
G1 X29.905 Y70.193 E3.3233
G1 X29.870 Y70.203 E3.3254
G1 X29.222 Y70.365 E3.3634
G1 X29.186 Y70.373 E3.3655
G1 X28.969 Y70.413 E3.3780
G1 X28.932 Y70.419 E3.3801
G1 X28.269 Y70.501 E3.4181
G1 X28.232 Y70.504 E3.4202
G1 X28.012 Y70.518 E3.4328
G1 X27.975 Y70.519 E3.4349
G1 X27.307 Y70.519 E3.4729
G1 X27.270 Y70.518 E3.4750
G1 X27.049 Y70.504 E3.4876
G1 X27.012 Y70.501 E3.4897
G1 X26.349 Y70.419 E3.5277
G1 X26.313 Y70.413 E3.5298
G1 X26.096 Y70.373 E3.5423
G1 X26.060 Y70.365 E3.5444
G1 X25.412 Y70.203 E3.5824
G1 X25.376 Y70.193 E3.5845
G1 X25.165 Y70.126 E3.5971
G1 X25.131 Y70.114 E3.5992
G1 X24.507 Y69.873 E3.6372
G1 X24.473 Y69.859 E3.6393
G1 X24.272 Y69.767 E3.6519
G1 X24.239 Y69.750 E3.6540
G1 X23.650 Y69.435 E3.6920
G1 X23.618 Y69.417 E3.6941
G1 X23.430 Y69.301 E3.7066
G1 X23.399 Y69.281 E3.7087
G1 X22.853 Y68.896 E3.7467
G1 X22.824 Y68.874 E3.7488
G1 X22.651 Y68.736 E3.7614
G1 X22.623 Y68.712 E3.7635
G1 X22.117 Y68.253 E3.8024
G1 X22.087 Y68.223 E3.8047
G1 X21.913 Y68.042 E3.8191
G1 X21.885 Y68.010 E3.8214
G1 X21.347 Y67.365 E3.8692
G1 X21.321 Y67.331 E3.8717
G1 X21.172 Y67.124 E3.8862
G1 X21.148 Y67.088 E3.8886
G1 X20.788 Y66.505 E3.9276
G1 X20.770 Y66.473 E3.9297
G1 X20.666 Y66.278 E3.9423
G1 X20.649 Y66.245 E3.9444
G1 X20.371 Y65.637 E3.9824
G1 X20.357 Y65.603 E3.9845
G1 X20.277 Y65.397 E3.9970
G1 X20.265 Y65.362 E3.9991
G1 X20.063 Y64.725 E4.0371
G1 X20.053 Y64.690 E4.0392
G1 X19.999 Y64.476 E4.0518
G1 X19.991 Y64.440 E4.0539
