; G-Code generated by Simplify3D(R) Version 3.1.0
; May 1, 2017 at 5:46:27 PM
; Settings Summary
;   processName,Process2
;   applyToModels,left fan shroud 4.2.1 green(2)
;   profileName,PETG 0.2 he.20 bt50 (modified)
;   profileVersion,2017-03-22 16:24:12
;   baseProfile,Default (modified)
;   printMaterial,
;   printQuality,
;   printExtruders,
;   extruderName,Primary Extruder
;   extruderToolheadNumber,0
;   extruderDiameter,0.4
;   extruderAutoWidth,0
;   extruderWidth,0.48
;   extrusionMultiplier,0.9
;   extruderUseRetract,1
;   extruderRetractionDistance,1.4
;   extruderExtraRestartDistance,-0.1
;   extruderRetractionZLift,0.1
;   extruderRetractionSpeed,2700
;   extruderUseCoasting,1
;   extruderCoastingDistance,0.2
;   extruderUseWipe,1
;   extruderWipeDistance,0.2
;   primaryExtruder,0
;   layerHeight,0.2
;   topSolidLayers,4
;   bottomSolidLayers,2
;   perimeterOutlines,2
;   printPerimetersInsideOut,1
;   startPointOption,3
;   startPointOriginX,85
;   startPointOriginY,0
;   startPointOriginZ,5
;   sequentialIslands,0
;   spiralVaseMode,0
;   firstLayerHeightPercentage,150
;   firstLayerWidthPercentage,110
;   firstLayerUnderspeed,0.3
;   useRaft,0
;   raftExtruder,0
;   raftLayers,3
;   raftOffset,3
;   raftSeparationDistance,0.14
;   raftInfill,85
;   disableRaftBaseLayers,0
;   useSkirt,1
;   skirtExtruder,0
;   skirtLayers,1
;   skirtOutlines,3
;   skirtOffset,3
;   usePrimePillar,0
;   primePillarExtruder,999
;   primePillarWidth,12
;   primePillarLocation,7
;   primePillarSpeedMultiplier,1
;   useOozeShield,0
;   oozeShieldExtruder,999
;   oozeShieldOffset,2
;   oozeShieldOutlines,1
;   oozeShieldSidewallShape,1
;   oozeShieldSidewallAngle,30
;   oozeShieldSpeedMultiplier,1
;   infillExtruder,0
;   internalInfillPattern,Rectilinear
;   externalInfillPattern,Rectilinear
;   infillPercentage,22
;   outlineOverlapPercentage,30
;   infillExtrusionWidthPercentage,125
;   minInfillLength,5
;   infillLayerInterval,1
;   infillAngles,45,-45
;   overlapInfillAngles,0
;   generateSupport,0
;   supportExtruder,0
;   supportInfillPercentage,20
;   supportExtraInflation,0.5
;   denseSupportLayers,0
;   denseSupportInfillPercentage,70
;   supportLayerInterval,1
;   supportHorizontalPartOffset,0.8
;   supportUpperSeparationLayers,1
;   supportLowerSeparationLayers,1
;   supportType,0
;   supportGridSpacing,1.5
;   maxOverhangAngle,55
;   supportAngles,0
;   temperatureName,Primary Extruder,bed
;   temperatureNumber,0,0
;   temperatureSetpointCount,2,2
;   temperatureSetpointLayers,1,2,1,2
;   temperatureSetpointTemperatures,240,235,65,60
;   temperatureStabilizeAtStartup,1,1
;   temperatureHeatedBed,0,1
;   temperatureRelayBetweenLayers,0,0
;   temperatureRelayBetweenLoops,0,0
;   fanLayers,1,4
;   fanSpeeds,0,20
;   blipFanToFullPower,1
;   adjustSpeedForCooling,0
;   minSpeedLayerTime,15
;   minCoolingSpeedSlowdown,65
;   increaseFanForCooling,1
;   minFanLayerTime,15
;   maxCoolingFanSpeed,60
;   increaseFanForBridging,1
;   bridgingFanSpeed,100
;   use5D,1
;   relativeEdistances,0
;   allowEaxisZeroing,1
;   independentExtruderAxes,0
;   includeM10123,0
;   stickySupport,1
;   applyToolheadOffsets,0
;   gcodeXoffset,0
;   gcodeYoffset,0
;   gcodeZoffset,0
;   overrideMachineDefinition,1
;   machineTypeOverride,0
;   strokeXoverride,170
;   strokeYoverride,160
;   strokeZoverride,145
;   originOffsetXoverride,0
;   originOffsetYoverride,0
;   originOffsetZoverride,0
;   homeXdirOverride,-1
;   homeYdirOverride,-1
;   homeZdirOverride,-1
;   flipXoverride,1
;   flipYoverride,-1
;   flipZoverride,1
;   toolheadOffsets,0,0|0,0|0,0|0,0|0,0|0,0
;   overrideFirmwareConfiguration,1
;   firmwareTypeOverride,RepRap (Marlin/Repetier/Sprinter)
;   GPXconfigOverride,r2
;   baudRateOverride,250000
;   overridePrinterModels,0
;   printerModelsOverride
;   startingGcode,;---------------------------------------,; ; ; Jellybox Start Script Begin ; ; ;,;_______________________________________,; M92 E140            ;optionally adjust steps per mm for your filament,M117 Preparing        ;write Preparing,M206 X10.0 Y0.0       ;set x homing offset for default bed leveling,G21                   ;metric values,G90                   ;absolute positioning,M107                  ;start with the fan off,M82                   ;set extruder to absolute mode,G28                   ;home all axes,M203 Z4               ;slow Z speed down for greater accuracy when probing,G29                   ;auto bed leveling procedure,M203 Z7               ;pick up z speed again for printing,G92 E0                ;reset the extruder position,G1 F1500 E15          ;extrude 15mm of feed stock,G92 E0                ;reset the extruder position again,M117 Print starting   ;write Print starting,;---------------------------------------------,; ; ; Jellybox Printer Start Script End ; ; ;,;_____________________________________________
;   layerChangeGcode,
;   retractionGcode,
;   toolChangeGcode,
;   endingGcode,; ---------------------------------,; ; ;  Jellybox End Script Begin ; ; ;,; _________________________________,M117 Finishing Up  ; write Finishing Up,M104 S0            ; extruder heater off,M140 S0            ; bed heater off (if you have it),G91                ; relative positioning,G1 E-1 F300        ; retract the filament a bit before lifting the nozzle to release some of the pressure,G1 Z+0.5 E-5 X-20 Y-20 F9000 ; move Z up a bit and retract filament even more,G90                ; absolute positioning,G28 X              ; home x so the head is out of the way,G1 Y100            ; move Y forward so the print is more accessible,M84                ; steppers off,M117 Print finished ; write Print finished,; ---------------------------------------,; ; ;  Jellybox End Script End ; ; ;,; _______________________________________
;   exportFileFormat,gcode
;   celebration,0
;   celebrationSong,Random Song
;   postProcessing,|{REPLACE "; layer" "M117 Layer"} ,{REPLACE ", Z = " " | Z="}
;   defaultSpeed,2700
;   outlineUnderspeed,0.55
;   solidInfillUnderspeed,0.55
;   supportUnderspeed,0.9
;   rapidXYspeed,7800
;   rapidZspeed,420
;   minBridgingArea,50
;   bridgingExtraInflation,0.2
;   bridgingExtrusionMultiplier,0.8
;   bridgingSpeedMultiplier,1.3
;   filamentDiameter,1.75
;   filamentPricePerKg,30
;   filamentDensity,1.38
;   useMinPrintHeight,0
;   minPrintHeight,0
;   useMaxPrintHeight,0
;   maxPrintHeight,1
;   useDiaphragm,0
;   diaphragmLayerInterval,20
;   robustSlicing,1
;   mergeAllIntoSolid,0
;   onlyRetractWhenCrossingOutline,0
;   retractBetweenLayers,1
;   useRetractionMinTravel,1
;   retractionMinTravel,1
;   retractWhileWiping,1
;   onlyWipeOutlines,0
;   avoidCrossingOutline,1
;   maxMovementDetourFactor,2.5
;   toolChangeRetractionDistance,1.3
;   toolChangeExtraRestartDistance,0
;   toolChangeRetractionSpeed,600
;   allowThinWallGapFill,0
;   thinWallAllowedOverlapPercentage,0
;   horizontalSizeCompensation,0
G90
M82
M106 S0
M140 S65
M190 S65
M104 S240 T0
M109 S240 T0
;---------------------------------------
; ; ; Jellybox Start Script Begin ; ; ;
;_______________________________________
; M92 E140            ;optionally adjust steps per mm for your filament
M117 Preparing        ;write Preparing
M206 X10.0 Y0.0       ;set x homing offset for default bed leveling
G21                   ;metric values
G90                   ;absolute positioning
M107                  ;start with the fan off
M82                   ;set extruder to absolute mode
G28                   ;home all axes
M203 Z4               ;slow Z speed down for greater accuracy when probing
G29                   ;auto bed leveling procedure
M203 Z7               ;pick up z speed again for printing
G92 E0                ;reset the extruder position
G1 F1500 E15          ;extrude 15mm of feed stock
G92 E0                ;reset the extruder position again
M117 Print starting   ;write Print starting
;---------------------------------------------
; ; ; Jellybox Printer Start Script End ; ; ;
;_____________________________________________
G92 E0
G1 E-1.4000 F2700
G1 Z0.400 F420
M117 Layer 1, Z = 0.3
T0
; tool H0.300 W0.528
; skirt
G1 X67.565 Y81.261 F7800
G1 Z0.300 F420
G1 E-0.1000 F810
G92 E0
G1 X67.835 Y81.038 E0.0208 F810
G1 X67.882 Y81.003 E0.0242
G1 X68.453 Y80.619 E0.0650
G1 X68.496 Y80.592 E0.0680
G1 X68.762 Y80.444 E0.0861
G1 X68.807 Y80.421 E0.0891
G1 X69.414 Y80.147 E0.1285
G1 X69.460 Y80.128 E0.1315
G1 X69.747 Y80.027 E0.1495
G1 X69.796 Y80.012 E0.1525
G1 X70.440 Y79.844 E0.1920
G1 X70.489 Y79.833 E0.1950
G1 X70.789 Y79.781 E0.2130
G1 X70.839 Y79.775 E0.2160
G1 X71.427 Y79.724 E0.2510
G1 X71.452 Y79.722 E0.2525
G1 X71.604 Y79.715 E0.2615
G1 X71.629 Y79.715 E0.2630
G1 X96.781 Y79.661 E1.7538
G1 X96.807 Y79.661 E1.7553
G1 X96.958 Y79.667 E1.7643
G1 X96.984 Y79.669 E1.7658
G1 X97.572 Y79.717 E1.8007
G1 X97.622 Y79.723 E1.8037
G1 X97.922 Y79.774 E1.8217
G1 X97.971 Y79.784 E1.8247
G1 X98.616 Y79.950 E1.8642
G1 X98.665 Y79.964 E1.8672
G1 X98.952 Y80.065 E1.8852
G1 X98.999 Y80.083 E1.8882
G1 X99.607 Y80.355 E1.9277
G1 X99.652 Y80.377 E1.9307
G1 X99.918 Y80.524 E1.9487
G1 X99.962 Y80.551 E1.9517
G1 X100.534 Y80.933 E1.9925
G1 X100.581 Y80.968 E1.9960
G1 X100.852 Y81.190 E2.0168
G1 X100.895 Y81.229 E2.0202
G1 X101.483 Y81.814 E2.0693
G1 X101.522 Y81.857 E2.0728
G1 X101.745 Y82.127 E2.0935
G1 X101.780 Y82.173 E2.0970
G1 X102.165 Y82.744 E2.1378
G1 X102.191 Y82.788 E2.1408
G1 X102.340 Y83.053 E2.1589
G1 X102.362 Y83.099 E2.1619
G1 X102.636 Y83.705 E2.2013
G1 X102.655 Y83.752 E2.2043
G1 X102.757 Y84.039 E2.2223
G1 X102.771 Y84.087 E2.2253
G1 X102.940 Y84.731 E2.2648
G1 X102.950 Y84.781 E2.2678
G1 X103.002 Y85.081 E2.2858
G1 X103.009 Y85.131 E2.2888
G1 X103.060 Y85.718 E2.3238
G1 X103.061 Y85.744 E2.3253
G1 X103.068 Y85.896 E2.3343
G1 X103.069 Y85.921 E2.3358
G1 X103.123 Y111.073 E3.8265
G1 X103.122 Y111.098 E3.8280
G1 X103.116 Y111.250 E3.8371
G1 X103.115 Y111.275 E3.8386
G1 X103.066 Y111.863 E3.8735
G1 X103.060 Y111.913 E3.8765
G1 X103.010 Y112.213 E3.8945
G1 X102.999 Y112.263 E3.8975
G1 X102.834 Y112.908 E3.9370
G1 X102.819 Y112.956 E3.9400
G1 X102.719 Y113.243 E3.9580
G1 X102.700 Y113.290 E3.9610
G1 X102.429 Y113.898 E4.0005
G1 X102.406 Y113.944 E4.0035
G1 X102.259 Y114.210 E4.0215
G1 X102.233 Y114.253 E4.0245
G1 X101.850 Y114.826 E4.0653
G1 X101.816 Y114.873 E4.0688
G1 X101.594 Y115.144 E4.0896
G1 X101.555 Y115.187 E4.0930
G1 X100.970 Y115.774 E4.1421
G1 X100.927 Y115.814 E4.1456
G1 X100.657 Y116.037 E4.1664
G1 X100.610 Y116.072 E4.1698
G1 X100.039 Y116.457 E4.2106
G1 X99.996 Y116.483 E4.2136
G1 X99.730 Y116.631 E4.2316
G1 X99.685 Y116.654 E4.2346
G1 X99.078 Y116.928 E4.2741
G1 X99.031 Y116.947 E4.2771
G1 X98.744 Y117.048 E4.2951
G1 X98.696 Y117.063 E4.2981
G1 X98.052 Y117.231 E4.3376
G1 X98.002 Y117.242 E4.3406
G1 X97.703 Y117.294 E4.3586
G1 X97.652 Y117.300 E4.3616
G1 X97.065 Y117.351 E4.3966
G1 X97.040 Y117.353 E4.3981
G1 X96.888 Y117.360 E4.4071
G1 X96.862 Y117.360 E4.4086
G1 X71.711 Y117.415 E5.8993
G1 X71.685 Y117.414 E5.9008
G1 X71.533 Y117.408 E5.9099
G1 X71.508 Y117.406 E5.9114
G1 X70.920 Y117.358 E5.9463
G1 X70.870 Y117.352 E5.9493
G1 X70.570 Y117.301 E5.9673
G1 X70.521 Y117.291 E5.9703
G1 X69.876 Y117.125 E6.0098
G1 X69.827 Y117.111 E6.0128
G1 X69.540 Y117.010 E6.0308
G1 X69.493 Y116.992 E6.0338
G1 X68.885 Y116.720 E6.0733
G1 X68.840 Y116.698 E6.0763
G1 X68.573 Y116.551 E6.0943
G1 X68.530 Y116.524 E6.0973
G1 X67.957 Y116.142 E6.1381
G1 X67.911 Y116.107 E6.1416
G1 X67.640 Y115.885 E6.1623
G1 X67.596 Y115.846 E6.1658
G1 X67.009 Y115.261 E6.2149
G1 X66.970 Y115.218 E6.2184
G1 X66.747 Y114.948 E6.2392
G1 X66.712 Y114.902 E6.2426
G1 X66.327 Y114.331 E6.2834
G1 X66.300 Y114.287 E6.2864
G1 X66.152 Y114.022 E6.3044
G1 X66.129 Y113.977 E6.3074
G1 X65.855 Y113.370 E6.3469
G1 X65.836 Y113.323 E6.3499
G1 X65.735 Y113.036 E6.3679
G1 X65.720 Y112.988 E6.3709
G1 X65.552 Y112.343 E6.4104
G1 X65.541 Y112.294 E6.4134
G1 X65.490 Y111.994 E6.4314
G1 X65.483 Y111.944 E6.4344
G1 X65.432 Y111.357 E6.4694
G1 X65.430 Y111.331 E6.4709
G1 X65.424 Y111.179 E6.4799
G1 X65.423 Y111.154 E6.4814
G1 X65.369 Y86.002 E7.9721
G1 X65.369 Y85.977 E7.9736
G1 X65.375 Y85.825 E7.9826
G1 X65.377 Y85.800 E7.9842
G1 X65.425 Y85.212 E8.0191
G1 X65.432 Y85.162 E8.0221
G1 X65.482 Y84.862 E8.0401
G1 X65.493 Y84.812 E8.0431
G1 X65.658 Y84.167 E8.0826
G1 X65.673 Y84.119 E8.0856
G1 X65.773 Y83.832 E8.1036
G1 X65.792 Y83.785 E8.1066
G1 X66.063 Y83.177 E8.1461
G1 X66.086 Y83.131 E8.1491
G1 X66.233 Y82.865 E8.1671
G1 X66.259 Y82.822 E8.1701
G1 X66.642 Y82.249 E8.2109
G1 X66.676 Y82.202 E8.2144
G1 X66.898 Y81.931 E8.2352
G1 X66.937 Y81.888 E8.2386
G1 X67.422 Y81.401 E8.2793
G1 X67.522 Y81.301 F810
G1 X67.565 Y81.261 F810
G1 X67.835 Y81.038 F2700
G1 X67.882 Y81.003 F2700
G1 X68.453 Y80.619 F2700
G1 X68.496 Y80.592 F2700
G1 X68.716 Y80.469 F2700
G1 X68.987 Y80.868 F7800
G92 E0
G1 X69.014 Y80.854 E0.0018 F810
G1 X69.602 Y80.589 E0.0401
G1 X69.630 Y80.577 E0.0419
G1 X69.898 Y80.483 E0.0587
G1 X69.927 Y80.474 E0.0605
G1 X70.551 Y80.311 E0.0987
G1 X70.581 Y80.304 E0.1005
G1 X70.861 Y80.256 E0.1174
G1 X70.891 Y80.252 E0.1192
G1 X71.463 Y80.202 E0.1532
G1 X71.479 Y80.201 E0.1541
G1 X71.620 Y80.195 E0.1625
G1 X71.635 Y80.195 E0.1634
G1 X96.777 Y80.141 E1.6536
G1 X96.792 Y80.141 E1.6545
G1 X96.934 Y80.146 E1.6629
G1 X96.949 Y80.147 E1.6638
G1 X97.522 Y80.195 E1.6978
G1 X97.552 Y80.198 E1.6997
G1 X97.832 Y80.246 E1.7165
G1 X97.862 Y80.252 E1.7183
G1 X98.487 Y80.412 E1.7565
G1 X98.516 Y80.421 E1.7583
G1 X98.784 Y80.514 E1.7752
G1 X98.812 Y80.526 E1.7770
G1 X99.402 Y80.789 E1.8152
G1 X99.429 Y80.802 E1.8170
G1 X99.677 Y80.940 E1.8338
G1 X99.703 Y80.955 E1.8356
G1 X100.258 Y81.326 E1.8752
G1 X100.286 Y81.347 E1.8772
G1 X100.539 Y81.554 E1.8966
G1 X100.565 Y81.577 E1.8987
G1 X101.136 Y82.145 E1.9464
G1 X101.159 Y82.171 E1.9485
G1 X101.367 Y82.423 E1.9679
G1 X101.388 Y82.451 E1.9699
G1 X101.761 Y83.004 E2.0095
G1 X101.777 Y83.030 E2.0113
G1 X101.915 Y83.278 E2.0281
G1 X101.929 Y83.305 E2.0299
G1 X102.195 Y83.894 E2.0682
G1 X102.206 Y83.922 E2.0700
G1 X102.301 Y84.189 E2.0868
G1 X102.310 Y84.218 E2.0886
G1 X102.473 Y84.843 E2.1268
G1 X102.479 Y84.873 E2.1286
G1 X102.527 Y85.152 E2.1455
G1 X102.531 Y85.183 E2.1473
G1 X102.581 Y85.755 E2.1813
G1 X102.582 Y85.770 E2.1822
G1 X102.588 Y85.912 E2.1906
G1 X102.589 Y85.927 E2.1915
G1 X102.643 Y111.069 E3.6817
G1 X102.643 Y111.084 E3.6826
G1 X102.637 Y111.226 E3.6910
G1 X102.636 Y111.241 E3.6919
G1 X102.589 Y111.814 E3.7259
G1 X102.585 Y111.844 E3.7277
G1 X102.538 Y112.124 E3.7446
G1 X102.532 Y112.153 E3.7464
G1 X102.371 Y112.779 E3.7846
G1 X102.362 Y112.808 E3.7864
G1 X102.269 Y113.076 E3.8033
G1 X102.258 Y113.104 E3.8051
G1 X101.995 Y113.693 E3.8433
G1 X101.981 Y113.721 E3.8451
G1 X101.844 Y113.969 E3.8619
G1 X101.828 Y113.995 E3.8637
G1 X101.458 Y114.550 E3.9033
G1 X101.437 Y114.578 E3.9053
G1 X101.230 Y114.831 E3.9247
G1 X101.206 Y114.857 E3.9268
G1 X100.638 Y115.427 E3.9745
G1 X100.612 Y115.451 E3.9766
G1 X100.360 Y115.659 E3.9960
G1 X100.332 Y115.680 E3.9981
G1 X99.779 Y116.053 E4.0376
G1 X99.753 Y116.069 E4.0394
G1 X99.505 Y116.207 E4.0562
G1 X99.478 Y116.221 E4.0580
G1 X98.890 Y116.486 E4.0963
G1 X98.862 Y116.498 E4.0981
G1 X98.594 Y116.592 E4.1149
G1 X98.565 Y116.601 E4.1167
G1 X97.940 Y116.764 E4.1550
G1 X97.911 Y116.771 E4.1568
G1 X97.631 Y116.819 E4.1736
G1 X97.601 Y116.823 E4.1754
G1 X97.028 Y116.873 E4.2094
G1 X97.013 Y116.874 E4.2103
G1 X96.872 Y116.880 E4.2187
G1 X96.856 Y116.880 E4.2196
G1 X71.715 Y116.935 E5.7098
G1 X71.699 Y116.934 E5.7107
G1 X71.558 Y116.929 E5.7191
G1 X71.542 Y116.928 E5.7200
G1 X70.970 Y116.880 E5.7541
G1 X70.940 Y116.877 E5.7559
G1 X70.660 Y116.830 E5.7727
G1 X70.630 Y116.823 E5.7745
G1 X70.005 Y116.663 E5.8127
G1 X69.976 Y116.654 E5.8145
G1 X69.708 Y116.561 E5.8314
G1 X69.679 Y116.549 E5.8332
G1 X69.090 Y116.286 E5.8714
G1 X69.063 Y116.273 E5.8732
G1 X68.814 Y116.135 E5.8900
G1 X68.788 Y116.120 E5.8918
G1 X68.234 Y115.749 E5.9314
G1 X68.206 Y115.728 E5.9334
G1 X67.953 Y115.521 E5.9528
G1 X67.927 Y115.498 E5.9549
