; G-Code generated by Simplify3D(R) Version 3.1.0
; Mar 22, 2017 at 6:18:04 PM
; Settings Summary
;   processName,Process1
;   applyToModels,left fan mount 1.5.1 pink(4),left fan mount 1.5.1 pink(5),left fan mount 1.5.1 pink(6)
;   profileName,PETG 0.3 he.20 bt50 (modified)
;   profileVersion,2017-02-27 23:31:17
;   baseProfile,Default (modified)
;   printMaterial,
;   printQuality,
;   printExtruders,
;   extruderName,Primary Extruder
;   extruderToolheadNumber,0
;   extruderDiameter,0.4
;   extruderAutoWidth,0
;   extruderWidth,0.48
;   extrusionMultiplier,0.95
;   extruderUseRetract,1
;   extruderRetractionDistance,1.4
;   extruderExtraRestartDistance,-0.1
;   extruderRetractionZLift,0.1
;   extruderRetractionSpeed,4200
;   extruderUseCoasting,1
;   extruderCoastingDistance,0.2
;   extruderUseWipe,1
;   extruderWipeDistance,0.2
;   primaryExtruder,0
;   layerHeight,0.3
;   topSolidLayers,3
;   bottomSolidLayers,2
;   perimeterOutlines,2
;   printPerimetersInsideOut,1
;   startPointOption,2
;   startPointOriginX,80
;   startPointOriginY,0
;   startPointOriginZ,5
;   sequentialIslands,0
;   spiralVaseMode,0
;   firstLayerHeightPercentage,100
;   firstLayerWidthPercentage,100
;   firstLayerUnderspeed,0.35
;   useRaft,0
;   raftExtruder,0
;   raftLayers,3
;   raftOffset,3
;   raftSeparationDistance,0.14
;   raftInfill,85
;   disableRaftBaseLayers,0
;   useSkirt,1
;   skirtExtruder,0
;   skirtLayers,1
;   skirtOutlines,2
;   skirtOffset,4
;   usePrimePillar,0
;   primePillarExtruder,999
;   primePillarWidth,12
;   primePillarLocation,7
;   primePillarSpeedMultiplier,1
;   useOozeShield,0
;   oozeShieldExtruder,999
;   oozeShieldOffset,2
;   oozeShieldOutlines,1
;   oozeShieldSidewallShape,1
;   oozeShieldSidewallAngle,30
;   oozeShieldSpeedMultiplier,1
;   infillExtruder,0
;   internalInfillPattern,Rectilinear
;   externalInfillPattern,Rectilinear
;   infillPercentage,22
;   outlineOverlapPercentage,30
;   infillExtrusionWidthPercentage,150
;   minInfillLength,2
;   infillLayerInterval,1
;   infillAngles,45,-45
;   overlapInfillAngles,0
;   generateSupport,0
;   supportExtruder,0
;   supportInfillPercentage,33
;   supportExtraInflation,0.5
;   denseSupportLayers,0
;   denseSupportInfillPercentage,70
;   supportLayerInterval,1
;   supportHorizontalPartOffset,0.8
;   supportUpperSeparationLayers,1
;   supportLowerSeparationLayers,1
;   supportType,0
;   supportGridSpacing,1.5
;   maxOverhangAngle,55
;   supportAngles,90
;   temperatureName,Primary Extruder,bed
;   temperatureNumber,0,0
;   temperatureSetpointCount,2,2
;   temperatureSetpointLayers,1,2,1,2
;   temperatureSetpointTemperatures,240,235,65,60
;   temperatureStabilizeAtStartup,1,1
;   temperatureHeatedBed,0,1
;   temperatureRelayBetweenLayers,0,0
;   temperatureRelayBetweenLoops,0,0
;   fanLayers,1,4
;   fanSpeeds,0,20
;   blipFanToFullPower,1
;   adjustSpeedForCooling,0
;   minSpeedLayerTime,15
;   minCoolingSpeedSlowdown,65
;   increaseFanForCooling,1
;   minFanLayerTime,15
;   maxCoolingFanSpeed,60
;   increaseFanForBridging,1
;   bridgingFanSpeed,100
;   use5D,1
;   relativeEdistances,0
;   allowEaxisZeroing,1
;   independentExtruderAxes,0
;   includeM10123,0
;   stickySupport,1
;   applyToolheadOffsets,0
;   gcodeXoffset,0
;   gcodeYoffset,0
;   gcodeZoffset,0
;   overrideMachineDefinition,1
;   machineTypeOverride,0
;   strokeXoverride,170
;   strokeYoverride,160
;   strokeZoverride,145
;   originOffsetXoverride,0
;   originOffsetYoverride,0
;   originOffsetZoverride,0
;   homeXdirOverride,-1
;   homeYdirOverride,-1
;   homeZdirOverride,-1
;   flipXoverride,1
;   flipYoverride,-1
;   flipZoverride,1
;   toolheadOffsets,0,0|0,0|0,0|0,0|0,0|0,0
;   overrideFirmwareConfiguration,1
;   firmwareTypeOverride,RepRap (Marlin/Repetier/Sprinter)
;   GPXconfigOverride,r2
;   baudRateOverride,250000
;   overridePrinterModels,0
;   printerModelsOverride
;   startingGcode,;---------------------------------------,; ; ; Jellybox Start Script Begin ; ; ;,;_______________________________________,M117 Preparing        ; write Preparing,; M92 E140            ; optionally adjust E steps/mm,M207 S1.5 F600 Z0     ; optionally adjust retract settings,M208 S-0.00 F600      ; optionally adjust unretract = recover settings,M206 X10.0 Y0.0       ; set x homing offset for default bed leveling,G21                   ; metric values,G90                   ; absolute positioning,M107                  ; start with the fan off,M82                   ; set extruder to absolute mode,G28                   ; home all axes,M203 Z4               ; slow Z speed down for greater accuracy when probing,G29                   ; auto bed leveling procedure,M203 Z7               ; pick up z speed again for printing,G92 E0                ; reset the extruder position,G1 F1500 E15          ; extrude 15mm of feed stock,G92 E0                ; reset the extruder position again,M117 Print starting   ; write Print starting,;---------------------------------------------,; ; ; Jellybox Printer Start Script End ; ; ;,;_____________________________________________
;   layerChangeGcode,
;   retractionGcode,
;   toolChangeGcode,
;   endingGcode,; ---------------------------------,; ; ;  Jellybox End Script Begin ; ; ;,; _________________________________,M117 Finishing Up ; write Finishing Up,M107                  ; sfan off,M104 S0            ; extruder heater off,M140 S0            ; bed heater off (if you have it),G91                ; relative positioning,G1 E-1 F300        ; retract the filament a bit before lifting the nozzle to release some of the pressure,G1 Z+0.5 E-5 X-20 Y-20 F9000 ; move Z up a bit and retract filament even more,G90                ; absolute positioning,G28 X              ; home x so the head is out of the way,G1 Y100            ; move Y forward so the print is more accessible,M84                ; steppers off,M117 Print finished ; write Print finisheds,; ---------------------------------------,; ; ;  Jellybox End Script End ; ; ;,; _______________________________________
;   exportFileFormat,gcode
;   celebration,0
;   celebrationSong,Random Song
;   postProcessing,|{REPLACE "; layer" "M117 Layer"},|{REPLACE ", Z = " " "Z="}
;   defaultSpeed,2700
;   outlineUnderspeed,0.55
;   solidInfillUnderspeed,0.55
;   supportUnderspeed,0.9
;   rapidXYspeed,7200
;   rapidZspeed,420
;   minBridgingArea,50
;   bridgingExtraInflation,0.3
;   bridgingExtrusionMultiplier,1
;   bridgingSpeedMultiplier,1
;   filamentDiameter,1.75
;   filamentPricePerKg,30
;   filamentDensity,1.38
;   useMinPrintHeight,0
;   minPrintHeight,30
;   useMaxPrintHeight,0
;   maxPrintHeight,40
;   useDiaphragm,0
;   diaphragmLayerInterval,20
;   robustSlicing,1
;   mergeAllIntoSolid,0
;   onlyRetractWhenCrossingOutline,1
;   retractBetweenLayers,1
;   useRetractionMinTravel,1
;   retractionMinTravel,1
;   retractWhileWiping,1
;   onlyWipeOutlines,1
;   avoidCrossingOutline,1
;   maxMovementDetourFactor,2.5
;   toolChangeRetractionDistance,1.3
;   toolChangeExtraRestartDistance,0
;   toolChangeRetractionSpeed,600
;   allowThinWallGapFill,1
;   thinWallAllowedOverlapPercentage,15
;   horizontalSizeCompensation,0
G90
M82
M106 S0
M140 S65
M190 S65
M104 S240 T0
M109 S240 T0
;---------------------------------------
; ; ; Jellybox Start Script Begin ; ; ;
;_______________________________________
M117 Preparing        ; write Preparing
; M92 E140            ; optionally adjust E steps/mm
M207 S1.5 F600 Z0     ; optionally adjust retract settings
M208 S-0.00 F600      ; optionally adjust unretract = recover settings
M206 X10.0 Y0.0       ; set x homing offset for default bed leveling
G21                   ; metric values
G90                   ; absolute positioning
M107                  ; start with the fan off
M82                   ; set extruder to absolute mode
G28                   ; home all axes
M203 Z4               ; slow Z speed down for greater accuracy when probing
G29                   ; auto bed leveling procedure
M203 Z7               ; pick up z speed again for printing
G92 E0                ; reset the extruder position
G1 F1500 E15          ; extrude 15mm of feed stock
G92 E0                ; reset the extruder position again
M117 Print starting   ; write Print starting
;---------------------------------------------
; ; ; Jellybox Printer Start Script End ; ; ;
;_____________________________________________
G92 E0
G1 E-1.4000 F4200
G1 Z0.400 F420
M117 Layer 1 0.3
T0
; tool H0.300 W0.480
; skirt
G1 X22.760 Y29.537 F7200
G1 Z0.300 F420
G1 E-0.1000 F1260
G92 E0
G1 X23.025 Y29.429 E0.0163 F945
G1 X32.868 Y29.474 E0.5761
G1 X33.007 Y29.503 E0.5842
G1 X34.599 Y30.168 E0.6823
G1 X34.716 Y30.246 E0.6903
G1 X36.964 Y32.500 E0.8713
G1 X36.964 Y32.466 E0.8733
G1 X37.075 Y32.201 E0.8896
G1 X39.632 Y29.668 E1.0943
G1 X39.897 Y29.559 E1.1106
G1 X49.740 Y29.605 E1.6704
G1 X49.879 Y29.633 E1.6785
G1 X51.471 Y30.298 E1.7766
G1 X51.588 Y30.377 E1.7847
G1 X54.189 Y32.985 E1.9941
G1 X54.190 Y32.784 E2.0055
G1 X54.301 Y32.520 E2.0218
G1 X56.858 Y29.986 E2.2266
G1 X57.124 Y29.878 E2.2429
G1 X66.967 Y29.924 E2.8027
G1 X67.105 Y29.952 E2.8107
G1 X68.697 Y30.617 E2.9089
G1 X68.815 Y30.696 E2.9169
G1 X71.908 Y33.798 E3.1661
G1 X71.987 Y33.917 E3.1742
G1 X72.648 Y35.527 E3.2732
G1 X72.676 Y35.666 E3.2813
G1 X72.549 Y62.745 E4.8214
G1 X73.292 Y62.749 E4.8636
G1 X73.556 Y62.860 E4.8799
G1 X76.090 Y65.417 E5.0847
G1 X76.198 Y65.682 E5.1010
G1 X76.126 Y81.136 E5.9799
G1 X76.015 Y81.400 E5.9962
G1 X73.458 Y83.934 E6.2009
G1 X73.193 Y84.042 E6.2172
G1 X61.094 Y83.986 E6.9053
G1 X61.027 Y83.979 E6.9092
G1 X60.221 Y83.822 E6.9559
G1 X60.156 Y83.803 E6.9597
G1 X57.224 Y82.631 E7.1393
G1 X56.232 Y83.615 E7.2188
G1 X55.966 Y83.723 E7.2351
G1 X43.868 Y83.667 E7.9232
G1 X43.801 Y83.660 E7.9270
G1 X42.995 Y83.503 E7.9737
G1 X42.930 Y83.484 E7.9776
G1 X40.386 Y82.467 E8.1334
G1 X39.360 Y83.484 E8.2155
G1 X39.094 Y83.592 E8.2318
G1 X26.996 Y83.536 E8.9199
G1 X26.929 Y83.529 E8.9238
G1 X26.123 Y83.372 E8.9705
G1 X26.058 Y83.353 E8.9743
G1 X21.605 Y81.574 E9.2471
G1 X21.436 Y81.438 E9.2594
G1 X19.938 Y79.214 E9.4119
G1 X19.875 Y79.007 E9.4242
G1 X20.092 Y32.335 E12.0787
G1 X20.203 Y32.071 E12.0950
G1 X22.618 Y29.678 E12.2884
G1 X22.760 Y29.537 F945
G1 X23.030 Y29.945 F7200
G92 E0
G1 X23.119 Y29.909 E0.0054 F945
G1 X32.819 Y29.954 E0.5572
G1 X32.865 Y29.964 E0.5598
G1 X34.371 Y30.592 E0.6526
G1 X34.410 Y30.619 E0.6553
G1 X37.437 Y33.654 E0.8991
G1 X37.438 Y33.656 E0.8993
G1 X37.443 Y32.563 E0.9614
G1 X37.480 Y32.475 E0.9669
G1 X39.902 Y30.076 E1.1608
G1 X39.991 Y30.040 E1.1662
G1 X49.691 Y30.085 E1.7179
G1 X49.737 Y30.094 E1.7206
G1 X51.243 Y30.723 E1.8134
G1 X51.282 Y30.749 E1.8161
G1 X54.309 Y33.785 E2.0598
G1 X54.335 Y33.824 E2.0625
G1 X54.661 Y34.619 E2.1114
G1 X54.670 Y32.882 E2.2103
G1 X54.706 Y32.794 E2.2157
G1 X57.128 Y30.395 E2.4096
G1 X57.217 Y30.358 E2.4150
G1 X66.917 Y30.404 E2.9667
G1 X66.963 Y30.413 E2.9694
G1 X68.469 Y31.042 E3.0622
G1 X68.508 Y31.068 E3.0649
G1 X71.535 Y34.103 E3.3087
G1 X71.561 Y34.143 E3.3114
G1 X72.186 Y35.665 E3.4050
G1 X72.195 Y35.712 E3.4077
G1 X72.067 Y63.223 E4.9724
G1 X73.194 Y63.228 E5.0365
G1 X73.282 Y63.265 E5.0419
G1 X75.682 Y65.687 E5.2358
G1 X75.718 Y65.776 E5.2412
G1 X75.647 Y81.038 E6.1093
G1 X75.610 Y81.126 E6.1147
G1 X73.188 Y83.525 E6.3086
G1 X73.099 Y83.561 E6.3141
G1 X61.119 Y83.506 E6.9955
G1 X61.096 Y83.503 E6.9967
G1 X60.335 Y83.355 E7.0409
G1 X60.313 Y83.349 E7.0421
G1 X57.110 Y82.069 E7.2383
G1 X55.962 Y83.207 E7.3303
G1 X55.873 Y83.243 E7.3357
G1 X43.893 Y83.187 E8.0171
G1 X43.870 Y83.185 E8.0184
G1 X43.109 Y83.036 E8.0625
G1 X43.087 Y83.030 E8.0638
G1 X40.272 Y81.905 E8.2362
G1 X39.090 Y83.076 E8.3309
G1 X39.001 Y83.112 E8.3363
G1 X27.021 Y83.056 E9.0177
G1 X26.998 Y83.054 E9.0190
G1 X26.237 Y82.906 E9.0631
G1 X26.215 Y82.899 E9.0644
G1 X21.850 Y81.155 E9.3317
G1 X21.794 Y81.110 E9.3359
G1 X20.377 Y79.006 E9.4801
G1 X20.356 Y78.937 E9.4842
G1 X20.571 Y32.433 E12.1292
G1 X20.608 Y32.345 E12.1346
G1 X22.888 Y30.086 E12.3171
G1 X23.030 Y29.945 F945
; inner perimeter
G1 X25.520 Y34.880 F7200
G92 E0
G1 X31.683 Y34.909 E0.3505 F732
G1 X33.132 Y36.362 E0.4672
G1 X33.098 Y43.712 E0.8853
G1 X32.778 Y43.726 E0.9035
G1 X32.744 Y43.364 E0.9241
G1 X32.618 Y42.939 E0.9494
G1 X32.411 Y42.546 E0.9746
G1 X32.132 Y42.201 E0.9998
G1 X31.784 Y41.911 E1.0256
G1 X31.402 Y41.704 E1.0503
G1 X30.947 Y41.565 E1.0774
G1 X30.525 Y41.523 E1.1015
G1 X30.079 Y41.564 E1.1270
G1 X29.649 Y41.693 E1.1525
G1 X29.253 Y41.903 E1.1780
G1 X28.908 Y42.185 E1.2034
G1 X28.631 Y42.519 E1.2280
G1 X28.418 Y42.912 E1.2534
G1 X28.285 Y43.339 E1.2789
G1 X28.243 Y43.738 E1.3017
G1 X28.154 Y62.958 E2.3948
G1 X28.192 Y63.358 E2.4177
G1 X28.321 Y63.786 E2.4431
G1 X28.530 Y64.181 E2.4686
G1 X28.805 Y64.519 E2.4933
G1 X29.161 Y64.812 E2.5196
G1 X29.542 Y65.017 E2.5441
G1 X29.969 Y65.149 E2.5696
G1 X30.415 Y65.195 E2.5951
G1 X30.838 Y65.156 E2.6192
G1 X31.294 Y65.021 E2.6463
G1 X31.676 Y64.819 E2.6709
G1 X32.020 Y64.540 E2.6961
G1 X32.304 Y64.198 E2.7214
G1 X32.517 Y63.808 E2.7466
G1 X32.649 Y63.384 E2.7719
G1 X32.689 Y63.009 E2.7933
G1 X33.008 Y63.027 E2.8115
G1 X32.986 Y67.710 E3.0778
G1 X36.648 Y67.728 E3.2861
G1 X36.629 Y71.909 E3.5240
G1 X36.274 Y71.566 E3.5520
G1 X36.042 Y71.384 E3.5688
G1 X35.763 Y71.206 E3.5877
G1 X35.202 Y70.939 E3.6230
G1 X34.569 Y70.741 E3.6607
G1 X33.897 Y70.621 E3.6995
G1 X33.205 Y70.579 E3.7389
G1 X32.513 Y70.614 E3.7783
G1 X31.852 Y70.725 E3.8165
G1 X31.489 Y70.821 E3.8378
G1 X30.907 Y71.042 E3.8733
G1 X30.634 Y71.183 E3.8907
G1 X30.356 Y71.355 E3.9093
G1 X30.132 Y71.527 E3.9254
G1 X29.898 Y71.746 E3.9436
G1 X29.697 Y71.991 E3.9616
G1 X29.550 Y72.225 E3.9774
G1 X29.426 Y72.513 E3.9952
G1 X29.355 Y72.782 E4.0110
G1 X29.329 Y73.097 E4.0290
G1 X29.352 Y73.375 E4.0448
G1 X29.430 Y73.680 E4.0627
G1 X29.539 Y73.934 E4.0785
G1 X29.704 Y74.200 E4.0963
G1 X29.879 Y74.414 E4.1120
G1 X30.106 Y74.635 E4.1300
G1 X30.329 Y74.809 E4.1461
G1 X30.617 Y74.995 E4.1656
G1 X31.177 Y75.261 E4.2009
G1 X31.809 Y75.458 E4.2385
G1 X32.480 Y75.578 E4.2773
G1 X33.163 Y75.620 E4.3162
G1 X33.546 Y75.611 E4.3380
G1 X34.220 Y75.536 E4.3766
G1 X34.876 Y75.383 E4.4148
G1 X35.469 Y75.158 E4.4509
G1 X35.751 Y75.013 E4.4690
G1 X36.021 Y74.845 E4.4871
G1 X36.255 Y74.665 E4.5038
G1 X36.618 Y74.324 E4.5322
G1 X36.600 Y78.141 E4.7493
G1 X27.569 Y78.099 E5.2629
G1 X25.324 Y77.202 E5.4004
G1 X25.519 Y35.080 E7.7961
G1 X25.520 Y34.880 F732
; outer perimeter
G1 X25.042 Y34.398 F7200
G92 E0
G1 X31.884 Y34.430 E0.3891 F520
G1 X33.613 Y36.164 E0.5284
G1 X33.468 Y67.233 E2.2954
G1 X37.131 Y67.250 E2.5037
G1 X37.078 Y78.623 E3.1506
G1 X27.475 Y78.578 E3.6967
G1 X24.842 Y77.526 E3.8580
G1 X25.041 Y34.598 E6.2995
G1 X25.042 Y34.398 F520
G1 X25.942 Y34.402 F2700
; inner perimeter
; outer perimeter
G1 X29.520 Y42.304 F7200
G92 E0
G1 X29.248 Y42.527 E0.0200 F520
G1 X29.031 Y42.789 E0.0394
G1 X28.862 Y43.099 E0.0594
G1 X28.758 Y43.436 E0.0795
G1 X28.723 Y43.765 E0.0983
G1 X28.634 Y62.936 E1.1887
G1 X28.665 Y63.265 E1.2075
G1 X28.767 Y63.603 E1.2275
G1 X28.932 Y63.914 E1.2476
G1 X29.147 Y64.179 E1.2670
G1 X29.430 Y64.412 E1.2878
G1 X29.728 Y64.572 E1.3071
G1 X30.066 Y64.677 E1.3272
G1 X30.418 Y64.713 E1.3473
G1 X30.747 Y64.683 E1.3661
G1 X31.111 Y64.575 E1.3877
G1 X31.410 Y64.416 E1.4069
G1 X31.681 Y64.196 E1.4268
G1 X31.905 Y63.927 E1.4467
G1 X32.072 Y63.620 E1.4666
G1 X32.177 Y63.286 E1.4865
G1 X32.213 Y62.949 E1.5058
G1 X32.302 Y43.792 E2.5953
G1 X32.271 Y43.456 E2.6146
G1 X32.171 Y43.121 E2.6344
G1 X32.008 Y42.811 E2.6543
G1 X31.789 Y42.540 E2.6742
G1 X31.513 Y42.311 E2.6946
G1 X31.216 Y42.149 E2.7138
G1 X30.852 Y42.038 E2.7354
G1 X30.524 Y42.005 E2.7542
G1 X30.171 Y42.037 E2.7744
G1 X29.832 Y42.139 E2.7945
G1 X29.697 Y42.211 E2.8032
G1 X29.520 Y42.304 F520
G1 X29.248 Y42.527 F2700
G1 X29.031 Y42.789 F2700
G1 X28.932 Y42.972 F2700
; inner perimeter
; outer perimeter
G1 X28.932 Y42.980 F7200
G1 X28.867 Y43.101 F7200
G1 X28.762 Y43.437 F7200
G1 X28.728 Y43.765 F7200
G1 X28.638 Y62.936 F7200
G1 X28.670 Y63.264 F7200
G1 X28.771 Y63.601 F7200
