; G-Code generated by Simplify3D(R) Version 3.1.0
; Mar 22, 2017 at 6:07:24 PM
; Settings Summary
;   processName,Process
;   applyToModels,quick release clamp 4.5.1 green,quick release clamp 4.5.1 green(2)
;   profileName,PETG 0.2 he.20 bt50
;   profileVersion,2017-03-15 14:01:12
;   baseProfile,Default (modified)
;   printMaterial,
;   printQuality,
;   printExtruders,
;   extruderName,Primary Extruder
;   extruderToolheadNumber,0
;   extruderDiameter,0.4
;   extruderAutoWidth,0
;   extruderWidth,0.48
;   extrusionMultiplier,0.9
;   extruderUseRetract,1
;   extruderRetractionDistance,1.4
;   extruderExtraRestartDistance,-0.1
;   extruderRetractionZLift,0.1
;   extruderRetractionSpeed,2700
;   extruderUseCoasting,1
;   extruderCoastingDistance,0.2
;   extruderUseWipe,1
;   extruderWipeDistance,0.2
;   primaryExtruder,0
;   layerHeight,0.2
;   topSolidLayers,4
;   bottomSolidLayers,2
;   perimeterOutlines,2
;   printPerimetersInsideOut,1
;   startPointOption,2
;   startPointOriginX,85
;   startPointOriginY,0
;   startPointOriginZ,5
;   sequentialIslands,0
;   spiralVaseMode,0
;   firstLayerHeightPercentage,150
;   firstLayerWidthPercentage,100
;   firstLayerUnderspeed,0.3
;   useRaft,0
;   raftExtruder,0
;   raftLayers,3
;   raftOffset,3
;   raftSeparationDistance,0.14
;   raftInfill,85
;   disableRaftBaseLayers,0
;   useSkirt,1
;   skirtExtruder,0
;   skirtLayers,1
;   skirtOutlines,3
;   skirtOffset,3
;   usePrimePillar,0
;   primePillarExtruder,999
;   primePillarWidth,12
;   primePillarLocation,7
;   primePillarSpeedMultiplier,1
;   useOozeShield,0
;   oozeShieldExtruder,999
;   oozeShieldOffset,2
;   oozeShieldOutlines,1
;   oozeShieldSidewallShape,1
;   oozeShieldSidewallAngle,30
;   oozeShieldSpeedMultiplier,1
;   infillExtruder,0
;   internalInfillPattern,Rectilinear
;   externalInfillPattern,Rectilinear
;   infillPercentage,22
;   outlineOverlapPercentage,30
;   infillExtrusionWidthPercentage,125
;   minInfillLength,5
;   infillLayerInterval,1
;   infillAngles,45,-45
;   overlapInfillAngles,0
;   generateSupport,0
;   supportExtruder,0
;   supportInfillPercentage,20
;   supportExtraInflation,0.5
;   denseSupportLayers,0
;   denseSupportInfillPercentage,70
;   supportLayerInterval,1
;   supportHorizontalPartOffset,0.8
;   supportUpperSeparationLayers,1
;   supportLowerSeparationLayers,1
;   supportType,0
;   supportGridSpacing,1.5
;   maxOverhangAngle,55
;   supportAngles,0
;   temperatureName,Primary Extruder,bed
;   temperatureNumber,0,0
;   temperatureSetpointCount,2,2
;   temperatureSetpointLayers,1,2,1,2
;   temperatureSetpointTemperatures,240,235,65,60
;   temperatureStabilizeAtStartup,1,1
;   temperatureHeatedBed,0,1
;   temperatureRelayBetweenLayers,0,0
;   temperatureRelayBetweenLoops,0,0
;   fanLayers,1,4
;   fanSpeeds,0,20
;   blipFanToFullPower,1
;   adjustSpeedForCooling,0
;   minSpeedLayerTime,15
;   minCoolingSpeedSlowdown,65
;   increaseFanForCooling,1
;   minFanLayerTime,15
;   maxCoolingFanSpeed,60
;   increaseFanForBridging,1
;   bridgingFanSpeed,100
;   use5D,1
;   relativeEdistances,0
;   allowEaxisZeroing,1
;   independentExtruderAxes,0
;   includeM10123,0
;   stickySupport,1
;   applyToolheadOffsets,0
;   gcodeXoffset,0
;   gcodeYoffset,0
;   gcodeZoffset,0
;   overrideMachineDefinition,1
;   machineTypeOverride,0
;   strokeXoverride,170
;   strokeYoverride,160
;   strokeZoverride,145
;   originOffsetXoverride,0
;   originOffsetYoverride,0
;   originOffsetZoverride,0
;   homeXdirOverride,-1
;   homeYdirOverride,-1
;   homeZdirOverride,-1
;   flipXoverride,1
;   flipYoverride,-1
;   flipZoverride,1
;   toolheadOffsets,0,0|0,0|0,0|0,0|0,0|0,0
;   overrideFirmwareConfiguration,1
;   firmwareTypeOverride,RepRap (Marlin/Repetier/Sprinter)
;   GPXconfigOverride,r2
;   baudRateOverride,250000
;   overridePrinterModels,0
;   printerModelsOverride
;   startingGcode,;---------------------------------------,; ; ; Jellybox Start Script Begin ; ; ;,;_______________________________________,; M92 E140            ;optionally adjust steps per mm for your filament,M117 Preparing        ;write Preparing,M206 X10.0 Y0.0       ;set x homing offset for default bed leveling,G21                   ;metric values,G90                   ;absolute positioning,M107                  ;start with the fan off,M82                   ;set extruder to absolute mode,G28                   ;home all axes,M203 Z4               ;slow Z speed down for greater accuracy when probing,G29                   ;auto bed leveling procedure,M203 Z7               ;pick up z speed again for printing,G92 E0                ;reset the extruder position,G1 F1500 E15          ;extrude 15mm of feed stock,G92 E0                ;reset the extruder position again,M117 Print starting   ;write Print starting,;---------------------------------------------,; ; ; Jellybox Printer Start Script End ; ; ;,;_____________________________________________
;   layerChangeGcode,
;   retractionGcode,
;   toolChangeGcode,
;   endingGcode,; ---------------------------------,; ; ;  Jellybox End Script Begin ; ; ;,; _________________________________,M117 Finishing Up  ; write Finishing Up,M104 S0            ; extruder heater off,M140 S0            ; bed heater off (if you have it),G91                ; relative positioning,G1 E-1 F300        ; retract the filament a bit before lifting the nozzle to release some of the pressure,G1 Z+0.5 E-5 X-20 Y-20 F9000 ; move Z up a bit and retract filament even more,G90                ; absolute positioning,G28 X              ; home x so the head is out of the way,G1 Y100            ; move Y forward so the print is more accessible,M84                ; steppers off,M117 Print finished ; write Print finished,; ---------------------------------------,; ; ;  Jellybox End Script End ; ; ;,; _______________________________________
;   exportFileFormat,gcode
;   celebration,0
;   celebrationSong,Random Song
;   postProcessing,|{REPLACE "; layer" "M117 Layer"} ,{REPLACE ", Z = " " | Z="}
;   defaultSpeed,2700
;   outlineUnderspeed,0.55
;   solidInfillUnderspeed,0.55
;   supportUnderspeed,0.9
;   rapidXYspeed,7800
;   rapidZspeed,420
;   minBridgingArea,50
;   bridgingExtraInflation,0.2
;   bridgingExtrusionMultiplier,0.8
;   bridgingSpeedMultiplier,1.3
;   filamentDiameter,1.75
;   filamentPricePerKg,30
;   filamentDensity,1.38
;   useMinPrintHeight,0
;   minPrintHeight,0
;   useMaxPrintHeight,0
;   maxPrintHeight,1
;   useDiaphragm,0
;   diaphragmLayerInterval,20
;   robustSlicing,1
;   mergeAllIntoSolid,0
;   onlyRetractWhenCrossingOutline,1
;   retractBetweenLayers,1
;   useRetractionMinTravel,1
;   retractionMinTravel,1
;   retractWhileWiping,1
;   onlyWipeOutlines,1
;   avoidCrossingOutline,1
;   maxMovementDetourFactor,2.5
;   toolChangeRetractionDistance,1.3
;   toolChangeExtraRestartDistance,0
;   toolChangeRetractionSpeed,600
;   allowThinWallGapFill,1
;   thinWallAllowedOverlapPercentage,15
;   horizontalSizeCompensation,0
G90
M82
M106 S0
M140 S65
M190 S65
M104 S240 T0
M109 S240 T0
;---------------------------------------
; ; ; Jellybox Start Script Begin ; ; ;
;_______________________________________
; M92 E140            ;optionally adjust steps per mm for your filament
M117 Preparing        ;write Preparing
M206 X10.0 Y0.0       ;set x homing offset for default bed leveling
G21                   ;metric values
G90                   ;absolute positioning
M107                  ;start with the fan off
M82                   ;set extruder to absolute mode
G28                   ;home all axes
M203 Z4               ;slow Z speed down for greater accuracy when probing
G29                   ;auto bed leveling procedure
M203 Z7               ;pick up z speed again for printing
G92 E0                ;reset the extruder position
G1 F1500 E15          ;extrude 15mm of feed stock
G92 E0                ;reset the extruder position again
M117 Print starting   ;write Print starting
;---------------------------------------------
; ; ; Jellybox Printer Start Script End ; ; ;
;_____________________________________________
G92 E0
G1 E-1.4000 F2700
G1 Z0.400 F420
M117 Layer 1, Z = 0.3
T0
; tool H0.300 W0.480
; skirt
G1 X68.028 Y55.666 F7800
G1 Z0.300 F420
G1 E-0.1000 F810
G92 E0
G1 X68.215 Y55.447 E0.0155 F810
G1 X69.588 Y54.459 E0.1067
G1 X69.753 Y54.375 E0.1167
G1 X70.814 Y54.028 E0.1768
G1 X70.996 Y53.998 E0.1867
G1 X99.663 Y53.761 E1.7314
G1 X99.857 Y53.791 E1.7420
G1 X100.984 Y54.162 E1.8059
G1 X101.158 Y54.254 E1.8165
G1 X102.498 Y55.263 E1.9069
G1 X102.675 Y55.475 E1.9218
G1 X103.430 Y56.972 E2.0121
G1 X103.495 Y57.241 E2.0270
G1 X103.660 Y77.177 E3.1012
G1 X103.600 Y77.446 E3.1161
G1 X102.870 Y78.956 E3.2065
G1 X102.696 Y79.171 E3.2213
G1 X101.707 Y79.942 E3.2889
G1 X102.498 Y80.538 E3.3423
G1 X102.675 Y80.750 E3.3572
G1 X103.430 Y82.247 E3.4475
G1 X103.495 Y82.515 E3.4624
G1 X103.660 Y102.451 E4.5366
G1 X103.600 Y102.721 E4.5515
G1 X102.870 Y104.231 E4.6419
G1 X102.696 Y104.445 E4.6568
G1 X101.373 Y105.477 E4.7472
G1 X101.200 Y105.571 E4.7577
G1 X100.080 Y105.961 E4.8216
G1 X99.887 Y105.994 E4.8322
G1 X71.220 Y106.232 E6.3769
G1 X71.037 Y106.205 E6.3869
G1 X69.971 Y105.876 E6.4470
G1 X69.804 Y105.795 E6.4570
G1 X68.415 Y104.830 E6.5481
G1 X68.224 Y104.614 E6.5636
G1 X67.407 Y103.068 E6.6579
G1 X67.337 Y102.789 E6.6734
G1 X67.171 Y82.780 E7.7515
G1 X67.237 Y82.500 E7.7670
G1 X68.028 Y80.940 E7.8612
G1 X68.215 Y80.721 E7.8768
G1 X69.138 Y80.057 E7.9380
G1 X68.415 Y79.555 E7.9855
G1 X68.224 Y79.339 E8.0010
G1 X67.407 Y77.793 E8.0952
G1 X67.337 Y77.514 E8.1107
G1 X67.171 Y57.506 E9.1888
G1 X67.237 Y57.225 E9.2044
G1 X67.937 Y55.844 E9.2878
G1 X68.028 Y55.666 F810
G1 X68.430 Y55.934 F7800
G92 E0
G1 X68.542 Y55.803 E0.0093 F810
G1 X69.839 Y54.870 E0.0954
G1 X69.938 Y54.820 E0.1014
G1 X70.928 Y54.496 E0.1575
G1 X71.037 Y54.478 E0.1635
G1 X99.628 Y54.241 E1.7040
G1 X99.744 Y54.259 E1.7104
G1 X100.796 Y54.606 E1.7700
G1 X100.900 Y54.661 E1.7764
G1 X102.165 Y55.613 E1.8617
G1 X102.272 Y55.740 E1.8706
G1 X102.976 Y57.139 E1.9550
G1 X103.015 Y57.300 E1.9640
G1 X103.180 Y77.125 E3.0322
G1 X103.143 Y77.287 E3.0412
G1 X102.462 Y78.697 E3.1255
G1 X102.358 Y78.826 E3.1345
G1 X101.109 Y79.799 E3.2198
G1 X101.005 Y79.856 E3.2261
G1 X100.851 Y79.909 E3.2349
G1 X100.900 Y79.935 E3.2380
G1 X102.165 Y80.888 E3.3233
G1 X102.272 Y81.015 E3.3322
G1 X102.976 Y82.414 E3.4166
G1 X103.015 Y82.575 E3.4255
G1 X103.180 Y102.400 E4.4938
G1 X103.143 Y102.562 E4.5027
G1 X102.462 Y103.972 E4.5871
G1 X102.358 Y104.101 E4.5960
G1 X101.109 Y105.074 E4.6813
G1 X101.005 Y105.130 E4.6877
G1 X99.959 Y105.495 E4.7474
G1 X99.843 Y105.515 E4.7537
G1 X71.253 Y105.752 E6.2943
G1 X71.143 Y105.736 E6.3003
G1 X70.148 Y105.428 E6.3564
G1 X70.048 Y105.380 E6.3624
G1 X68.736 Y104.468 E6.4484
G1 X68.621 Y104.339 E6.4577
G1 X67.858 Y102.894 E6.5458
G1 X67.816 Y102.727 E6.5551
G1 X67.651 Y82.834 E7.6270
G1 X67.691 Y82.666 E7.6363
G1 X68.430 Y81.209 E7.7243
G1 X68.542 Y81.077 E7.7336
G1 X69.839 Y80.145 E7.8197
G1 X69.938 Y80.094 E7.8257
G1 X70.002 Y80.073 E7.8293
G1 X68.736 Y79.193 E7.9124
G1 X68.621 Y79.064 E7.9217
G1 X67.858 Y77.620 E8.0097
G1 X67.816 Y77.452 E8.0190
G1 X67.651 Y57.559 E9.0909
G1 X67.691 Y57.391 E9.1002
G1 X68.339 Y56.112 E9.1775
G1 X68.430 Y55.934 F810
G1 X68.832 Y56.203 F7800
G92 E0
G1 X68.869 Y56.159 E0.0031 F810
G1 X70.089 Y55.281 E0.0841
G1 X70.122 Y55.264 E0.0861
G1 X71.042 Y54.964 E0.1382
G1 X71.078 Y54.958 E0.1402
G1 X99.592 Y54.721 E1.6766
G1 X99.631 Y54.727 E1.6788
G1 X100.608 Y55.050 E1.7342
G1 X100.643 Y55.068 E1.7363
G1 X101.832 Y55.963 E1.8165
G1 X101.868 Y56.006 E1.8195
G1 X102.523 Y57.305 E1.8979
G1 X102.536 Y57.359 E1.9009
G1 X102.699 Y77.074 E2.9632
G1 X102.687 Y77.128 E2.9662
G1 X102.054 Y78.438 E3.0446
G1 X102.019 Y78.481 E3.0476
G1 X100.845 Y79.397 E3.1278
G1 X100.810 Y79.415 E3.1299
G1 X99.839 Y79.754 E3.1854
G1 X99.800 Y79.760 E3.1875
G1 X71.286 Y79.997 E4.7239
G1 X71.249 Y79.991 E4.7259
G1 X70.324 Y79.706 E4.7780
G1 X70.291 Y79.690 E4.7800
G1 X69.057 Y78.832 E4.8610
G1 X69.019 Y78.789 E4.8641
G1 X68.310 Y77.446 E4.9459
G1 X68.296 Y77.391 E4.9490
G1 X68.132 Y57.613 E6.0147
G1 X68.145 Y57.557 E6.0178
G1 X68.741 Y56.381 E6.0889
G1 X68.832 Y56.203 F810
G1 X71.078 Y80.232 F7800
G92 E0
G1 X99.592 Y79.996 E1.5364 F810
G1 X99.631 Y80.002 E1.5386
G1 X100.608 Y80.324 E1.5940
G1 X100.643 Y80.343 E1.5961
G1 X101.832 Y81.238 E1.6763
G1 X101.868 Y81.280 E1.6793
G1 X102.523 Y82.580 E1.7577
G1 X102.536 Y82.634 E1.7607
G1 X102.699 Y102.349 E2.8230
G1 X102.687 Y102.403 E2.8260
G1 X102.054 Y103.713 E2.9044
G1 X102.019 Y103.756 E2.9074
G1 X100.845 Y104.671 E2.9876
G1 X100.810 Y104.690 E2.9897
G1 X99.839 Y105.028 E3.0451
G1 X99.800 Y105.035 E3.0473
G1 X71.286 Y105.271 E4.5837
G1 X71.249 Y105.266 E4.5857
G1 X70.324 Y104.981 E4.6378
G1 X70.291 Y104.964 E4.6398
G1 X69.057 Y104.107 E4.7208
G1 X69.019 Y104.064 E4.7239
G1 X68.310 Y102.721 E4.8057
G1 X68.296 Y102.665 E4.8088
G1 X68.132 Y82.888 E5.8745
G1 X68.145 Y82.831 E5.8776
G1 X68.832 Y81.477 E5.9594
G1 X68.869 Y81.433 E5.9626
G1 X70.089 Y80.556 E6.0435
G1 X70.122 Y80.539 E6.0455
G1 X70.887 Y80.289 E6.0889
G1 X71.042 Y80.238 F810
G1 X71.078 Y80.232 F810
; inner perimeter
G1 X72.103 Y84.184 F7800
G92 E0
G1 X98.587 Y83.965 E1.4271 F628
G1 X98.729 Y101.084 E2.3495
G1 X72.244 Y101.303 E3.7766
G1 X72.104 Y84.384 E4.6882
G1 X72.103 Y84.184 F628
; outer perimeter
G1 X71.667 Y83.708 F7800
G92 E0
G1 X99.026 Y83.481 E1.4742 F446
G1 X99.063 Y83.509 E1.4767
G1 X99.212 Y101.531 E2.4478
G1 X99.175 Y101.560 E2.4503
G1 X71.817 Y101.787 E3.9245
G1 X71.768 Y101.753 E3.9277
G1 X71.620 Y83.883 E4.8906
G1 X71.619 Y83.742 F446
G1 X71.667 Y83.708 F446
G1 X73.067 Y83.696 F2700
; inner perimeter
G1 X76.921 Y89.384 F7800
G92 E0
G1 X76.497 Y89.669 E0.0275 F628
G1 X76.115 Y90.009 E0.0551
G1 X75.783 Y90.395 E0.0825
G1 X75.534 Y90.775 E0.1070
G1 X75.288 Y91.279 E0.1372
G1 X75.145 Y91.711 E0.1617
G1 X75.048 Y92.210 E0.1891
G1 X75.018 Y92.720 E0.2167
G1 X75.056 Y93.230 E0.2442
G1 X75.162 Y93.727 E0.2716
G1 X75.311 Y94.152 E0.2959
G1 X75.535 Y94.607 E0.3232
G1 X75.820 Y95.031 E0.3507
G1 X76.159 Y95.413 E0.3782
G1 X76.547 Y95.746 E0.4058
G1 X76.976 Y96.024 E0.4333
G1 X77.434 Y96.241 E0.4606
G1 X77.862 Y96.382 E0.4849
G1 X78.361 Y96.480 E0.5123
G1 X78.847 Y96.508 E0.5385
G1 X93.336 Y96.388 E1.3192
G1 X93.819 Y96.352 E1.3454
G1 X94.264 Y96.260 E1.3698
G1 X94.795 Y96.076 E1.4001
G1 X95.201 Y95.872 E1.4246
G1 X95.622 Y95.588 E1.4520
G1 X96.004 Y95.249 E1.4795
G1 X96.336 Y94.862 E1.5069
G1 X96.586 Y94.483 E1.5314
G1 X96.831 Y93.978 E1.5617
G1 X96.974 Y93.546 E1.5862
G1 X97.071 Y93.047 E1.6135
G1 X97.101 Y92.537 E1.6411
G1 X97.063 Y92.028 E1.6686
G1 X96.957 Y91.531 E1.6960
G1 X96.807 Y91.101 E1.7205
G1 X96.553 Y90.600 E1.7508
G1 X96.298 Y90.225 E1.7752
G1 X95.960 Y89.844 E1.8027
G1 X95.573 Y89.512 E1.8301
G1 X95.194 Y89.263 E1.8546
G1 X94.689 Y89.018 E1.8848
G1 X94.257 Y88.875 E1.9093
G1 X93.758 Y88.778 E1.9367
G1 X93.272 Y88.749 E1.9629
G1 X78.783 Y88.869 E2.7436
G1 X78.298 Y88.906 E2.7699
G1 X77.801 Y89.011 E2.7973
G1 X77.375 Y89.160 E2.8216
G1 X77.100 Y89.295 E2.8381
G1 X76.921 Y89.384 F628
; outer perimeter
G1 X77.162 Y89.800 F7800
G92 E0
G1 X76.791 Y90.049 E0.0241 F446
G1 X76.458 Y90.346 E0.0481
G1 X76.167 Y90.684 E0.0721
G1 X75.952 Y91.012 E0.0933
G1 X75.734 Y91.460 E0.1201
G1 X75.611 Y91.833 E0.1413
G1 X75.525 Y92.270 E0.1653
G1 X75.499 Y92.716 E0.1894
G1 X75.533 Y93.161 E0.2134
G1 X75.625 Y93.597 E0.2374
G1 X75.754 Y93.967 E0.2585
G1 X75.951 Y94.366 E0.2825
G1 X76.200 Y94.736 E0.3065
G1 X76.497 Y95.070 E0.3306
G1 X76.835 Y95.361 E0.3547
G1 X77.210 Y95.604 E0.3787
G1 X77.612 Y95.794 E0.4027
G1 X77.984 Y95.917 E0.4238
G1 X78.421 Y96.002 E0.4478
G1 X78.859 Y96.028 E0.4714
G1 X93.316 Y95.908 E1.2504
G1 X93.752 Y95.876 E1.2740
G1 X94.136 Y95.796 E1.2951
G1 X94.607 Y95.633 E1.3220
G1 X94.958 Y95.457 E1.3431
G1 X95.328 Y95.208 E1.3671
G1 X95.661 Y94.911 E1.3912
G1 X95.952 Y94.573 E1.4152
G1 X96.167 Y94.245 E1.4364
G1 X96.385 Y93.797 E1.4632
G1 X96.508 Y93.424 E1.4844
G1 X96.594 Y92.987 E1.5084
G1 X96.620 Y92.541 E1.5324
