; G-Code generated by Simplify3D(R) Version 3.1.0
; Mar 22, 2017 at 6:04:58 PM
; Settings Summary
;   processName,Process1
;   applyToModels,zx coupler 1.5 green(2)
;   profileName,PETG 0.3 he.20 bt50 (modified)
;   profileVersion,2017-02-27 23:31:17
;   baseProfile,Default (modified)
;   printMaterial,
;   printQuality,
;   printExtruders,
;   extruderName,Primary Extruder
;   extruderToolheadNumber,0
;   extruderDiameter,0.4
;   extruderAutoWidth,0
;   extruderWidth,0.48
;   extrusionMultiplier,0.95
;   extruderUseRetract,1
;   extruderRetractionDistance,1.4
;   extruderExtraRestartDistance,-0.1
;   extruderRetractionZLift,0.1
;   extruderRetractionSpeed,4200
;   extruderUseCoasting,1
;   extruderCoastingDistance,0.2
;   extruderUseWipe,1
;   extruderWipeDistance,0.2
;   primaryExtruder,0
;   layerHeight,0.3
;   topSolidLayers,3
;   bottomSolidLayers,2
;   perimeterOutlines,2
;   printPerimetersInsideOut,1
;   startPointOption,2
;   startPointOriginX,80
;   startPointOriginY,0
;   startPointOriginZ,5
;   sequentialIslands,0
;   spiralVaseMode,0
;   firstLayerHeightPercentage,100
;   firstLayerWidthPercentage,100
;   firstLayerUnderspeed,0.35
;   useRaft,0
;   raftExtruder,0
;   raftLayers,3
;   raftOffset,3
;   raftSeparationDistance,0.14
;   raftInfill,85
;   disableRaftBaseLayers,0
;   useSkirt,1
;   skirtExtruder,0
;   skirtLayers,1
;   skirtOutlines,3
;   skirtOffset,3
;   usePrimePillar,0
;   primePillarExtruder,999
;   primePillarWidth,12
;   primePillarLocation,7
;   primePillarSpeedMultiplier,1
;   useOozeShield,0
;   oozeShieldExtruder,999
;   oozeShieldOffset,2
;   oozeShieldOutlines,1
;   oozeShieldSidewallShape,1
;   oozeShieldSidewallAngle,30
;   oozeShieldSpeedMultiplier,1
;   infillExtruder,0
;   internalInfillPattern,Rectilinear
;   externalInfillPattern,Rectilinear
;   infillPercentage,22
;   outlineOverlapPercentage,30
;   infillExtrusionWidthPercentage,150
;   minInfillLength,2
;   infillLayerInterval,1
;   infillAngles,45,-45
;   overlapInfillAngles,0
;   generateSupport,0
;   supportExtruder,0
;   supportInfillPercentage,33
;   supportExtraInflation,0.5
;   denseSupportLayers,0
;   denseSupportInfillPercentage,70
;   supportLayerInterval,1
;   supportHorizontalPartOffset,0.8
;   supportUpperSeparationLayers,1
;   supportLowerSeparationLayers,1
;   supportType,0
;   supportGridSpacing,1.5
;   maxOverhangAngle,55
;   supportAngles,90
;   temperatureName,Primary Extruder,bed
;   temperatureNumber,0,0
;   temperatureSetpointCount,2,2
;   temperatureSetpointLayers,1,2,1,2
;   temperatureSetpointTemperatures,240,235,65,60
;   temperatureStabilizeAtStartup,1,1
;   temperatureHeatedBed,0,1
;   temperatureRelayBetweenLayers,0,0
;   temperatureRelayBetweenLoops,0,0
;   fanLayers,1,4
;   fanSpeeds,0,20
;   blipFanToFullPower,1
;   adjustSpeedForCooling,0
;   minSpeedLayerTime,15
;   minCoolingSpeedSlowdown,65
;   increaseFanForCooling,1
;   minFanLayerTime,15
;   maxCoolingFanSpeed,60
;   increaseFanForBridging,1
;   bridgingFanSpeed,100
;   use5D,1
;   relativeEdistances,0
;   allowEaxisZeroing,1
;   independentExtruderAxes,0
;   includeM10123,0
;   stickySupport,1
;   applyToolheadOffsets,0
;   gcodeXoffset,0
;   gcodeYoffset,0
;   gcodeZoffset,0
;   overrideMachineDefinition,1
;   machineTypeOverride,0
;   strokeXoverride,170
;   strokeYoverride,160
;   strokeZoverride,145
;   originOffsetXoverride,0
;   originOffsetYoverride,0
;   originOffsetZoverride,0
;   homeXdirOverride,-1
;   homeYdirOverride,-1
;   homeZdirOverride,-1
;   flipXoverride,1
;   flipYoverride,-1
;   flipZoverride,1
;   toolheadOffsets,0,0|0,0|0,0|0,0|0,0|0,0
;   overrideFirmwareConfiguration,1
;   firmwareTypeOverride,RepRap (Marlin/Repetier/Sprinter)
;   GPXconfigOverride,r2
;   baudRateOverride,250000
;   overridePrinterModels,0
;   printerModelsOverride
;   startingGcode,;---------------------------------------,; ; ; Jellybox Start Script Begin ; ; ;,;_______________________________________,M117 Preparing        ; write Preparing,; M92 E140            ; optionally adjust E steps/mm,M207 S1.5 F600 Z0     ; optionally adjust retract settings,M208 S-0.00 F600      ; optionally adjust unretract = recover settings,M206 X10.0 Y0.0       ; set x homing offset for default bed leveling,G21                   ; metric values,G90                   ; absolute positioning,M107                  ; start with the fan off,M82                   ; set extruder to absolute mode,G28                   ; home all axes,M203 Z4               ; slow Z speed down for greater accuracy when probing,G29                   ; auto bed leveling procedure,M203 Z7               ; pick up z speed again for printing,G92 E0                ; reset the extruder position,G1 F1500 E15          ; extrude 15mm of feed stock,G92 E0                ; reset the extruder position again,M117 Print starting   ; write Print starting,;---------------------------------------------,; ; ; Jellybox Printer Start Script End ; ; ;,;_____________________________________________
;   layerChangeGcode,
;   retractionGcode,
;   toolChangeGcode,
;   endingGcode,; ---------------------------------,; ; ;  Jellybox End Script Begin ; ; ;,; _________________________________,M117 Finishing Up ; write Finishing Up,M107                  ; sfan off,M104 S0            ; extruder heater off,M140 S0            ; bed heater off (if you have it),G91                ; relative positioning,G1 E-1 F300        ; retract the filament a bit before lifting the nozzle to release some of the pressure,G1 Z+0.5 E-5 X-20 Y-20 F9000 ; move Z up a bit and retract filament even more,G90                ; absolute positioning,G28 X              ; home x so the head is out of the way,G1 Y100            ; move Y forward so the print is more accessible,M84                ; steppers off,M117 Print finished ; write Print finisheds,; ---------------------------------------,; ; ;  Jellybox End Script End ; ; ;,; _______________________________________
;   exportFileFormat,gcode
;   celebration,0
;   celebrationSong,Random Song
;   postProcessing,|{REPLACE "; layer" "M117 Layer"},|{REPLACE ", Z = " " "Z="}
;   defaultSpeed,2700
;   outlineUnderspeed,0.55
;   solidInfillUnderspeed,0.55
;   supportUnderspeed,0.9
;   rapidXYspeed,7200
;   rapidZspeed,420
;   minBridgingArea,50
;   bridgingExtraInflation,0.3
;   bridgingExtrusionMultiplier,1
;   bridgingSpeedMultiplier,1
;   filamentDiameter,1.75
;   filamentPricePerKg,30
;   filamentDensity,1.38
;   useMinPrintHeight,0
;   minPrintHeight,30
;   useMaxPrintHeight,0
;   maxPrintHeight,40
;   useDiaphragm,0
;   diaphragmLayerInterval,20
;   robustSlicing,1
;   mergeAllIntoSolid,0
;   onlyRetractWhenCrossingOutline,1
;   retractBetweenLayers,1
;   useRetractionMinTravel,1
;   retractionMinTravel,1
;   retractWhileWiping,1
;   onlyWipeOutlines,1
;   avoidCrossingOutline,1
;   maxMovementDetourFactor,2.5
;   toolChangeRetractionDistance,1.3
;   toolChangeExtraRestartDistance,0
;   toolChangeRetractionSpeed,600
;   allowThinWallGapFill,1
;   thinWallAllowedOverlapPercentage,15
;   horizontalSizeCompensation,0
G90
M82
M106 S0
M140 S65
M190 S65
M104 S240 T0
M109 S240 T0
;---------------------------------------
; ; ; Jellybox Start Script Begin ; ; ;
;_______________________________________
M117 Preparing        ; write Preparing
; M92 E140            ; optionally adjust E steps/mm
M207 S1.5 F600 Z0     ; optionally adjust retract settings
M208 S-0.00 F600      ; optionally adjust unretract = recover settings
M206 X10.0 Y0.0       ; set x homing offset for default bed leveling
G21                   ; metric values
G90                   ; absolute positioning
M107                  ; start with the fan off
M82                   ; set extruder to absolute mode
G28                   ; home all axes
M203 Z4               ; slow Z speed down for greater accuracy when probing
G29                   ; auto bed leveling procedure
M203 Z7               ; pick up z speed again for printing
G92 E0                ; reset the extruder position
G1 F1500 E15          ; extrude 15mm of feed stock
G92 E0                ; reset the extruder position again
M117 Print starting   ; write Print starting
;---------------------------------------------
; ; ; Jellybox Printer Start Script End ; ; ;
;_____________________________________________
G92 E0
G1 E-1.4000 F4200
G1 Z0.400 F420
M117 Layer 1 0.3
T0
; tool H0.300 W0.480
; skirt
G1 X69.425 Y79.904 F7200
G1 Z0.300 F420
G1 E-0.1000 F1260
G92 E0
G1 X70.657 Y79.047 E0.0854 F945
G1 X70.886 Y78.950 E0.0995
G1 X72.021 Y78.725 E0.1653
G1 X72.080 Y78.717 E0.1687
G1 X72.430 Y78.682 E0.1887
G1 X72.489 Y78.679 E0.1921
G1 X97.420 Y78.679 E1.6100
G1 X97.479 Y78.682 E1.6134
G1 X97.831 Y78.717 E1.6335
G1 X97.889 Y78.726 E1.6368
G1 X99.031 Y78.952 E1.7030
G1 X99.260 Y79.051 E1.7172
G1 X100.500 Y79.920 E1.8033
G1 X100.671 Y80.102 E1.8176
G1 X101.373 Y81.263 E1.8947
G1 X101.388 Y81.290 E1.8965
G1 X101.475 Y81.451 E1.9069
G1 X101.489 Y81.478 E1.9086
G1 X101.807 Y82.150 E1.9509
G1 X101.821 Y82.181 E1.9528
G1 X101.897 Y82.370 E1.9644
G1 X101.909 Y82.401 E1.9663
G1 X102.338 Y83.657 E2.0418
G1 X102.350 Y83.694 E2.0440
G1 X102.411 Y83.922 E2.0574
G1 X102.420 Y83.960 E2.0596
G1 X102.718 Y85.438 E2.1454
G1 X102.723 Y85.467 E2.1471
G1 X102.749 Y85.637 E2.1569
G1 X102.752 Y85.666 E2.1585
G1 X102.868 Y86.788 E2.2227
G1 X102.870 Y86.811 E2.2240
G1 X102.879 Y86.944 E2.2316
G1 X102.880 Y86.966 E2.2328
G1 X102.919 Y88.350 E2.3116
G1 X102.920 Y88.369 E2.3126
G1 X102.919 Y88.478 E2.3189
G1 X102.919 Y88.496 E2.3199
G1 X102.887 Y89.474 E2.3755
G1 X102.887 Y89.490 E2.3765
G1 X102.881 Y89.592 E2.3822
G1 X102.879 Y89.609 E2.3832
G1 X102.793 Y90.580 E2.4387
G1 X102.791 Y90.597 E2.4396
G1 X102.779 Y90.699 E2.4455
G1 X102.777 Y90.716 E2.4465
G1 X102.480 Y92.739 E2.5627
G1 X102.477 Y92.757 E2.5638
G1 X102.457 Y92.867 E2.5701
G1 X102.454 Y92.885 E2.5712
G1 X102.184 Y94.166 E2.6456
G1 X102.180 Y94.181 E2.6465
G1 X102.157 Y94.277 E2.6521
G1 X102.153 Y94.293 E2.6530
G1 X101.749 Y95.798 E2.7417
G1 X101.743 Y95.820 E2.7430
G1 X101.703 Y95.949 E2.7507
G1 X101.696 Y95.970 E2.7519
G1 X101.158 Y97.505 E2.8444
G1 X101.150 Y97.526 E2.8457
G1 X101.101 Y97.652 E2.8534
G1 X101.092 Y97.673 E2.8547
G1 X100.618 Y98.756 E2.9219
G1 X100.611 Y98.771 E2.9229
G1 X100.567 Y98.865 E2.9288
G1 X100.559 Y98.880 E2.9297
G1 X100.169 Y99.650 E2.9788
G1 X100.160 Y99.667 E2.9799
G1 X100.103 Y99.770 E2.9866
G1 X100.093 Y99.787 E2.9878
G1 X99.524 Y100.747 E3.0512
G1 X99.510 Y100.770 E3.0527
G1 X99.424 Y100.902 E3.0617
G1 X99.409 Y100.923 E3.0632
G1 X98.520 Y102.160 E3.1498
G1 X98.502 Y102.185 E3.1516
G1 X98.387 Y102.329 E3.1620
G1 X98.367 Y102.352 E3.1638
G1 X97.561 Y103.262 E3.2329
G1 X97.540 Y103.285 E3.2347
G1 X97.406 Y103.421 E3.2456
G1 X97.383 Y103.443 E3.2474
G1 X96.319 Y104.414 E3.3293
G1 X96.297 Y104.434 E3.3310
G1 X96.160 Y104.547 E3.3411
G1 X96.137 Y104.565 E3.3428
G1 X95.255 Y105.223 E3.4054
G1 X95.234 Y105.238 E3.4068
G1 X95.111 Y105.322 E3.4153
G1 X95.090 Y105.336 E3.4167
G1 X94.072 Y105.972 E3.4850
G1 X94.046 Y105.987 E3.4867
G1 X93.888 Y106.075 E3.4970
G1 X93.861 Y106.089 E3.4987
G1 X92.383 Y106.818 E3.5924
G1 X92.359 Y106.829 E3.5939
G1 X92.216 Y106.891 E3.6028
G1 X92.192 Y106.901 E3.6043
G1 X91.282 Y107.256 E3.6598
G1 X91.263 Y107.263 E3.6609
G1 X91.153 Y107.302 E3.6676
G1 X91.134 Y107.308 E3.6687
G1 X90.125 Y107.627 E3.7289
G1 X90.108 Y107.632 E3.7300
G1 X90.004 Y107.661 E3.7361
G1 X89.986 Y107.666 E3.7371
G1 X89.089 Y107.891 E3.7897
G1 X89.070 Y107.896 E3.7909
G1 X88.951 Y107.921 E3.7978
G1 X88.931 Y107.925 E3.7989
G1 X87.679 Y108.151 E3.8713
G1 X87.653 Y108.156 E3.8728
G1 X87.496 Y108.177 E3.8818
G1 X87.470 Y108.180 E3.8833
G1 X85.850 Y108.327 E3.9758
G1 X85.824 Y108.329 E3.9773
G1 X85.670 Y108.337 E3.9860
G1 X85.645 Y108.337 E3.9875
G1 X84.460 Y108.344 E4.0549
G1 X84.433 Y108.343 E4.0564
G1 X84.270 Y108.337 E4.0657
G1 X84.243 Y108.335 E4.0672
G1 X82.467 Y108.184 E4.1686
G1 X82.435 Y108.181 E4.1704
G1 X82.244 Y108.154 E4.1814
G1 X82.212 Y108.149 E4.1832
G1 X80.521 Y107.820 E4.2813
G1 X80.498 Y107.815 E4.2825
G1 X80.365 Y107.784 E4.2903
G1 X80.343 Y107.778 E4.2916
G1 X79.640 Y107.585 E4.3331
G1 X79.624 Y107.581 E4.3340
G1 X79.529 Y107.552 E4.3397
G1 X79.513 Y107.547 E4.3406
G1 X78.442 Y107.188 E4.4049
G1 X78.423 Y107.181 E4.4060
G1 X78.309 Y107.138 E4.4130
G1 X78.290 Y107.131 E4.4141
G1 X77.415 Y106.770 E4.4679
G1 X77.398 Y106.763 E4.4690
G1 X77.296 Y106.717 E4.4753
G1 X77.279 Y106.709 E4.4764
G1 X76.435 Y106.298 E4.5298
G1 X76.418 Y106.289 E4.5309
G1 X76.316 Y106.235 E4.5375
G1 X76.299 Y106.226 E4.5386
G1 X75.484 Y105.762 E4.5919
G1 X75.467 Y105.752 E4.5930
G1 X75.365 Y105.690 E4.5998
G1 X75.348 Y105.679 E4.6010
G1 X74.567 Y105.162 E4.6542
G1 X74.549 Y105.150 E4.6554
G1 X74.447 Y105.077 E4.6626
G1 X74.430 Y105.065 E4.6638
G1 X73.676 Y104.487 E4.7178
G1 X73.658 Y104.473 E4.7191
G1 X73.555 Y104.387 E4.7267
G1 X73.538 Y104.373 E4.7280
G1 X72.823 Y103.735 E4.7825
G1 X72.806 Y103.719 E4.7838
G1 X72.708 Y103.624 E4.7916
G1 X72.691 Y103.608 E4.7929
G1 X72.023 Y102.913 E4.8477
G1 X72.008 Y102.897 E4.8490
G1 X71.922 Y102.801 E4.8563
G1 X71.908 Y102.785 E4.8575
G1 X71.422 Y102.201 E4.9008
G1 X71.409 Y102.185 E4.9019
G1 X71.335 Y102.090 E4.9087
G1 X71.323 Y102.074 E4.9099
G1 X70.570 Y101.035 E4.9829
G1 X70.555 Y101.014 E4.9843
G1 X70.471 Y100.887 E4.9930
G1 X70.457 Y100.865 E4.9945
G1 X69.911 Y99.960 E5.0546
G1 X69.901 Y99.943 E5.0557
G1 X69.843 Y99.840 E5.0625
G1 X69.834 Y99.822 E5.0636
G1 X69.371 Y98.926 E5.1210
G1 X69.363 Y98.910 E5.1220
G1 X69.317 Y98.815 E5.1279
G1 X69.310 Y98.799 E5.1289
G1 X68.909 Y97.898 E5.1850
G1 X68.901 Y97.879 E5.1862
G1 X68.854 Y97.764 E5.1933
G1 X68.846 Y97.744 E5.1945
G1 X68.298 Y96.239 E5.2856
G1 X68.292 Y96.221 E5.2867
G1 X68.256 Y96.112 E5.2932
G1 X68.250 Y96.093 E5.2943
G1 X67.957 Y95.094 E5.3536
G1 X67.953 Y95.078 E5.3545
G1 X67.928 Y94.987 E5.3599
G1 X67.924 Y94.971 E5.3608
G1 X67.577 Y93.505 E5.4465
G1 X67.573 Y93.485 E5.4476
G1 X67.548 Y93.364 E5.4547
G1 X67.544 Y93.343 E5.4559
G1 X67.190 Y91.199 E5.5795
G1 X67.187 Y91.181 E5.5805
G1 X67.172 Y91.071 E5.5868
G1 X67.170 Y91.052 E5.5879
G1 X67.041 Y89.786 E5.6603
G1 X67.039 Y89.766 E5.6615
G1 X67.031 Y89.647 E5.6682
G1 X67.030 Y89.627 E5.6694
G1 X66.991 Y88.554 E5.7304
G1 X66.991 Y88.535 E5.7315
G1 X66.991 Y88.419 E5.7381
G1 X66.991 Y88.399 E5.7392
G1 X67.034 Y86.899 E5.8246
G1 X67.035 Y86.876 E5.8259
G1 X67.045 Y86.734 E5.8340
G1 X67.047 Y86.711 E5.8353
G1 X67.169 Y85.577 E5.9002
G1 X67.172 Y85.558 E5.9013
G1 X67.188 Y85.442 E5.9080
G1 X67.191 Y85.422 E5.9091
G1 X67.317 Y84.700 E5.9508
G1 X67.323 Y84.674 E5.9523
G1 X67.357 Y84.516 E5.9615
G1 X67.364 Y84.489 E5.9630
G1 X67.716 Y83.180 E6.0401
G1 X67.725 Y83.150 E6.0419
G1 X67.784 Y82.969 E6.0528
G1 X67.795 Y82.939 E6.0546
G1 X68.068 Y82.231 E6.0978
G1 X68.078 Y82.207 E6.0992
G1 X68.138 Y82.068 E6.1078
G1 X68.149 Y82.045 E6.1093
G1 X68.478 Y81.370 E6.1520
G1 X68.491 Y81.344 E6.1537
G1 X68.577 Y81.188 E6.1638
G1 X68.591 Y81.162 E6.1654
G1 X69.254 Y80.085 E6.2374
G1 X69.287 Y80.050 E6.2401
G1 X69.425 Y79.904 F945
G1 X69.739 Y80.270 F7200
G92 E0
G1 X70.891 Y79.470 E0.0797 F945
G1 X71.028 Y79.412 E0.0882
G1 X72.103 Y79.198 E0.1506
G1 X72.138 Y79.193 E0.1526
G1 X72.466 Y79.161 E0.1713
G1 X72.501 Y79.159 E0.1733
G1 X97.408 Y79.159 E1.5899
G1 X97.444 Y79.161 E1.5919
G1 X97.772 Y79.193 E1.6107
G1 X97.807 Y79.199 E1.6127
G1 X98.888 Y79.414 E1.6754
G1 X99.026 Y79.472 E1.6839
G1 X100.183 Y80.284 E1.7643
G1 X100.286 Y80.394 E1.7728
G1 X100.959 Y81.506 E1.8468
G1 X100.968 Y81.522 E1.8479
G1 X101.049 Y81.673 E1.8576
G1 X101.058 Y81.689 E1.8586
G1 X101.370 Y82.349 E1.9002
G1 X101.379 Y82.368 E1.9013
G1 X101.450 Y82.544 E1.9121
G1 X101.457 Y82.563 E1.9133
G1 X101.882 Y83.805 E1.9879
G1 X101.888 Y83.827 E1.9893
G1 X101.946 Y84.039 E2.0018
G1 X101.951 Y84.062 E2.0031
G1 X102.246 Y85.527 E2.0881
G1 X102.249 Y85.544 E2.0891
G1 X102.273 Y85.703 E2.0982
G1 X102.275 Y85.721 E2.0992
G1 X102.390 Y86.833 E2.1628
G1 X102.391 Y86.847 E2.1636
G1 X102.399 Y86.971 E2.1707
G1 X102.400 Y86.984 E2.1714
