;FLAVOR:Marlin
;TIME:5315
;Filament used: 4.49995m
;Layer height: 0.2
;Generated with Cura_SteamEngine 3.5.1
M82 ;absolute extrusion mode
;---------------------------------------
; ; ; Jellybox Start Script Begin ; ; ;
;_______________________________________
; for slicer: CURA 3
; start gcode last modified Mar 15, 2019

;              Print Settings Summary
; (leave these alone: this is only a list of the slicing settings)
; (overwriting these values will NOT change your printer's behavior)
;             sliced for :  IMADE3D JellyBOX 2
;        nozzle diameter :  0.4
;      filament diameter :  1.75
;           layer height :  0.2
;       1st layer height :  0.3
;             line width :  0.4
;  outer wall wipe dist. :  0.5
;      infill line width :  0.6
;         wall thickness :  0.8
;          top thickness :  0.8
;       bottom thickness :  0.8
;         infill density :  70
;         infill pattern :  cubic
;      print temperature :  230
;  1st layer print temp. :  235
; heated bed temperature :  65
;    1st layer bed temp. :  70
;      regular fan speed :  30
;          max fan speed :  50
;     retraction amount  :  1.7
;   retr. retract speed  :  40
;     retr. prime speed  :  10
;   build plate adhesion :  skirt
;                support ?  True
;             spiralized ?  False

G21               ;metric values
G90               ;absolute positioning
M82               ;set extruder to absolute mode
M107              ;start with the fan off
M117 Preparing    ;write Preparing
M190 S45          ;wait for the bed to reach 45C
M109 S180         ;wait for the extruder to reach 180C
G28               ;home all axes
G29 O             ;auto bed leveling procedure only if leveling NOT active
;M500              ;optionally save the mesh
G28 X             ;home x to get as far from the plate as possible
M420 S1           ;(re) enable bed leveling if turned off by the G28
G0 Y0 F5000       ;position Y in front
G0 Z15 F3000      ;position Z
M190 S70              ;wait for the bed to reach desired temperature
M109 S235             ;wait for the extruder to reach desired temperatureM300 S440 P300    ;play a tone
G4 P200           ;pause
;M0 Click to start print
M117 Print starting   ;write Print starting
;================ ;PRINT:LINE start
G90               ;absolute positioning
M83               ;relative extrusion mode
G0 Z0             ;get Z down
G1 E18 F500       ;extrude __mm of feed stock
G1 E16 F400       ;extrude __mm of feed stock
G1 E8 F400       ;extrude __mm of feed stock
G4 S2             ;pause for ooze
M400              ;make sure all is finished
G0 F500 X3 Y0 Z0.6;get to the start of the LINE
G1 E2 F300        ;extrude __mm of feed stock
G1 F1000 X104 E10 ;print a thick LINE extruding __mm along the way
M82               ;absolute extrusion mode (many slicers have absolute as default)
G92 E0            ;reset the extruder position
;---------------------------------------------
; ; ; Jellybox Printer Start Script End ; ; ;
;_____________________________________________
M83 ;relative extrusion mode
G1 F2400 E-1.7
;LAYER_COUNT:117
;LAYER:0
M107
G0 F3600 X51.246 Y22.487 Z0.3
;TYPE:SKIRT
G1 F600 E1.7
G1 F1200 X51.516 Y21.902 E0.03054
G1 X51.857 Y21.355 E0.03055
G1 X52.262 Y20.853 E0.03057
G1 X52.727 Y20.406 E0.03057
G1 X53.243 Y20.02 E0.03054
G1 X53.803 Y19.701 E0.03055
G1 X54.398 Y19.453 E0.03055
G1 X55.02 Y19.281 E0.03059
G1 X55.657 Y19.187 E0.03052
G1 X56.064 Y19.169 E0.01931
G1 X57.624 Y19.16 E0.07394
G1 X58.031 Y19.174 E0.0193
G1 X65.861 Y19.743 E0.37209
G1 X71.244 Y19.816 E0.25515
G1 X76.602 Y19.587 E0.25418
G1 X81.118 Y19.17 E0.21495
G1 X81.595 Y19.148 E0.02263
G1 X85.648 Y19.147 E0.19209
G1 X86.291 Y19.187 E0.03053
G1 X87.17 Y19.374 E0.04259
G1 X92.637 Y21.046 E0.27096
G1 X97.924 Y22.337 E0.25794
G1 X100.426 Y22.834 E0.1209
G1 X105.776 Y23.668 E0.25663
G1 X111.158 Y24.196 E0.25631
G1 X113.509 Y24.332 E0.11161
G1 X114.149 Y24.409 E0.03055
G1 X114.775 Y24.564 E0.03057
G1 X115.377 Y24.796 E0.03058
G1 X115.945 Y25.1 E0.03053
G1 X116.471 Y25.473 E0.03056
G1 X116.769 Y25.732 E0.01871
G1 X119.265 Y28.076 E0.16229
G1 X123.344 Y31.662 E0.25741
G1 X127.568 Y34.974 E0.2544
G1 X131.968 Y38.037 E0.2541
G1 X136.534 Y40.847 E0.25411
G1 X141.252 Y43.393 E0.25409
G1 X146.147 Y45.69 E0.25628
G1 X148.512 Y46.68 E0.12152
G1 X153.615 Y48.564 E0.25782
G1 X158.505 Y50.071 E0.24252
G1 X159.108 Y50.298 E0.03054
G1 X159.678 Y50.599 E0.03055
G1 X160.207 Y50.968 E0.03057
G1 X160.686 Y51.399 E0.03054
G1 X161.108 Y51.887 E0.03058
G1 X161.466 Y52.422 E0.03051
G1 X161.755 Y52.998 E0.03054
G1 X161.971 Y53.606 E0.03058
G1 X162.11 Y54.235 E0.03053
G1 X162.173 Y55.054 E0.03893
G1 X162.156 Y61.288 E0.29547
G1 X162.114 Y61.931 E0.03054
G1 X161.993 Y62.565 E0.03059
G1 X161.795 Y63.178 E0.03053
G1 X161.522 Y63.762 E0.03055
G1 X161.179 Y64.308 E0.03056
G1 X160.771 Y64.807 E0.03055
G1 X160.305 Y65.252 E0.03054
G1 X159.787 Y65.636 E0.03056
G1 X159.255 Y65.938 E0.02899
G1 X154.98 Y68.045 E0.22589
G1 X150.293 Y70.657 E0.25431
G1 X145.753 Y73.535 E0.25477
G1 X141.409 Y76.647 E0.25327
G1 X137.215 Y80.024 E0.25521
G1 X133.213 Y83.639 E0.2556
G1 X131.366 Y85.454 E0.12273
G1 X127.678 Y89.404 E0.25613
G1 X124.22 Y93.552 E0.25595
G1 X121.708 Y96.884 E0.19777
G1 X121.289 Y97.374 E0.03056
G1 X120.812 Y97.808 E0.03057
G1 X120.358 Y98.135 E0.02652
G1 X116.946 Y100.317 E0.19195
G1 X116.382 Y100.63 E0.03057
G1 X115.784 Y100.871 E0.03056
G1 X115.307 Y101.004 E0.02347
G1 X111.634 Y101.846 E0.1786
G1 X106.434 Y103.295 E0.25585
G1 X101.334 Y105.032 E0.25535
G1 X98.904 Y105.977 E0.12357
G1 X96.417 Y107.023 E0.12787
G1 X89.857 Y110.11 E0.34362
G1 X89.258 Y110.348 E0.03055
G1 X88.922 Y110.445 E0.01658
G1 X87.16 Y110.892 E0.08616
G1 X86.526 Y111.012 E0.03058
G1 X86.12 Y111.047 E0.01931
G1 X84.51 Y111.121 E0.07639
G1 X83.865 Y111.11 E0.03057
G1 X83.481 Y111.066 E0.01832
G1 X81.73 Y110.797 E0.08396
G1 X80.924 Y110.606 E0.03926
G1 X80.031 Y110.318 E0.04447
G1 X79.263 Y110 E0.0394
G1 X77.69 Y109.197 E0.08371
G1 X77.135 Y108.869 E0.03055
G1 X76.823 Y108.641 E0.01832
G1 X75.577 Y107.653 E0.07537
G1 X74.957 Y107.073 E0.04024
G1 X74.162 Y106.197 E0.05607
G1 X73.649 Y105.529 E0.03992
G1 X72.799 Y104.217 E0.07409
G1 X72.412 Y103.504 E0.03845
G1 X71.956 Y102.479 E0.05317
G1 X71.742 Y101.91 E0.02881
G1 X70.178 Y96.884 E0.24948
G1 X68.321 Y91.827 E0.25533
G1 X67.31 Y89.397 E0.12474
G1 X65.029 Y84.509 E0.25565
G1 X62.484 Y79.776 E0.2547
G1 X59.687 Y75.213 E0.25366
G1 X56.236 Y70.252 E0.28642
G1 X55.982 Y69.849 E0.02258
G1 X55.178 Y68.432 E0.07722
G1 X54.946 Y67.972 E0.02442
G1 X54.38 Y66.694 E0.06625
G1 X54.222 Y66.291 E0.02052
G1 X53.676 Y64.716 E0.07901
G1 X53.539 Y64.254 E0.02284
G1 X52.652 Y60.644 E0.17619
G1 X52.564 Y60.205 E0.02122
G1 X51.938 Y56.193 E0.19245
G1 X51.902 Y55.907 E0.01366
G1 X51.545 Y52.329 E0.17042
G1 X51.53 Y52.156 E0.00823
G1 X51.243 Y47.819 E0.206
G1 X51.236 Y47.672 E0.00698
G1 X51.032 Y42.263 E0.25655
G1 X51.029 Y42.144 E0.00564
G1 X50.914 Y34.417 E0.36627
G1 X50.913 Y34.35 E0.00318
G1 X50.894 Y24.379 E0.47258
G1 X50.933 Y23.735 E0.03058
G1 X51.051 Y23.102 E0.03052
G1 X51.166 Y22.739 E0.01805
G0 F1080 X51.246 Y22.487
G1 F2400 E-1.7
G1 F300 Z0.5
G0 F3600 X109.63 Y58.336 Z0.5
;TYPE:SUPPORT-INTERFACE
G1 F300 Z0.3
G1 F600 E1.71256
G1 F1200 X125.779 Y58.331 E0.76539
G1 X125.78 Y59.18 E0.04024
G1 X109.631 Y59.184 E0.76539
G1 X109.63 Y58.601 E0.02763
G0 F1080 X109.63 Y58.336
G1 F2400 E-1.7
G1 F300 Z0.5
G0 F3600 X85.055 Y30.099 Z0.5
;TYPE:WALL-INNER
G1 F300 Z0.3
G1 F600 E1.71256
G1 F1200 X112.762 Y30.108 E1.31319
G1 X112.762 Y37.654 E0.35765
G1 X86.653 Y37.655 E1.23745
G1 X85.94 Y37.675 E0.03381
G1 X84.772 Y37.722 E0.0554
G1 X83.471 Y37.796 E0.06176
G1 X81.86 Y37.938 E0.07665
G1 X80.25 Y38.142 E0.07692
G1 X79.445 Y38.269 E0.03863
G1 X78.602 Y38.426 E0.04064
G1 X77.72 Y38.615 E0.04275
G1 X77.081 Y38.775 E0.03122
G1 X75.93 Y39.106 E0.05676
G1 X75.219 Y39.344 E0.03554
G1 X74.643 Y39.563 E0.02921
G1 X73.561 Y40.03 E0.05585
G1 X72.948 Y40.339 E0.03254
G1 X72.353 Y40.677 E0.03243
G1 X71.773 Y41.042 E0.03248
G1 X71.214 Y41.439 E0.0325
G1 X70.799 Y41.763 E0.02495
G1 X70.279 Y42.221 E0.03284
G1 X69.789 Y42.712 E0.03288
G1 X69.44 Y43.106 E0.02495
G1 X68.974 Y43.706 E0.03601
G1 X68.554 Y44.344 E0.0362
G1 X68.185 Y45.018 E0.03642
G1 X67.869 Y45.727 E0.03679
G1 X67.613 Y46.453 E0.03649
G1 X67.413 Y47.193 E0.03633
G1 X67.269 Y47.941 E0.0361
G1 X67.193 Y48.531 E0.02819
G1 X67.142 Y49.211 E0.03232
G1 X67.131 Y49.592 E0.01807
G1 X67.133 Y50.001 E0.01939
G1 X67.15 Y50.439 E0.02077
G1 X67.186 Y50.908 E0.02229
G1 X67.243 Y51.409 E0.0239
G1 X67.397 Y52.354 E0.04538
G1 X67.533 Y52.957 E0.0293
G1 X67.833 Y54.024 E0.05253
G1 X68.22 Y55.109 E0.0546
G1 X68.586 Y55.994 E0.04539
G1 X69.021 Y56.959 E0.05017
G1 X69.879 Y58.749 E0.09408
G1 X70.462 Y60.055 E0.06779
G1 X70.774 Y60.896 E0.04251
G1 X70.843 Y61.115 E0.01088
G1 X71.087 Y61.991 E0.0431
G1 X71.182 Y62.47 E0.02314
G1 X71.244 Y62.871 E0.01923
G1 X71.3 Y63.395 E0.02498
G1 X71.328 Y63.962 E0.02691
G1 X71.325 Y64.466 E0.02389
G1 X71.297 Y64.955 E0.02321
G1 X71.245 Y65.443 E0.02326
G1 X71.191 Y65.807 E0.01744
G1 X71.103 Y66.258 E0.02178
G1 X71.001 Y66.668 E0.02002
G1 X70.886 Y67.042 E0.01855
G1 X70.73 Y67.454 E0.02088
G1 X70.566 Y67.816 E0.01884
G1 X70.312 Y68.256 E0.02408
G1 X70.034 Y68.622 E0.02178
G1 X69.653 Y68.988 E0.02504
G1 X69.294 Y69.235 E0.02065
G1 X68.769 Y69.494 E0.02775
G1 X68.282 Y69.666 E0.02448
G1 X67.789 Y69.791 E0.02411
G1 X67.254 Y69.885 E0.02575
G1 X66.984 Y69.919 E0.0129
G1 X66.558 Y69.95 E0.02024
G1 X66.241 Y69.958 E0.01503
G1 X65.783 Y69.945 E0.02172
G1 X65.317 Y69.898 E0.0222
G1 X64.982 Y69.847 E0.01606
G1 X64.544 Y69.744 E0.02133
G1 X64.22 Y69.645 E0.01606
G1 X63.797 Y69.48 E0.02152
G1 X63.389 Y69.275 E0.02164
G1 X63.111 Y69.115 E0.0152
G1 X62.712 Y68.836 E0.02308
G1 X62.465 Y68.639 E0.01497
G1 X62.104 Y68.311 E0.02312
G1 X61.761 Y67.95 E0.0236
G1 X61.553 Y67.707 E0.01516
G1 X61.118 Y67.13 E0.03425
G1 X60.73 Y66.529 E0.03391
G1 X60.383 Y65.905 E0.03384
G1 X60.054 Y65.232 E0.0355
G1 X59.763 Y64.563 E0.03458
G1 X59.489 Y63.846 E0.03638
G1 X59.247 Y63.142 E0.03528
G1 X59.022 Y62.409 E0.03634
G1 X58.73 Y61.322 E0.05335
G1 X58.457 Y60.141 E0.05745
G1 X58.142 Y58.538 E0.07743
G1 X57.923 Y57.203 E0.06412
G1 X57.73 Y55.809 E0.0667
G1 X57.556 Y54.337 E0.07025
G1 X57.359 Y52.334 E0.09539
G1 X57.213 Y50.491 E0.08762
G1 X57.139 Y49.38 E0.05277
G1 X57.045 Y47.759 E0.07696
G1 X56.919 Y44.945 E0.13351
G1 X56.833 Y42.256 E0.12751
G1 X56.774 Y39.59 E0.12639
G1 X56.736 Y36.999 E0.12282
G1 X56.714 Y34.518 E0.11759
G1 X56.698 Y28.833 E0.26945
G1 X56.698 Y28.745 E0.00417
G1 X56.697 Y28.512 E0.01104
G1 X56.696 Y28.187 E0.0154
G1 X56.695 Y27.845 E0.01621
G1 X56.694 Y27.5 E0.01635
G1 X56.693 Y27.177 E0.01531
G1 X56.692 Y26.948 E0.01085
G1 X56.692 Y26.904 E0.00209
G1 X56.686 Y25.159 E0.08271
G1 X56.686 Y24.959 E0.00948
G1 X56.886 Y24.959 E0.00614
G1 X58.101 Y24.961 E0.05759
G1 X58.293 Y25.245 E0.01625
G1 X58.524 Y25.561 E0.01855
G1 X58.635 Y25.713 E0.00892
G1 X58.665 Y25.751 E0.00229
G1 X58.723 Y25.822 E0.00435
G1 X58.644 Y25.828 E0.00052
G1 X58.562 Y25.835 E0.00122
G1 X58.379 Y25.882 E0.00656
G1 X58.242 Y25.918 E0.00671
G1 X58.014 Y26.011 E0.01167
G1 X57.725 Y26.179 E0.01584
G1 X57.462 Y26.4 E0.01628
G1 X57.239 Y26.661 E0.01627
G1 X57.089 Y26.909 E0.01374
G1 X57.067 Y26.946 E0.00198
G1 X56.971 Y27.176 E0.00977
G1 X56.884 Y27.499 E0.01011
G1 X56.852 Y27.844 E0.00739
G1 X56.879 Y28.186 E0.00694
G1 X56.959 Y28.511 E0.00896
G1 X57.051 Y28.744 E0.00993
G1 X57.095 Y28.82 E0.00392
G1 X57.221 Y29.038 E0.01193
G1 X57.442 Y29.306 E0.01646
G1 X57.708 Y29.531 E0.01651
G1 X57.995 Y29.702 E0.01583
G1 X58.227 Y29.801 E0.01196
G1 X58.558 Y29.889 E0.01623
G1 X58.905 Y29.917 E0.0165
G1 X59.251 Y29.886 E0.01646
G1 X59.576 Y29.8 E0.01593
G1 X59.808 Y29.703 E0.01192
G1 X60.097 Y29.532 E0.01592
G1 X60.365 Y29.306 E0.01662
G1 X60.586 Y29.036 E0.01654
G1 X60.755 Y28.743 E0.01603
G1 X60.846 Y28.51 E0.01186
G1 X60.905 Y28.279 E0.0113
G1 X60.927 Y28.19 E0.00435
G1 X60.939 Y28.05 E0.00666
G1 X61 Y28.099
G1 X61.195 Y28.258 E0.00888
G1 X61.269 Y28.312 E0.00378
G1 X61.481 Y28.468 E0.01248
G1 X61.964 Y28.798 E0.02773
G1 X62.27 Y28.996 E0.01727
G1 X63.077 Y29.461 E0.04414
G1 X63.402 Y29.629 E0.01734
G1 X64.251 Y30.021 E0.04432
G1 X64.589 Y30.157 E0.01727
G1 X65.13 Y30.359 E0.02737
G1 X65.474 Y30.477 E0.01724
G1 X66.371 Y30.736 E0.04425
G1 X66.731 Y30.822 E0.01754
G1 X67.486 Y30.975 E0.03651
G1 X67.915 Y31.043 E0.02059
G1 X68.72 Y31.138 E0.03842
G1 X68.973 Y31.158 E0.01203
G1 X69.805 Y31.192 E0.03947
G1 X70.344 Y31.185 E0.02555
G1 X70.865 Y31.165 E0.02471
G1 X71.161 Y31.143 E0.01407
G1 X71.969 Y31.05 E0.03855
G1 X72.281 Y31.001 E0.01497
G1 X73.095 Y30.841 E0.03932
G1 X73.898 Y30.632 E0.03933
G1 X74.201 Y30.54 E0.01501
G1 X74.929 Y30.287 E0.03653
G1 X75.221 Y30.173 E0.01486
G1 X75.932 Y29.865 E0.03672
G1 X76.631 Y29.515 E0.03705
G1 X77.305 Y29.129 E0.03681
G1 X77.573 Y28.964 E0.01492
G1 X78.456 Y28.356 E0.05081
G1 X78.837 Y28.062 E0.02281
G1 X79.294 Y27.685 E0.02808
G1 X79.649 Y27.373 E0.0224
G1 X80.388 Y26.649 E0.04903
G1 X81.02 Y25.939 E0.04505
G1 X81.255 Y25.658 E0.01736
G1 X81.792 Y24.942 E0.04242
G1 X84.856 Y24.938 E0.14522
G1 X85.056 Y24.938 E0.00948
G1 X85.056 Y25.138 E0.00614
G1 X85.056 Y26.798 E0.07868
G1 X85.056 Y26.95 E0.0072
G1 X85.056 Y27.179 E0.01085
G1 X85.056 Y27.501 E0.01526
G1 X85.056 Y27.845 E0.0163
G1 X85.056 Y28.191 E0.0164
G1 X85.056 Y28.514 E0.01531
G1 X85.056 Y28.746 E0.011
G1 X85.056 Y28.93 E0.00872
G1 X85.055 Y30.048 E0.05299
G0 F1080 X85.055 Y30.099
G0 F3600 X84.855 Y28.972
G0 X83.199 Y29.63
G0 X82.606 Y29.63
G0 X82.114 Y29.471
G0 X81.631 Y29.123
G0 X81.535 Y28.985
G0 X80.851 Y27.844
G1 F600 E0.00242
G1 F1200 X80.879 Y28.191 E0.0165
G1 X80.962 Y28.516 E0.0159
G1 X81.054 Y28.745 E0.0117
G1 X81.223 Y29.039 E0.01607
G1 X81.445 Y29.306 E0.01646
G1 X81.707 Y29.532 E0.0164
G1 X81.995 Y29.704 E0.0159
G1 X82.231 Y29.803 E0.01213
G1 X82.558 Y29.888 E0.01601
G1 X82.904 Y29.917 E0.01646
G1 X83.249 Y29.888 E0.01641
G1 X83.574 Y29.802 E0.01593
G1 X83.809 Y29.706 E0.01203
G1 X84.099 Y29.532 E0.01603
G1 X84.363 Y29.307 E0.01644
G1 X84.585 Y29.04 E0.01646
G1 X84.663 Y28.905 E0.00739
G1 X84.755 Y28.746 E0.00766
G1 X84.847 Y28.514 E0.00776
G1 X84.928 Y28.191 E0.00685
G1 X84.955 Y27.845 E0.00474
G1 X84.923 Y27.501 E0.00482
G1 X84.836 Y27.179 E0.0072
G1 X84.74 Y26.95 E0.00811
G1 X84.663 Y26.82 E0.00643
G1 X84.569 Y26.663 E0.00867
G1 X84.345 Y26.399 E0.01641
G1 X84.082 Y26.181 E0.01619
G1 X83.798 Y26.015 E0.01559
G1 X83.569 Y25.919 E0.01177
G1 X83.246 Y25.835 E0.01582
G1 X82.902 Y25.805 E0.01637
G1 X82.559 Y25.837 E0.01633
G1 X82.241 Y25.921 E0.01559
G1 X82.016 Y26.013 E0.01152
G1 X81.725 Y26.179 E0.01588
G1 X81.459 Y26.402 E0.01645
G1 X81.238 Y26.666 E0.01632
G1 X81.069 Y26.949 E0.01562
G1 X80.972 Y27.179 E0.01183
G1 X80.886 Y27.5 E0.01575
G1 X80.859 Y27.765 E0.01262
G0 F1080 X80.851 Y27.844
G1 F2400 E-1.7
G1 F300 Z0.5
G0 F3600 X80.756 Y27.801 Z0.5
G0 X67.371 Y58.212
G1 F300 Z0.3
G1 F600 E1.70379
G1 F1200 X67.253 Y57.873 E0.01701
G1 X66.9 Y57.112 E0.03976
G1 X66.568 Y56.335 E0.04005
G1 X66.3 Y55.667 E0.03411
G1 X66.04 Y54.952 E0.03606
G1 X65.801 Y54.202 E0.03731
G1 X65.593 Y53.44 E0.03744
G1 X65.411 Y52.615 E0.04004
G1 X65.276 Y51.788 E0.03972
G1 X65.18 Y50.908 E0.04196
G1 X65.135 Y49.999 E0.04314
G1 X65.147 Y49.101 E0.04257
G1 X65.218 Y48.188 E0.0434
G1 X65.359 Y47.236 E0.04561
G1 X65.565 Y46.324 E0.04431
G1 X65.724 Y45.778 E0.02695
G1 X65.922 Y45.208 E0.0286
G1 X66.302 Y44.292 E0.047
G1 X66.665 Y43.572 E0.03822
G1 X67.077 Y42.866 E0.03874
G1 X67.549 Y42.166 E0.04001
G1 X68.039 Y41.529 E0.03809
G1 X68.58 Y40.913 E0.03886
G1 X69.096 Y40.392 E0.03475
G1 X69.667 Y39.874 E0.03654
G1 X69.835 Y39.705 E0.01129
G1 X69.991 Y39.494 E0.01244
G1 X70.117 Y39.266 E0.01235
G1 X70.211 Y39.017 E0.01261
G1 X70.265 Y38.76 E0.01245
G1 X70.286 Y38.499 E0.01241
G1 X70.266 Y38.232 E0.01269
G1 X70.209 Y37.969 E0.01275
G1 X70.079 Y37.644 E0.01659
G1 X69.929 Y37.404 E0.01341
G1 X69.751 Y37.193 E0.01308
G1 X69.54 Y37.01 E0.01324
G1 X69.296 Y36.856 E0.01368
