;FLAVOR:Marlin
;TIME:1458
;Filament used: 1.75926m
;Layer height: 0.3
;Generated with Cura_SteamEngine 3.5.1
M82 ;absolute extrusion mode
;---------------------------------------
; ; ; Jellybox Start Script Begin ; ; ;
;_______________________________________
; for slicer: CURA 3
; start gcode last modified Jan 16, 2019

;              Print Settings Summary
; (leave these alone: this is only a list of the slicing settings)
; (overwriting these values will NOT change your printer's behavior)
;             sliced for :  IMADE3D JellyBOX 2
;        nozzle diameter :  0.4
;      filament diameter :  1.75
;           layer height :  0.3
;       1st layer height :  0.3
;             line width :  0.4  
;  outer wall wipe dist. :  0.5
;      infill line width :  0.6
;         wall thickness :  0.8
;          top thickness :  0.8
;       bottom thickness :  0.8
;         infill density :  70
;         infill pattern :  cubic
;      print temperature :  210
;  1st layer print temp. :  215
; heated bed temperature :  55
;    1st layer bed temp. :  60
;      regular fan speed :  80
;          max fan speed :  100
;     retraction amount  :  1.3
;   retr. retract speed  :  40
;     retr. prime speed  :  10
;   build plate adhesion :  skirt
;                support ?  False
;             spiralized ?  False

G21               ;metric values
G90               ;absolute positioning
M82               ;set extruder to absolute mode
M107              ;start with the fan off
M117 Preparing    ;write Preparing
M190 S45          ;wait for the bed to reach 45C
M109 S180         ;wait for the extruder to reach 180C
G28               ;home all axes
M203 Z4           ;slow Z speed down for greater accuracy when probing
G29               ;auto bed leveling procedure
;M500              ;optionally save the mesh
M203 Z7           ;pick up z speed again for printing
G28 X             ;home x to get as far from the plate as possible
M420 S1           ;(re) enable bed leveling turned off by the G28
G0 Y0 F5000       ;position Y in front
G0 Z15 F3000      ;position Z
M190 S60              ;wait for the bed to reach desired temperature
M109 S215             ;wait for the extruder to reach desired temperature
M300 S440 P300    ;play a tone
// M0 Ready! Click to start ; optionally, stop and wait for user to continue
M420 S1           ;(re) enable bed leveling to make iron-sure
M117 Print starting   ;write Print starting
;================ ;PRINT:LINE start
G90               ;absolute positioning
G92 E0            ;reset the extruder position
M420 S1           ;(re) enable bed leveling to make iron-sure
G0 Z0             ;get Z down
M83               ;relative extrusion mode
M420 S1           ;(re) enable bed leveling to make iron-sure
G1 E22 F300       ;extrude __mm of feed stock
G1 E18 F250       ;extrude __mm of feed stock
G1 E10 F250       ;extrude __mm of feed stock
G4 S2             ;pause for ooze
M400              ;make sure all is finished
M420 S1           ;(re) enable bed leveling to make iron-sure
G0 F500 X3 Y0 Z0.6;get to the start of the LINE
G1 E2 F300        ;extrude __mm of feed stock
G1 F1000 X104 E10  ;print a thick LINE extruding __mm along the way
M82               ;absolute extrusion mode
G92 E0            ;reset the extruder position
;---------------------------------------------
; ; ; Jellybox Printer Start Script End ; ; ;
;_____________________________________________

M83 ;relative extrusion mode
G1 F2400 E-1.3
;LAYER_COUNT:79
;LAYER:0
M107
G0 F3600 X64.636 Y57.419 Z0.3
;TYPE:SKIRT
G1 F600 E1.3
G1 F1200 X65.155 Y56.908 E0.03452
G1 X65.934 Y56.241 E0.04861
G1 X66.425 Y55.869 E0.0292
G1 X67.672 Y55.035 E0.0711
G1 X68.072 Y54.792 E0.02218
G1 X68.981 Y54.296 E0.04908
G1 X69.38 Y54.1 E0.02107
G1 X70.996 Y53.39 E0.08366
G1 X71.354 Y53.249 E0.01824
G1 X72.982 Y52.673 E0.08185
G1 X73.398 Y52.545 E0.02063
G1 X77.421 Y51.491 E0.19711
G1 X77.846 Y51.398 E0.02062
G1 X82.635 Y50.563 E0.2304
G1 X82.902 Y50.524 E0.01279
G1 X87.65 Y49.948 E0.22668
G1 X87.813 Y49.931 E0.00777
G1 X93.637 Y49.41 E0.27713
G1 X93.767 Y49.4 E0.00618
G1 X101.624 Y48.896 E0.37315
G1 X101.695 Y48.892 E0.00337
G1 X111.889 Y48.378 E0.48377
G1 X112.534 Y48.385 E0.03057
G1 X113.173 Y48.472 E0.03057
G1 X113.796 Y48.638 E0.03056
G1 X114.393 Y48.879 E0.03051
G1 X114.957 Y49.193 E0.03059
G1 X115.477 Y49.574 E0.03055
G1 X115.946 Y50.016 E0.03054
G1 X116.357 Y50.513 E0.03057
G1 X116.703 Y51.057 E0.03056
G1 X116.979 Y51.639 E0.03053
G1 X117.181 Y52.251 E0.03055
G1 X117.305 Y52.884 E0.03057
G1 X117.345 Y53.322 E0.02085
G1 X117.451 Y55.537 E0.1051
G1 X117.452 Y56.012 E0.02251
G1 X117.268 Y60.258 E0.20143
G1 X117.293 Y65.65 E0.25556
G1 X117.622 Y70.992 E0.25367
G1 X118.26 Y76.386 E0.25743
G1 X118.588 Y78.824 E0.11659
G1 X118.628 Y79.277 E0.02155
G1 X118.793 Y82.855 E0.16976
G1 X118.783 Y83.5 E0.03057
G1 X118.639 Y84.376 E0.04208
G1 X117.235 Y89.903 E0.27028
G1 X116.716 Y92.403 E0.12102
G1 X115.834 Y97.756 E0.25713
G1 X115.265 Y103.076 E0.25358
G1 X114.995 Y108.456 E0.25531
G1 X114.965 Y110.917 E0.11665
G1 X114.917 Y111.559 E0.03051
G1 X114.79 Y112.192 E0.0306
G1 X114.517 Y112.965 E0.03885
G1 X114.445 Y113.127 E0.0084
G1 X114.147 Y113.699 E0.03057
G1 X113.781 Y114.229 E0.03053
G1 X113.352 Y114.71 E0.03055
G1 X112.866 Y115.135 E0.0306
G1 X112.332 Y115.496 E0.03055
G1 X111.757 Y115.788 E0.03057
G1 X111.151 Y116.006 E0.03052
G1 X110.522 Y116.148 E0.03056
G1 X109.944 Y116.209 E0.02755
G1 X101.306 Y116.627 E0.40988
G1 X100.662 Y116.618 E0.03053
G1 X100.023 Y116.53 E0.03057
G1 X99.4 Y116.363 E0.03057
G1 X98.803 Y116.12 E0.03055
G1 X98.241 Y115.805 E0.03054
G1 X97.721 Y115.424 E0.03055
G1 X97.253 Y114.98 E0.03058
G1 X96.843 Y114.483 E0.03054
G1 X96.498 Y113.938 E0.03057
G1 X96.321 Y113.585 E0.01872
G1 X94.627 Y109.859 E0.19399
G1 X92.169 Y105.066 E0.2553
G1 X89.458 Y100.444 E0.25396
G1 X86.491 Y95.982 E0.25397
G1 X83.277 Y91.698 E0.25383
G1 X79.811 Y87.584 E0.25496
G1 X76.108 Y83.662 E0.25565
G1 X74.242 Y81.848 E0.12334
G1 X70.187 Y78.224 E0.25776
G1 X68.118 Y76.528 E0.1268
G1 X64.81 Y73.969 E0.19822
G1 X64.325 Y73.544 E0.03056
G1 X64.014 Y73.206 E0.02177
G1 X63.507 Y72.604 E0.0373
G1 X63.123 Y72.086 E0.03056
G1 X62.813 Y71.54 E0.02976
G1 X62.282 Y70.455 E0.05725
G1 X61.943 Y69.561 E0.04532
G1 X61.654 Y68.521 E0.05116
G1 X61.515 Y67.856 E0.0322
G1 X61.379 Y66.893 E0.04609
G1 X61.329 Y66.285 E0.02891
G1 X61.309 Y65.412 E0.04139
G1 X61.333 Y64.784 E0.02979
G1 X61.42 Y63.9 E0.0421
G1 X61.576 Y63.05 E0.04096
G1 X61.892 Y61.883 E0.0573
G1 X62.208 Y61.024 E0.04338
G1 X62.58 Y60.235 E0.04134
G1 X62.947 Y59.583 E0.03546
G1 X63.405 Y58.891 E0.03933
G1 X63.84 Y58.322 E0.03395
G1 X64.461 Y57.617 E0.04453
G0 F1080 X64.636 Y57.419
G1 F2400 E-1.3
G1 F300 Z0.5
G0 F3600 X73.972 Y65.502 Z0.5
;TYPE:WALL-INNER
G1 F300 Z0.3
G1 F600 E1.31256
G1 F1200 X73.994 Y65.212 E0.01378
G1 X73.943 Y64.929 E0.01363
G1 X73.82 Y64.669 E0.01363
G1 X73.634 Y64.448 E0.01369
G1 X73.396 Y64.284 E0.0137
G1 X73.126 Y64.187 E0.0136
G1 X72.839 Y64.163 E0.01365
G1 X72.553 Y64.213 E0.01376
G1 X72.29 Y64.339 E0.01382
G1 X72.073 Y64.525 E0.01355
G1 X71.909 Y64.759 E0.01354
G1 X71.811 Y65.032 E0.01375
G1 X71.786 Y65.321 E0.01375
G1 X71.839 Y65.605 E0.01369
G1 X71.96 Y65.864 E0.01355
G1 X72.15 Y66.087 E0.01389
G1 X72.386 Y66.249 E0.01357
G1 X72.655 Y66.346 E0.01355
G1 X72.943 Y66.371 E0.0137
G1 X73.227 Y66.319 E0.01368
G1 X73.489 Y66.197 E0.0137
G1 X73.711 Y66.008 E0.01382
G1 X73.872 Y65.773 E0.0135
G1 X73.937 Y65.598 E0.00885
G0 F1080 X73.972 Y65.502
G1 F2400 E-1.3
G1 F300 Z0.5
G0 F3600 X74.076 Y65.457 Z0.5
G0 X78.891 Y66.47
G1 F300 Z0.3
G1 F600 E1.30488
G1 F1200 X79.225 Y66.337 E0.01704
G1 X79.957 Y65.953 E0.03918
G1 X80.728 Y65.577 E0.04066
G1 X81.381 Y65.278 E0.03404
G1 X82.083 Y64.983 E0.03609
G1 X82.813 Y64.71 E0.03694
G1 X83.564 Y64.466 E0.03743
G1 X84.373 Y64.246 E0.03974
G1 X85.214 Y64.065 E0.04077
G1 X86.083 Y63.928 E0.0417
G1 X86.961 Y63.842 E0.04181
G1 X87.881 Y63.808 E0.04363
G1 X88.81 Y63.836 E0.04405
G1 X89.743 Y63.929 E0.04444
G1 X90.69 Y64.093 E0.04555
G1 X91.24 Y64.226 E0.02682
G1 X91.818 Y64.397 E0.02857
G1 X92.737 Y64.727 E0.04628
G1 X93.479 Y65.058 E0.03851
G1 X94.219 Y65.443 E0.03954
G1 X94.916 Y65.864 E0.03859
G1 X95.579 Y66.325 E0.03827
G1 X96.225 Y66.84 E0.03916
G1 X96.779 Y67.337 E0.03527
G1 X97.319 Y67.877 E0.03619
G1 X97.494 Y68.035 E0.01117
G1 X97.714 Y68.184 E0.01259
G1 X97.952 Y68.297 E0.01249
G1 X98.198 Y68.377 E0.01226
G1 X98.461 Y68.422 E0.01265
G1 X98.726 Y68.427 E0.01256
G1 X98.985 Y68.397 E0.01236
G1 X99.248 Y68.327 E0.0129
G1 X99.565 Y68.182 E0.01652
G1 X99.801 Y68.019 E0.01359
G1 X100.002 Y67.828 E0.01314
G1 X100.173 Y67.612 E0.01306
G1 X100.314 Y67.364 E0.01352
G1 X100.442 Y66.999 E0.01833
G1 X100.48 Y66.764 E0.01128
G1 X100.485 Y66.511 E0.01199
G1 X100.105 Y58.643 E0.37334
G1 X100.063 Y58.339 E0.01455
G1 X99.957 Y58.022 E0.01584
G1 X99.803 Y57.74 E0.01523
G1 X99.656 Y57.545 E0.01157
G1 X99.431 Y57.324 E0.01495
G1 X99.143 Y57.131 E0.01643
G1 X98.826 Y56.996 E0.01633
G1 X98.488 Y56.92 E0.01642
G1 X98.169 Y56.911 E0.01513
G1 X96.014 Y57.055 E0.10237
G1 X93.911 Y57.211 E0.09995
G1 X91.865 Y57.378 E0.09729
G1 X89.877 Y57.56 E0.09462
G1 X88.502 Y57.695 E0.06548
G1 X86.988 Y57.863 E0.0722
G1 X85.518 Y58.043 E0.07019
G1 X84.097 Y58.236 E0.06797
G1 X82.727 Y58.442 E0.06566
G1 X81.412 Y58.662 E0.06319
G1 X80.154 Y58.894 E0.06063
G1 X78.956 Y59.141 E0.05797
G1 X77.801 Y59.405 E0.05615
G1 X77.55 Y59.489 E0.01254
G1 X77.299 Y59.618 E0.01338
G1 X77.078 Y59.776 E0.01288
G1 X76.919 Y59.921 E0.0102
G1 X76.711 Y60.185 E0.01593
G1 X76.57 Y60.438 E0.01373
G1 X76.476 Y60.704 E0.01337
G1 X76.42 Y60.981 E0.01339
G1 X76.409 Y61.242 E0.01238
G1 X76.538 Y64.786 E0.16808
G1 X76.586 Y65.124 E0.01618
G1 X76.64 Y65.305 E0.00895
G1 X76.746 Y65.544 E0.01239
G1 X76.836 Y65.702 E0.00862
G1 X77.019 Y65.936 E0.01408
G1 X77.168 Y66.082 E0.00989
G1 X77.407 Y66.259 E0.0141
G1 X77.581 Y66.354 E0.0094
G1 X77.718 Y66.412 E0.00705
G1 X78.018 Y66.501 E0.01483
G1 X78.181 Y66.524 E0.0078
G1 X78.507 Y66.535 E0.01546
G1 X78.63 Y66.514 E0.00591
G0 F1080 X78.891 Y66.47
G1 F2400 E-1.3
G1 F300 Z0.5
G0 F3600 X78.965 Y66.547 Z0.5
G0 X107.827 Y82.775
G1 F300 Z0.3
G1 F600 E1.31256
G1 F1200 X109.165 Y110.448 E1.31311
G1 X101.819 Y110.805 E0.34858
G1 X101.62 Y110.814 E0.00944
G1 X101.611 Y110.615 E0.00611
G1 X100.357 Y84.735 E1.22804
G1 X100.199 Y82.862 E0.08909
G1 X100.061 Y81.564 E0.06187
G1 X99.842 Y79.962 E0.07663
G1 X99.561 Y78.362 E0.07699
G1 X99.394 Y77.565 E0.03859
G1 X99.197 Y76.73 E0.04066
G1 X98.965 Y75.86 E0.04268
G1 X98.775 Y75.23 E0.03119
G1 X98.389 Y74.096 E0.05678
G1 X98.117 Y73.399 E0.03546
G1 X97.871 Y72.832 E0.02929
G1 X97.351 Y71.774 E0.05587
G1 X97.014 Y71.178 E0.03245
G1 X96.648 Y70.599 E0.03247
G1 X96.255 Y70.037 E0.0325
G1 X95.831 Y69.498 E0.0325
G1 X95.487 Y69.101 E0.0249
G1 X95.004 Y68.601 E0.03295
G1 X94.492 Y68.137 E0.03275
G1 X94.079 Y67.807 E0.02506
G1 X93.458 Y67.371 E0.03596
G1 X92.8 Y66.982 E0.03623
G1 X92.108 Y66.646 E0.03646
G1 X91.387 Y66.364 E0.03669
G1 X90.649 Y66.143 E0.03651
G1 X89.901 Y65.98 E0.03628
G1 X89.146 Y65.872 E0.03615
G1 X88.553 Y65.824 E0.0282
G1 X87.872 Y65.807 E0.03229
G1 X87.49 Y65.814 E0.01811
G1 X87.082 Y65.835 E0.01936
G1 X86.644 Y65.873 E0.02084
G1 X86.178 Y65.932 E0.02226
G1 X85.684 Y66.012 E0.02372
G1 X85.165 Y66.117 E0.0251
G1 X84.739 Y66.214 E0.02071
G1 X84.148 Y66.378 E0.02907
G1 X83.096 Y66.729 E0.05256
G1 X82.032 Y67.168 E0.05455
G1 X80.914 Y67.699 E0.05866
G1 X79.985 Y68.183 E0.04965
G1 X78.487 Y68.997 E0.0808
G1 X77.179 Y69.657 E0.06944
G1 X76.273 Y70.042 E0.04666
G1 X75.425 Y70.326 E0.04239
G1 X74.926 Y70.459 E0.02448
G1 X74.423 Y70.565 E0.02436
G1 X73.887 Y70.648 E0.02571
G1 X73.37 Y70.698 E0.02462
G1 X72.827 Y70.722 E0.02576
G1 X72.332 Y70.717 E0.02346
G1 X71.841 Y70.688 E0.02331
G1 X71.497 Y70.655 E0.01638
G1 X71.025 Y70.585 E0.02262
G1 X70.63 Y70.506 E0.01909
G1 X70.239 Y70.406 E0.01913
G1 X69.804 Y70.265 E0.02167
G1 X69.465 Y70.132 E0.01726
G1 X69.002 Y69.894 E0.02467
G1 X68.625 Y69.634 E0.02171
G1 X68.238 Y69.27 E0.02518
G1 X67.975 Y68.927 E0.02049
G1 X67.686 Y68.407 E0.0282
G1 X67.497 Y67.943 E0.02375
G1 X67.344 Y67.44 E0.02492
G1 X67.25 Y67.042 E0.01938
G1 X67.18 Y66.646 E0.01906
G1 X67.125 Y66.203 E0.02116
G1 X67.105 Y65.915 E0.01368
G1 X67.095 Y65.446 E0.02223
G1 X67.118 Y65.001 E0.02112
G1 X67.154 Y64.661 E0.0162
G1 X67.24 Y64.187 E0.02283
G1 X67.322 Y63.869 E0.01556
G1 X67.46 Y63.458 E0.02055
G1 X67.595 Y63.138 E0.01646
G1 X67.796 Y62.744 E0.02096
G1 X68.047 Y62.342 E0.02246
G1 X68.256 Y62.052 E0.01694
G1 X68.547 Y61.7 E0.02165
G1 X68.879 Y61.352 E0.0228
G1 X69.134 Y61.111 E0.01663
G1 X69.674 Y60.662 E0.03329
G1 X70.251 Y60.248 E0.03366
G1 X70.871 Y59.861 E0.03464
G1 X71.537 Y59.495 E0.03602
G1 X72.198 Y59.17 E0.03491
G1 X72.864 Y58.877 E0.03449
G1 X73.574 Y58.595 E0.03621
G1 X74.286 Y58.337 E0.03589
G1 X75.367 Y57.991 E0.0538
G1 X76.528 Y57.661 E0.05721
G1 X78.115 Y57.27 E0.07747
G1 X79.43 Y56.988 E0.06374
G1 X80.823 Y56.724 E0.0672
G1 X82.504 Y56.444 E0.08077
G1 X84.039 Y56.218 E0.07354
G1 X85.634 Y56.009 E0.07624
G1 X87.215 Y55.823 E0.07545
G1 X88.838 Y55.651 E0.07735
G1 X91.634 Y55.39 E0.13309
G1 X94.318 Y55.173 E0.12763
G1 X96.979 Y54.986 E0.12643
G1 X99.566 Y54.822 E0.12286
G1 X102.041 Y54.681 E0.11749
G1 X107.719 Y54.391 E0.26946
G1 X107.815 Y54.387 E0.00455
G1 X108.129 Y54.371 E0.0149
G1 X108.373 Y54.358 E0.01158
G1 X108.709 Y54.34 E0.01595
G1 X109.053 Y54.322 E0.01633
G1 X109.375 Y54.305 E0.01528
G1 X109.605 Y54.293 E0.01092
G1 X109.648 Y54.291 E0.00204
G1 X111.39 Y54.201 E0.08267
G1 X111.589 Y54.191 E0.00944
G1 X111.598 Y54.39 E0.0061
G1 X111.657 Y55.604 E0.05761
G1 X111.382 Y55.809 E0.01626
G1 X111.08 Y56.053 E0.0184
G1 X110.932 Y56.173 E0.00903
G1 X110.893 Y56.208 E0.00248
G1 X110.826 Y56.267 E0.00423
G1 X110.816 Y56.189 E0.00054
G1 X110.805 Y56.11 E0.00116
G1 X110.749 Y55.928 E0.0066
G1 X110.707 Y55.791 E0.00679
G1 X110.603 Y55.567 E0.01171
G1 X110.419 Y55.285 E0.01596
G1 X110.186 Y55.034 E0.01623
G1 X109.917 Y54.826 E0.01612
G1 X109.662 Y54.688 E0.01374
G1 X109.624 Y54.668 E0.00197
G1 X109.388 Y54.582 E0.00984
G1 X109.062 Y54.512 E0.00938
G1 X108.718 Y54.495 E0.00704
G1 X108.382 Y54.538 E0.00675
G1 X108.141 Y54.603 E0.0067
G1 X107.832 Y54.735 E0.01175
G1 X107.751 Y54.787 E0.00428
G1 X107.542 Y54.921 E0.01177
G1 X107.283 Y55.156 E0.01658
G1 X107.071 Y55.434 E0.01657
G1 X106.916 Y55.726 E0.01567
G1 X106.827 Y55.964 E0.01204
G1 X106.757 Y56.296 E0.01608
G1 X106.743 Y56.646 E0.0166
G1 X106.792 Y56.992 E0.01656
G1 X106.894 Y57.311 E0.01587
G1 X107 Y57.536 E0.01179
G1 X107.186 Y57.821 E0.01613
G1 X107.427 Y58.076 E0.01663
G1 X107.705 Y58.284 E0.01646
G1 X108.007 Y58.437 E0.01605
G1 X108.24 Y58.516 E0.01166
G1 X108.477 Y58.565 E0.01147
G1 X108.566 Y58.583 E0.0043
G1 X108.708 Y58.587 E0.00673
G1 X108.661 Y58.651
G1 X108.512 Y58.854 E0.00889
G1 X108.462 Y58.93 E0.00375
G1 X108.316 Y59.151 E0.01255
G1 X108.011 Y59.646 E0.02756
G1 X107.827 Y59.962 E0.01733
G1 X107.402 Y60.792 E0.0442
G1 X107.249 Y61.126 E0.01741
G1 X106.9 Y61.992 E0.04425
G1 X106.78 Y62.334 E0.01718
G1 X106.604 Y62.885 E0.02741
G1 X106.502 Y63.235 E0.01728
G1 X106.287 Y64.143 E0.04423
G1 X106.219 Y64.508 E0.0176
G1 X106.103 Y65.269 E0.03648
G1 X106.056 Y65.701 E0.0206
G1 X105.998 Y66.51 E0.03844
G1 X105.992 Y66.764 E0.01204
G1 X105.998 Y67.589 E0.0391
G1 X106.009 Y67.863 E0.013
G1 X106.075 Y68.654 E0.03762
G1 X106.112 Y68.948 E0.01404
G1 X106.244 Y69.756 E0.0388
G1 X106.428 Y70.561 E0.03914
G1 X106.508 Y70.867 E0.01499
G1 X106.755 Y71.656 E0.03918
G1 X106.861 Y71.954 E0.01499
G1 X107.151 Y72.675 E0.03683
G1 X107.48 Y73.377 E0.03674
G1 X107.621 Y73.654 E0.01473
G1 X108.002 Y74.332 E0.03686
G1 X108.42 Y74.987 E0.03683
G1 X108.599 Y75.247 E0.01496
G1 X109.248 Y76.099 E0.05076
G1 X109.56 Y76.465 E0.02279
G1 X109.96 Y76.904 E0.02815
G1 X110.288 Y77.243 E0.02236
G1 X111.046 Y77.946 E0.049
G1 X111.788 Y78.545 E0.0452
G1 X112.08 Y78.765 E0.01733
G1 X112.82 Y79.273 E0.04254
G1 X112.971 Y82.327 E0.14492
G1 X112.98 Y82.526 E0.00944
G1 X112.781 Y82.535 E0.00611
G1 X111.13 Y82.613 E0.07834
