;FLAVOR:Marlin
;TIME:330
;Filament used: 0.395834m
;Layer height: 0.3
;Generated with Cura_SteamEngine 3.3.1
M82 ;absolute extrusion mode
; ---------------------------------------



M117 Heating Up       ; write heating up
M190 S65              ; wait for the bed to reach desired temperature
M109 S180             ; preheat the hotend to 180C to get the plastic soft enough to perform bed leveling even if there was some debris
G21                   ; metric values
G90                   ; absolute positioning
M82                   ; set extruder to absolute mode
M107                  ; start with the fan off
G28                   ; home all axes
M203 Z4               ; slow Z speed down for greater accuracy when probing
G29                   ; auto bed leveling procedure
M203 Z7               ; pick up z speed again for printing
G0 X-16 Y45 Z20 F10000; get in front of wiper after g29
M109 S235             ; wait for the hotend to reach desired temperature for 1st layer
M117 Cleaning nozzle   ; write nozzle cleaning
G92 E0                 ; zero the extruder
G1 E25 F400            ; extrude XX mm of stock
G92 E0                 ; zero the extruder
G0 X-16 Y50 Z-0.5 E-18 F1000 ; move down and retract a fair amount
G4 S3                  ; wait for the filament to ooze out a bit more
G0 X-16 Y80 Z-0.5 F500 ; wipe the nozzle
G0 Z10                 ; go up so that we don't hit the bed
G92 E0                 ; reset the extruder position again
M117 Print starting    ; write Print starting
G92 E0
G1 F2100 E-2
;LAYER_COUNT:31
;LAYER:0
M107
G0 F3600 X71.453 Y66.487 Z0.3
;TYPE:SKIRT
G1 F1500 E0
G1 X71.891 Y66.087 E0.02959
G1 X72.316 Y65.788 E0.05552
G1 X73.399 Y65.117 E0.11908
G1 X73.923 Y64.839 E0.14867
G1 X74.544 Y64.616 E0.18159
G1 X75.546 Y64.339 E0.23346
G1 X76.217 Y64.209 E0.26756
G1 X78.932 Y63.898 E0.40389
G1 X79.318 Y63.87 E0.4232
G1 X84.722 Y63.729 E0.6929
G1 X84.963 Y63.73 E0.70492
G1 X91.921 Y63.929 E1.0522
G1 X92.193 Y63.945 E1.0658
G1 X94.584 Y64.162 E1.18557
G1 X95.169 Y64.255 E1.21513
G1 X95.737 Y64.426 E1.24472
G1 X96.786 Y64.821 E1.30064
G1 X97.325 Y65.067 E1.3302
G1 X97.787 Y65.355 E1.35736
G1 X98.596 Y65.931 E1.40691
G1 X99.055 Y66.306 E1.43648
G1 X99.342 Y66.603 E1.45708
G1 X99.712 Y67.022 E1.48497
G1 X100.178 Y67.655 E1.52419
G1 X100.565 Y68.294 E1.56146
G1 X100.837 Y68.82 E1.591
G1 X101.036 Y69.379 E1.6206
G1 X101.158 Y69.959 E1.65017
G1 X101.201 Y70.551 E1.67979
G1 X101.164 Y71.142 E1.70933
G1 X101.048 Y71.724 E1.73894
G1 X100.855 Y72.284 E1.76849
G1 X100.588 Y72.814 E1.79809
G1 X100.252 Y73.303 E1.82769
G1 X99.854 Y73.742 E1.85726
G1 X99.545 Y74.013 E1.87776
G1 X94.149 Y78.317 E2.22212
G1 X90.136 Y81.93 E2.49152
G1 X86.337 Y85.762 E2.76072
G1 X82.746 Y89.818 E3.03099
G1 X79.028 Y94.521 E3.33009
G1 X78.63 Y94.96 E3.35965
G1 X78.176 Y95.342 E3.38925
G1 X77.675 Y95.659 E3.41883
G1 X77.136 Y95.906 E3.44841
G1 X76.569 Y96.079 E3.47799
G1 X75.983 Y96.173 E3.50759
G1 X75.39 Y96.188 E3.53719
G1 X74.801 Y96.123 E3.56675
G1 X74.226 Y95.98 E3.59631
G1 X73.675 Y95.76 E3.62591
G1 X73.345 Y95.585 E3.64455
G1 X72.699 Y95.205 E3.68194
G1 X72.209 Y94.87 E3.71155
G1 X71.791 Y94.495 E3.73957
G1 X71.067 Y93.758 E3.79111
G1 X70.681 Y93.308 E3.82069
G1 X70.29 Y92.681 E3.85756
G1 X69.747 Y91.621 E3.91697
G1 X69.513 Y91.076 E3.94657
G1 X69.356 Y90.517 E3.97553
G1 X69.131 Y89.443 E4.03028
G1 X69.043 Y88.741 E4.06558
G1 X68.775 Y82.855 E4.35953
G1 X68.77 Y82.666 E4.36897
G1 X68.756 Y77.037 E4.6498
G1 X68.759 Y76.856 E4.65883
G1 X68.841 Y74.737 E4.76463
G1 X68.863 Y74.438 E4.77958
G1 X69.204 Y71.259 E4.93909
G1 X69.381 Y70.41 E4.98236
G1 X69.795 Y69.091 E5.05133
G1 X70.01 Y68.539 E5.08089
G1 X70.433 Y67.823 E5.12238
G1 X71.073 Y66.942 E5.1767
G1 X71.112 Y66.895 E5.17975
G0 F1350 X71.453 Y66.487
G0 F3600 X71.761 Y66.744
G1 F1500 E5.20629
G1 X72.182 Y66.367 E5.23449
G1 X72.526 Y66.128 E5.25538
G1 X73.609 Y65.457 E5.31895
G1 X74.11 Y65.194 E5.34718
G1 X74.65 Y65.002 E5.37577
G1 X75.652 Y64.725 E5.42763
G1 X76.263 Y64.606 E5.45869
G1 X78.978 Y64.295 E5.59503
G1 X79.329 Y64.27 E5.61258
G1 X84.733 Y64.129 E5.88228
G1 X84.951 Y64.13 E5.89316
G1 X91.909 Y64.329 E6.24043
G1 X92.157 Y64.343 E6.25283
G1 X94.548 Y64.56 E6.3726
G1 X95.106 Y64.651 E6.40081
G1 X95.596 Y64.801 E6.42638
G1 X96.645 Y65.196 E6.4823
G1 X97.158 Y65.432 E6.51047
G1 X97.555 Y65.681 E6.53385
G1 X98.364 Y66.257 E6.5834
G1 X98.8 Y66.616 E6.61157
G1 X99.042 Y66.867 E6.62897
G1 X99.412 Y67.286 E6.65686
G1 X99.835 Y67.862 E6.69251
G1 X100.222 Y68.501 E6.72978
G1 X100.48 Y69.004 E6.75798
G1 X100.665 Y69.538 E6.78618
G1 X100.772 Y70.093 E6.81438
G1 X100.8 Y70.658 E6.8426
G1 X100.748 Y71.221 E6.87081
G1 X100.617 Y71.771 E6.89902
G1 X100.41 Y72.297 E6.92722
G1 X100.131 Y72.789 E6.95544
G1 X99.786 Y73.236 E6.98361
G1 X99.295 Y73.7 E7.01731
G1 X93.896 Y78.006 E7.36184
G1 X89.859 Y81.642 E7.6329
G1 X86.053 Y85.48 E7.90256
G1 X82.432 Y89.57 E8.17509
G1 X78.714 Y94.273 E8.47419
G1 X78.333 Y94.69 E8.50237
G1 X77.897 Y95.05 E8.53058
G1 X77.414 Y95.345 E8.55882
G1 X76.895 Y95.568 E8.587
G1 X76.35 Y95.716 E8.61517
G1 X75.789 Y95.786 E8.64338
G1 X75.223 Y95.776 E8.67162
G1 X74.665 Y95.687 E8.69981
G1 X74.125 Y95.52 E8.72801
G1 X73.548 Y95.24 E8.76001
G1 X72.902 Y94.86 E8.7974
G1 X72.436 Y94.539 E8.82563
G1 X72.077 Y94.215 E8.84976
G1 X71.353 Y93.478 E8.9013
G1 X70.986 Y93.048 E8.9295
G1 X70.646 Y92.499 E8.96172
G1 X70.103 Y91.439 E9.02114
G1 X69.881 Y90.919 E9.04935
G1 X69.748 Y90.435 E9.07439
G1 X69.523 Y89.361 E9.12914
G1 X69.442 Y88.723 E9.16122
G1 X69.174 Y82.837 E9.45518
G1 X69.17 Y82.665 E9.46376
G1 X69.156 Y77.036 E9.7446
G1 X69.159 Y76.871 E9.75283
G1 X69.241 Y74.752 E9.85862
G1 X69.261 Y74.48 E9.87223
G1 X69.602 Y71.301 E10.03174
G1 X69.763 Y70.53 E10.07104
G1 X70.177 Y69.211 E10.14001
G1 X70.384 Y68.685 E10.16821
G1 X70.757 Y68.058 E10.20461
G1 X71.397 Y67.177 E10.25893
G1 X71.419 Y67.151 E10.26063
G0 F1350 X71.761 Y66.744
G0 F3600 X72.067 Y67.003
G1 F1500 E10.28717
G1 X72.471 Y66.65 E10.31394
G1 X72.737 Y66.468 E10.33002
G1 X73.82 Y65.797 E10.39358
G1 X74.296 Y65.549 E10.42036
G1 X74.757 Y65.387 E10.44474
G1 X75.759 Y65.11 E10.4966
G1 X76.308 Y65.003 E10.52451
G1 X79.023 Y64.692 E10.66084
G1 X79.339 Y64.67 E10.67665
G1 X84.743 Y64.529 E10.94635
G1 X84.94 Y64.529 E10.95618
G1 X91.898 Y64.728 E11.30345
G1 X92.12 Y64.742 E11.31455
G1 X94.511 Y64.959 E11.43433
G1 X95.04 Y65.047 E11.46108
G1 X95.455 Y65.175 E11.48275
G1 X96.504 Y65.57 E11.53867
G1 X96.99 Y65.796 E11.56541
G1 X97.323 Y66.006 E11.58505
G1 X98.132 Y66.582 E11.6346
G1 X98.544 Y66.925 E11.66135
G1 X98.742 Y67.132 E11.67564
G1 X99.112 Y67.551 E11.70352
G1 X99.493 Y68.069 E11.7356
G1 X99.88 Y68.708 E11.77288
G1 X100.123 Y69.186 E11.79963
G1 X100.292 Y69.695 E11.82638
G1 X100.384 Y70.224 E11.85317
G1 X100.396 Y70.76 E11.87992
G1 X100.329 Y71.292 E11.90667
G1 X100.183 Y71.808 E11.93343
G1 X99.962 Y72.296 E11.96015
G1 X99.671 Y72.747 E11.98693
G1 X99.316 Y73.149 E12.01369
G1 X99.046 Y73.387 E12.03164
G1 X93.636 Y77.702 E12.37689
G1 X89.589 Y81.346 E12.64858
G1 X85.752 Y85.216 E12.92047
G1 X82.119 Y89.319 E13.19388
G1 X78.4 Y94.024 E13.49309
G1 X78.037 Y94.419 E13.51985
G1 X77.62 Y94.756 E13.5466
G1 X77.157 Y95.026 E13.57334
G1 X76.659 Y95.225 E13.6001
G1 X76.137 Y95.348 E13.62685
G1 X75.602 Y95.392 E13.65363
G1 X75.067 Y95.356 E13.68038
G1 X74.543 Y95.241 E13.70715
G1 X74.042 Y95.049 E13.73392
G1 X73.751 Y94.895 E13.75034
G1 X73.105 Y94.515 E13.78773
G1 X72.664 Y94.209 E13.81451
G1 X72.362 Y93.935 E13.83486
G1 X71.638 Y93.198 E13.8864
G1 X71.292 Y92.788 E13.91317
G1 X71.002 Y92.316 E13.9408
G1 X70.459 Y91.256 E14.00022
G1 X70.251 Y90.762 E14.02696
G1 X70.139 Y90.353 E14.04812
G1 X69.914 Y89.279 E14.10286
G1 X69.842 Y88.705 E14.13173
G1 X69.574 Y82.819 E14.42568
G1 X69.57 Y82.664 E14.43342
G1 X69.556 Y77.035 E14.71425
G1 X69.559 Y76.887 E14.72164
G1 X69.641 Y74.768 E14.82743
G1 X69.659 Y74.523 E14.83969
G1 X70 Y71.344 E14.9992
G1 X70.144 Y70.65 E15.03456
G1 X70.558 Y69.331 E15.10353
G1 X70.756 Y68.833 E15.13027
G1 X71.08 Y68.293 E15.16169
G1 X71.72 Y67.412 E15.21601
G1 X71.723 Y67.408 E15.21626
G0 F1350 X72.067 Y67.003
G0 F3600 X72.373 Y67.263
G1 F1500 E15.24281
G1 X72.948 Y66.808 E15.27939
G1 X74.031 Y66.137 E15.34295
G1 X74.48 Y65.905 E15.36816
G1 X74.863 Y65.773 E15.38837
G1 X75.865 Y65.496 E15.44024
G1 X76.354 Y65.401 E15.46509
G1 X79.069 Y65.09 E15.60143
G1 X79.35 Y65.07 E15.61548
G1 X84.754 Y64.929 E15.88518
G1 X84.928 Y64.929 E15.89386
G1 X91.886 Y65.128 E16.24114
G1 X92.084 Y65.14 E16.25104
G1 X94.475 Y65.357 E16.37082
G1 X94.974 Y65.442 E16.39607
G1 X95.314 Y65.549 E16.41385
G1 X96.363 Y65.944 E16.46977
G1 X96.82 Y66.159 E16.49497
G1 X97.091 Y66.332 E16.51101
G1 X97.9 Y66.908 E16.56056
G1 X98.443 Y67.397 E16.59701
G1 X98.813 Y67.816 E16.6249
G1 X99.151 Y68.276 E16.65338
G1 X99.538 Y68.915 E16.69065
G1 X99.765 Y69.367 E16.71589
G1 X99.918 Y69.849 E16.74111
G1 X99.993 Y70.349 E16.76634
G1 X99.989 Y70.854 E16.79153
G1 X99.904 Y71.353 E16.81679
G1 X99.743 Y71.832 E16.842
G1 X99.508 Y72.28 E16.86724
G1 X99.205 Y72.685 E16.89247
G1 X98.796 Y73.075 E16.92067
G1 X93.375 Y77.399 E17.26662
G1 X89.311 Y81.059 E17.53948
G1 X85.461 Y84.942 E17.81228
G1 X81.813 Y89.061 E18.08679
G1 X78.086 Y93.776 E18.38663
G1 X77.743 Y94.147 E18.41184
G1 X77.345 Y94.459 E18.43707
G1 X76.902 Y94.704 E18.46233
G1 X76.427 Y94.877 E18.48755
G1 X75.931 Y94.972 E18.51275
G1 X75.426 Y94.988 E18.53795
G1 X74.924 Y94.925 E18.56319
G1 X74.439 Y94.783 E18.58841
G1 X73.954 Y94.55 E18.61525
G1 X73.308 Y94.17 E18.65264
G1 X72.893 Y93.88 E18.6779
G1 X72.647 Y93.655 E18.69453
G1 X71.923 Y92.918 E18.74608
G1 X71.599 Y92.53 E18.77129
G1 X71.358 Y92.134 E18.79442
G1 X70.815 Y91.074 E18.85384
G1 X70.621 Y90.607 E18.87907
G1 X70.531 Y90.271 E18.89642
G1 X70.306 Y89.197 E18.95117
G1 X70.241 Y88.687 E18.97682
G1 X69.973 Y82.801 E19.27078
G1 X69.97 Y82.663 E19.27766
G1 X69.956 Y77.034 E19.5585
G1 X69.958 Y76.902 E19.56508
G1 X70.04 Y74.783 E19.67088
G1 X70.056 Y74.566 E19.68173
G1 X70.397 Y71.387 E19.84125
G1 X70.526 Y70.77 E19.87269
G1 X70.94 Y69.451 E19.94166
G1 X71.129 Y68.982 E19.96689
G1 X71.404 Y68.528 E19.99337
G1 X72.029 Y67.668 E20.04641
G0 F1350 X72.044 Y67.647
G0 X72.373 Y67.263
G1 F2100 E18.04641
G0 F3600 X74.688 Y68.63
G0 X75.412 Y69.691
G0 X75.815 Y69.512
G0 X75.845 Y69.607
;TYPE:WALL-INNER
G1 F1500 E20.07295
G1 F840 X75.685 Y69.671 E20.08155
G1 X75.663 Y69.68 E20.08274
G1 X75.46 Y69.786 E20.09416
G1 X75.437 Y69.798 E20.09546
G1 X75.344 Y69.863 E20.10112
G1 X75.267 Y69.917 E20.10581
G1 X75.183 Y69.991 E20.11139
G1 X75.079 Y70.083 E20.11832
G1 X74.976 Y70.198 E20.12602
G1 X74.923 Y70.257 E20.12998
G1 X74.909 Y70.277 E20.1312
G1 X74.806 Y70.423 E20.14011
G1 X74.781 Y70.47 E20.14277
G1 X74.685 Y70.649 E20.1529
G1 X74.673 Y70.678 E20.15447
G1 X74.611 Y70.827 E20.16252
G1 X74.586 Y70.921 E20.16737
G1 X74.556 Y71.031 E20.17306
G1 X74.521 Y71.209 E20.18211
G1 X74.491 Y71.49 E20.19621
G1 X74.486 Y71.535 E20.19847
G1 X74.476 Y71.791 E20.21125
G1 X74.461 Y72.139 E20.22863
G1 X74.461 Y72.155 E20.22943
G1 X74.455 Y72.494 E20.24634
G1 X74.445 Y72.962 E20.2697
G1 X74.427 Y75.519 E20.39727
G1 X74.434 Y88.113 E21.02558
G1 X74.456 Y88.536 E21.04672
G1 X74.498 Y88.834 E21.06173
G1 X74.565 Y89.139 E21.07731
G1 X74.632 Y89.353 E21.0885
G1 X74.721 Y89.572 E21.10029
G1 X74.847 Y89.804 E21.11346
G1 X74.993 Y90.024 E21.12664
G1 X75.086 Y90.133 E21.13378
G1 X75.111 Y90.201 E21.1374
G1 X75.111 Y90.34 E21.14433
G1 X75.111 Y90.531 E21.15386
G1 X75.111 Y90.701 E21.16234
G1 X75.111 Y90.793 E21.16693
G1 X75.008 Y90.701
G1 X74.846 Y90.531
G1 X74.726 Y90.382 E21.17496
G1 X74.705 Y90.356 E21.17663
G1 X74.582 Y90.178 E21.18742
G1 X74.467 Y89.986 E21.19859
G1 X74.361 Y89.773 E21.21046
G1 X74.298 Y89.63 E21.21825
G1 X74.234 Y89.461 E21.22727
G1 X74.167 Y89.246 E21.23851
G1 X74.123 Y89.075 E21.24731
G1 X74.071 Y88.804 E21.26108
G1 X74.033 Y88.549 E21.27394
G1 X73.987 Y87.937 E21.30456
G1 X73.904 Y86.322 E21.38524
G1 X73.838 Y84.786 E21.46194
G1 X73.758 Y82.255 E21.58828
G1 X73.736 Y80.959 E21.65295
G1 X73.725 Y79.404 E21.73053
G1 X73.736 Y77.968 E21.80217
G1 X73.765 Y76.657 E21.86759
G1 X73.812 Y75.395 E21.9306
G1 X73.872 Y74.329 E21.98387
G1 X73.95 Y73.378 E22.03147
G1 X74.05 Y72.516 E22.07476
G1 X74.055 Y72.485 E22.07633
G1 X74.103 Y72.149 E22.09233
G1 X74.115 Y72.078 E22.09528
G1 X74.17 Y71.778 E22.10683
G1 X74.238 Y71.479 E22.1149
G1 X74.242 Y71.462
G1 X74.32 Y71.181 E22.11941
G1 X74.333 Y71.144
G1 X74.393 Y70.974
G1 X74.427 Y70.879
G1 X74.479 Y70.767
G1 X74.544 Y70.625
G1 X74.568 Y70.583
G1 X74.667 Y70.41
G1 X74.707 Y70.353
G1 X74.81 Y70.209
G1 X74.831 Y70.183
G1 X74.885 Y70.117
G1 X74.997 Y70.003
G1 X75.101 Y69.898
G1 X75.194 Y69.825
G1 X75.273 Y69.763
G1 X75.368 Y69.699
G1 X75.402 Y69.675
G1 X75.594 Y69.563
G1 X75.632 Y69.541
G1 X75.783 Y69.473 E22.11994
G1 X75.887 Y69.425 E22.12556
G1 X76.023 Y69.372 E22.13285
G1 X76.151 Y69.334 E22.13951
G1 X76.456 Y69.243 E22.15539
G1 X76.494 Y69.235 E22.15732
G1 X76.777 Y69.171 E22.1718
G1 X77.09 Y69.115 E22.18766
G1 X77.148 Y69.104 E22.19061
G1 X77.515 Y69.055 E22.20908
G1 X77.943 Y68.996 E22.23064
G1 X78.832 Y68.91 E22.27519
G1 X79.845 Y68.842 E22.32585
G1 X80.981 Y68.788 E22.38259
G1 X82.297 Y68.747 E22.44827
G1 X83.669 Y68.728 E22.51673
G1 X85.16 Y68.728 E22.59112
G1 X86.596 Y68.746 E22.66276
G1 X87.937 Y68.777 E22.72968
G1 X89.359 Y68.822 E22.80066
G1 X92.122 Y68.943 E22.93864
G1 X93.216 Y69.004 E22.99331
G1 X93.703 Y69.053 E23.01773
G1 X93.925 Y69.091 E23.02896
G1 X94.303 Y69.185 E23.0484
G1 X94.65 Y69.307 E23.06675
G1 X94.841 Y69.392 E23.07718
G1 X95.036 Y69.495 E23.08818
G1 X95.225 Y69.612 E23.09927
G1 X95.369 Y69.715 E23.1081
G1 X95.405 Y69.741 E23.11032
G1 X95.584 Y69.894 E23.12207
G1 X95.793 Y70.112 E23.13713
G1 X95.584 Y70.112
G1 X95.405 Y70.112
G1 X95.36 Y70.112 E23.1393
G1 X95.198 Y70.112 E23.14738
G1 X95.141 Y70.092 E23.1504
G1 X95.016 Y69.987 E23.15854
G1 X94.797 Y69.842 E23.17164
G1 X94.578 Y69.724 E23.18406
G1 X94.362 Y69.635 E23.19571
G1 X94.153 Y69.568 E23.20666
G1 X93.847 Y69.5 E23.2223
G1 X93.553 Y69.458 E23.23712
G1 X93.25 Y69.437 E23.25227
G1 X92.983 Y69.427 E23.2656
G1 X80.551 Y69.428 E23.88583
G1 X77.982 Y69.445 E24.014
G1 X77.525 Y69.454 E24.03681
G1 X77.154 Y69.461 E24.05433
G1 X76.79 Y69.476 E24.06842
G1 X76.551 Y69.486 E24.07422
G1 X76.482 Y69.493
G1 X76.207 Y69.521 E24.07598
G1 X76.066 Y69.554
G1 X75.926 Y69.587
G1 X75.86 Y69.604
G0 F756 X75.845 Y69.607
G0 F3600 X75.967 Y69.989
;TYPE:WALL-OUTER
G1 F840 X75.831 Y70.044 E24.0833
G1 X75.645 Y70.141 E24.09377
G1 X75.515 Y70.232 E24.10168
G1 X75.361 Y70.368 E24.11193
G1 X75.236 Y70.507 E24.12126
G1 X75.147 Y70.633 E24.12896
G1 X75.047 Y70.821 E24.13958
G1 X74.99 Y70.957 E24.14694
G1 X74.946 Y71.121 E24.15541
G1 X74.917 Y71.269 E24.16293
G1 X74.885 Y71.565 E24.17779
G1 X74.861 Y72.151 E24.20705
G1 X74.845 Y72.967 E24.24776
G1 X74.827 Y75.52 E24.37514
G1 X74.834 Y88.102 E25.00286
G1 X74.855 Y88.498 E25.02264
G1 X74.892 Y88.763 E25.03599
G1 X74.952 Y89.036 E25.04993
G1 X75.009 Y89.218 E25.05945
G1 X75.083 Y89.401 E25.0693
G1 X75.19 Y89.597 E25.08044
G1 X75.313 Y89.783 E25.09156
G1 X75.438 Y89.929 E25.10115
G1 X75.511 Y90.13 E25.11182
G1 X75.511 Y91.305 E25.17044
G1 X75.511 Y91.32 E25.17119
G1 X75.511 Y91.476 E25.17897
G1 X75.511 Y91.557 E25.18301
G1 X75.363 Y91.476
G1 X75.126 Y91.32 E25.19391
G1 X75.115 Y91.311 E25.1946
G1 X74.933 Y91.171 E25.20606
G1 X74.727 Y90.986 E25.21987
G1 X74.546 Y90.796 E25.23296
G1 X74.389 Y90.602 E25.24542
G1 X74.239 Y90.385 E25.25858
G1 X74.117 Y90.18 E25.27048
G1 X74.003 Y89.952 E25.2832
G1 X73.932 Y89.792 E25.29193
G1 X73.854 Y89.586 E25.30292
G1 X73.785 Y89.366 E25.31442
G1 X73.731 Y89.157 E25.32519
G1 X73.675 Y88.864 E25.34007
G1 X73.635 Y88.597 E25.35354
G1 X73.588 Y87.967 E25.38506
G1 X73.505 Y86.339 E25.46639
G1 X73.438 Y84.803 E25.54309
G1 X73.358 Y82.268 E25.66963
G1 X73.336 Y80.966 E25.73459
G1 X73.325 Y79.401 E25.81267
G1 X73.336 Y77.959 E25.88462
G1 X73.365 Y76.642 E25.95034
G1 X73.412 Y75.38 E26.01334
G1 X73.474 Y74.297 E26.06746
G1 X73.551 Y73.346 E26.11506
G1 X73.654 Y72.459 E26.15961
