;FLAVOR:Marlin
;TIME:740
;Filament used: 0.517117m
;Layer height: 0.2
;Generated with Cura_SteamEngine 3.2.1
M82 ;absolute extrusion mode
;---------------------------------------
; ; ; Jellybox Start Script Begin ; ; ;
;_______________________________________
; M92 E140 ;optionally adjust steps per mm for your filament

;              Print Settings Summary
; (leave these alone: this is only a list of the slicing settings)
; (overwriting these values will NOT change your printer's behavior)
;             sliced for :  {machine_name}
;        nozzle diameter :  {machine_nozzle_size}
;      filament diameter :  {material_diameter}
;           layer height :  {layer_height}
;       1st layer height :  {layer_height_0}
;             line width :  {line_width}  
;  outer wall wipe dist. :  {wall_0_wipe_dist}
;      infill line width :  {infill_line_width}
;         wall thickness :  {wall_thickness}
;          top thickness :  {top_thickness}
;       bottom thickness :  {bottom_thickness}
;         infill density :  {infill_sparse_density}
;         infill pattern :  {infill_pattern}
;      print temperature :  {material_print_temperature}
;  1st layer print temp. :  {material_print_temperature_layer_0}
; heated bed temperature :  {material_bed_temperature}
;    1st layer bed temp. :  {material_bed_temperature_layer_0}
;      regular fan speed :  {cool_fan_speed_min}
;          max fan speed :  {cool_fan_speed_max}
;     retraction amount  :  {retraction_amount}
;   retr. retract speed  :  {retraction_retract_speed}
;     retr. prime speed  :  {retraction_prime_speed}
;   build plate adhesion :  {adhesion_type}
;                support ?  {support_enable}
;             spiralized ?  {magic_spiralize}

G21               ;metric values
G90               ;absolute positioning
M82               ;set extruder to absolute mode
M107              ;start with the fan off
M117 Preparing    ;write Preparing
M140 S45          ;set bed temperature and move on
M109 S180         ;wait for the extruder to reach 180C
G28               ;home all axes
M203 Z4           ;slow Z speed down for greater accuracy when probing
G29               ;auto bed leveling procedure
;M500              ;optionally save the mesh
M203 Z7           ;pick up z speed again for printing
G28 X             ;home x to get as far from the plate as possible
M420 S1           ;(re) enable bed leveling turned off by the G28
G0 Y0 F5000       ;position Y in front
G0 Z15 F3000      ;position Z
M190 S65              ;wait for the bed to reach desired temperature
M109 S235             ;wait for the extruder to reach desired temperature
M300 S440 P100    ;play a tone
G4 P200           ;pause
M300 S440 P100    ;play a tone
G4 P200           ;pause
M300 S440 P800    ;play a tone
M0
M420 S1           ;(re) enable bed leveling to make iron-sure
M117 Print starting   ;write Print starting
;================ ;PRINT:LINE start
G90               ;absolute positioning
G92 E0            ;reset the extruder position
M420 S1           ;(re) enable bed leveling to make iron-sure
G0 Z0             ;get Z down
M83               ;relative extrusion mode
G1 E22 F500       ;extrude __mm of feed stock
G1 E18 F400       ;extrude __mm of feed stock
G1 E10 F400       ;extrude __mm of feed stock
G4 S2             ;pause for ooze
M400              ;make sure all is finished
M420 S1           ;(re) enable bed leveling to make iron-sure
G0 F500 X3 Y0 Z0.6;get to the start of the LINE
G1 E2 F300        ;extrude __mm of feed stock
G1 F1000 X104 E10  ;print a thick LINE extruding __mm along the way
M82               ;absolute extrusion mode
G92 E0            ;reset the extruder position
;---------------------------------------------
; ; ; Jellybox Printer Start Script End ; ; ;
;_____________________________________________

M83 ;relative extrusion mode
;LAYER_COUNT:34
;LAYER:0
M107
G0 F3600 X19.569 Y60.801 Z0.3
;TYPE:SKIRT
G1 F1200 X20.395 Y60.62 E0.04008
G1 X21.437 Y60.48 E0.04983
G1 X22.079 Y60.434 E0.03051
G1 X22.657 Y60.461 E0.02742
G1 X29.082 Y61.119 E0.30611
G1 X34.455 Y61.368 E0.25493
G1 X41.343 Y61.389 E0.32646
G1 X46.711 Y61.189 E0.2546
G1 X53.271 Y60.54 E0.31243
G1 X54.167 Y60.529 E0.04247
G1 X55.403 Y60.621 E0.05874
G1 X56.041 Y60.709 E0.03052
G1 X56.742 Y60.902 E0.03446
G1 X57.554 Y61.188 E0.0408
G1 X58.147 Y61.439 E0.03052
G1 X58.813 Y61.836 E0.03675
G1 X59.807 Y62.534 E0.05757
G1 X60.31 Y62.936 E0.03052
G1 X60.913 Y63.585 E0.04199
G1 X61.575 Y64.432 E0.05095
G1 X61.94 Y64.963 E0.03054
G1 X62.238 Y65.542 E0.03086
G1 X62.601 Y66.369 E0.04281
G1 X62.823 Y66.974 E0.03054
G1 X62.987 Y67.722 E0.03629
G1 X63.151 Y68.871 E0.05501
G1 X63.202 Y69.513 E0.03052
G1 X63.175 Y70.139 E0.0297
G1 X62.534 Y76.321 E0.29457
G1 X62.273 Y81.719 E0.25614
G1 X62.248 Y88.799 E0.33556
G1 X62.448 Y94.166 E0.25455
G1 X63.097 Y100.725 E0.31239
G1 X63.108 Y101.612 E0.04204
G1 X63.019 Y102.838 E0.05826
G1 X62.933 Y103.476 E0.03051
G1 X62.722 Y104.231 E0.03715
G1 X62.399 Y105.122 E0.04492
G1 X62.143 Y105.713 E0.03053
G1 X61.742 Y106.372 E0.03656
G1 X61.082 Y107.295 E0.05378
G1 X60.675 Y107.794 E0.03052
G1 X60.075 Y108.351 E0.0388
G1 X59.246 Y109.005 E0.05005
G1 X58.716 Y109.371 E0.03053
G1 X58.165 Y109.661 E0.02951
G1 X57.369 Y110.02 E0.04139
G1 X56.766 Y110.248 E0.03055
G1 X56.027 Y110.418 E0.03594
G1 X54.862 Y110.598 E0.05587
G1 X54.221 Y110.657 E0.03051
G1 X53.542 Y110.632 E0.0322
G1 X47.104 Y109.974 E0.30672
G1 X41.727 Y109.724 E0.25512
G1 X34.839 Y109.703 E0.32646
G1 X29.471 Y109.903 E0.2546
G1 X22.908 Y110.552 E0.31258
G1 X22.011 Y110.563 E0.04252
G1 X20.778 Y110.471 E0.0586
G1 X20.14 Y110.383 E0.03052
G1 X19.302 Y110.139 E0.04137
G1 X18.324 Y109.763 E0.04966
G1 X17.738 Y109.495 E0.03054
G1 X17.112 Y109.101 E0.03506
G1 X16.285 Y108.493 E0.04865
G1 X15.791 Y108.08 E0.03052
G1 X15.53 Y107.814 E0.01766
G1 X15.186 Y107.438 E0.02415
G1 X14.609 Y106.678 E0.04523
G1 X14.129 Y105.907 E0.04305
G1 X13.823 Y105.34 E0.03054
G1 X13.582 Y104.714 E0.03179
G1 X13.27 Y103.717 E0.04951
G1 X13.116 Y103.092 E0.03051
G1 X13.036 Y102.352 E0.03528
G1 X12.999 Y101.312 E0.04932
G1 X13.033 Y100.508 E0.03814
G1 X13.422 Y97.271 E0.15452
G1 X13.824 Y91.897 E0.25542
G1 X13.918 Y85.019 E0.32602
G1 X13.87 Y79.579 E0.25784
G1 X13.517 Y74.192 E0.25587
G1 X13.084 Y70.291 E0.18603
G1 X13.052 Y69.648 E0.03051
G1 X13.073 Y69.248 E0.01898
G1 X13.173 Y68.149 E0.0523
G1 X13.271 Y67.512 E0.03055
G1 X13.487 Y66.784 E0.03599
G1 X13.846 Y65.834 E0.04813
G1 X14.111 Y65.247 E0.03052
G1 X14.435 Y64.714 E0.02956
G1 X14.94 Y63.985 E0.04203
G1 X15.339 Y63.479 E0.03054
G1 X15.81 Y63.015 E0.03134
G1 X16.611 Y62.322 E0.0502
G1 X17.124 Y61.932 E0.03054
G1 X17.887 Y61.51 E0.04133
G1 X18.966 Y61.027 E0.05603
G1 X19.569 Y60.801 E0.03052
G1 F2400 E-2
G1 F300 Z0.45
G0 F3600 X34.423 Y87.246 Z0.45
;TYPE:WALL-INNER
G1 F300 Z0.3
G1 F1800 E2
G1 F1200 X34.423 Y83.348 E0.18475
G1 X38.085 Y81.306 E0.19872
G1 X45.671 Y85.591 E0.41294
G1 X45.671 Y81.084 E0.21361
G1 X38.091 Y76.804 E0.41257
G1 X30.508 Y81.064 E0.41223
G1 X30.508 Y84.986 E0.18589
G1 X34.423 Y87.246 E0.21425
G1 F2400 E-2
G1 F300 Z0.45
G0 F3600 X38.089 Y89.363 Z0.45
G1 F300 Z0.3
G1 F1800 E2
G1 F1200 X41.329 Y87.492 E0.17733
G1 X41.329 Y83.751 E0.17731
G1 X38.089 Y81.88 E0.17733
G1 X34.849 Y83.751 E0.17733
G1 X34.849 Y87.492 E0.17731
G1 X38.089 Y89.363 E0.17733
G1 F2400 E-2
G1 F300 Z0.45
G0 F3600 X41.756 Y83.923 Z0.45
G1 F300 Z0.3
G1 F1800 E2
G1 F1200 X41.756 Y87.821 E0.18475
G1 X38.094 Y89.863 E0.19872
G1 X30.508 Y85.578 E0.41294
G1 X30.508 Y90.085 E0.21361
G1 X38.088 Y94.365 E0.41257
G1 X45.671 Y90.105 E0.41223
G1 X45.671 Y86.183 E0.18589
G1 X41.756 Y83.923 E0.21425
G1 F2400 E-2
G1 F300 Z0.45
G0 F3600 X55.455 Y91.732 Z0.45
G1 F300 Z0.3
G1 F1800 E2
G1 F1200 X55.455 Y98.036 E0.29878
G1 X55.132 Y97.915 E0.01635
G1 X54.585 Y97.797 E0.02652
G1 X54.029 Y97.763 E0.0264
G1 X53.474 Y97.806 E0.02638
G1 X52.93 Y97.932 E0.02647
G1 X52.411 Y98.135 E0.02641
G1 X51.927 Y98.412 E0.02643
G1 X51.489 Y98.756 E0.0264
G1 X51.104 Y99.161 E0.02648
G1 X50.784 Y99.617 E0.0264
G1 X50.531 Y100.113 E0.02639
G1 X50.356 Y100.644 E0.0265
G1 X50.258 Y101.194 E0.02648
G1 X50.243 Y101.75 E0.02636
G1 X50.307 Y102.304 E0.02643
G1 X50.453 Y102.843 E0.02647
G1 X50.511 Y102.976 E0.00688
G1 X44.09 Y102.976 E0.30433
G1 X42.92 Y103.331 E0.05795
G1 X41.85 Y103.588 E0.05216
G1 X40.776 Y103.779 E0.0517
G1 X39.645 Y103.909 E0.05396
G1 X38.55 Y103.97 E0.05198
G1 X37.44 Y103.964 E0.05261
G1 X36.337 Y103.892 E0.05239
G1 X35.216 Y103.75 E0.05356
G1 X34.145 Y103.548 E0.05166
G1 X33.057 Y103.275 E0.05317
G1 X31.905 Y102.91 E0.05727
G1 X25.601 Y102.91 E0.29878
G1 X25.722 Y102.587 E0.01635
G1 X25.839 Y102.04 E0.02651
G1 X25.876 Y101.484 E0.02641
G1 X25.83 Y100.928 E0.02644
G1 X25.705 Y100.385 E0.02641
G1 X25.502 Y99.866 E0.02641
G1 X25.225 Y99.381 E0.02647
G1 X24.881 Y98.943 E0.0264
G1 X24.477 Y98.559 E0.02642
G1 X24.021 Y98.238 E0.02643
G1 X23.524 Y97.986 E0.02641
G1 X22.995 Y97.811 E0.02641
G1 X22.444 Y97.713 E0.02652
G1 X21.887 Y97.697 E0.02641
G1 X21.333 Y97.762 E0.02644
G1 X20.794 Y97.907 E0.02645
G1 X20.661 Y97.965 E0.00688
G1 X20.661 Y91.545 E0.30428
G1 X20.309 Y90.384 E0.0575
G1 X20.046 Y89.289 E0.05337
G1 X19.858 Y88.23 E0.05098
G1 X19.727 Y87.094 E0.0542
G1 X19.667 Y86.009 E0.0515
G1 X19.673 Y84.895 E0.0528
G1 X19.744 Y83.804 E0.05182
G1 X19.887 Y82.669 E0.05422
G1 X20.089 Y81.6 E0.05156
G1 X20.362 Y80.513 E0.05312
G1 X20.727 Y79.36 E0.05732
G1 X20.727 Y73.055 E0.29883
G1 X21.052 Y73.177 E0.01645
G1 X21.598 Y73.294 E0.02647
G1 X22.153 Y73.329 E0.02636
G1 X22.708 Y73.286 E0.02638
G1 X23.252 Y73.16 E0.02647
G1 X23.771 Y72.957 E0.02641
G1 X24.256 Y72.68 E0.02647
G1 X24.695 Y72.336 E0.02643
G1 X25.078 Y71.931 E0.02642
G1 X25.398 Y71.475 E0.0264
G1 X25.651 Y70.979 E0.02639
G1 X25.826 Y70.449 E0.02645
G1 X25.924 Y69.9 E0.02643
G1 X25.94 Y69.342 E0.02646
G1 X25.875 Y68.788 E0.02644
G1 X25.73 Y68.249 E0.02645
G1 X25.672 Y68.116 E0.00688
G1 X32.092 Y68.116 E0.30428
G1 X33.262 Y67.761 E0.05795
G1 X34.333 Y67.504 E0.0522
G1 X35.407 Y67.313 E0.0517
G1 X36.537 Y67.183 E0.05391
G1 X37.632 Y67.122 E0.05198
G1 X38.742 Y67.128 E0.05261
G1 X39.846 Y67.2 E0.05244
G1 X40.967 Y67.342 E0.05356
G1 X42.037 Y67.544 E0.05161
G1 X43.128 Y67.818 E0.05331
G1 X44.277 Y68.182 E0.05713
G1 X50.582 Y68.182 E0.29883
G1 X50.461 Y68.505 E0.01635
G1 X50.343 Y69.053 E0.02657
G1 X50.308 Y69.608 E0.02636
G1 X50.351 Y70.163 E0.02638
G1 X50.478 Y70.707 E0.02648
G1 X50.68 Y71.226 E0.0264
G1 X50.957 Y71.711 E0.02647
G1 X51.301 Y72.15 E0.02643
G1 X51.706 Y72.533 E0.02642
G1 X52.162 Y72.854 E0.02643
G1 X52.659 Y73.106 E0.02641
G1 X53.188 Y73.281 E0.02641
G1 X53.737 Y73.379 E0.02643
G1 X54.295 Y73.395 E0.02646
G1 X54.849 Y73.33 E0.02644
G1 X55.388 Y73.185 E0.02645
G1 X55.521 Y73.127 E0.00688
G1 X55.521 Y79.548 E0.30433
G1 X55.874 Y80.702 E0.0572
G1 X56.134 Y81.788 E0.05293
G1 X56.328 Y82.884 E0.05275
G1 X56.455 Y83.975 E0.05206
G1 X56.515 Y85.083 E0.05259
G1 X56.509 Y86.197 E0.0528
G1 X56.438 Y87.288 E0.05182
G1 X56.295 Y88.42 E0.05408
G1 X56.093 Y89.493 E0.05175
G1 X55.822 Y90.576 E0.05291
G1 X55.455 Y91.732 E0.05748
G1 F2400 E-2
G1 F300 Z0.45
G0 F3600 X50.681 Y102.232 Z0.45
;TYPE:WALL-OUTER
G1 F300 Z0.3
G1 F1800 E2
G1 F1200 X50.813 Y102.717 E0.02382
G1 X51.012 Y103.177 E0.02375
G1 X51.277 Y103.604 E0.02382
G1 X51.601 Y103.986 E0.02374
G1 X51.978 Y104.32 E0.02387
G1 X52.398 Y104.593 E0.02374
G1 X52.854 Y104.802 E0.02377
G1 X53.336 Y104.944 E0.02382
G1 X53.834 Y105.013 E0.02383
G1 X54.335 Y105.009 E0.02375
G1 X54.832 Y104.933 E0.02383
G1 X55.31 Y104.784 E0.02373
G1 X55.764 Y104.567 E0.02385
G1 X56.181 Y104.288 E0.02378
G1 X56.552 Y103.949 E0.02382
G1 X56.871 Y103.562 E0.02377
G1 X57.129 Y103.131 E0.02381
G1 X57.321 Y102.667 E0.0238
G1 X57.445 Y102.18 E0.02382
G1 X57.495 Y101.681 E0.02377
G1 X57.474 Y101.18 E0.02377
G1 X57.379 Y100.688 E0.02375
G1 X57.214 Y100.212 E0.02388
G1 X56.981 Y99.768 E0.02377
G1 X56.686 Y99.362 E0.02379
G1 X56.334 Y99.003 E0.02383
G1 X55.934 Y98.699 E0.02381
G1 X55.495 Y98.457 E0.02376
G1 X55.025 Y98.281 E0.02379
G1 X54.533 Y98.175 E0.02385
G1 X54.032 Y98.144 E0.02379
G1 X53.532 Y98.183 E0.02377
G1 X53.043 Y98.296 E0.02379
G1 X52.575 Y98.479 E0.02382
G1 X52.14 Y98.728 E0.02376
G1 X51.745 Y99.038 E0.0238
G1 X51.399 Y99.402 E0.0238
G1 X51.11 Y99.813 E0.02381
G1 X50.883 Y100.26 E0.02376
G1 X50.725 Y100.737 E0.02382
G1 X50.637 Y101.232 E0.02383
G1 X50.624 Y101.733 E0.02375
G1 X50.681 Y102.232 E0.0238
G0 F3600 X50.813 Y102.717
G0 X50.851 Y102.806
G1 F2400 E-2
G1 F300 Z0.45
G0 F3600 X42.136 Y84.581 Z0.45
G1 F300 Z0.3
G1 F1800 E2
G1 F1200 X42.136 Y88.044 E0.16413
G1 X38.093 Y90.299 E0.21941
G1 X30.888 Y86.229 E0.3922
G1 X30.888 Y89.863 E0.17224
G1 X38.088 Y93.929 E0.3919
G1 X45.291 Y89.883 E0.39156
G1 X45.291 Y86.402 E0.16498
G1 X42.136 Y84.581 E0.17265
G0 F3600 X42.136 Y85.181
G1 F2400 E-2
G1 F300 Z0.45
G0 F3600 X35.229 Y83.97 Z0.45
G1 F300 Z0.3
G1 F1800 E2
G1 F1200 X35.229 Y87.273 E0.15655
G1 X38.089 Y88.924 E0.15652
G1 X40.949 Y87.273 E0.15652
G1 X40.949 Y83.97 E0.15655
G1 X38.089 Y82.319 E0.15652
G1 X35.229 Y83.97 E0.15652
G0 F3600 X35.229 Y84.57
G1 F2400 E-2
G1 F300 Z0.45
G0 F3600 X34.043 Y86.588 Z0.45
G1 F300 Z0.3
G1 F1800 E2
G1 F1200 X34.043 Y83.125 E0.16413
G1 X38.086 Y80.87 E0.21941
G1 X45.291 Y84.94 E0.3922
G1 X45.291 Y81.306 E0.17224
G1 X38.091 Y77.24 E0.3919
G1 X30.888 Y81.286 E0.39156
G1 X30.888 Y84.767 E0.16498
G1 X34.043 Y86.588 E0.17265
G0 F3600 X34.043 Y85.988
G1 F2400 E-2
G1 F300 Z0.45
G0 F3600 X25.392 Y67.736 Z0.45
G1 F300 Z0.3
G1 F1800 E2
G1 F1200 X32.036 Y67.736 E0.3149
G1 X33.152 Y67.397 E0.05528
G1 X34.259 Y67.131 E0.05396
G1 X35.364 Y66.935 E0.05319
G1 X36.494 Y66.805 E0.05391
G1 X37.629 Y66.742 E0.05388
G1 X38.752 Y66.748 E0.05323
G1 X39.886 Y66.822 E0.05386
G1 X41.017 Y66.965 E0.05403
G1 X42.13 Y67.175 E0.05368
G1 X43.221 Y67.449 E0.05331
G1 X44.336 Y67.802 E0.05543
G1 X50.86 Y67.802 E0.30921
G1 X51.193 Y67.31 E0.02816
G1 X51.526 Y66.935 E0.02377
G1 X51.907 Y66.609 E0.02377
G1 X52.363 Y66.317 E0.02566
G1 X52.823 Y66.107 E0.02397
G1 X53.302 Y65.963 E0.02371
G1 X53.8 Y65.885 E0.02389
G1 X54.297 Y65.874 E0.02356
G1 X54.799 Y65.932 E0.02395
G1 X55.284 Y66.056 E0.02373
G1 X55.748 Y66.243 E0.02371
G1 X56.18 Y66.49 E0.02359
G1 X56.582 Y66.8 E0.02406
G1 X56.935 Y67.157 E0.0238
G1 X57.236 Y67.557 E0.02373
G1 X57.477 Y67.991 E0.02353
G1 X57.663 Y68.46 E0.02391
G1 X57.782 Y68.95 E0.0239
G1 X57.834 Y69.446 E0.02364
G1 X57.816 Y69.952 E0.024
G1 X57.734 Y70.441 E0.0235
G1 X57.586 Y70.919 E0.02372
G1 X57.372 Y71.374 E0.02383
G1 X57.098 Y71.799 E0.02397
G1 X56.772 Y72.179 E0.02373
G1 X56.399 Y72.51 E0.02364
G1 X55.901 Y72.847 E0.0285
G1 X55.901 Y79.491 E0.3149
G1 X56.24 Y80.602 E0.05505
G1 X56.507 Y81.714 E0.0542
G1 X56.702 Y82.818 E0.05313
G1 X56.833 Y83.943 E0.05368
G1 X56.895 Y85.085 E0.05421
G1 X56.889 Y86.207 E0.05318
G1 X56.815 Y87.336 E0.05362
G1 X56.672 Y88.47 E0.05417
G1 X56.462 Y89.585 E0.05378
G1 X56.19 Y90.672 E0.05311
G1 X55.835 Y91.791 E0.05564
G1 X55.835 Y98.315 E0.30921
G1 X56.327 Y98.648 E0.02816
G1 X56.7 Y98.979 E0.02364
G1 X57.028 Y99.362 E0.0239
G1 X57.32 Y99.818 E0.02566
G1 X57.53 Y100.278 E0.02397
G1 X57.674 Y100.756 E0.02366
G1 X57.752 Y101.255 E0.02394
G1 X57.763 Y101.752 E0.02356
G1 X57.705 Y102.254 E0.02395
G1 X57.581 Y102.739 E0.02373
G1 X57.394 Y103.202 E0.02367
G1 X57.147 Y103.635 E0.02363
G1 X56.837 Y104.037 E0.02406
G1 X56.481 Y104.39 E0.02376
G1 X56.08 Y104.691 E0.02376
G1 X55.647 Y104.932 E0.02349
G1 X55.177 Y105.117 E0.02394
G1 X54.686 Y105.237 E0.02396
G1 X54.192 Y105.288 E0.02354
G1 X53.686 Y105.271 E0.024
G1 X53.195 Y105.188 E0.0236
G1 X52.715 Y105.039 E0.02382
G1 X52.261 Y104.826 E0.02377
G1 X51.84 Y104.554 E0.02376
G1 X51.462 Y104.231 E0.02357
G1 X51.127 Y103.854 E0.0239
G1 X50.79 Y103.356 E0.0285
G1 X44.146 Y103.356 E0.3149
G1 X43.031 Y103.695 E0.05523
G1 X41.924 Y103.961 E0.05396
G1 X40.819 Y104.157 E0.05319
G1 X39.688 Y104.287 E0.05396
G1 X38.553 Y104.35 E0.05388
G1 X37.43 Y104.344 E0.05323
G1 X36.297 Y104.27 E0.05381
G1 X35.166 Y104.127 E0.05403
G1 X34.053 Y103.917 E0.05368
G1 X32.961 Y103.643 E0.05336
