; G-Code generated by Simplify3D(R) Version 3.1.0
; Mar 22, 2017 at 6:10:44 PM
; Settings Summary
;   processName,Process1
;   applyToModels,corner clip 1.0 green,corner clip 1.0 green(2),corner clip 1.0 green(3),corner clip 1.0 green(4)
;   profileName,PETG 0.3 he.20 bt50 (modified)
;   profileVersion,2017-02-27 23:31:17
;   baseProfile,Default (modified)
;   printMaterial,
;   printQuality,
;   printExtruders,
;   extruderName,Primary Extruder
;   extruderToolheadNumber,0
;   extruderDiameter,0.4
;   extruderAutoWidth,0
;   extruderWidth,0.48
;   extrusionMultiplier,0.95
;   extruderUseRetract,1
;   extruderRetractionDistance,1.4
;   extruderExtraRestartDistance,-0.1
;   extruderRetractionZLift,0.1
;   extruderRetractionSpeed,4200
;   extruderUseCoasting,1
;   extruderCoastingDistance,0.2
;   extruderUseWipe,1
;   extruderWipeDistance,0.2
;   primaryExtruder,0
;   layerHeight,0.3
;   topSolidLayers,3
;   bottomSolidLayers,2
;   perimeterOutlines,2
;   printPerimetersInsideOut,1
;   startPointOption,2
;   startPointOriginX,80
;   startPointOriginY,0
;   startPointOriginZ,5
;   sequentialIslands,0
;   spiralVaseMode,0
;   firstLayerHeightPercentage,100
;   firstLayerWidthPercentage,100
;   firstLayerUnderspeed,0.35
;   useRaft,0
;   raftExtruder,0
;   raftLayers,3
;   raftOffset,3
;   raftSeparationDistance,0.14
;   raftInfill,85
;   disableRaftBaseLayers,0
;   useSkirt,1
;   skirtExtruder,0
;   skirtLayers,1
;   skirtOutlines,2
;   skirtOffset,5
;   usePrimePillar,0
;   primePillarExtruder,999
;   primePillarWidth,12
;   primePillarLocation,7
;   primePillarSpeedMultiplier,1
;   useOozeShield,0
;   oozeShieldExtruder,999
;   oozeShieldOffset,2
;   oozeShieldOutlines,1
;   oozeShieldSidewallShape,1
;   oozeShieldSidewallAngle,30
;   oozeShieldSpeedMultiplier,1
;   infillExtruder,0
;   internalInfillPattern,Rectilinear
;   externalInfillPattern,Rectilinear
;   infillPercentage,0
;   outlineOverlapPercentage,30
;   infillExtrusionWidthPercentage,150
;   minInfillLength,2
;   infillLayerInterval,1
;   infillAngles,45,-45
;   overlapInfillAngles,0
;   generateSupport,1
;   supportExtruder,0
;   supportInfillPercentage,33
;   supportExtraInflation,0.5
;   denseSupportLayers,0
;   denseSupportInfillPercentage,70
;   supportLayerInterval,1
;   supportHorizontalPartOffset,0.8
;   supportUpperSeparationLayers,1
;   supportLowerSeparationLayers,1
;   supportType,0
;   supportGridSpacing,1.5
;   maxOverhangAngle,55
;   supportAngles,90
;   temperatureName,Primary Extruder,bed
;   temperatureNumber,0,0
;   temperatureSetpointCount,2,2
;   temperatureSetpointLayers,1,2,1,2
;   temperatureSetpointTemperatures,240,235,65,60
;   temperatureStabilizeAtStartup,1,1
;   temperatureHeatedBed,0,1
;   temperatureRelayBetweenLayers,0,0
;   temperatureRelayBetweenLoops,0,0
;   fanLayers,1,4
;   fanSpeeds,0,20
;   blipFanToFullPower,1
;   adjustSpeedForCooling,0
;   minSpeedLayerTime,15
;   minCoolingSpeedSlowdown,65
;   increaseFanForCooling,1
;   minFanLayerTime,15
;   maxCoolingFanSpeed,60
;   increaseFanForBridging,1
;   bridgingFanSpeed,100
;   use5D,1
;   relativeEdistances,0
;   allowEaxisZeroing,1
;   independentExtruderAxes,0
;   includeM10123,0
;   stickySupport,1
;   applyToolheadOffsets,0
;   gcodeXoffset,0
;   gcodeYoffset,0
;   gcodeZoffset,0
;   overrideMachineDefinition,1
;   machineTypeOverride,0
;   strokeXoverride,170
;   strokeYoverride,160
;   strokeZoverride,145
;   originOffsetXoverride,0
;   originOffsetYoverride,0
;   originOffsetZoverride,0
;   homeXdirOverride,-1
;   homeYdirOverride,-1
;   homeZdirOverride,-1
;   flipXoverride,1
;   flipYoverride,-1
;   flipZoverride,1
;   toolheadOffsets,0,0|0,0|0,0|0,0|0,0|0,0
;   overrideFirmwareConfiguration,1
;   firmwareTypeOverride,RepRap (Marlin/Repetier/Sprinter)
;   GPXconfigOverride,r2
;   baudRateOverride,250000
;   overridePrinterModels,0
;   printerModelsOverride
;   startingGcode,;---------------------------------------,; ; ; Jellybox Start Script Begin ; ; ;,;_______________________________________,M117 Preparing        ; write Preparing,; M92 E140            ; optionally adjust E steps/mm,M207 S1.5 F600 Z0     ; optionally adjust retract settings,M208 S-0.00 F600      ; optionally adjust unretract = recover settings,M206 X10.0 Y0.0       ; set x homing offset for default bed leveling,G21                   ; metric values,G90                   ; absolute positioning,M107                  ; start with the fan off,M82                   ; set extruder to absolute mode,G28                   ; home all axes,M203 Z4               ; slow Z speed down for greater accuracy when probing,G29                   ; auto bed leveling procedure,M203 Z7               ; pick up z speed again for printing,G92 E0                ; reset the extruder position,G1 F1500 E15          ; extrude 15mm of feed stock,G92 E0                ; reset the extruder position again,M117 Print starting   ; write Print starting,;---------------------------------------------,; ; ; Jellybox Printer Start Script End ; ; ;,;_____________________________________________
;   layerChangeGcode,
;   retractionGcode,
;   toolChangeGcode,
;   endingGcode,; ---------------------------------,; ; ;  Jellybox End Script Begin ; ; ;,; _________________________________,M117 Finishing Up ; write Finishing Up,M107                  ; sfan off,M104 S0            ; extruder heater off,M140 S0            ; bed heater off (if you have it),G91                ; relative positioning,G1 E-1 F300        ; retract the filament a bit before lifting the nozzle to release some of the pressure,G1 Z+0.5 E-5 X-20 Y-20 F9000 ; move Z up a bit and retract filament even more,G90                ; absolute positioning,G28 X              ; home x so the head is out of the way,G1 Y100            ; move Y forward so the print is more accessible,M84                ; steppers off,M117 Print finished ; write Print finisheds,; ---------------------------------------,; ; ;  Jellybox End Script End ; ; ;,; _______________________________________
;   exportFileFormat,gcode
;   celebration,0
;   celebrationSong,Random Song
;   postProcessing,|{REPLACE "; layer" "M117 Layer"},|{REPLACE ", Z = " " "Z="}
;   defaultSpeed,2700
;   outlineUnderspeed,0.55
;   solidInfillUnderspeed,0.55
;   supportUnderspeed,0.9
;   rapidXYspeed,7200
;   rapidZspeed,420
;   minBridgingArea,50
;   bridgingExtraInflation,0.3
;   bridgingExtrusionMultiplier,1
;   bridgingSpeedMultiplier,1
;   filamentDiameter,1.75
;   filamentPricePerKg,30
;   filamentDensity,1.38
;   useMinPrintHeight,0
;   minPrintHeight,30
;   useMaxPrintHeight,0
;   maxPrintHeight,40
;   useDiaphragm,0
;   diaphragmLayerInterval,20
;   robustSlicing,1
;   mergeAllIntoSolid,0
;   onlyRetractWhenCrossingOutline,1
;   retractBetweenLayers,1
;   useRetractionMinTravel,1
;   retractionMinTravel,1
;   retractWhileWiping,1
;   onlyWipeOutlines,1
;   avoidCrossingOutline,1
;   maxMovementDetourFactor,2.5
;   toolChangeRetractionDistance,1.3
;   toolChangeExtraRestartDistance,0
;   toolChangeRetractionSpeed,600
;   allowThinWallGapFill,1
;   thinWallAllowedOverlapPercentage,15
;   horizontalSizeCompensation,0
G90
M82
M106 S0
M140 S65
M190 S65
M104 S240 T0
M109 S240 T0
;---------------------------------------
; ; ; Jellybox Start Script Begin ; ; ;
;_______________________________________
M117 Preparing        ; write Preparing
; M92 E140            ; optionally adjust E steps/mm
M207 S1.5 F600 Z0     ; optionally adjust retract settings
M208 S-0.00 F600      ; optionally adjust unretract = recover settings
M206 X10.0 Y0.0       ; set x homing offset for default bed leveling
G21                   ; metric values
G90                   ; absolute positioning
M107                  ; start with the fan off
M82                   ; set extruder to absolute mode
G28                   ; home all axes
M203 Z4               ; slow Z speed down for greater accuracy when probing
G29                   ; auto bed leveling procedure
M203 Z7               ; pick up z speed again for printing
G92 E0                ; reset the extruder position
G1 F1500 E15          ; extrude 15mm of feed stock
G92 E0                ; reset the extruder position again
M117 Print starting   ; write Print starting
;---------------------------------------------
; ; ; Jellybox Printer Start Script End ; ; ;
;_____________________________________________
G92 E0
G1 E-1.4000 F4200
G1 Z0.400 F420
M117 Layer 1 0.3
T0
; tool H0.300 W0.480
; skirt
G1 X26.551 Y18.678 F7200
G1 Z0.300 F420
G1 E-0.1000 F1260
G92 E0
G1 X26.564 Y18.662 E0.0012 F945
G1 X26.986 Y18.157 E0.0386
G1 X26.999 Y18.142 E0.0398
G1 X27.211 Y17.916 E0.0574
G1 X27.226 Y17.901 E0.0586
G1 X27.826 Y17.332 E0.1056
G1 X27.845 Y17.315 E0.1070
G1 X28.139 Y17.074 E0.1287
G1 X28.159 Y17.058 E0.1301
G1 X28.976 Y16.479 E0.1871
G1 X29.005 Y16.461 E0.1890
G1 X29.438 Y16.210 E0.2175
G1 X29.467 Y16.195 E0.2194
G1 X30.625 Y15.663 E0.2918
G1 X30.654 Y15.651 E0.2936
G1 X31.105 Y15.491 E0.3208
G1 X31.136 Y15.482 E0.3226
G1 X32.200 Y15.207 E0.3852
G1 X32.228 Y15.201 E0.3868
G1 X32.649 Y15.128 E0.4111
G1 X32.677 Y15.124 E0.4127
G1 X33.995 Y15.001 E0.4880
G1 X34.013 Y15.000 E0.4890
G1 X34.278 Y14.988 E0.5041
G1 X34.296 Y14.988 E0.5051
G1 X35.539 Y14.995 E0.5758
G1 X35.568 Y14.997 E0.5775
G1 X36.004 Y15.035 E0.6023
G1 X36.033 Y15.038 E0.6040
G1 X36.777 Y15.165 E0.6470
G1 X36.823 Y15.176 E0.6497
G1 X37.498 Y15.386 E0.6899
G1 X37.543 Y15.403 E0.6925
G1 X38.349 Y15.774 E0.7430
G1 X38.387 Y15.795 E0.7455
G1 X38.940 Y16.137 E0.7825
G1 X38.976 Y16.162 E0.7850
G1 X40.298 Y17.219 E0.8813
G1 X40.399 Y17.346 E0.8905
G1 X41.457 Y19.545 E1.0293
G1 X41.493 Y19.703 E1.0385
G1 X41.493 Y23.099 E1.2316
G1 X42.039 Y23.032 E1.2629
G1 X42.053 Y23.030 E1.2637
G1 X42.264 Y23.013 E1.2758
G1 X42.278 Y23.012 E1.2766
G1 X47.480 Y22.787 E1.5727
G1 X47.486 Y22.786 E1.5730
G1 X47.561 Y22.784 E1.5773
G1 X47.566 Y22.784 E1.5776
G1 X51.396 Y22.726 E1.7954
G1 X51.400 Y22.726 E1.7957
G1 X51.465 Y22.726 E1.7994
G1 X51.469 Y22.726 E1.7996
G1 X53.345 Y22.743 E1.9063
G1 X53.348 Y22.743 E1.9065
G1 X53.393 Y22.744 E1.9090
G1 X53.396 Y22.744 E1.9092
G1 X54.747 Y22.779 E1.9861
G1 X54.752 Y22.780 E1.9864
G1 X54.828 Y22.783 E1.9907
G1 X54.834 Y22.783 E1.9910
G1 X57.429 Y22.924 E2.1389
G1 X57.437 Y22.925 E2.1393
G1 X57.560 Y22.934 E2.1463
G1 X57.569 Y22.935 E2.1468
G1 X58.833 Y23.062 E2.2191
G1 X58.842 Y23.063 E2.2196
G1 X58.966 Y23.079 E2.2267
G1 X58.974 Y23.080 E2.2272
G1 X59.897 Y23.217 E2.2802
G1 X59.908 Y23.218 E2.2809
G1 X60.074 Y23.248 E2.2905
G1 X60.085 Y23.251 E2.2911
G1 X60.851 Y23.414 E2.3357
G1 X60.867 Y23.417 E2.3365
G1 X61.093 Y23.476 E2.3498
G1 X61.108 Y23.480 E2.3507
G1 X61.892 Y23.721 E2.3974
G1 X61.910 Y23.727 E2.3985
G1 X62.179 Y23.825 E2.4147
G1 X62.197 Y23.832 E2.4158
G1 X62.824 Y24.100 E2.4547
G1 X62.844 Y24.109 E2.4559
G1 X63.132 Y24.254 E2.4742
G1 X63.151 Y24.264 E2.4755
G1 X63.865 Y24.676 E2.5223
G1 X63.886 Y24.689 E2.5237
G1 X64.189 Y24.893 E2.5445
G1 X64.209 Y24.908 E2.5459
G1 X64.778 Y25.350 E2.5869
G1 X64.795 Y25.364 E2.5882
G1 X65.047 Y25.586 E2.6072
G1 X65.063 Y25.601 E2.6085
G1 X65.595 Y26.132 E2.6512
G1 X65.613 Y26.153 E2.6528
G1 X65.883 Y26.468 E2.6764
G1 X65.901 Y26.490 E2.6780
G1 X66.451 Y27.244 E2.7311
G1 X66.464 Y27.264 E2.7325
G1 X66.655 Y27.564 E2.7527
G1 X66.667 Y27.585 E2.7541
G1 X66.957 Y28.118 E2.7886
G1 X66.964 Y28.133 E2.7896
G1 X67.074 Y28.360 E2.8039
G1 X67.081 Y28.376 E2.8048
G1 X67.336 Y28.971 E2.8417
G1 X67.343 Y28.989 E2.8428
G1 X67.441 Y29.257 E2.8590
G1 X67.447 Y29.276 E2.8601
G1 X67.695 Y30.085 E2.9082
G1 X67.700 Y30.103 E2.9093
G1 X67.769 Y30.380 E2.9256
G1 X67.773 Y30.399 E2.9267
G1 X68.006 Y31.605 E2.9966
G1 X68.009 Y31.621 E2.9975
G1 X68.044 Y31.860 E3.0112
G1 X68.046 Y31.877 E3.0121
G1 X68.270 Y34.101 E3.1393
G1 X68.271 Y34.111 E3.1398
G1 X68.281 Y34.247 E3.1477
G1 X68.282 Y34.257 E3.1482
G1 X68.386 Y36.359 E3.2679
G1 X68.386 Y36.363 E3.2681
G1 X68.389 Y36.432 E3.2720
G1 X68.389 Y36.436 E3.2723
G1 X68.430 Y38.169 E3.3708
G1 X68.430 Y38.173 E3.3711
G1 X68.431 Y38.232 E3.3745
G1 X68.431 Y38.236 E3.3747
G1 X68.435 Y40.944 E3.5287
G1 X68.435 Y40.947 E3.5289
G1 X68.435 Y41.001 E3.5319
G1 X68.435 Y41.004 E3.5321
G1 X68.394 Y43.210 E3.6576
G1 X68.394 Y43.213 E3.6578
G1 X68.393 Y43.262 E3.6605
G1 X68.393 Y43.265 E3.6607
G1 X68.268 Y46.682 E3.8552
G1 X68.268 Y46.686 E3.8554
G1 X68.265 Y46.740 E3.8585
G1 X68.265 Y46.744 E3.8587
G1 X68.112 Y49.428 E4.0117
G1 X68.110 Y49.449 E4.0128
G1 X68.075 Y49.755 E4.0304
G1 X68.072 Y49.776 E4.0315
G1 X67.913 Y50.688 E4.0842
G1 X67.908 Y50.711 E4.0856
G1 X67.821 Y51.066 E4.1063
G1 X67.815 Y51.089 E4.1077
G1 X67.477 Y52.152 E4.1711
G1 X67.466 Y52.181 E4.1729
G1 X67.289 Y52.607 E4.1991
G1 X67.276 Y52.635 E4.2009
G1 X66.759 Y53.626 E4.2644
G1 X66.747 Y53.647 E4.2658
G1 X66.557 Y53.959 E4.2866
G1 X66.543 Y53.980 E4.2880
G1 X66.117 Y54.581 E4.3299
G1 X66.100 Y54.603 E4.3315
G1 X65.830 Y54.926 E4.3555
G1 X65.811 Y54.947 E4.3571
G1 X64.966 Y55.813 E4.4259
G1 X64.942 Y55.835 E4.4277
G1 X64.761 Y55.990 E4.4413
G1 X64.835 Y56.055 E4.4469
G1 X64.851 Y56.070 E4.4482
G1 X65.382 Y56.601 E4.4909
G1 X65.401 Y56.622 E4.4925
G1 X65.671 Y56.937 E4.5161
G1 X65.689 Y56.959 E4.5177
G1 X66.239 Y57.713 E4.5707
G1 X66.252 Y57.733 E4.5721
G1 X66.443 Y58.033 E4.5923
G1 X66.455 Y58.054 E4.5937
G1 X66.745 Y58.587 E4.6282
G1 X66.752 Y58.602 E4.6292
G1 X66.862 Y58.829 E4.6435
G1 X66.869 Y58.845 E4.6445
G1 X67.124 Y59.440 E4.6813
G1 X67.131 Y59.458 E4.6824
G1 X67.229 Y59.727 E4.6987
G1 X67.235 Y59.745 E4.6998
G1 X67.483 Y60.554 E4.7479
G1 X67.488 Y60.572 E4.7490
G1 X67.557 Y60.849 E4.7652
G1 X67.561 Y60.868 E4.7663
G1 X67.794 Y62.075 E4.8362
G1 X67.797 Y62.091 E4.8371
G1 X67.832 Y62.330 E4.8509
G1 X67.834 Y62.346 E4.8518
G1 X68.058 Y64.571 E4.9789
G1 X68.059 Y64.580 E4.9795
G1 X68.069 Y64.717 E4.9873
G1 X68.070 Y64.726 E4.9878
G1 X68.174 Y66.828 E5.1075
G1 X68.174 Y66.833 E5.1078
G1 X68.176 Y66.901 E5.1117
G1 X68.177 Y66.905 E5.1119
G1 X68.218 Y68.638 E5.2105
G1 X68.218 Y68.642 E5.2107
G1 X68.219 Y68.701 E5.2141
G1 X68.219 Y68.705 E5.2143
G1 X68.223 Y71.413 E5.3683
G1 X68.223 Y71.416 E5.3685
G1 X68.223 Y71.470 E5.3716
G1 X68.223 Y71.474 E5.3718
G1 X68.182 Y73.679 E5.4972
G1 X68.182 Y73.682 E5.4974
G1 X68.181 Y73.731 E5.5002
G1 X68.181 Y73.734 E5.5004
G1 X68.056 Y77.151 E5.6948
G1 X68.055 Y77.155 E5.6950
G1 X68.053 Y77.210 E5.6982
G1 X68.053 Y77.213 E5.6984
G1 X67.899 Y79.898 E5.8513
G1 X67.898 Y79.918 E5.8525
G1 X67.862 Y80.225 E5.8700
G1 X67.859 Y80.245 E5.8712
G1 X67.701 Y81.157 E5.9238
G1 X67.696 Y81.181 E5.9252
G1 X67.609 Y81.535 E5.9459
G1 X67.603 Y81.559 E5.9473
G1 X67.265 Y82.621 E6.0107
G1 X67.254 Y82.650 E6.0125
G1 X67.077 Y83.076 E6.0387
G1 X67.063 Y83.104 E6.0405
G1 X66.547 Y84.095 E6.1041
G1 X66.535 Y84.116 E6.1055
G1 X66.344 Y84.429 E6.1263
G1 X66.331 Y84.449 E6.1277
G1 X65.905 Y85.050 E6.1695
G1 X65.888 Y85.072 E6.1712
G1 X65.618 Y85.396 E6.1951
G1 X65.599 Y85.417 E6.1967
G1 X64.754 Y86.282 E6.2655
G1 X64.730 Y86.304 E6.2674
G1 X64.363 Y86.618 E6.2948
G1 X64.337 Y86.638 E6.2967
G1 X63.515 Y87.222 E6.3540
G1 X63.491 Y87.237 E6.3556
G1 X63.138 Y87.449 E6.3791
G1 X63.114 Y87.462 E6.3806
G1 X62.269 Y87.884 E6.4344
G1 X62.244 Y87.896 E6.4359
G1 X61.872 Y88.048 E6.4588
G1 X61.846 Y88.057 E6.4603
G1 X60.871 Y88.373 E6.5186
G1 X60.844 Y88.381 E6.5202
G1 X60.434 Y88.479 E6.5442
G1 X60.406 Y88.484 E6.5458
G1 X59.246 Y88.667 E6.6126
G1 X59.228 Y88.669 E6.6137
G1 X58.950 Y88.698 E6.6295
G1 X58.931 Y88.700 E6.6306
G1 X58.281 Y88.733 E6.6676
G1 X58.271 Y88.734 E6.6682
G1 X58.122 Y88.737 E6.6767
G1 X58.112 Y88.738 E6.6773
G1 X56.959 Y88.733 E6.7429
G1 X56.931 Y88.732 E6.7444
G1 X56.516 Y88.698 E6.7681
G1 X56.488 Y88.694 E6.7697
G1 X55.718 Y88.571 E6.8140
G1 X55.671 Y88.560 E6.8168
G1 X54.970 Y88.346 E6.8585
G1 X54.924 Y88.329 E6.8613
G1 X54.106 Y87.952 E6.9125
G1 X54.068 Y87.931 E6.9150
G1 X53.515 Y87.589 E6.9520
G1 X53.479 Y87.564 E6.9544
G1 X52.157 Y86.507 E7.0507
G1 X52.056 Y86.380 E7.0599
G1 X50.998 Y84.181 E7.1988
G1 X50.962 Y84.023 E7.2080
G1 X50.962 Y80.606 E7.4023
