; G-Code generated by Simplify3D(R) Version 3.1.0
; Mar 22, 2017 at 6:09:18 PM
; Settings Summary
;   processName,Process1
;   applyToModels,filament guide 3.0.1 green,filament guide 3.0.1 green(2)
;   profileName,PETG 0.3 he.20 bt50 (modified)
;   profileVersion,2017-02-27 23:31:17
;   baseProfile,Default (modified)
;   printMaterial,
;   printQuality,
;   printExtruders,
;   extruderName,Primary Extruder
;   extruderToolheadNumber,0
;   extruderDiameter,0.4
;   extruderAutoWidth,0
;   extruderWidth,0.48
;   extrusionMultiplier,0.95
;   extruderUseRetract,1
;   extruderRetractionDistance,1.4
;   extruderExtraRestartDistance,-0.1
;   extruderRetractionZLift,0.1
;   extruderRetractionSpeed,4200
;   extruderUseCoasting,1
;   extruderCoastingDistance,0.2
;   extruderUseWipe,1
;   extruderWipeDistance,0.2
;   primaryExtruder,0
;   layerHeight,0.3
;   topSolidLayers,3
;   bottomSolidLayers,2
;   perimeterOutlines,2
;   printPerimetersInsideOut,1
;   startPointOption,2
;   startPointOriginX,80
;   startPointOriginY,0
;   startPointOriginZ,5
;   sequentialIslands,0
;   spiralVaseMode,0
;   firstLayerHeightPercentage,100
;   firstLayerWidthPercentage,100
;   firstLayerUnderspeed,0.35
;   useRaft,0
;   raftExtruder,0
;   raftLayers,3
;   raftOffset,3
;   raftSeparationDistance,0.14
;   raftInfill,85
;   disableRaftBaseLayers,0
;   useSkirt,1
;   skirtExtruder,0
;   skirtLayers,1
;   skirtOutlines,3
;   skirtOffset,3
;   usePrimePillar,0
;   primePillarExtruder,999
;   primePillarWidth,12
;   primePillarLocation,7
;   primePillarSpeedMultiplier,1
;   useOozeShield,0
;   oozeShieldExtruder,999
;   oozeShieldOffset,2
;   oozeShieldOutlines,1
;   oozeShieldSidewallShape,1
;   oozeShieldSidewallAngle,30
;   oozeShieldSpeedMultiplier,1
;   infillExtruder,0
;   internalInfillPattern,Rectilinear
;   externalInfillPattern,Rectilinear
;   infillPercentage,22
;   outlineOverlapPercentage,30
;   infillExtrusionWidthPercentage,150
;   minInfillLength,2
;   infillLayerInterval,1
;   infillAngles,45,-45
;   overlapInfillAngles,0
;   generateSupport,1
;   supportExtruder,0
;   supportInfillPercentage,33
;   supportExtraInflation,0.5
;   denseSupportLayers,0
;   denseSupportInfillPercentage,70
;   supportLayerInterval,1
;   supportHorizontalPartOffset,0.8
;   supportUpperSeparationLayers,1
;   supportLowerSeparationLayers,1
;   supportType,0
;   supportGridSpacing,1.5
;   maxOverhangAngle,55
;   supportAngles,90
;   temperatureName,Primary Extruder,bed
;   temperatureNumber,0,0
;   temperatureSetpointCount,2,2
;   temperatureSetpointLayers,1,2,1,2
;   temperatureSetpointTemperatures,240,235,65,60
;   temperatureStabilizeAtStartup,1,0
;   temperatureHeatedBed,0,1
;   temperatureRelayBetweenLayers,0,0
;   temperatureRelayBetweenLoops,0,0
;   fanLayers,1,4
;   fanSpeeds,0,20
;   blipFanToFullPower,1
;   adjustSpeedForCooling,0
;   minSpeedLayerTime,15
;   minCoolingSpeedSlowdown,65
;   increaseFanForCooling,1
;   minFanLayerTime,15
;   maxCoolingFanSpeed,60
;   increaseFanForBridging,1
;   bridgingFanSpeed,100
;   use5D,1
;   relativeEdistances,0
;   allowEaxisZeroing,1
;   independentExtruderAxes,0
;   includeM10123,0
;   stickySupport,1
;   applyToolheadOffsets,0
;   gcodeXoffset,0
;   gcodeYoffset,0
;   gcodeZoffset,0
;   overrideMachineDefinition,1
;   machineTypeOverride,0
;   strokeXoverride,170
;   strokeYoverride,160
;   strokeZoverride,145
;   originOffsetXoverride,0
;   originOffsetYoverride,0
;   originOffsetZoverride,0
;   homeXdirOverride,-1
;   homeYdirOverride,-1
;   homeZdirOverride,-1
;   flipXoverride,1
;   flipYoverride,-1
;   flipZoverride,1
;   toolheadOffsets,0,0|0,0|0,0|0,0|0,0|0,0
;   overrideFirmwareConfiguration,1
;   firmwareTypeOverride,RepRap (Marlin/Repetier/Sprinter)
;   GPXconfigOverride,r2
;   baudRateOverride,250000
;   overridePrinterModels,0
;   printerModelsOverride
;   startingGcode,;---------------------------------------,; ; ; Jellybox Start Script Begin ; ; ;,;_______________________________________,M117 Preparing        ; write Preparing,; M92 E140            ; optionally adjust E steps/mm,M207 S1.5 F600 Z0     ; optionally adjust retract settings,M208 S-0.00 F600      ; optionally adjust unretract = recover settings,M206 X10.0 Y0.0       ; set x homing offset for default bed leveling,G21                   ; metric values,G90                   ; absolute positioning,M107                  ; start with the fan off,M82                   ; set extruder to absolute mode,G28                   ; home all axes,M203 Z4               ; slow Z speed down for greater accuracy when probing,G29                   ; auto bed leveling procedure,M203 Z7               ; pick up z speed again for printing,G92 E0                ; reset the extruder position,G1 F1500 E15          ; extrude 15mm of feed stock,G92 E0                ; reset the extruder position again,M117 Print starting   ; write Print starting,;---------------------------------------------,; ; ; Jellybox Printer Start Script End ; ; ;,;_____________________________________________
;   layerChangeGcode,
;   retractionGcode,
;   toolChangeGcode,
;   endingGcode,; ---------------------------------,; ; ;  Jellybox End Script Begin ; ; ;,; _________________________________,M117 Finishing Up ; write Finishing Up,M107                  ; sfan off,M104 S0            ; extruder heater off,M140 S0            ; bed heater off (if you have it),G91                ; relative positioning,G1 E-1 F300        ; retract the filament a bit before lifting the nozzle to release some of the pressure,G1 Z+0.5 E-5 X-20 Y-20 F9000 ; move Z up a bit and retract filament even more,G90                ; absolute positioning,G28 X              ; home x so the head is out of the way,G1 Y100            ; move Y forward so the print is more accessible,M84                ; steppers off,M117 Print finished ; write Print finisheds,; ---------------------------------------,; ; ;  Jellybox End Script End ; ; ;,; _______________________________________
;   exportFileFormat,gcode
;   celebration,0
;   celebrationSong,Random Song
;   postProcessing,|{REPLACE "; layer" "M117 Layer"},|{REPLACE ", Z = " " "Z="}
;   defaultSpeed,2700
;   outlineUnderspeed,0.55
;   solidInfillUnderspeed,0.55
;   supportUnderspeed,0.9
;   rapidXYspeed,7200
;   rapidZspeed,420
;   minBridgingArea,50
;   bridgingExtraInflation,0.3
;   bridgingExtrusionMultiplier,1
;   bridgingSpeedMultiplier,1
;   filamentDiameter,1.75
;   filamentPricePerKg,30
;   filamentDensity,1.38
;   useMinPrintHeight,0
;   minPrintHeight,30
;   useMaxPrintHeight,0
;   maxPrintHeight,40
;   useDiaphragm,0
;   diaphragmLayerInterval,20
;   robustSlicing,1
;   mergeAllIntoSolid,0
;   onlyRetractWhenCrossingOutline,1
;   retractBetweenLayers,1
;   useRetractionMinTravel,1
;   retractionMinTravel,1
;   retractWhileWiping,1
;   onlyWipeOutlines,1
;   avoidCrossingOutline,1
;   maxMovementDetourFactor,2.5
;   toolChangeRetractionDistance,1.3
;   toolChangeExtraRestartDistance,0
;   toolChangeRetractionSpeed,600
;   allowThinWallGapFill,1
;   thinWallAllowedOverlapPercentage,15
;   horizontalSizeCompensation,0
G90
M82
M106 S0
M140 S65
M104 S240 T0
M109 S240 T0
;---------------------------------------
; ; ; Jellybox Start Script Begin ; ; ;
;_______________________________________
M117 Preparing        ; write Preparing
; M92 E140            ; optionally adjust E steps/mm
M207 S1.5 F600 Z0     ; optionally adjust retract settings
M208 S-0.00 F600      ; optionally adjust unretract = recover settings
M206 X10.0 Y0.0       ; set x homing offset for default bed leveling
G21                   ; metric values
G90                   ; absolute positioning
M107                  ; start with the fan off
M82                   ; set extruder to absolute mode
G28                   ; home all axes
M203 Z4               ; slow Z speed down for greater accuracy when probing
G29                   ; auto bed leveling procedure
M203 Z7               ; pick up z speed again for printing
G92 E0                ; reset the extruder position
G1 F1500 E15          ; extrude 15mm of feed stock
G92 E0                ; reset the extruder position again
M117 Print starting   ; write Print starting
;---------------------------------------------
; ; ; Jellybox Printer Start Script End ; ; ;
;_____________________________________________
G92 E0
G1 E-1.4000 F4200
G1 Z0.400 F420
M117 Layer 1 0.3
T0
; tool H0.300 W0.480
; skirt
G1 X41.094 Y39.727 F7200
G1 Z0.300 F420
G1 E-0.1000 F1260
G92 E0
G1 X41.591 Y39.226 E0.0402 F945
G1 X41.608 Y39.210 E0.0414
G1 X41.706 Y39.118 E0.0491
G1 X41.723 Y39.103 E0.0504
G1 X42.257 Y38.640 E0.0906
G1 X42.274 Y38.626 E0.0919
G1 X42.380 Y38.541 E0.0996
G1 X42.398 Y38.527 E0.1009
G1 X42.965 Y38.106 E0.1410
G1 X42.983 Y38.093 E0.1423
G1 X43.094 Y38.016 E0.1500
G1 X43.113 Y38.004 E0.1513
G1 X43.710 Y37.627 E0.1914
G1 X43.729 Y37.615 E0.1927
G1 X43.847 Y37.547 E0.2004
G1 X43.866 Y37.536 E0.2017
G1 X44.490 Y37.204 E0.2419
G1 X44.510 Y37.194 E0.2432
G1 X44.632 Y37.135 E0.2509
G1 X44.652 Y37.126 E0.2521
G1 X45.299 Y36.842 E0.2923
G1 X45.320 Y36.834 E0.2936
G1 X45.446 Y36.784 E0.3013
G1 X45.467 Y36.776 E0.3026
G1 X46.133 Y36.542 E0.3427
G1 X46.154 Y36.535 E0.3440
G1 X46.284 Y36.494 E0.3517
G1 X46.305 Y36.488 E0.3530
G1 X46.987 Y36.305 E0.3932
G1 X47.009 Y36.299 E0.3944
G1 X47.141 Y36.269 E0.4021
G1 X47.163 Y36.264 E0.4034
G1 X47.857 Y36.132 E0.4436
G1 X47.879 Y36.128 E0.4449
G1 X48.013 Y36.108 E0.4526
G1 X48.035 Y36.105 E0.4539
G1 X48.737 Y36.026 E0.4940
G1 X48.760 Y36.024 E0.4953
G1 X48.895 Y36.014 E0.5030
G1 X48.917 Y36.012 E0.5043
G1 X49.589 Y35.987 E0.5425
G1 X49.600 Y35.987 E0.5432
G1 X49.668 Y35.985 E0.5470
G1 X49.679 Y35.985 E0.5477
G1 X62.747 Y35.985 E1.2909
G1 X62.758 Y35.985 E1.2915
G1 X62.826 Y35.987 E1.2954
G1 X62.837 Y35.987 E1.2960
G1 X63.509 Y36.012 E1.3342
G1 X63.531 Y36.014 E1.3355
G1 X63.666 Y36.024 E1.3432
G1 X63.689 Y36.026 E1.3445
G1 X64.391 Y36.105 E1.3847
G1 X64.413 Y36.108 E1.3860
G1 X64.547 Y36.128 E1.3937
G1 X64.569 Y36.132 E1.3949
G1 X65.263 Y36.264 E1.4351
G1 X65.285 Y36.269 E1.4364
G1 X65.417 Y36.299 E1.4441
G1 X65.439 Y36.305 E1.4454
G1 X66.121 Y36.488 E1.4855
G1 X66.142 Y36.494 E1.4868
G1 X66.271 Y36.535 E1.4945
G1 X66.293 Y36.542 E1.4958
G1 X66.959 Y36.776 E1.5360
G1 X66.980 Y36.784 E1.5373
G1 X67.106 Y36.834 E1.5450
G1 X67.127 Y36.842 E1.5462
G1 X67.774 Y37.126 E1.5864
G1 X67.794 Y37.135 E1.5877
G1 X67.916 Y37.194 E1.5954
G1 X67.936 Y37.205 E1.5966
G1 X68.560 Y37.536 E1.6368
G1 X68.579 Y37.547 E1.6381
G1 X68.696 Y37.615 E1.6458
G1 X68.716 Y37.627 E1.6471
G1 X69.313 Y38.004 E1.6873
G1 X69.331 Y38.016 E1.6885
G1 X69.443 Y38.093 E1.6962
G1 X69.461 Y38.106 E1.6975
G1 X70.055 Y38.547 E1.7396
G1 X70.082 Y38.568 E1.7415
G1 X70.238 Y38.698 E1.7531
G1 X70.263 Y38.721 E1.7550
G1 X71.245 Y39.639 E1.8314
G1 X71.269 Y39.662 E1.8334
G1 X71.409 Y39.809 E1.8449
G1 X71.432 Y39.834 E1.8468
G1 X71.912 Y40.397 E1.8889
G1 X71.927 Y40.415 E1.8902
G1 X72.011 Y40.521 E1.8979
G1 X72.024 Y40.539 E1.8992
G1 X72.461 Y41.136 E1.9413
G1 X72.480 Y41.164 E1.9432
G1 X72.591 Y41.334 E1.9547
G1 X72.608 Y41.363 E1.9567
G1 X73.274 Y42.531 E2.0331
G1 X73.290 Y42.560 E2.0350
G1 X73.381 Y42.742 E2.0466
G1 X73.395 Y42.773 E2.0485
G1 X73.698 Y43.478 E2.0922
G1 X73.710 Y43.507 E2.0940
G1 X73.775 Y43.686 E2.1048
G1 X73.786 Y43.716 E2.1066
G1 X74.147 Y44.884 E2.1761
G1 X74.156 Y44.916 E2.1780
G1 X74.204 Y45.111 E2.1894
G1 X74.212 Y45.144 E2.1913
G1 X74.373 Y45.989 E2.2403
G1 X74.377 Y46.014 E2.2417
G1 X74.399 Y46.162 E2.2502
G1 X74.402 Y46.187 E2.2517
G1 X74.480 Y46.924 E2.2938
G1 X74.482 Y46.955 E2.2956
G1 X74.492 Y47.144 E2.3063
G1 X74.493 Y47.176 E2.3081
G1 X74.493 Y48.392 E2.3773
G1 X74.492 Y48.423 E2.3791
G1 X74.482 Y48.612 E2.3899
G1 X74.480 Y48.644 E2.3917
G1 X74.402 Y49.380 E2.4338
G1 X74.399 Y49.405 E2.4352
G1 X74.377 Y49.554 E2.4438
G1 X74.373 Y49.578 E2.4452
G1 X74.218 Y50.390 E2.4922
G1 X74.214 Y50.411 E2.4934
G1 X74.184 Y50.540 E2.5009
G1 X74.179 Y50.561 E2.5022
G1 X74.028 Y51.126 E2.5354
G1 X74.022 Y51.146 E2.5366
G1 X73.986 Y51.264 E2.5436
G1 X73.979 Y51.284 E2.5448
G1 X73.752 Y51.946 E2.5846
G1 X73.744 Y51.967 E2.5859
G1 X73.696 Y52.094 E2.5936
G1 X73.687 Y52.115 E2.5949
G1 X73.408 Y52.763 E2.6351
G1 X73.399 Y52.784 E2.6363
G1 X73.341 Y52.906 E2.6440
G1 X73.331 Y52.926 E2.6453
G1 X73.004 Y53.552 E2.6855
G1 X72.993 Y53.572 E2.6868
G1 X72.926 Y53.690 E2.6945
G1 X72.915 Y53.709 E2.6957
G1 X72.542 Y54.309 E2.7359
G1 X72.530 Y54.328 E2.7372
G1 X72.454 Y54.440 E2.7449
G1 X72.441 Y54.458 E2.7462
G1 X72.024 Y55.029 E2.7863
G1 X72.011 Y55.047 E2.7876
G1 X71.927 Y55.153 E2.7953
G1 X71.912 Y55.170 E2.7966
G1 X71.454 Y55.707 E2.8368
G1 X71.439 Y55.724 E2.8381
G1 X71.347 Y55.824 E2.8457
G1 X71.332 Y55.840 E2.8470
G1 X70.834 Y56.341 E2.8872
G1 X70.818 Y56.357 E2.8885
G1 X70.719 Y56.450 E2.8962
G1 X70.703 Y56.465 E2.8975
G1 X70.169 Y56.927 E2.9376
G1 X70.152 Y56.942 E2.9389
G1 X70.046 Y57.026 E2.9466
G1 X70.028 Y57.040 E2.9479
G1 X69.532 Y57.409 E2.9831
G1 X69.893 Y57.678 E3.0087
G1 X69.911 Y57.691 E3.0100
G1 X70.016 Y57.776 E3.0177
G1 X70.034 Y57.790 E3.0189
G1 X70.567 Y58.253 E3.0591
G1 X70.584 Y58.268 E3.0604
G1 X70.683 Y58.360 E3.0681
G1 X70.699 Y58.376 E3.0694
G1 X71.220 Y58.901 E3.1115
G1 X71.244 Y58.926 E3.1134
G1 X71.378 Y59.078 E3.1249
G1 X71.400 Y59.104 E3.1269
G1 X72.233 Y60.158 E3.2033
G1 X72.254 Y60.186 E3.2052
G1 X72.370 Y60.352 E3.2168
G1 X72.389 Y60.380 E3.2187
G1 X72.780 Y61.008 E3.2608
G1 X72.791 Y61.028 E3.2621
G1 X72.858 Y61.145 E3.2698
G1 X72.869 Y61.165 E3.2710
G1 X73.196 Y61.791 E3.3112
G1 X73.206 Y61.812 E3.3125
G1 X73.264 Y61.934 E3.3202
G1 X73.273 Y61.954 E3.3215
G1 X73.565 Y62.634 E3.3636
G1 X73.578 Y62.665 E3.3655
G1 X73.647 Y62.856 E3.3770
G1 X73.658 Y62.888 E3.3790
G1 X74.046 Y64.175 E3.4554
G1 X74.055 Y64.208 E3.4573
G1 X74.102 Y64.405 E3.4689
G1 X74.109 Y64.438 E3.4708
G1 X74.242 Y65.166 E3.5129
G1 X74.246 Y65.188 E3.5141
G1 X74.265 Y65.322 E3.5218
G1 X74.268 Y65.345 E3.5231
G1 X74.345 Y66.074 E3.5648
G1 X74.347 Y66.105 E3.5666
G1 X74.357 Y66.294 E3.5774
G1 X74.358 Y66.326 E3.5792
G1 X74.358 Y67.549 E3.6488
G1 X74.357 Y67.583 E3.6507
G1 X74.345 Y67.787 E3.6623
G1 X74.343 Y67.820 E3.6642
G1 X74.242 Y68.702 E3.7147
G1 X74.238 Y68.735 E3.7166
G1 X74.204 Y68.934 E3.7280
G1 X74.197 Y68.967 E3.7300
G1 X73.924 Y70.159 E3.7995
G1 X73.916 Y70.190 E3.8013
G1 X73.864 Y70.372 E3.8121
G1 X73.855 Y70.403 E3.8139
G1 X73.617 Y71.096 E3.8556
G1 X73.609 Y71.118 E3.8569
G1 X73.560 Y71.244 E3.8646
G1 X73.552 Y71.265 E3.8659
G1 X73.260 Y71.945 E3.9080
G1 X73.245 Y71.976 E3.9099
G1 X73.155 Y72.157 E3.9215
G1 X73.139 Y72.187 E3.9234
G1 X72.473 Y73.354 E3.9998
G1 X72.455 Y73.383 E4.0018
G1 X72.345 Y73.554 E4.0133
G1 X72.326 Y73.582 E4.0152
G1 X71.889 Y74.179 E4.0573
G1 X71.875 Y74.197 E4.0586
G1 X71.791 Y74.303 E4.0663
G1 X71.777 Y74.321 E4.0676
G1 X71.319 Y74.858 E4.1077
G1 X71.304 Y74.875 E4.1090
G1 X71.212 Y74.974 E4.1167
G1 X71.197 Y74.991 E4.1180
G1 X70.699 Y75.492 E4.1582
G1 X70.683 Y75.507 E4.1595
G1 X70.584 Y75.600 E4.1671
G1 X70.567 Y75.615 E4.1684
G1 X70.034 Y76.077 E4.2086
G1 X70.016 Y76.092 E4.2099
G1 X69.911 Y76.177 E4.2176
G1 X69.893 Y76.190 E4.2188
G1 X69.318 Y76.617 E4.2596
G1 X69.297 Y76.632 E4.2610
G1 X69.169 Y76.719 E4.2699
G1 X69.147 Y76.733 E4.2713
G1 X68.416 Y77.184 E4.3202
G1 X68.388 Y77.200 E4.3220
G1 X68.219 Y77.293 E4.3330
G1 X68.191 Y77.307 E4.3348
G1 X67.090 Y77.833 E4.4042
G1 X67.060 Y77.846 E4.4060
G1 X66.881 Y77.920 E4.4170
G1 X66.851 Y77.932 E4.4189
G1 X66.158 Y78.176 E4.4607
G1 X66.136 Y78.183 E4.4620
G1 X66.007 Y78.223 E4.4697
G1 X65.985 Y78.229 E4.4709
G1 X65.303 Y78.413 E4.5111
G1 X65.281 Y78.418 E4.5124
G1 X65.150 Y78.449 E4.5201
G1 X65.128 Y78.453 E4.5214
G1 X64.434 Y78.585 E4.5615
G1 X64.411 Y78.589 E4.5628
G1 X64.278 Y78.609 E4.5705
G1 X64.255 Y78.612 E4.5718
G1 X63.553 Y78.692 E4.6120
G1 X63.531 Y78.694 E4.6133
G1 X63.396 Y78.704 E4.6210
G1 X63.374 Y78.705 E4.6222
G1 X62.702 Y78.731 E4.6605
G1 X62.690 Y78.731 E4.6611
G1 X62.623 Y78.732 E4.6650
G1 X62.612 Y78.732 E4.6656
G1 X49.544 Y78.732 E5.4088
