; G-Code generated by Simplify3D(R) Version 3.0.0
; Nov 16, 2016 at 8:07:30 AM
; Settings Summary
;   processName,Process1
;   applyToModels,filament Guide13mm
;   profileName,Default (modified)
;   profileVersion,2015-10-25 10:06:52
;   baseProfile,Default (modified)
;   printMaterial,PLA Lankeda Green
;   printQuality,Fast
;   printExtruders,
;   extruderName,Primary Extruder
;   extruderToolheadNumber,0
;   extruderDiameter,0.4
;   extruderAutoWidth,1
;   extruderWidth,0.48
;   extrusionMultiplier,0.9
;   extruderUseRetract,1
;   extruderRetractionDistance,1.15
;   extruderExtraRestartDistance,0.07
;   extruderRetractionZLift,0.07
;   extruderRetractionSpeed,9000
;   extruderUseCoasting,0
;   extruderCoastingDistance,0.2
;   extruderUseWipe,0
;   extruderWipeDistance,5
;   primaryExtruder,0
;   layerHeight,0.22
;   topSolidLayers,4
;   bottomSolidLayers,3
;   perimeterOutlines,2
;   printPerimetersInsideOut,1
;   startPointOption,2
;   startPointOriginX,0
;   startPointOriginY,0
;   startPointOriginZ,300
;   sequentialIslands,0
;   spiralVaseMode,0
;   firstLayerHeightPercentage,100
;   firstLayerWidthPercentage,85
;   firstLayerUnderspeed,0.5
;   useRaft,0
;   raftExtruder,0
;   raftLayers,3
;   raftOffset,3
;   raftSeparationDistance,0.14
;   raftInfill,85
;   disableRaftBaseLayers,0
;   useSkirt,1
;   skirtExtruder,0
;   skirtLayers,2
;   skirtOutlines,3
;   skirtOffset,6
;   usePrimePillar,0
;   primePillarExtruder,999
;   primePillarWidth,12
;   primePillarLocation,7
;   primePillarSpeedMultiplier,1
;   useOozeShield,0
;   oozeShieldExtruder,999
;   oozeShieldOffset,2
;   oozeShieldOutlines,1
;   oozeShieldSidewallShape,1
;   oozeShieldSidewallAngle,30
;   oozeShieldSpeedMultiplier,1
;   infillExtruder,0
;   internalInfillPattern,Rectilinear
;   externalInfillPattern,Rectilinear
;   infillPercentage,58
;   outlineOverlapPercentage,25
;   infillExtrusionWidthPercentage,110
;   minInfillLength,4
;   infillLayerInterval,1
;   infillAngles,45,-45
;   overlapInfillAngles,0
;   generateSupport,1
;   supportExtruder,0
;   supportInfillPercentage,25
;   supportExtraInflation,0
;   denseSupportLayers,2
;   denseSupportInfillPercentage,70
;   supportLayerInterval,1
;   supportHorizontalPartOffset,1
;   supportUpperSeparationLayers,1
;   supportLowerSeparationLayers,1
;   supportType,1
;   supportGridSpacing,3
;   maxOverhangAngle,60
;   supportAngles,0
;   temperatureName,Primary Extruder,Bed
;   temperatureNumber,0,0
;   temperatureSetpointCount,1,1
;   temperatureSetpointLayers,1,1
;   temperatureSetpointTemperatures,210,60
;   temperatureStabilizeAtStartup,1,1
;   temperatureHeatedBed,0,1
;   temperatureRelayBetweenLayers,0,0
;   temperatureRelayBetweenLoops,0,0
;   fanLayers,1,2
;   fanSpeeds,0,70
;   blipFanToFullPower,0
;   adjustSpeedForCooling,1
;   minSpeedLayerTime,15
;   minCoolingSpeedSlowdown,50
;   increaseFanForCooling,1
;   minFanLayerTime,45
;   maxCoolingFanSpeed,100
;   increaseFanForBridging,1
;   bridgingFanSpeed,100
;   use5D,1
;   relativeEdistances,0
;   allowEaxisZeroing,1
;   independentExtruderAxes,0
;   includeM10123,0
;   stickySupport,1
;   applyToolheadOffsets,0
;   gcodeXoffset,0
;   gcodeYoffset,0
;   gcodeZoffset,0
;   overrideMachineDefinition,0
;   machineTypeOverride,0
;   strokeXoverride,200
;   strokeYoverride,200
;   strokeZoverride,200
;   originOffsetXoverride,0
;   originOffsetYoverride,0
;   originOffsetZoverride,0
;   homeXdirOverride,-1
;   homeYdirOverride,-1
;   homeZdirOverride,-1
;   flipXoverride,1
;   flipYoverride,-1
;   flipZoverride,1
;   toolheadOffsets,0,0|0,0|0,0|0,0|0,0|0,0
;   overrideFirmwareConfiguration,0
;   firmwareTypeOverride,RepRap (Marlin/Repetier/Sprinter)
;   GPXconfigOverride,r2
;   baudRateOverride,115200
;   overridePrinterModels,0
;   printerModelsOverride
;   startingGcode,G28 ; home all axes,G29 ; level Bed,
;   layerChangeGcode,
;   retractionGcode,
;   toolChangeGcode,
;   endingGcode,M104 S0 ; turn off extruder,M140 S0 ; turn off bed,G28 X; move X to home position,M84 ; disable motors
;   createX3G,0
;   celebration,0
;   celebrationSong,Random Song
;   createMB5G,0
;   postProcessing,
;   defaultSpeed,3000
;   outlineUnderspeed,0.7
;   solidInfillUnderspeed,0.7
;   supportUnderspeed,0.8
;   rapidXYspeed,7200
;   rapidZspeed,360
;   minBridgingArea,50
;   bridgingExtraInflation,0
;   bridgingExtrusionMultiplier,1
;   bridgingSpeedMultiplier,1
;   filamentDiameter,1.75
;   filamentPricePerKg,46
;   filamentDensity,1.25
;   useMinPrintHeight,0
;   minPrintHeight,0
;   useMaxPrintHeight,0
;   maxPrintHeight,0.4
;   useDiaphragm,0
;   diaphragmLayerInterval,20
;   robustSlicing,1
;   mergeAllIntoSolid,0
;   onlyRetractWhenCrossingOutline,1
;   retractBetweenLayers,1
;   useRetractionMinTravel,1
;   retractionMinTravel,1.5
;   retractWhileWiping,0
;   onlyWipeOutlines,1
;   avoidCrossingOutline,0
;   maxMovementDetourFactor,3
;   toolChangeRetractionDistance,12
;   toolChangeExtraRestartDistance,-0.5
;   toolChangeRetractionSpeed,600
;   allowThinWallGapFill,1
;   thinWallAllowedOverlapPercentage,10
;   horizontalSizeCompensation,0
G90
M82
M106 S0
M140 S60
M190 S60
M104 S210 T0
M109 S210 T0
G28 ; home all axes
G29 ; level Bed
G92 E0
G1 E-1.1500 F9000
G1 Z0.290 F360
; layer 1, Z = 0.22
T0
; tool H0.220 W0.408
; skirt
G1 X68.290 Y69.142 F7200
G1 Z0.220 F360
G1 E0.0700 F2700
G92 E0
G1 X68.476 Y68.970 E0.0085 F1500
G1 X68.493 Y68.954 E0.0093
G1 X69.117 Y68.420 E0.0369
G1 X69.134 Y68.406 E0.0376
G1 X69.321 Y68.257 E0.0457
G1 X69.338 Y68.244 E0.0464
G1 X69.962 Y67.784 E0.0724
G1 X69.980 Y67.771 E0.0732
G1 X70.180 Y67.634 E0.0813
G1 X70.198 Y67.622 E0.0820
G1 X70.929 Y67.162 E0.1111
G1 X70.949 Y67.150 E0.1118
G1 X71.171 Y67.022 E0.1205
G1 X71.192 Y67.010 E0.1212
G1 X71.922 Y66.626 E0.1490
G1 X71.942 Y66.616 E0.1497
G1 X72.164 Y66.509 E0.1580
G1 X72.184 Y66.500 E0.1587
G1 X72.937 Y66.173 E0.1863
G1 X72.957 Y66.164 E0.1870
G1 X73.186 Y66.075 E0.1953
G1 X73.207 Y66.067 E0.1960
G1 X73.982 Y65.797 E0.2236
G1 X74.003 Y65.790 E0.2243
G1 X74.238 Y65.718 E0.2326
G1 X74.260 Y65.711 E0.2334
G1 X75.052 Y65.500 E0.2609
G1 X75.074 Y65.494 E0.2617
G1 X75.314 Y65.440 E0.2699
G1 X75.336 Y65.435 E0.2707
G1 X76.142 Y65.283 E0.2982
G1 X76.164 Y65.279 E0.2990
G1 X76.407 Y65.243 E0.3072
G1 X76.430 Y65.240 E0.3080
G1 X77.245 Y65.148 E0.3355
G1 X77.267 Y65.146 E0.3363
G1 X77.513 Y65.128 E0.3446
G1 X77.535 Y65.127 E0.3453
G1 X78.293 Y65.098 E0.3708
G1 X78.304 Y65.098 E0.3712
G1 X78.427 Y65.096 E0.3753
G1 X78.439 Y65.096 E0.3757
G1 X91.561 Y65.096 E0.8164
G1 X91.573 Y65.096 E0.8168
G1 X91.696 Y65.098 E0.8209
G1 X91.707 Y65.098 E0.8213
G1 X92.465 Y65.127 E0.8468
G1 X92.487 Y65.128 E0.8476
G1 X92.733 Y65.146 E0.8558
G1 X92.755 Y65.148 E0.8566
G1 X93.570 Y65.240 E0.8841
G1 X93.593 Y65.243 E0.8849
G1 X93.836 Y65.279 E0.8931
G1 X93.858 Y65.283 E0.8939
G1 X94.664 Y65.435 E0.9214
G1 X94.686 Y65.440 E0.9222
G1 X94.926 Y65.494 E0.9305
G1 X94.948 Y65.500 E0.9312
G1 X95.740 Y65.711 E0.9588
G1 X95.762 Y65.718 E0.9595
G1 X95.997 Y65.790 E0.9678
G1 X96.018 Y65.797 E0.9685
G1 X96.793 Y66.067 E0.9961
G1 X96.814 Y66.075 E0.9968
G1 X97.043 Y66.164 E1.0051
G1 X97.063 Y66.173 E1.0058
G1 X97.816 Y66.500 E1.0334
G1 X97.836 Y66.509 E1.0341
G1 X98.058 Y66.616 E1.0424
G1 X98.078 Y66.626 E1.0432
G1 X98.804 Y67.008 E1.0707
G1 X98.823 Y67.019 E1.0715
G1 X99.037 Y67.141 E1.0797
G1 X99.056 Y67.153 E1.0805
G1 X99.751 Y67.588 E1.1080
G1 X99.770 Y67.600 E1.1088
G1 X99.974 Y67.739 E1.1170
G1 X99.992 Y67.751 E1.1178
G1 X100.656 Y68.240 E1.1455
G1 X100.675 Y68.254 E1.1463
G1 X100.874 Y68.413 E1.1548
G1 X100.892 Y68.427 E1.1556
G1 X101.550 Y68.994 E1.1848
G1 X101.568 Y69.010 E1.1856
G1 X101.753 Y69.183 E1.1941
G1 X101.770 Y69.199 E1.1949
G1 X102.348 Y69.780 E1.2224
G1 X102.363 Y69.796 E1.2231
G1 X102.526 Y69.971 E1.2312
G1 X102.540 Y69.987 E1.2319
G1 X103.046 Y70.575 E1.2579
G1 X103.060 Y70.592 E1.2587
G1 X103.212 Y70.783 E1.2669
G1 X103.225 Y70.800 E1.2676
G1 X103.739 Y71.495 E1.2966
G1 X103.753 Y71.514 E1.2974
G1 X103.897 Y71.725 E1.3060
G1 X103.909 Y71.745 E1.3068
G1 X104.347 Y72.444 E1.3345
G1 X104.359 Y72.463 E1.3352
G1 X104.481 Y72.677 E1.3435
G1 X104.492 Y72.696 E1.3443
G1 X104.874 Y73.422 E1.3718
G1 X104.884 Y73.442 E1.3726
G1 X104.991 Y73.664 E1.3808
G1 X105.000 Y73.684 E1.3816
G1 X105.327 Y74.436 E1.4091
G1 X105.336 Y74.457 E1.4099
G1 X105.425 Y74.686 E1.4181
G1 X105.433 Y74.707 E1.4189
G1 X105.703 Y75.482 E1.4465
G1 X105.710 Y75.503 E1.4472
G1 X105.782 Y75.738 E1.4555
G1 X105.789 Y75.760 E1.4562
G1 X106.000 Y76.552 E1.4838
G1 X106.006 Y76.574 E1.4845
G1 X106.060 Y76.814 E1.4928
G1 X106.065 Y76.836 E1.4935
G1 X106.217 Y77.642 E1.5211
G1 X106.221 Y77.664 E1.5218
G1 X106.257 Y77.907 E1.5301
G1 X106.260 Y77.930 E1.5309
G1 X106.352 Y78.745 E1.5584
G1 X106.354 Y78.767 E1.5592
G1 X106.372 Y79.013 E1.5674
G1 X106.373 Y79.035 E1.5682
G1 X106.404 Y79.855 E1.5957
G1 X106.404 Y79.877 E1.5965
G1 X106.404 Y80.123 E1.6047
G1 X106.404 Y80.145 E1.6055
G1 X106.373 Y80.965 E1.6330
G1 X106.372 Y80.987 E1.6338
G1 X106.354 Y81.233 E1.6421
G1 X106.352 Y81.255 E1.6428
G1 X106.260 Y82.070 E1.6704
G1 X106.257 Y82.093 E1.6711
G1 X106.221 Y82.336 E1.6794
G1 X106.217 Y82.358 E1.6801
G1 X106.065 Y83.164 E1.7077
G1 X106.060 Y83.186 E1.7084
G1 X106.006 Y83.426 E1.7167
G1 X106.000 Y83.448 E1.7174
G1 X105.789 Y84.240 E1.7450
G1 X105.782 Y84.262 E1.7457
G1 X105.710 Y84.497 E1.7540
G1 X105.703 Y84.518 E1.7548
G1 X105.433 Y85.293 E1.7823
G1 X105.425 Y85.314 E1.7831
G1 X105.336 Y85.543 E1.7913
G1 X105.327 Y85.563 E1.7921
G1 X105.000 Y86.316 E1.8196
G1 X104.991 Y86.336 E1.8204
G1 X104.884 Y86.558 E1.8286
G1 X104.874 Y86.578 E1.8294
G1 X104.492 Y87.304 E1.8569
G1 X104.481 Y87.323 E1.8577
G1 X104.359 Y87.537 E1.8660
G1 X104.347 Y87.556 E1.8667
G1 X103.912 Y88.251 E1.8943
G1 X103.900 Y88.270 E1.8950
G1 X103.762 Y88.474 E1.9033
G1 X103.749 Y88.492 E1.9040
G1 X103.263 Y89.153 E1.9316
G1 X103.249 Y89.171 E1.9323
G1 X103.096 Y89.363 E1.9406
G1 X103.082 Y89.380 E1.9414
G1 X102.548 Y90.003 E1.9689
G1 X102.533 Y90.020 E1.9697
G1 X102.367 Y90.201 E1.9779
G1 X102.351 Y90.217 E1.9787
G1 X101.770 Y90.801 E2.0063
G1 X101.753 Y90.817 E2.0071
G1 X101.568 Y90.990 E2.0156
G1 X101.550 Y91.005 E2.0164
G1 X100.892 Y91.572 E2.0456
G1 X100.874 Y91.587 E2.0464
G1 X100.675 Y91.746 E2.0549
G1 X100.656 Y91.760 E2.0557
G1 X99.992 Y92.249 E2.0834
G1 X99.974 Y92.262 E2.0842
G1 X99.770 Y92.400 E2.0924
G1 X99.751 Y92.412 E2.0932
G1 X99.056 Y92.847 E2.1207
G1 X99.037 Y92.859 E2.1215
G1 X98.823 Y92.981 E2.1298
G1 X98.804 Y92.992 E2.1305
G1 X98.078 Y93.374 E2.1581
G1 X98.058 Y93.384 E2.1588
G1 X97.836 Y93.491 E2.1671
G1 X97.816 Y93.500 E2.1678
G1 X97.064 Y93.827 E2.1954
G1 X97.043 Y93.836 E2.1961
G1 X96.814 Y93.925 E2.2044
G1 X96.793 Y93.933 E2.2051
G1 X96.018 Y94.203 E2.2327
G1 X95.997 Y94.210 E2.2334
G1 X95.761 Y94.282 E2.2417
G1 X95.740 Y94.289 E2.2425
G1 X94.947 Y94.500 E2.2700
G1 X94.926 Y94.506 E2.2708
G1 X94.686 Y94.560 E2.2790
G1 X94.664 Y94.565 E2.2798
G1 X93.858 Y94.717 E2.3073
G1 X93.836 Y94.721 E2.3081
G1 X93.593 Y94.757 E2.3163
G1 X93.570 Y94.760 E2.3171
G1 X92.755 Y94.852 E2.3446
G1 X92.733 Y94.854 E2.3454
G1 X92.487 Y94.872 E2.3537
G1 X92.465 Y94.873 E2.3544
G1 X91.707 Y94.902 E2.3799
G1 X91.696 Y94.902 E2.3803
G1 X91.573 Y94.904 E2.3844
G1 X91.561 Y94.904 E2.3848
G1 X78.439 Y94.904 E2.8255
G1 X78.427 Y94.904 E2.8259
G1 X78.304 Y94.902 E2.8300
G1 X78.293 Y94.902 E2.8304
G1 X77.535 Y94.873 E2.8559
G1 X77.513 Y94.872 E2.8566
G1 X77.267 Y94.854 E2.8649
G1 X77.245 Y94.852 E2.8657
G1 X76.430 Y94.760 E2.8932
G1 X76.407 Y94.757 E2.8940
G1 X76.164 Y94.721 E2.9022
G1 X76.142 Y94.717 E2.9030
G1 X75.336 Y94.565 E2.9305
G1 X75.314 Y94.560 E2.9313
G1 X75.074 Y94.506 E2.9395
G1 X75.052 Y94.500 E2.9403
G1 X74.260 Y94.289 E2.9678
G1 X74.238 Y94.282 E2.9686
G1 X74.003 Y94.210 E2.9769
G1 X73.982 Y94.203 E2.9776
G1 X73.207 Y93.933 E3.0052
G1 X73.186 Y93.925 E3.0059
G1 X72.957 Y93.836 E3.0142
G1 X72.936 Y93.827 E3.0149
G1 X72.184 Y93.500 E3.0425
G1 X72.164 Y93.491 E3.0432
G1 X71.942 Y93.384 E3.0515
G1 X71.922 Y93.374 E3.0523
G1 X71.192 Y92.990 E3.0800
G1 X71.171 Y92.979 E3.0808
G1 X70.949 Y92.850 E3.0894
G1 X70.929 Y92.838 E3.0902
G1 X70.198 Y92.378 E3.1192
G1 X70.180 Y92.366 E3.1199
G1 X69.980 Y92.229 E3.1281
G1 X69.962 Y92.216 E3.1288
G1 X69.338 Y91.756 E3.1548
G1 X69.321 Y91.743 E3.1555
G1 X69.134 Y91.594 E3.1636
G1 X69.117 Y91.580 E3.1643
G1 X68.493 Y91.046 E3.1919
G1 X68.476 Y91.030 E3.1927
G1 X68.289 Y90.858 E3.2012
G1 X68.273 Y90.841 E3.2020
G1 X67.659 Y90.227 E3.2312
G1 X67.642 Y90.211 E3.2319
G1 X67.470 Y90.024 E3.2405
G1 X67.454 Y90.007 E3.2413
G1 X66.918 Y89.380 E3.2690
G1 X66.904 Y89.363 E3.2697
G1 X66.751 Y89.170 E3.2780
G1 X66.737 Y89.153 E3.2787
G1 X66.251 Y88.492 E3.3063
G1 X66.238 Y88.473 E3.3070
G1 X66.100 Y88.270 E3.3153
G1 X66.088 Y88.251 E3.3160
G1 X65.653 Y87.556 E3.3436
G1 X65.641 Y87.537 E3.3443
G1 X65.519 Y87.323 E3.3526
G1 X65.508 Y87.304 E3.3534
G1 X65.126 Y86.578 E3.3809
G1 X65.116 Y86.558 E3.3817
G1 X65.009 Y86.336 E3.3899
G1 X65.000 Y86.316 E3.3907
G1 X64.673 Y85.563 E3.4182
G1 X64.664 Y85.543 E3.4190
G1 X64.575 Y85.314 E3.4272
G1 X64.567 Y85.293 E3.4280
G1 X64.297 Y84.518 E3.4555
G1 X64.290 Y84.497 E3.4563
G1 X64.218 Y84.262 E3.4646
G1 X64.211 Y84.240 E3.4653
G1 X64.000 Y83.448 E3.4929
G1 X63.994 Y83.426 E3.4936
G1 X63.940 Y83.186 E3.5019
G1 X63.935 Y83.164 E3.5026
G1 X63.783 Y82.358 E3.5302
G1 X63.779 Y82.336 E3.5309
G1 X63.743 Y82.093 E3.5392
G1 X63.740 Y82.070 E3.5399
G1 X63.648 Y81.255 E3.5675
G1 X63.646 Y81.233 E3.5682
G1 X63.628 Y80.987 E3.5765
G1 X63.627 Y80.965 E3.5773
G1 X63.596 Y80.145 E3.6048
G1 X63.596 Y80.123 E3.6056
G1 X63.596 Y79.877 E3.6138
G1 X63.596 Y79.855 E3.6146
G1 X63.627 Y79.035 E3.6421
G1 X63.628 Y79.013 E3.6429
G1 X63.646 Y78.767 E3.6512
G1 X63.648 Y78.745 E3.6519
G1 X63.740 Y77.930 E3.6795
G1 X63.743 Y77.907 E3.6802
G1 X63.779 Y77.664 E3.6885
G1 X63.783 Y77.642 E3.6892
G1 X63.935 Y76.836 E3.7168
G1 X63.940 Y76.814 E3.7175
G1 X63.994 Y76.574 E3.7258
G1 X64.000 Y76.552 E3.7265
G1 X64.211 Y75.760 E3.7541
G1 X64.218 Y75.738 E3.7548
G1 X64.290 Y75.503 E3.7631
G1 X64.297 Y75.482 E3.7639
G1 X64.567 Y74.707 E3.7914
G1 X64.575 Y74.686 E3.7922
G1 X64.664 Y74.457 E3.8004
G1 X64.673 Y74.437 E3.8012
G1 X65.000 Y73.684 E3.8287
G1 X65.009 Y73.664 E3.8295
G1 X65.116 Y73.442 E3.8377
G1 X65.126 Y73.422 E3.8385
G1 X65.510 Y72.692 E3.8662
G1 X65.522 Y72.671 E3.8670
G1 X65.650 Y72.449 E3.8756
G1 X65.662 Y72.429 E3.8764
G1 X66.122 Y71.698 E3.9054
G1 X66.134 Y71.680 E3.9062
G1 X66.271 Y71.480 E3.9143
G1 X66.284 Y71.462 E3.9150
G1 X66.744 Y70.838 E3.9410
G1 X66.757 Y70.821 E3.9418
G1 X66.906 Y70.634 E3.9498
G1 X66.920 Y70.617 E3.9506
G1 X67.454 Y69.993 E3.9781
G1 X67.470 Y69.976 E3.9789
G1 X67.643 Y69.789 E3.9875
G1 X67.659 Y69.773 E3.9882
G1 X68.273 Y69.158 E4.0174
G1 X68.290 Y69.142 E4.0182
G1 X68.619 Y69.492 F7200
G92 E0
G1 X68.799 Y69.325 E0.0082 F1500
G1 X68.809 Y69.316 E0.0087
G1 X69.426 Y68.787 E0.0360
G1 X69.436 Y68.779 E0.0364
G1 X69.617 Y68.636 E0.0442
G1 X69.627 Y68.628 E0.0446
G1 X70.243 Y68.173 E0.0703
G1 X70.254 Y68.165 E0.0708
G1 X70.447 Y68.033 E0.0786
G1 X70.458 Y68.026 E0.0791
G1 X71.181 Y67.570 E0.1078
G1 X71.193 Y67.563 E0.1082
G1 X71.407 Y67.440 E0.1165
G1 X71.419 Y67.433 E0.1170
G1 X72.142 Y67.052 E0.1444
G1 X72.154 Y67.046 E0.1449
G1 X72.368 Y66.944 E0.1528
G1 X72.380 Y66.938 E0.1533
G1 X73.124 Y66.615 E0.1805
G1 X73.136 Y66.610 E0.1810
G1 X73.357 Y66.523 E0.1890
G1 X73.370 Y66.519 E0.1894
G1 X74.136 Y66.252 E0.2167
G1 X74.148 Y66.247 E0.2171
G1 X74.375 Y66.178 E0.2251
G1 X74.388 Y66.174 E0.2255
G1 X75.172 Y65.965 E0.2528
G1 X75.185 Y65.961 E0.2532
G1 X75.416 Y65.909 E0.2612
G1 X75.429 Y65.906 E0.2616
G1 X76.227 Y65.756 E0.2889
G1 X76.240 Y65.753 E0.2893
G1 X76.474 Y65.718 E0.2973
G1 X76.488 Y65.716 E0.2978
G1 X77.294 Y65.626 E0.3250
G1 X77.307 Y65.625 E0.3255
G1 X77.544 Y65.607 E0.3334
G1 X77.557 Y65.606 E0.3339
G1 X78.309 Y65.578 E0.3591
G1 X78.316 Y65.578 E0.3594
G1 X78.434 Y65.576 E0.3633
G1 X78.441 Y65.576 E0.3636
G1 X91.559 Y65.576 E0.8042
G1 X91.566 Y65.576 E0.8044
G1 X91.684 Y65.578 E0.8084
