; G-Code generated by Simplify3D(R) Version 3.0.0
; Nov 16, 2016 at 7:58:40 AM
; Settings Summary
;   processName,Process1
;   applyToModels,fan shroud L 4.2
;   profileName,JB Lite6 20mm meltzone 0.2 (modified)
;   profileVersion,2016-07-27 06:45:13
;   baseProfile,Plywood
;   printMaterial,PLA
;   printQuality,0.3 base
;   printExtruders,
;   extruderName,Primary Extruder
;   extruderToolheadNumber,0
;   extruderDiameter,0.4
;   extruderAutoWidth,0
;   extruderWidth,0.48
;   extrusionMultiplier,1
;   extruderUseRetract,1
;   extruderRetractionDistance,1.1
;   extruderExtraRestartDistance,0
;   extruderRetractionZLift,0
;   extruderRetractionSpeed,4200
;   extruderUseCoasting,1
;   extruderCoastingDistance,1
;   extruderUseWipe,1
;   extruderWipeDistance,2
;   primaryExtruder,0
;   layerHeight,0.2
;   topSolidLayers,4
;   bottomSolidLayers,2
;   perimeterOutlines,2
;   printPerimetersInsideOut,1
;   startPointOption,3
;   startPointOriginX,100
;   startPointOriginY,0
;   startPointOriginZ,10
;   sequentialIslands,0
;   spiralVaseMode,0
;   firstLayerHeightPercentage,150
;   firstLayerWidthPercentage,100
;   firstLayerUnderspeed,0.5
;   useRaft,0
;   raftExtruder,0
;   raftLayers,3
;   raftOffset,5
;   raftSeparationDistance,0.1
;   raftInfill,85
;   disableRaftBaseLayers,0
;   useSkirt,1
;   skirtExtruder,0
;   skirtLayers,1
;   skirtOutlines,5
;   skirtOffset,0
;   usePrimePillar,0
;   primePillarExtruder,999
;   primePillarWidth,12
;   primePillarLocation,7
;   primePillarSpeedMultiplier,1
;   useOozeShield,0
;   oozeShieldExtruder,999
;   oozeShieldOffset,10
;   oozeShieldOutlines,1
;   oozeShieldSidewallShape,0
;   oozeShieldSidewallAngle,30
;   oozeShieldSpeedMultiplier,1
;   infillExtruder,0
;   internalInfillPattern,Rectilinear
;   externalInfillPattern,Rectilinear
;   infillPercentage,30
;   outlineOverlapPercentage,15
;   infillExtrusionWidthPercentage,125
;   minInfillLength,1
;   infillLayerInterval,1
;   infillAngles,45,-45
;   overlapInfillAngles,0
;   generateSupport,0
;   supportExtruder,0
;   supportInfillPercentage,20
;   supportExtraInflation,0
;   denseSupportLayers,0
;   denseSupportInfillPercentage,70
;   supportLayerInterval,1
;   supportHorizontalPartOffset,0.3
;   supportUpperSeparationLayers,1
;   supportLowerSeparationLayers,1
;   supportType,0
;   supportGridSpacing,5
;   maxOverhangAngle,35
;   supportAngles,0
;   temperatureName,Extruder 0,Heated Bed
;   temperatureNumber,0,0
;   temperatureSetpointCount,1,1
;   temperatureSetpointLayers,1,1
;   temperatureSetpointTemperatures,210,60
;   temperatureStabilizeAtStartup,1,1
;   temperatureHeatedBed,0,1
;   temperatureRelayBetweenLayers,0,0
;   temperatureRelayBetweenLoops,0,0
;   fanLayers,1,3
;   fanSpeeds,0,60
;   blipFanToFullPower,1
;   adjustSpeedForCooling,1
;   minSpeedLayerTime,15
;   minCoolingSpeedSlowdown,40
;   increaseFanForCooling,1
;   minFanLayerTime,15
;   maxCoolingFanSpeed,100
;   increaseFanForBridging,1
;   bridgingFanSpeed,100
;   use5D,1
;   relativeEdistances,1
;   allowEaxisZeroing,1
;   independentExtruderAxes,0
;   includeM10123,0
;   stickySupport,1
;   applyToolheadOffsets,0
;   gcodeXoffset,0
;   gcodeYoffset,0
;   gcodeZoffset,0
;   overrideMachineDefinition,1
;   machineTypeOverride,0
;   strokeXoverride,170
;   strokeYoverride,160
;   strokeZoverride,145
;   originOffsetXoverride,0
;   originOffsetYoverride,0
;   originOffsetZoverride,0
;   homeXdirOverride,-1
;   homeYdirOverride,-1
;   homeZdirOverride,-1
;   flipXoverride,1
;   flipYoverride,-1
;   flipZoverride,1
;   toolheadOffsets,0,0|0,0|0,0|0,0|0,0|0,0
;   overrideFirmwareConfiguration,0
;   firmwareTypeOverride,RepRap (Marlin/Repetier/Sprinter)
;   GPXconfigOverride,r2
;   baudRateOverride,250000
;   overridePrinterModels,0
;   printerModelsOverride
;   startingGcode,; Jellybox Start Script Begin,M117 Preparing ,,; set x homing offset for default bed leveling,M206 X10.0 Y0.0  ,; optionally adjust Extruder steps per mm for your filament,; M92 E140 ,,; home all axes,G28,; slow Z speed down for greater accuracy,M203 Z5,; auto bed leveling procedure,G29,; pick up z speed again for print,M203 Z7,; reset extruder position,G92 E0,,M117 Print starting,;Jellybox Printer Start Script End
;   layerChangeGcode,
;   retractionGcode,
;   toolChangeGcode,
;   endingGcode,;Jellybox Printer End Script Start,,; extruder heater off,M104 S0,; bed heater off (if you have it),M140 S0,; turn fan off,M107,,; relative positioning,G91,; retract the filament a bit before lifting the nozzle to release some of the pressure,G1 E-1.5 F1200,; move Z up a bit and retract filament even more,G1 Z+1 E-1 X-20 Y-20,;move X/Y to so the head is out of the way,G28 X0,G1 Y100,; steppers off,M84,; absolute positioning,G90,,; Jellybox Printer End Script End
;   createX3G,0
;   celebration,0
;   celebrationSong,Random Song
;   createMB5G,0
;   postProcessing,|{REPLACE "; layer" "M117 Layer"} ,{REPLACE ", Z = " " | Z="}
;   defaultSpeed,3000
;   outlineUnderspeed,0.4
;   solidInfillUnderspeed,0.75
;   supportUnderspeed,0.75
;   rapidXYspeed,7200
;   rapidZspeed,300
;   minBridgingArea,50
;   bridgingExtraInflation,0.4
;   bridgingExtrusionMultiplier,1
;   bridgingSpeedMultiplier,1
;   filamentDiameter,1.75
;   filamentPricePerKg,15
;   filamentDensity,1.25
;   useMinPrintHeight,0
;   minPrintHeight,0
;   useMaxPrintHeight,1
;   maxPrintHeight,6
;   useDiaphragm,0
;   diaphragmLayerInterval,20
;   robustSlicing,1
;   mergeAllIntoSolid,0
;   onlyRetractWhenCrossingOutline,1
;   retractBetweenLayers,1
;   useRetractionMinTravel,1
;   retractionMinTravel,1.5
;   retractWhileWiping,0
;   onlyWipeOutlines,1
;   avoidCrossingOutline,1
;   maxMovementDetourFactor,3
;   toolChangeRetractionDistance,12
;   toolChangeExtraRestartDistance,-0.5
;   toolChangeRetractionSpeed,600
;   allowThinWallGapFill,1
;   thinWallAllowedOverlapPercentage,15
;   horizontalSizeCompensation,0
G90
M83
M106 S0
M140 S60
M190 S60
M104 S210 T0
M109 S210 T0
; Jellybox Start Script Begin
M117 Preparing 
; set x homing offset for default bed leveling
M206 X10.0 Y0.0  
; optionally adjust Extruder steps per mm for your filament
; M92 E140 
; home all axes
G28
; slow Z speed down for greater accuracy
M203 Z5
; auto bed leveling procedure
G29
; pick up z speed again for print
M203 Z7
; reset extruder position
G92 E0
M117 Print starting
;Jellybox Printer Start Script End
G1 E-1.1000 F4200
G1 Z0.300 F300
; layer 1, Z = 0.3
T0
; tool H0.300 W0.480
; skirt
G1 X66.750 Y46.431 F7200
G1 E1.1000 F1260
G1 X67.069 Y45.974 E0.0334 F1500
G1 X67.206 Y45.814 E0.0126
G1 X67.701 Y45.335 E0.0412
G1 X67.866 Y45.205 E0.0126
G1 X68.334 Y44.902 E0.0334
G1 X68.495 Y44.816 E0.0109
G1 X68.995 Y44.602 E0.0326
G1 X69.168 Y44.544 E0.0109
G1 X69.698 Y44.417 E0.0326
G1 X69.878 Y44.390 E0.0109
G1 X70.375 Y44.356 E0.0298
G1 X70.467 Y44.354 E0.0055
G1 X95.554 Y44.790 E1.5022
G1 X95.645 Y44.795 E0.0055
G1 X96.159 Y44.847 E0.0310
G1 X96.374 Y44.892 E0.0131
G1 X97.012 Y45.092 E0.0400
G1 X97.162 Y45.152 E0.0096
G1 X97.529 Y45.331 E0.0244
G1 X97.673 Y45.416 E0.0100
G1 X98.113 Y45.722 E0.0321
G1 X98.253 Y45.839 E0.0109
G1 X98.650 Y46.229 E0.0333
G1 X98.783 Y46.387 E0.0124
G1 X99.173 Y46.955 E0.0412
G1 X99.275 Y47.142 E0.0128
G1 X99.496 Y47.656 E0.0335
G1 X99.553 Y47.829 E0.0109
G1 X99.681 Y48.358 E0.0326
G1 X99.708 Y48.539 E0.0109
G1 X99.741 Y49.036 E0.0298
G1 X99.744 Y49.127 E0.0055
G1 X99.308 Y74.215 E1.5022
G1 X99.303 Y74.306 E0.0055
G1 X99.250 Y74.820 E0.0310
G1 X99.206 Y75.035 E0.0131
G1 X99.005 Y75.673 E0.0400
G1 X98.946 Y75.823 E0.0096
G1 X98.767 Y76.189 E0.0244
G1 X98.682 Y76.333 E0.0100
G1 X98.376 Y76.773 E0.0321
G1 X98.259 Y76.914 E0.0109
G1 X97.869 Y77.310 E0.0333
G1 X97.710 Y77.443 E0.0124
G1 X97.143 Y77.833 E0.0412
G1 X96.956 Y77.936 E0.0128
G1 X96.442 Y78.157 E0.0335
G1 X96.269 Y78.214 E0.0109
G1 X95.739 Y78.341 E0.0326
G1 X95.559 Y78.369 E0.0109
G1 X95.062 Y78.402 E0.0298
G1 X94.970 Y78.404 E0.0055
G1 X69.883 Y77.969 E1.5022
G1 X69.792 Y77.963 E0.0055
G1 X69.296 Y77.913 E0.0298
G1 X69.116 Y77.879 E0.0109
G1 X68.592 Y77.733 E0.0326
G1 X68.421 Y77.670 E0.0109
G1 X67.929 Y77.439 E0.0326
G1 X67.771 Y77.347 E0.0109
G1 X67.313 Y77.029 E0.0334
G1 X67.153 Y76.892 E0.0126
G1 X66.674 Y76.396 E0.0412
G1 X66.544 Y76.232 E0.0126
G1 X66.241 Y75.763 E0.0334
G1 X66.155 Y75.602 E0.0109
G1 X65.941 Y75.102 E0.0326
G1 X65.884 Y74.929 E0.0109
G1 X65.756 Y74.400 E0.0326
G1 X65.729 Y74.220 E0.0109
G1 X65.695 Y73.722 E0.0299
G1 X65.693 Y73.631 E0.0055
G1 X66.129 Y48.544 E1.5022
G1 X66.134 Y48.453 E0.0055
G1 X66.185 Y47.956 E0.0299
G1 X66.219 Y47.777 E0.0109
G1 X66.340 Y47.341 E0.0271
G1 X66.364 Y47.253 F1500
G1 X66.428 Y47.082 F1500
G1 X66.659 Y46.590 F1500
G1 X66.750 Y46.431 F1500
G1 X67.156 Y46.689 F7200
G1 X67.450 Y46.267 E0.0308 F1500
G1 X67.556 Y46.143 E0.0098
G1 X68.018 Y45.697 E0.0384
G1 X68.146 Y45.595 E0.0098
G1 X68.578 Y45.316 E0.0308
G1 X68.703 Y45.249 E0.0085
G1 X69.166 Y45.051 E0.0301
G1 X69.300 Y45.006 E0.0085
G1 X69.790 Y44.889 E0.0302
G1 X69.930 Y44.867 E0.0085
G1 X70.397 Y44.836 E0.0280
G1 X70.468 Y44.834 E0.0042
G1 X95.536 Y45.269 E1.5010
G1 X95.606 Y45.274 E0.0042
G1 X96.086 Y45.323 E0.0289
G1 X96.254 Y45.357 E0.0102
G1 X96.851 Y45.545 E0.0375
G1 X96.967 Y45.591 E0.0075
G1 X97.301 Y45.754 E0.0222
G1 X97.413 Y45.820 E0.0078
G1 X97.822 Y46.104 E0.0298
G1 X97.931 Y46.195 E0.0085
G1 X98.297 Y46.555 E0.0307
G1 X98.400 Y46.678 E0.0096
G1 X98.764 Y47.207 E0.0384
G1 X98.844 Y47.352 E0.0099
G1 X99.047 Y47.826 E0.0309
G1 X99.091 Y47.961 E0.0085
G1 X99.209 Y48.451 E0.0302
G1 X99.231 Y48.591 E0.0085
G1 X99.262 Y49.058 E0.0280
G1 X99.264 Y49.129 E0.0042
G1 X98.828 Y74.196 E1.5010
G1 X98.824 Y74.267 E0.0042
G1 X98.775 Y74.747 E0.0289
G1 X98.741 Y74.914 E0.0102
G1 X98.553 Y75.512 E0.0375
G1 X98.506 Y75.628 E0.0075
G1 X98.343 Y75.962 E0.0222
G1 X98.278 Y76.074 E0.0078
G1 X97.993 Y76.482 E0.0298
G1 X97.903 Y76.592 E0.0085
G1 X97.543 Y76.957 E0.0307
G1 X97.420 Y77.061 E0.0096
G1 X96.890 Y77.424 E0.0384
G1 X96.745 Y77.504 E0.0099
G1 X96.271 Y77.707 E0.0309
G1 X96.137 Y77.752 E0.0085
G1 X95.647 Y77.870 E0.0302
G1 X95.507 Y77.891 E0.0085
G1 X95.040 Y77.923 E0.0280
G1 X94.969 Y77.924 E0.0042
G1 X69.901 Y77.489 E1.5010
G1 X69.831 Y77.485 E0.0042
G1 X69.365 Y77.437 E0.0280
G1 X69.225 Y77.411 E0.0085
G1 X68.740 Y77.276 E0.0302
G1 X68.607 Y77.227 E0.0085
G1 X68.151 Y77.013 E0.0301
G1 X68.029 Y76.942 E0.0085
G1 X67.607 Y76.648 E0.0308
G1 X67.482 Y76.542 E0.0098
G1 X67.036 Y76.080 E0.0384
G1 X66.934 Y75.952 E0.0098
G1 X66.655 Y75.520 E0.0308
G1 X66.589 Y75.395 E0.0085
G1 X66.390 Y74.932 E0.0301
G1 X66.346 Y74.797 E0.0085
G1 X66.228 Y74.308 E0.0302
G1 X66.206 Y74.167 E0.0085
G1 X66.175 Y73.700 E0.0280
G1 X66.173 Y73.629 E0.0042
G1 X66.609 Y48.562 E1.5010
G1 X66.613 Y48.491 E0.0042
G1 X66.660 Y48.025 E0.0280
G1 X66.687 Y47.886 E0.0085
G1 X66.764 Y47.606 E0.0174
G1 X66.821 Y47.401 F1500
G1 X66.871 Y47.268 F1500
G1 X67.085 Y46.812 F1500
G1 X67.156 Y46.689 F1500
G1 X67.561 Y46.947 F7200
G1 X67.830 Y46.561 E0.0282 F1500
G1 X67.906 Y46.472 E0.0070
G1 X68.334 Y46.058 E0.0356
G1 X68.426 Y45.986 E0.0070
G1 X68.821 Y45.730 E0.0282
G1 X68.910 Y45.683 E0.0061
G1 X69.336 Y45.500 E0.0277
G1 X69.432 Y45.468 E0.0061
G1 X69.883 Y45.360 E0.0277
G1 X69.983 Y45.345 E0.0061
G1 X70.419 Y45.315 E0.0262
G1 X70.470 Y45.314 E0.0030
G1 X95.517 Y45.749 E1.4997
G1 X95.568 Y45.752 E0.0030
G1 X96.013 Y45.798 E0.0268
G1 X96.133 Y45.822 E0.0073
G1 X96.690 Y45.997 E0.0350
G1 X96.773 Y46.031 E0.0054
G1 X97.074 Y46.178 E0.0201
G1 X97.154 Y46.225 E0.0056
G1 X97.531 Y46.487 E0.0275
G1 X97.609 Y46.551 E0.0061
G1 X97.944 Y46.881 E0.0281
G1 X98.017 Y46.969 E0.0069
G1 X98.355 Y47.460 E0.0356
G1 X98.412 Y47.563 E0.0071
G1 X98.597 Y47.997 E0.0282
G1 X98.629 Y48.093 E0.0061
G1 X98.738 Y48.543 E0.0277
G1 X98.753 Y48.644 E0.0061
G1 X98.782 Y49.080 E0.0262
G1 X98.783 Y49.131 E0.0030
G1 X98.349 Y74.178 E1.4997
G1 X98.346 Y74.228 E0.0030
G1 X98.300 Y74.674 E0.0268
G1 X98.275 Y74.793 E0.0073
G1 X98.100 Y75.351 E0.0350
G1 X98.067 Y75.434 E0.0054
G1 X97.920 Y75.735 E0.0201
G1 X97.873 Y75.815 E0.0055
G1 X97.611 Y76.191 E0.0275
G1 X97.546 Y76.269 E0.0061
G1 X97.217 Y76.604 E0.0281
G1 X97.129 Y76.678 E0.0069
G1 X96.638 Y77.015 E0.0356
G1 X96.534 Y77.072 E0.0071
G1 X96.101 Y77.258 E0.0282
G1 X96.005 Y77.290 E0.0061
G1 X95.554 Y77.398 E0.0277
G1 X95.454 Y77.414 E0.0061
G1 X95.017 Y77.443 E0.0262
G1 X94.967 Y77.444 E0.0030
G1 X69.920 Y77.009 E1.4997
G1 X69.869 Y77.006 E0.0030
G1 X69.434 Y76.962 E0.0262
G1 X69.334 Y76.943 E0.0061
G1 X68.888 Y76.819 E0.0277
G1 X68.793 Y76.784 E0.0061
G1 X68.374 Y76.587 E0.0277
G1 X68.286 Y76.536 E0.0061
G1 X67.900 Y76.267 E0.0282
G1 X67.811 Y76.192 E0.0070
G1 X67.397 Y75.763 E0.0357
G1 X67.325 Y75.672 E0.0070
G1 X67.069 Y75.277 E0.0282
G1 X67.022 Y75.187 E0.0061
G1 X66.839 Y74.762 E0.0277
G1 X66.808 Y74.665 E0.0061
G1 X66.699 Y74.215 E0.0277
G1 X66.684 Y74.115 E0.0061
G1 X66.655 Y73.678 E0.0262
G1 X66.653 Y73.627 E0.0030
G1 X67.088 Y48.581 E1.4997
G1 X67.091 Y48.530 E0.0030
G1 X67.136 Y48.094 E0.0262
G1 X67.155 Y47.995 E0.0061
G1 X67.189 Y47.871 E0.0077
G1 X67.278 Y47.549 F1500
G1 X67.314 Y47.454 F1500
G1 X67.511 Y47.035 F1500
G1 X67.561 Y46.947 F1500
G1 X67.967 Y47.205 F7200
G1 X68.211 Y46.854 E0.0256 F1500
G1 X68.256 Y46.801 E0.0042
G1 X68.651 Y46.420 E0.0328
G1 X68.706 Y46.376 E0.0042
G1 X69.064 Y46.144 E0.0256
G1 X69.118 Y46.116 E0.0036
G1 X69.506 Y45.949 E0.0253
G1 X69.564 Y45.930 E0.0036
G1 X69.975 Y45.831 E0.0253
G1 X70.035 Y45.822 E0.0036
G1 X70.442 Y45.795 E0.0244
G1 X70.472 Y45.794 E0.0018
G1 X95.499 Y46.229 E1.4985
G1 X95.529 Y46.231 E0.0018
G1 X95.940 Y46.273 E0.0248
G1 X96.012 Y46.287 E0.0044
G1 X96.529 Y46.450 E0.0324
G1 X96.579 Y46.470 E0.0032
G1 X96.847 Y46.601 E0.0179
G1 X96.895 Y46.629 E0.0033
G1 X97.240 Y46.869 E0.0251
G1 X97.287 Y46.908 E0.0036
G1 X97.591 Y47.207 E0.0255
G1 X97.635 Y47.260 E0.0041
G1 X97.946 Y47.712 E0.0328
G1 X97.980 Y47.774 E0.0043
G1 X98.148 Y48.167 E0.0256
G1 X98.167 Y48.225 E0.0036
G1 X98.266 Y48.636 E0.0253
G1 X98.275 Y48.696 E0.0036
G1 X98.303 Y49.102 E0.0244
G1 X98.303 Y49.133 E0.0018
G1 X97.869 Y74.159 E1.4985
G1 X97.867 Y74.190 E0.0018
G1 X97.825 Y74.601 E0.0248
G1 X97.810 Y74.673 E0.0044
G1 X97.648 Y75.190 E0.0324
G1 X97.628 Y75.240 E0.0032
G1 X97.497 Y75.508 E0.0179
G1 X97.469 Y75.556 E0.0033
G1 X97.229 Y75.900 E0.0251
G1 X97.190 Y75.947 E0.0036
G1 X96.891 Y76.251 E0.0255
G1 X96.838 Y76.296 E0.0041
G1 X96.386 Y76.606 E0.0329
G1 X96.323 Y76.641 E0.0043
G1 X95.930 Y76.809 E0.0256
G1 X95.873 Y76.828 E0.0036
G1 X95.462 Y76.927 E0.0253
G1 X95.402 Y76.936 E0.0036
G1 X94.995 Y76.963 E0.0244
G1 X94.965 Y76.964 E0.0018
G1 X69.938 Y76.530 E1.4985
G1 X69.908 Y76.528 E0.0018
G1 X69.503 Y76.486 E0.0244
G1 X69.443 Y76.475 E0.0036
G1 X69.036 Y76.362 E0.0253
G1 X68.979 Y76.341 E0.0036
G1 X68.597 Y76.161 E0.0253
G1 X68.544 Y76.131 E0.0036
G1 X68.193 Y75.887 E0.0256
G1 X68.140 Y75.841 E0.0042
G1 X67.759 Y75.447 E0.0329
G1 X67.715 Y75.392 E0.0042
G1 X67.484 Y75.033 E0.0256
G1 X67.455 Y74.979 E0.0036
G1 X67.289 Y74.591 E0.0253
G1 X67.270 Y74.533 E0.0036
G1 X67.171 Y74.123 E0.0253
G1 X67.162 Y74.062 E0.0036
G1 X67.134 Y73.656 E0.0244
G1 X67.133 Y73.626 E0.0018
G1 X67.568 Y48.599 E1.4985
G1 X67.570 Y48.569 E0.0018
G1 X67.611 Y48.163 E0.0244
G1 X67.616 Y48.136 E0.0016
G1 X67.623 Y48.104 F1500
G1 X67.736 Y47.696 F1500
G1 X67.757 Y47.640 F1500
G1 X67.936 Y47.257 F1500
G1 X67.967 Y47.205 F1500
G1 X68.372 Y47.462 F7200
G1 X68.591 Y47.148 E0.0230 F1500
G1 X68.607 Y47.130 E0.0014
G1 X68.968 Y46.781 E0.0301
G1 X68.986 Y46.767 E0.0014
G1 X69.308 Y46.559 E0.0230
G1 X69.326 Y46.549 E0.0012
G1 X69.677 Y46.399 E0.0229
G1 X69.696 Y46.392 E0.0012
G1 X70.068 Y46.303 E0.0229
G1 X70.088 Y46.300 E0.0012
G1 X70.464 Y46.275 E0.0226
G1 X70.474 Y46.274 E0.0006
G1 X95.480 Y46.709 E1.4973
G1 X95.490 Y46.709 E0.0006
G1 X95.867 Y46.748 E0.0227
G1 X95.891 Y46.753 E0.0015
G1 X96.368 Y46.903 E0.0299
G1 X96.384 Y46.909 E0.0011
G1 X96.620 Y47.024 E0.0157
G1 X96.636 Y47.034 E0.0011
G1 X96.949 Y47.251 E0.0228
G1 X96.964 Y47.264 E0.0012
G1 X97.238 Y47.533 E0.0229
G1 X97.252 Y47.551 E0.0014
