; G-Code generated by Simplify3D(R) Version 3.1.0
; Mar 22, 2017 at 6:41:55 PM
; Settings Summary
;   processName,Process1
;   applyToModels,right flat probe and fan mount 1.2 pink,ear
;   profileName,PETG 0.2 he.20 bt50 (modified)
;   profileVersion,2017-03-22 16:24:12
;   baseProfile,Default (modified)
;   printMaterial,
;   printQuality,
;   printExtruders,
;   extruderName,Primary Extruder
;   extruderToolheadNumber,0
;   extruderDiameter,0.4
;   extruderAutoWidth,0
;   extruderWidth,0.48
;   extrusionMultiplier,0.9
;   extruderUseRetract,1
;   extruderRetractionDistance,1.4
;   extruderExtraRestartDistance,-0.1
;   extruderRetractionZLift,0.1
;   extruderRetractionSpeed,2700
;   extruderUseCoasting,1
;   extruderCoastingDistance,0.2
;   extruderUseWipe,1
;   extruderWipeDistance,0.2
;   primaryExtruder,0
;   layerHeight,0.2
;   topSolidLayers,4
;   bottomSolidLayers,2
;   perimeterOutlines,2
;   printPerimetersInsideOut,1
;   startPointOption,2
;   startPointOriginX,85
;   startPointOriginY,0
;   startPointOriginZ,5
;   sequentialIslands,0
;   spiralVaseMode,0
;   firstLayerHeightPercentage,150
;   firstLayerWidthPercentage,100
;   firstLayerUnderspeed,0.3
;   useRaft,0
;   raftExtruder,0
;   raftLayers,3
;   raftOffset,3
;   raftSeparationDistance,0.14
;   raftInfill,85
;   disableRaftBaseLayers,0
;   useSkirt,1
;   skirtExtruder,0
;   skirtLayers,1
;   skirtOutlines,3
;   skirtOffset,3
;   usePrimePillar,0
;   primePillarExtruder,999
;   primePillarWidth,12
;   primePillarLocation,7
;   primePillarSpeedMultiplier,1
;   useOozeShield,0
;   oozeShieldExtruder,999
;   oozeShieldOffset,2
;   oozeShieldOutlines,1
;   oozeShieldSidewallShape,1
;   oozeShieldSidewallAngle,30
;   oozeShieldSpeedMultiplier,1
;   infillExtruder,0
;   internalInfillPattern,Rectilinear
;   externalInfillPattern,Rectilinear
;   infillPercentage,22
;   outlineOverlapPercentage,30
;   infillExtrusionWidthPercentage,125
;   minInfillLength,5
;   infillLayerInterval,1
;   infillAngles,45,-45
;   overlapInfillAngles,0
;   generateSupport,0
;   supportExtruder,0
;   supportInfillPercentage,20
;   supportExtraInflation,0.5
;   denseSupportLayers,0
;   denseSupportInfillPercentage,70
;   supportLayerInterval,1
;   supportHorizontalPartOffset,0.8
;   supportUpperSeparationLayers,1
;   supportLowerSeparationLayers,1
;   supportType,0
;   supportGridSpacing,1.5
;   maxOverhangAngle,55
;   supportAngles,0
;   temperatureName,Primary Extruder,bed
;   temperatureNumber,0,0
;   temperatureSetpointCount,2,2
;   temperatureSetpointLayers,1,2,1,2
;   temperatureSetpointTemperatures,240,235,65,60
;   temperatureStabilizeAtStartup,1,1
;   temperatureHeatedBed,0,1
;   temperatureRelayBetweenLayers,0,0
;   temperatureRelayBetweenLoops,0,0
;   fanLayers,1,4
;   fanSpeeds,0,20
;   blipFanToFullPower,1
;   adjustSpeedForCooling,0
;   minSpeedLayerTime,15
;   minCoolingSpeedSlowdown,65
;   increaseFanForCooling,1
;   minFanLayerTime,15
;   maxCoolingFanSpeed,60
;   increaseFanForBridging,1
;   bridgingFanSpeed,100
;   use5D,1
;   relativeEdistances,0
;   allowEaxisZeroing,1
;   independentExtruderAxes,0
;   includeM10123,0
;   stickySupport,1
;   applyToolheadOffsets,0
;   gcodeXoffset,0
;   gcodeYoffset,0
;   gcodeZoffset,0
;   overrideMachineDefinition,1
;   machineTypeOverride,0
;   strokeXoverride,170
;   strokeYoverride,160
;   strokeZoverride,145
;   originOffsetXoverride,0
;   originOffsetYoverride,0
;   originOffsetZoverride,0
;   homeXdirOverride,-1
;   homeYdirOverride,-1
;   homeZdirOverride,-1
;   flipXoverride,1
;   flipYoverride,-1
;   flipZoverride,1
;   toolheadOffsets,0,0|0,0|0,0|0,0|0,0|0,0
;   overrideFirmwareConfiguration,1
;   firmwareTypeOverride,RepRap (Marlin/Repetier/Sprinter)
;   GPXconfigOverride,r2
;   baudRateOverride,250000
;   overridePrinterModels,0
;   printerModelsOverride
;   startingGcode,;---------------------------------------,; ; ; Jellybox Start Script Begin ; ; ;,;_______________________________________,; M92 E140            ;optionally adjust steps per mm for your filament,M117 Preparing        ;write Preparing,M206 X10.0 Y0.0       ;set x homing offset for default bed leveling,G21                   ;metric values,G90                   ;absolute positioning,M107                  ;start with the fan off,M82                   ;set extruder to absolute mode,G28                   ;home all axes,M203 Z4               ;slow Z speed down for greater accuracy when probing,G29                   ;auto bed leveling procedure,M203 Z7               ;pick up z speed again for printing,G92 E0                ;reset the extruder position,G1 F1500 E15          ;extrude 15mm of feed stock,G92 E0                ;reset the extruder position again,M117 Print starting   ;write Print starting,;---------------------------------------------,; ; ; Jellybox Printer Start Script End ; ; ;,;_____________________________________________
;   layerChangeGcode,
;   retractionGcode,
;   toolChangeGcode,
;   endingGcode,; ---------------------------------,; ; ;  Jellybox End Script Begin ; ; ;,; _________________________________,M117 Finishing Up  ; write Finishing Up,M104 S0            ; extruder heater off,M140 S0            ; bed heater off (if you have it),G91                ; relative positioning,G1 E-1 F300        ; retract the filament a bit before lifting the nozzle to release some of the pressure,G1 Z+0.5 E-5 X-20 Y-20 F9000 ; move Z up a bit and retract filament even more,G90                ; absolute positioning,G28 X              ; home x so the head is out of the way,G1 Y100            ; move Y forward so the print is more accessible,M84                ; steppers off,M117 Print finished ; write Print finished,; ---------------------------------------,; ; ;  Jellybox End Script End ; ; ;,; _______________________________________
;   exportFileFormat,gcode
;   celebration,0
;   celebrationSong,Random Song
;   postProcessing,|{REPLACE "; layer" "M117 Layer"} ,{REPLACE ", Z = " " | Z="}
;   defaultSpeed,2700
;   outlineUnderspeed,0.55
;   solidInfillUnderspeed,0.55
;   supportUnderspeed,0.9
;   rapidXYspeed,7800
;   rapidZspeed,420
;   minBridgingArea,50
;   bridgingExtraInflation,0.2
;   bridgingExtrusionMultiplier,0.8
;   bridgingSpeedMultiplier,1.3
;   filamentDiameter,1.75
;   filamentPricePerKg,30
;   filamentDensity,1.38
;   useMinPrintHeight,0
;   minPrintHeight,0
;   useMaxPrintHeight,0
;   maxPrintHeight,1
;   useDiaphragm,0
;   diaphragmLayerInterval,20
;   robustSlicing,1
;   mergeAllIntoSolid,0
;   onlyRetractWhenCrossingOutline,0
;   retractBetweenLayers,1
;   useRetractionMinTravel,1
;   retractionMinTravel,1
;   retractWhileWiping,1
;   onlyWipeOutlines,0
;   avoidCrossingOutline,1
;   maxMovementDetourFactor,2.5
;   toolChangeRetractionDistance,1.3
;   toolChangeExtraRestartDistance,0
;   toolChangeRetractionSpeed,600
;   allowThinWallGapFill,1
;   thinWallAllowedOverlapPercentage,15
;   horizontalSizeCompensation,0
G90
M82
M106 S0
M140 S65
M190 S65
M104 S240 T0
M109 S240 T0
;---------------------------------------
; ; ; Jellybox Start Script Begin ; ; ;
;_______________________________________
; M92 E140            ;optionally adjust steps per mm for your filament
M117 Preparing        ;write Preparing
M206 X10.0 Y0.0       ;set x homing offset for default bed leveling
G21                   ;metric values
G90                   ;absolute positioning
M107                  ;start with the fan off
M82                   ;set extruder to absolute mode
G28                   ;home all axes
M203 Z4               ;slow Z speed down for greater accuracy when probing
G29                   ;auto bed leveling procedure
M203 Z7               ;pick up z speed again for printing
G92 E0                ;reset the extruder position
G1 F1500 E15          ;extrude 15mm of feed stock
G92 E0                ;reset the extruder position again
M117 Print starting   ;write Print starting
;---------------------------------------------
; ; ; Jellybox Printer Start Script End ; ; ;
;_____________________________________________
G92 E0
G1 E-1.4000 F2700
G1 Z0.400 F420
M117 Layer 1, Z = 0.3
T0
; tool H0.300 W0.480
; skirt
G1 X32.671 Y23.937 F7800
G1 Z0.300 F420
G1 E-0.1000 F810
G92 E0
G1 X32.721 Y23.870 E0.0045 F810
G1 X33.047 Y23.494 E0.0313
G1 X33.106 Y23.435 E0.0358
G1 X34.123 Y22.547 E0.1086
G1 X34.171 Y22.509 E0.1118
G1 X34.466 Y22.300 E0.1313
G1 X34.517 Y22.267 E0.1346
G1 X35.725 Y21.580 E0.2095
G1 X35.765 Y21.560 E0.2119
G1 X36.011 Y21.444 E0.2266
G1 X36.053 Y21.426 E0.2290
G1 X37.418 Y20.903 E0.3078
G1 X37.452 Y20.891 E0.3097
G1 X37.661 Y20.825 E0.3215
G1 X37.696 Y20.815 E0.3235
G1 X39.189 Y20.442 E0.4064
G1 X39.220 Y20.436 E0.4081
G1 X39.403 Y20.400 E0.4182
G1 X39.434 Y20.395 E0.4198
G1 X41.017 Y20.171 E0.5060
G1 X41.046 Y20.167 E0.5075
G1 X41.215 Y20.151 E0.5167
G1 X41.243 Y20.150 E0.5182
G1 X42.874 Y20.074 E0.6062
G1 X42.902 Y20.074 E0.6077
G1 X43.068 Y20.074 E0.6167
G1 X43.096 Y20.074 E0.6181
G1 X44.727 Y20.150 E0.7061
G1 X44.755 Y20.151 E0.7077
G1 X44.924 Y20.167 E0.7168
G1 X44.953 Y20.171 E0.7183
G1 X46.536 Y20.395 E0.8045
G1 X46.567 Y20.400 E0.8062
G1 X46.750 Y20.436 E0.8163
G1 X46.781 Y20.442 E0.8179
G1 X48.274 Y20.815 E0.9009
G1 X48.309 Y20.825 E0.9028
G1 X48.518 Y20.891 E0.9146
G1 X48.552 Y20.903 E0.9166
G1 X49.918 Y21.426 E0.9954
G1 X49.959 Y21.444 E0.9978
G1 X50.205 Y21.560 E1.0124
G1 X50.245 Y21.580 E1.0149
G1 X51.453 Y22.267 E1.0898
G1 X51.504 Y22.300 E1.0930
G1 X51.800 Y22.509 E1.1125
G1 X51.847 Y22.547 E1.1158
G1 X52.864 Y23.435 E1.1886
G1 X52.923 Y23.494 E1.1930
G1 X53.249 Y23.870 E1.2199
G1 X53.299 Y23.937 E1.2244
G1 X54.043 Y25.081 E1.2979
G1 X54.095 Y25.179 E1.3039
G1 X54.349 Y25.793 E1.3397
G1 X54.381 Y25.899 E1.3456
G1 X54.671 Y27.274 E1.4214
G1 X54.684 Y27.398 E1.4281
G1 X54.684 Y28.149 E1.4685
G1 X54.671 Y28.273 E1.4753
G1 X54.381 Y29.648 E1.5510
G1 X54.349 Y29.754 E1.5570
G1 X54.095 Y30.369 E1.5928
G1 X54.043 Y30.466 E1.5988
G1 X53.299 Y31.611 E1.6723
G1 X53.249 Y31.677 E1.6768
G1 X52.923 Y32.054 E1.7036
G1 X52.864 Y32.113 E1.7081
G1 X51.847 Y33.001 E1.7809
G1 X51.800 Y33.038 E1.7841
G1 X51.504 Y33.248 E1.8036
G1 X51.453 Y33.280 E1.8069
G1 X50.245 Y33.967 E1.8818
G1 X50.205 Y33.988 E1.8842
G1 X49.959 Y34.104 E1.8988
G1 X49.918 Y34.122 E1.9013
G1 X48.552 Y34.645 E1.9801
G1 X48.518 Y34.657 E1.9820
G1 X48.309 Y34.723 E1.9938
G1 X48.274 Y34.732 E1.9958
G1 X47.291 Y34.978 E2.0504
G1 X47.290 Y35.100 E2.0570
G1 X48.078 Y35.747 E2.1119
G1 X51.194 Y35.752 E2.2798
G1 X51.634 Y35.935 E2.3055
G1 X53.726 Y38.033 E2.4651
G1 X53.908 Y38.474 E2.4908
G1 X53.855 Y80.145 E4.7361
G1 X53.672 Y80.586 E4.7619
G1 X51.573 Y82.678 E4.9215
G1 X51.132 Y82.861 E4.9472
G1 X40.376 Y82.844 E5.5268
G1 X39.935 Y82.661 E5.5525
G1 X37.843 Y80.563 E5.7122
G1 X37.661 Y80.121 E5.7379
G1 X37.729 Y34.741 E8.1831
G1 X37.696 Y34.732 E8.1849
G1 X37.661 Y34.723 E8.1869
G1 X37.452 Y34.657 E8.1986
G1 X37.418 Y34.645 E8.2006
G1 X36.053 Y34.122 E8.2794
G1 X36.011 Y34.104 E8.2818
G1 X35.765 Y33.988 E8.2965
G1 X35.725 Y33.967 E8.2989
G1 X34.517 Y33.280 E8.3738
G1 X34.466 Y33.248 E8.3770
G1 X34.171 Y33.038 E8.3966
G1 X34.123 Y33.001 E8.3998
G1 X33.106 Y32.113 E8.4726
G1 X33.047 Y32.054 E8.4770
G1 X32.721 Y31.677 E8.5039
G1 X32.671 Y31.611 E8.5084
G1 X31.928 Y30.467 E8.5819
G1 X31.876 Y30.370 E8.5878
G1 X31.622 Y29.757 E8.6235
G1 X31.590 Y29.652 E8.6295
G1 X31.298 Y28.276 E8.7053
G1 X31.285 Y28.151 E8.7120
G1 X31.285 Y27.397 E8.7527
G1 X31.298 Y27.272 E8.7594
G1 X31.590 Y25.896 E8.8352
G1 X31.622 Y25.790 E8.8412
G1 X31.876 Y25.178 E8.8769
G1 X31.928 Y25.080 E8.8828
G1 X32.562 Y24.104 E8.9456
G1 X32.671 Y23.937 F810
G1 X32.721 Y23.870 F2700
G1 X33.047 Y23.494 F2700
G1 X33.106 Y23.435 F2700
G1 X33.660 Y22.951 F2700
G1 X34.430 Y22.916 F7800
G92 E0
G1 X34.458 Y22.894 E0.0019 F810
G1 X34.734 Y22.698 E0.0202
G1 X34.764 Y22.679 E0.0221
G1 X35.954 Y22.002 E0.0959
G1 X35.979 Y21.990 E0.0973
G1 X36.208 Y21.881 E0.1110
G1 X36.233 Y21.871 E0.1125
G1 X37.583 Y21.353 E0.1903
G1 X37.603 Y21.346 E0.1915
G1 X37.798 Y21.285 E0.2025
G1 X37.819 Y21.279 E0.2037
G1 X39.300 Y20.910 E0.2859
G1 X39.318 Y20.906 E0.2869
G1 X39.489 Y20.872 E0.2963
G1 X39.507 Y20.869 E0.2973
G1 X41.079 Y20.647 E0.3829
G1 X41.096 Y20.645 E0.3838
G1 X41.254 Y20.630 E0.3923
G1 X41.271 Y20.629 E0.3932
G1 X42.891 Y20.554 E0.4806
G1 X42.908 Y20.554 E0.4815
G1 X43.063 Y20.554 E0.4899
G1 X43.079 Y20.554 E0.4908
G1 X44.699 Y20.629 E0.5781
G1 X44.716 Y20.630 E0.5791
G1 X44.874 Y20.645 E0.5876
G1 X44.891 Y20.647 E0.5885
G1 X46.463 Y20.869 E0.6741
G1 X46.481 Y20.872 E0.6751
G1 X46.652 Y20.906 E0.6845
G1 X46.671 Y20.910 E0.6855
G1 X48.151 Y21.279 E0.7677
G1 X48.172 Y21.285 E0.7689
G1 X48.367 Y21.346 E0.7799
G1 X48.387 Y21.353 E0.7810
G1 X49.737 Y21.871 E0.8589
G1 X49.762 Y21.881 E0.8604
G1 X49.992 Y21.990 E0.8741
G1 X50.016 Y22.002 E0.8755
G1 X51.206 Y22.679 E0.9493
G1 X51.236 Y22.698 E0.9512
G1 X51.512 Y22.894 E0.9694
G1 X51.540 Y22.916 E0.9714
G1 X52.536 Y23.785 E1.0426
G1 X52.571 Y23.821 E1.0453
G1 X52.876 Y24.172 E1.0704
G1 X52.906 Y24.212 E1.0730
G1 X53.629 Y25.324 E1.1445
G1 X53.659 Y25.383 E1.1481
G1 X53.897 Y25.956 E1.1815
G1 X53.916 Y26.020 E1.1851
G1 X54.197 Y27.349 E1.2583
G1 X54.204 Y27.423 E1.2623
G1 X54.204 Y28.124 E1.3001
G1 X54.197 Y28.199 E1.3041
G1 X53.916 Y29.528 E1.3773
G1 X53.897 Y29.591 E1.3809
G1 X53.659 Y30.165 E1.4143
G1 X53.629 Y30.223 E1.4179
G1 X52.906 Y31.335 E1.4893
G1 X52.876 Y31.375 E1.4920
G1 X52.571 Y31.727 E1.5171
G1 X52.536 Y31.762 E1.5198
G1 X51.540 Y32.631 E1.5910
G1 X51.512 Y32.654 E1.5930
G1 X51.236 Y32.849 E1.6112
G1 X51.206 Y32.869 E1.6131
G1 X50.016 Y33.545 E1.6869
G1 X49.992 Y33.558 E1.6883
G1 X49.762 Y33.666 E1.7020
G1 X49.737 Y33.677 E1.7035
G1 X48.387 Y34.194 E1.7814
G1 X48.367 Y34.201 E1.7825
G1 X48.172 Y34.263 E1.7935
G1 X48.151 Y34.269 E1.7947
G1 X46.811 Y34.603 E1.8691
G1 X46.810 Y35.327 E1.9081
G1 X47.906 Y36.227 E1.9845
G1 X51.098 Y36.232 E2.1565
G1 X51.362 Y36.342 E2.1719
G1 X53.319 Y38.304 E2.3213
G1 X53.428 Y38.569 E2.3367
G1 X53.375 Y80.049 E4.5717
G1 X53.265 Y80.314 E4.5871
G1 X51.302 Y82.271 E4.7365
G1 X51.037 Y82.380 E4.7519
G1 X40.472 Y82.364 E5.3212
G1 X40.208 Y82.254 E5.3366
G1 X38.251 Y80.291 E5.4860
G1 X38.141 Y80.027 E5.5014
G1 X38.210 Y34.366 E7.9617
G1 X37.819 Y34.269 E7.9834
G1 X37.798 Y34.263 E7.9846
G1 X37.603 Y34.201 E7.9956
G1 X37.583 Y34.194 E7.9967
G1 X36.233 Y33.677 E8.0746
G1 X36.208 Y33.666 E8.0761
G1 X35.978 Y33.558 E8.0898
G1 X35.954 Y33.545 E8.0912
G1 X34.764 Y32.869 E8.1650
G1 X34.734 Y32.849 E8.1669
G1 X34.458 Y32.654 E8.1851
G1 X34.430 Y32.631 E8.1871
G1 X33.434 Y31.762 E8.2583
G1 X33.399 Y31.727 E8.2610
G1 X33.094 Y31.375 E8.2861
G1 X33.064 Y31.335 E8.2887
G1 X32.342 Y30.224 E8.3601
G1 X32.311 Y30.166 E8.3637
G1 X32.074 Y29.594 E8.3971
G1 X32.055 Y29.531 E8.4006
G1 X31.773 Y28.201 E8.4739
G1 X31.765 Y28.126 E8.4779
G1 X31.765 Y27.422 E8.5159
G1 X31.773 Y27.347 E8.5199
G1 X32.055 Y26.017 E8.5932
G1 X32.074 Y25.954 E8.5968
G1 X32.311 Y25.382 E8.6301
G1 X32.342 Y25.323 E8.6337
G1 X33.064 Y24.212 E8.7051
G1 X33.094 Y24.172 E8.7078
G1 X33.399 Y23.821 E8.7328
G1 X33.434 Y23.785 E8.7355
G1 X34.279 Y23.048 E8.7960
G1 X34.430 Y22.916 F810
G1 X34.458 Y22.894 F2700
G1 X34.734 Y22.698 F2700
G1 X34.764 Y22.679 F2700
G1 X35.625 Y22.190 F2700
G1 X36.184 Y22.424 F7800
G92 E0
G1 X36.192 Y22.420 E0.0005 F810
G1 X36.405 Y22.319 E0.0132
G1 X36.413 Y22.316 E0.0137
G1 X37.748 Y21.804 E0.0907
G1 X37.755 Y21.802 E0.0911
G1 X37.935 Y21.745 E0.1013
G1 X37.942 Y21.743 E0.1017
G1 X39.410 Y21.377 E0.1832
G1 X39.416 Y21.376 E0.1835
G1 X39.575 Y21.345 E0.1922
G1 X39.581 Y21.344 E0.1926
G1 X41.141 Y21.123 E0.2774
G1 X41.146 Y21.122 E0.2778
G1 X41.293 Y21.108 E0.2857
G1 X41.299 Y21.108 E0.2860
G1 X42.908 Y21.034 E0.3728
G1 X42.913 Y21.034 E0.3731
G1 X43.057 Y21.034 E0.3808
G1 X43.063 Y21.034 E0.3811
G1 X44.671 Y21.108 E0.4679
G1 X44.677 Y21.108 E0.4682
G1 X44.824 Y21.122 E0.4761
G1 X44.829 Y21.123 E0.4764
G1 X46.389 Y21.344 E0.5613
G1 X46.395 Y21.345 E0.5617
G1 X46.554 Y21.376 E0.5704
G1 X46.560 Y21.377 E0.5707
G1 X48.028 Y21.743 E0.6522
G1 X48.035 Y21.745 E0.6526
