;FLAVOR:Marlin
;TIME:296
;Filament used: 0.293058m
;Layer height: 0.3
;Generated with Cura_SteamEngine 3.5.1
M82 ;absolute extrusion mode
;---------------------------------------
; ; ; Jellybox Start Script Begin ; ; ;
;_______________________________________
; for slicer: CURA 3
; start gcode last modified Jan 16, 2019

;              Print Settings Summary
; (leave these alone: this is only a list of the slicing settings)
; (overwriting these values will NOT change your printer's behavior)
;             sliced for :  IMADE3D JellyBOX 2
;        nozzle diameter :  0.4
;      filament diameter :  1.75
;           layer height :  0.3
;       1st layer height :  0.3
;             line width :  0.4  
;  outer wall wipe dist. :  0.5
;      infill line width :  0.6
;         wall thickness :  0.8
;          top thickness :  0.8
;       bottom thickness :  0.8
;         infill density :  25
;         infill pattern :  zigzag
;      print temperature :  230
;  1st layer print temp. :  235
; heated bed temperature :  65
;    1st layer bed temp. :  70
;      regular fan speed :  30
;          max fan speed :  50
;     retraction amount  :  1.7
;   retr. retract speed  :  40
;     retr. prime speed  :  10
;   build plate adhesion :  skirt
;                support ?  False
;             spiralized ?  False

G21               ;metric values
G90               ;absolute positioning
M82               ;set extruder to absolute mode
M107              ;start with the fan off
M117 Preparing    ;write Preparing
M190 S45          ;wait for the bed to reach 45C
M109 S180         ;wait for the extruder to reach 180C
G28               ;home all axes
M203 Z4           ;slow Z speed down for greater accuracy when probing
G29               ;auto bed leveling procedure
;M500              ;optionally save the mesh
M203 Z7           ;pick up z speed again for printing
G28 X             ;home x to get as far from the plate as possible
M420 S1           ;(re) enable bed leveling turned off by the G28
G0 Y0 F5000       ;position Y in front
G0 Z15 F3000      ;position Z
M190 S70              ;wait for the bed to reach desired temperature
M109 S235             ;wait for the extruder to reach desired temperature
M300 S440 P300    ;play a tone
// M0 Ready! Click to start ; optionally, stop and wait for user to continue
M420 S1           ;(re) enable bed leveling to make iron-sure
M117 Print starting   ;write Print starting
;================ ;PRINT:LINE start
G90               ;absolute positioning
G92 E0            ;reset the extruder position
M420 S1           ;(re) enable bed leveling to make iron-sure
G0 Z0             ;get Z down
M83               ;relative extrusion mode
M420 S1           ;(re) enable bed leveling to make iron-sure
G1 E22 F300       ;extrude __mm of feed stock
G1 E18 F250       ;extrude __mm of feed stock
G1 E10 F250       ;extrude __mm of feed stock
G4 S2             ;pause for ooze
M400              ;make sure all is finished
M420 S1           ;(re) enable bed leveling to make iron-sure
G0 F500 X3 Y0 Z0.6;get to the start of the LINE
G1 E2 F300        ;extrude __mm of feed stock
G1 F1000 X104 E10  ;print a thick LINE extruding __mm along the way
M82               ;absolute extrusion mode
G92 E0            ;reset the extruder position
;---------------------------------------------
; ; ; Jellybox Printer Start Script End ; ; ;
;_____________________________________________

M83 ;relative extrusion mode
G1 F2400 E-1.7
;LAYER_COUNT:4
;LAYER:0
M107
G0 F3600 X68.499 Y70.971 Z0.3
;TYPE:SKIRT
G1 F600 E1.7
G1 F1200 X69.053 Y70.51 E0.02869
G1 X69.911 Y69.893 E0.04207
G1 X70.455 Y69.551 E0.02558
G1 X70.859 Y69.353 E0.01791
G1 X70.946 Y69.315 E0.00378
G1 X71.685 Y69.057 E0.03116
G1 X72.316 Y68.889 E0.026
G1 X72.946 Y68.763 E0.02558
G1 X73.646 Y68.715 E0.02793
G1 X98.847 Y68.715 E1.00331
G1 X99.488 Y68.755 E0.02557
G1 X100.084 Y68.865 E0.02413
G1 X108.882 Y71.034 E0.36076
G1 X109.495 Y71.227 E0.02559
G1 X110.08 Y71.494 E0.0256
G1 X110.742 Y71.914 E0.03121
G1 X111.362 Y72.378 E0.03083
G1 X111.851 Y72.795 E0.02559
G1 X112.285 Y73.269 E0.02559
G1 X112.657 Y73.793 E0.02558
G1 X112.98 Y74.4 E0.02737
G1 X113.334 Y75.189 E0.03443
G1 X113.56 Y75.791 E0.0256
G1 X113.71 Y76.416 E0.02559
G1 X113.787 Y77.305 E0.03553
G1 X113.788 Y87.699 E0.41381
G1 X113.748 Y88.34 E0.02557
G1 X113.639 Y88.929 E0.02385
G1 X113.577 Y89.182 E0.01037
G1 X113.386 Y89.796 E0.0256
G1 X113.001 Y90.592 E0.0352
G1 X112.648 Y91.186 E0.02751
G1 X112.286 Y91.717 E0.02559
G1 X111.861 Y92.199 E0.02558
G1 X111.379 Y92.625 E0.02561
G1 X110.895 Y92.959 E0.02341
G1 X110.111 Y93.437 E0.03656
G1 X109.543 Y93.736 E0.02556
G1 X108.673 Y94.038 E0.03666
G1 X100.633 Y96.046 E0.32992
G1 X100.156 Y96.142 E0.01937
G1 X99.556 Y96.233 E0.02416
G1 X98.78 Y96.291 E0.03098
G1 X73.641 Y96.284 E1.00084
G1 X72.999 Y96.244 E0.02561
G1 X72.586 Y96.175 E0.01667
G1 X72.217 Y96.098 E0.01501
G1 X71.598 Y95.928 E0.02556
G1 X71.184 Y95.766 E0.0177
G1 X70.53 Y95.477 E0.02847
G1 X69.96 Y95.181 E0.02557
G1 X69.583 Y94.932 E0.01799
G1 X69.273 Y94.707 E0.01525
G1 X68.778 Y94.298 E0.02556
G1 X68.386 Y93.89 E0.02253
G1 X67.819 Y93.229 E0.03467
G1 X67.432 Y92.716 E0.02558
G1 X67.014 Y91.951 E0.03471
G1 X66.735 Y91.319 E0.0275
G1 X66.513 Y90.716 E0.02558
G1 X66.379 Y90.162 E0.02269
G1 X66.291 Y89.681 E0.01947
G1 X66.207 Y88.747 E0.03733
G1 X66.216 Y76.135 E0.50211
G1 X66.256 Y75.494 E0.02557
G1 X66.323 Y75.091 E0.01626
G1 X66.393 Y74.753 E0.01374
G1 X66.563 Y74.133 E0.02559
G1 X66.767 Y73.624 E0.02183
G1 X67.133 Y72.836 E0.03459
G1 X67.439 Y72.271 E0.02558
G1 X67.813 Y71.75 E0.02553
G1 X68.063 Y71.443 E0.01576
G1 X68.286 Y71.202 E0.01307
G0 F1080 X68.499 Y70.971
G1 F2400 E-1.7
G1 F300 Z0.5
G0 F3600 X78.256 Y78.74 Z0.5
;TYPE:WALL-INNER
G1 F300 Z0.3
G1 F600 E1.71254
G1 F1200 X77.829 Y78.97 E0.01931
G1 X77.432 Y79.248 E0.0193
G1 X77.069 Y79.57 E0.01932
G1 X76.747 Y79.933 E0.01932
G1 X76.469 Y80.33 E0.0193
G1 X76.239 Y80.757 E0.01931
G1 X76.061 Y81.21 E0.01938
G1 X75.934 Y81.697 E0.02004
G1 X75.43 Y81.697 E0.02007
G1 X75.429 Y81.697 E0.00004
G1 X75.225 Y81.697 E0.00812
G1 X75.266 Y81.497 E0.00498
G1 X75.306 Y81.3 E0.008
G1 X75.445 Y80.85 E0.01875
G1 X75.628 Y80.41 E0.01897
G1 X75.85 Y79.999 E0.0186
G1 X76.106 Y79.618 E0.01827
G1 X76.413 Y79.243 E0.01929
G1 X76.743 Y78.914 E0.01855
G1 X77.111 Y78.61 E0.019
G1 X77.495 Y78.353 E0.0184
G1 X77.914 Y78.127 E0.01895
G1 X78.348 Y77.946 E0.01872
G1 X78.796 Y77.808 E0.01866
G1 X78.994 Y77.767 E0.00805
G1 X79.195 Y77.725 E0.00818
G1 X79.195 Y77.93 E0.005
G1 X79.195 Y77.931 E0.00004
G1 X79.196 Y78.435 E0.02007
G1 X78.709 Y78.562 E0.02004
G1 X78.277 Y78.732 E0.01848
G0 F1080 X78.256 Y78.74
G0 F3600 X78.398 Y79.045
;TYPE:WALL-OUTER
G1 F600 E0.00092
G1 F1200 X78.006 Y79.257 E0.01774
G1 X77.64 Y79.512 E0.01776
G1 X77.307 Y79.808 E0.01774
G1 X77.011 Y80.141 E0.01774
G1 X76.756 Y80.507 E0.01776
G1 X76.544 Y80.899 E0.01774
G1 X76.381 Y81.315 E0.01779
G1 X76.267 Y81.746 E0.01775
G1 X76.226 Y82.033 E0.01154
G1 X74.89 Y82.033 E0.05319
G1 X74.878 Y82.033 E0.00048
G1 X74.845 Y82.033 E0.00131
G1 X74.878 Y81.718 E0.00921
G1 X74.88 Y81.707 E0.00043
G1 X74.981 Y81.215 E0.02
G1 X75.129 Y80.733 E0.02007
G1 X75.324 Y80.267 E0.02011
G1 X75.561 Y79.827 E0.0199
G1 X75.837 Y79.415 E0.01974
G1 X76.162 Y79.019 E0.0204
G1 X76.518 Y78.664 E0.02002
G1 X76.909 Y78.341 E0.02019
G1 X77.323 Y78.064 E0.01983
G1 X77.77 Y77.823 E0.02022
G1 X78.231 Y77.63 E0.0199
G1 X78.713 Y77.482 E0.02007
G1 X79.204 Y77.38 E0.01997
G1 X79.214 Y77.378 E0.00041
G1 X79.531 Y77.345 E0.01269
G1 X79.531 Y77.377
G1 X79.531 Y77.388 E0.00043
G1 X79.532 Y78.727 E0.05331
G1 X79.245 Y78.768 E0.01154
G1 X78.814 Y78.882 E0.01775
G1 X78.414 Y79.039 E0.01711
G0 F1080 X78.398 Y79.045
G0 F3600 X78.006 Y79.257
G0 X77.961 Y79.288
G0 X77.79 Y79.041
G0 X78.933 Y78.39
G0 X78.924 Y78.354
;TYPE:SKIN
G1 F600 E0.00072
G1 F1200 X78.593 Y78.023 E0.02235
G0 F3600 X78.176 Y78.176
G1 F1200 X78.489 Y78.489 E0.02114
G0 F3600 X78.091 Y78.661
G1 F1200 X77.79 Y78.36 E0.02033
G0 F3600 X77.431 Y78.57
G1 F1200 X77.724 Y78.864 E0.01982
G0 F3600 X77.389 Y79.099
G1 F1200 X77.099 Y78.809 E0.01958
G0 F3600 X76.791 Y79.071
G1 F1200 X77.082 Y79.362 E0.01965
G0 F3600 X76.801 Y79.651
G1 F1200 X76.506 Y79.356 E0.01992
G0 F3600 X76.25 Y79.669
G1 F1200 X76.546 Y79.965 E0.01999
G0 F3600 X76.316 Y80.306
G1 F1200 X76.018 Y80.007 E0.02016
G0 F3600 X75.813 Y80.372
G1 F1200 X76.116 Y80.675 E0.02046
G0 F3600 X75.953 Y81.083
G1 F1200 X75.637 Y80.766 E0.02137
G0 F3600 X75.492 Y81.191
G1 F1200 X75.827 Y81.526 E0.02262
G0 F3600 X75.977 Y81.497
G1 F2400 E-1.7
G1 F300 Z0.5
G0 F3600 X76.107 Y81.531 Z0.5
G0 X82.293 Y81.695
;TYPE:WALL-INNER
G1 F300 Z0.3
G1 F600 E1.7
G1 F1200 X80.972 Y81.696 E0.05259
G1 X80.804 Y81.696 E0.00669
G1 X80.804 Y81.528 E0.00433
G1 X80.804 Y80.211 E0.05243
G1 X80.804 Y80.02 E0.0076
G1 X80.804 Y79.995 E0.001
G1 X80.887 Y80.02 E0.00176
G1 X81.062 Y80.095 E0.00519
G1 X81.202 Y80.155 E0.00606
G1 X81.487 Y80.324 E0.01319
G1 X81.735 Y80.517 E0.01251
G1 X81.974 Y80.755 E0.01343
G1 X82.181 Y81.022 E0.01345
G1 X82.349 Y81.306 E0.01314
G1 X82.405 Y81.434 E0.00556
G1 X82.479 Y81.606 E0.00745
G1 X82.505 Y81.695 E0.00369
G1 X82.48 Y81.695
G1 X82.293 Y81.695 E0.00516
G0 F3600 X82.8 Y82.031
;TYPE:WALL-OUTER
G1 F1200 X80.636 Y82.032 E0.08615
G1 X80.468 Y82.032 E0.00669
G1 X80.468 Y81.864 E0.00433
G1 X80.468 Y79.701 E0.08611
G1 X80.468 Y79.601 E0.00398
G1 X80.468 Y79.571 E0.00119
G1 X80.654 Y79.601 E0.00469
G1 X80.749 Y79.629 E0.00324
G1 X81.007 Y79.705 E0.01071
G1 X81.35 Y79.853 E0.01487
G1 X81.675 Y80.045 E0.01503
G1 X81.959 Y80.266 E0.01433
G1 X82.229 Y80.535 E0.01517
G1 X82.459 Y80.832 E0.01496
G1 X82.646 Y81.147 E0.01458
G1 X82.795 Y81.492 E0.01496
G1 X82.871 Y81.749 E0.01067
G1 X82.898 Y81.844 E0.00393
G1 X82.928 Y82.031 E0.00754
G1 X82.899 Y82.031
G1 X82.8 Y82.031 E0.00325
G0 F3600 X82.3 Y82.031
G0 X82.118 Y81.548
;TYPE:SKIN
G1 F1200 X80.949 Y80.379 E0.07894
G0 F3600 X80.949 Y80.949
G1 F1200 X81.548 Y81.548 E0.04045
G1 X81.618 Y81.618
G0 F3600 X81.618 Y81.495
G1 F2400 E-1.7
G1 F300 Z0.5
G0 F3600 X81.618 Y81.495 Z0.5
G0 X83.939 Y81.207
;TYPE:WALL-INNER
G1 F300 Z0.3
G1 F600 E1.7
G1 F1200 X83.76 Y80.756 E0.01932
G1 X83.531 Y80.329 E0.01929
G1 X83.253 Y79.931 E0.01933
G1 X82.93 Y79.569 E0.01932
G1 X82.568 Y79.247 E0.01929
G1 X82.171 Y78.969 E0.0193
G1 X81.743 Y78.739 E0.01934
G1 X81.291 Y78.561 E0.01934
G1 X80.804 Y78.435 E0.02003
G1 X80.803 Y77.931 E0.02007
G1 X80.803 Y77.93 E0.00004
G1 X80.803 Y77.725 E0.00816
G1 X81.004 Y77.766 E0.00501
G1 X81.203 Y77.807 E0.00809
G1 X81.651 Y77.945 E0.01866
G1 X82.086 Y78.126 E0.01876
G1 X82.504 Y78.352 E0.01892
G1 X82.882 Y78.605 E0.01811
G1 X83.251 Y78.908 E0.01901
G1 X83.599 Y79.256 E0.01959
G1 X83.889 Y79.609 E0.01819
G1 X84.149 Y79.997 E0.01859
G1 X84.371 Y80.409 E0.01863
G1 X84.559 Y80.857 E0.01934
G1 X84.693 Y81.291 E0.01808
G1 X84.735 Y81.494 E0.00825
G1 X84.775 Y81.695 E0.00816
G1 X84.571 Y81.695 E0.00498
G1 X84.57 Y81.695 E0.00004
G1 X84.066 Y81.695 E0.02007
G1 X83.942 Y81.221 E0.01951
G0 F1080 X83.939 Y81.207
G1 F2400 E-1.7
G0 F3600 X83.177 Y79.992
G0 X82.635 Y79.451
G0 X81.743 Y78.78
G0 X81.601 Y79.044
;TYPE:WALL-OUTER
G1 F600 E1.7006
G1 F1200 X81.186 Y78.881 E0.01775
G1 X80.754 Y78.767 E0.01779
G1 X80.468 Y78.727 E0.0115
G1 X80.468 Y77.391 E0.05319
G1 X80.468 Y77.379 E0.00048
G1 X80.467 Y77.345 E0.00135
G1 X80.784 Y77.378 E0.00926
G1 X80.795 Y77.38 E0.00043
G1 X81.286 Y77.481 E0.01996
G1 X81.768 Y77.629 E0.02007
G1 X82.229 Y77.822 E0.0199
G1 X82.677 Y78.063 E0.02025
G1 X83.085 Y78.337 E0.01957
G1 X83.481 Y78.662 E0.0204
G1 X83.837 Y79.018 E0.02004
G1 X84.162 Y79.413 E0.02036
G1 X84.438 Y79.825 E0.01974
G1 X84.675 Y80.265 E0.0199
G1 X84.874 Y80.74 E0.0205
G1 X85.018 Y81.206 E0.01942
G1 X85.12 Y81.705 E0.02028
G1 X85.122 Y81.716 E0.00045
G1 X85.155 Y82.031 E0.01261
G1 X85.122 Y82.031
G1 X85.11 Y82.031 E0.00047
G1 X83.774 Y82.031 E0.05319
G1 X83.733 Y81.744 E0.01154
G1 X83.619 Y81.312 E0.01779
G1 X83.455 Y80.898 E0.01773
G1 X83.244 Y80.505 E0.01776
G1 X82.989 Y80.14 E0.01773
G1 X82.692 Y79.807 E0.01776
G1 X82.359 Y79.511 E0.01774
G1 X81.994 Y79.256 E0.01773
G1 X81.653 Y79.072 E0.01543
G0 F1080 X81.601 Y79.044
G0 F3600 X81.186 Y78.881
G0 X81.133 Y78.867
G0 X80.948 Y78.099
;TYPE:SKIN
G1 F600 E0.00239
G1 F1200 X81.248 Y78.399 E0.02026
G0 F3600 X81.458 Y78.039
G1 F1200 X82.305 Y78.886 E0.0572
G0 F3600 X82.544 Y78.555
G1 F1200 X83.942 Y79.952 E0.09437
G0 F3600 X83.611 Y80.192
G1 F1200 X84.462 Y81.042 E0.05743
G0 F3600 X84.1 Y81.25
G1 F1200 X84.398 Y81.549 E0.02016
G0 F3600 X84.398 Y81.495
G1 F2400 E-1.7
G1 F300 Z0.5
G0 F3600 X84.398 Y81.495 Z0.5
G0 X77.523 Y81.696
;TYPE:WALL-INNER
G1 F300 Z0.3
G1 F600 E1.7
G1 F1200 X77.495 Y81.697 E0.00112
G1 X77.522 Y81.604 E0.00198
G1 X77.595 Y81.434 E0.00737
G1 X77.651 Y81.306 E0.00556
G1 X77.823 Y81.016 E0.01342
G1 X78.019 Y80.764 E0.01271
G1 X78.263 Y80.52 E0.01374
G1 X78.515 Y80.324 E0.01271
G1 X78.805 Y80.152 E0.01342
G1 X78.934 Y80.096 E0.0056
G1 X79.103 Y80.023 E0.00733
G1 X79.196 Y79.996 E0.00386
G1 X79.196 Y80.023
G1 X79.196 Y80.207 E0.00512
G1 X79.196 Y81.696 E0.05928
G1 X77.708 Y81.696 E0.05924
G1 X77.523 Y81.696 E0.00514
G0 F3600 X77.102 Y82.032
;TYPE:WALL-OUTER
G1 F1200 X77.071 Y82.033 E0.00123
G1 X77.101 Y81.846 E0.0047
G1 X77.129 Y81.75 E0.00398
G1 X77.204 Y81.493 E0.01066
G1 X77.351 Y81.154 E0.01471
G1 X77.544 Y80.828 E0.01508
G1 X77.771 Y80.536 E0.01472
G1 X78.035 Y80.272 E0.01486
G1 X78.327 Y80.045 E0.01472
G1 X78.653 Y79.852 E0.01508
G1 X78.992 Y79.705 E0.01471
G1 X79.25 Y79.629 E0.01071
G1 X79.345 Y79.602 E0.00393
G1 X79.532 Y79.572 E0.00754
G1 X79.532 Y79.602
G1 X79.532 Y79.701 E0.00325
G1 X79.532 Y82.032 E0.0928
G1 X77.202 Y82.032 E0.09276
G1 X77.102 Y82.032 E0.00143
G0 F3600 X77.071 Y82.033
G0 X77.101 Y81.846
G0 X77.129 Y81.75
G0 X77.179 Y81.577
G0 X77.844 Y81.264
;TYPE:SKIN
G1 F1200 X78.129 Y81.549 E0.01925
G0 F3600 X78.699 Y81.549
G1 F1200 X78.076 Y80.926 E0.04207
G0 F3600 X78.354 Y80.634
G1 F1200 X79.05 Y81.33 E0.047
G0 F3600 X79.05 Y80.76
G1 F1200 X78.684 Y80.393 E0.02475
G0 F3600 X78.713 Y80.441
G1 F2400 E-1.7
G1 F300 Z0.5
G0 F3600 X78.713 Y80.44 Z0.5
G0 X77.707 Y83.305
;TYPE:WALL-INNER
G1 F300 Z0.3
G1 F600 E1.7
G1 F1200 X79.028 Y83.304 E0.05259
G1 X79.196 Y83.304 E0.00669
G1 X79.196 Y83.472 E0.00433
G1 X79.196 Y84.789 E0.05243
G1 X79.196 Y84.98 E0.0076
G1 X79.196 Y85.005 E0.001
G1 X79.113 Y84.98 E0.00176
G1 X78.938 Y84.905 E0.00519
G1 X78.798 Y84.845 E0.00606
G1 X78.513 Y84.676 E0.01319
G1 X78.265 Y84.483 E0.01251
G1 X78.026 Y84.245 E0.01343
G1 X77.819 Y83.978 E0.01345
G1 X77.651 Y83.694 E0.01314
G1 X77.595 Y83.566 E0.00556
G1 X77.521 Y83.394 E0.00745
G1 X77.495 Y83.305 E0.00369
G1 X77.52 Y83.305
G1 X77.707 Y83.305 E0.00516
G0 F3600 X77.2 Y82.969
;TYPE:WALL-OUTER
G1 F1200 X79.364 Y82.968 E0.08615
G1 X79.532 Y82.968 E0.00669
G1 X79.532 Y83.136 E0.00433
G1 X79.532 Y85.299 E0.08611
G1 X79.532 Y85.399 E0.00398
G1 X79.532 Y85.429 E0.00119
G1 X79.346 Y85.399 E0.00469
G1 X79.251 Y85.371 E0.00324
G1 X78.993 Y85.295 E0.01071
G1 X78.65 Y85.147 E0.01487
G1 X78.325 Y84.955 E0.01503
G1 X78.041 Y84.734 E0.01433
G1 X77.771 Y84.465 E0.01517
G1 X77.541 Y84.168 E0.01496
G1 X77.354 Y83.853 E0.01458
G1 X77.205 Y83.508 E0.01496
G1 X77.129 Y83.251 E0.01067
G1 X77.102 Y83.156 E0.00393
G1 X77.072 Y82.969 E0.00754
G1 X77.101 Y82.969
G1 X77.2 Y82.969 E0.00325
G0 F3600 X77.7 Y82.969
G0 X78.32 Y83.449
;TYPE:SKIN
G1 F1200 X79.05 Y84.179 E0.0493
G0 F3600 X79.05 Y84.749
G1 F1200 X77.75 Y83.449 E0.08779
G1 X77.68 Y83.379
G0 F3600 X78.891 Y83.414
G0 X78.89 Y83.449
G1 F1200 X79.05 Y83.609 E0.0108
G0 F3600 X78.996 Y83.609
G1 F2400 E-1.7
G1 F300 Z0.5
G0 F3600 X78.996 Y83.609 Z0.5
G0 X76.061 Y83.793
;TYPE:WALL-INNER
G1 F300 Z0.3
G1 F600 E1.7
G1 F1200 X76.24 Y84.244 E0.01932
G1 X76.469 Y84.671 E0.01929
G1 X76.747 Y85.069 E0.01933
G1 X77.069 Y85.431 E0.01929
G1 X77.433 Y85.753 E0.01935
G1 X77.829 Y86.031 E0.01926
G1 X78.257 Y86.261 E0.01934
G1 X78.709 Y86.439 E0.01934
G1 X79.196 Y86.565 E0.02003
G1 X79.197 Y87.069 E0.02007
G1 X79.197 Y87.07 E0.00004
G1 X79.197 Y87.275 E0.00816
