;FLAVOR:Marlin
;TIME:3522
;Filament used: 4.1166m
;Layer height: 0.3
;Generated with Cura_SteamEngine 3.5.1
M82 ;absolute extrusion mode
;---------------------------------------


G21               ;metric values
G90               ;absolute positioning
M82               ;set extruder to absolute mode
M107              ;start with the fan off
M117 Preparing    ;write Preparing
M140 S45          ;set bed temperature and move on
M109 S180         ;wait for the extruder to reach 180C
G28               ;home all axes
M203 Z4           ;slow Z speed down for greater accuracy when probing
G29               ;auto bed leveling procedure
M203 Z7           ;pick up z speed again for printing
G28 X             ;home x to get as far from the plate as possible
G0 Y0 F5000       ;position Y in front
G0 Z15 F3000      ;position Z
M420 S1           ;(re) enable bed leveling turned off by the G28
M190 S65              ;wait for the bed to reach desired temperature
M109 S235.0             ;wait for the extruder to reach desired temperature
M300 S440 P100    ;play a tone
G4 P200           ;pause
M300 S440 P100    ;play a tone
G4 P200           ;pause
M300 S440 P800    ;play a tone
M0
M117 Print starting   ;write Print starting
G90               ;absolute positioning
G92 E0            ;reset the extruder position
G0 Z0             ;get Z down
M83               ;relative extrusion mode
G1 E22 F500       ;extrude __mm of feed stock
G1 E15 F400       ;extrude __mm of feed stock
G1 E10 F400       ;extrude __mm of feed stock
G4 S2             ;pause for ooze
M400              ;make sure all is finished
G0 F500 X3 Y0 Z0.53;get to the start of the LINE
G1 E2 F300        ;extrude __mm of feed stock
G1 F750 X104 E13  ;print a thick LINE extruding __mm along the way
G1 F600 X 106 E-0.7 ;retract and continue moving
G0 F7000 X108 E-0.7 ;break away fast
M82               ;absolute extrusion mode
G92 E0            ;reset the extruder position
M83 ;relative extrusion mode
G1 F2400 E-1.6
;LAYER_COUNT:142
;LAYER:0
M107
G0 F3600 X52.766 Y64.726 Z0.3
;TYPE:SKIRT
G1 F1800 E1.47527
G1 F1350 X53.384 Y64.237 E0.03932
G1 X54.337 Y63.594 E0.05736
G1 X55.01 Y63.21 E0.03866
G1 X56.031 Y62.724 E0.05641
G1 X56.762 Y62.441 E0.03911
G1 X57.838 Y62.116 E0.05608
G1 X58.467 Y61.968 E0.03224
G1 X59.234 Y61.837 E0.03882
G1 X59.866 Y61.769 E0.03171
G1 X60.955 Y61.718 E0.05439
G1 X61.714 Y61.738 E0.03788
G1 X67.331 Y62.298 E0.28162
G1 X72.716 Y62.562 E0.26898
G1 X78.083 Y62.521 E0.26777
G1 X83.423 Y62.178 E0.26696
G1 X88.74 Y61.532 E0.26722
G1 X94.04 Y60.583 E0.26862
G1 X99.233 Y59.345 E0.26634
G1 X103.493 Y58.099 E0.22144
G1 X103.892 Y57.999 E0.02052
G1 X104.862 Y57.797 E0.04943
G1 X105.5 Y57.705 E0.03216
G1 X106.163 Y57.694 E0.03308
G1 X106.983 Y57.732 E0.04095
G1 X107.624 Y57.801 E0.03216
G1 X108.188 Y57.931 E0.02888
G1 X108.986 Y58.162 E0.04145
G1 X109.593 Y58.379 E0.03216
G1 X110.391 Y58.808 E0.0452
G1 X111.433 Y59.491 E0.06216
G1 X111.949 Y59.877 E0.03215
G1 X112.594 Y60.532 E0.04586
G1 X113.134 Y61.187 E0.04235
G1 X113.513 Y61.709 E0.03218
G1 X113.678 Y61.989 E0.01621
G1 X116.871 Y67.794 E0.33053
G1 X119.327 Y71.816 E0.23511
G1 X119.628 Y72.386 E0.03216
G1 X119.891 Y73.105 E0.0382
G1 X120.133 Y73.957 E0.04419
G1 X120.27 Y74.587 E0.03217
G1 X120.329 Y75.243 E0.03286
G1 X120.352 Y76.128 E0.04417
G1 X120.344 Y76.591 E0.0231
G1 X119.944 Y82.932 E0.31698
G1 X119.927 Y88.266 E0.26612
G1 X120.295 Y94.751 E0.32406
G1 X120.291 Y95.395 E0.03213
G1 X120.249 Y95.792 E0.01992
G1 X120.087 Y96.908 E0.05626
G1 X119.955 Y97.539 E0.03216
G1 X119.746 Y98.149 E0.03217
G1 X119.578 Y98.514 E0.02005
G1 X119.071 Y99.513 E0.05589
G1 X118.744 Y100.069 E0.03218
G1 X118.404 Y100.518 E0.0281
G1 X118.091 Y100.888 E0.02418
G1 X117.645 Y101.354 E0.03218
G1 X117.167 Y101.744 E0.03078
G1 X115.738 Y102.777 E0.08797
G1 X115.548 Y102.908 E0.01151
G1 X113.932 Y103.97 E0.09647
G1 X109.522 Y107.125 E0.27052
G1 X105.344 Y110.486 E0.26752
G1 X101.356 Y114.084 E0.26797
G1 X97.234 Y118.202 E0.29069
G1 X96.751 Y118.628 E0.03213
G1 X96.274 Y118.958 E0.02894
G1 X95.199 Y119.616 E0.06288
G1 X94.629 Y119.918 E0.03218
G1 X93.78 Y120.217 E0.04491
G1 X92.319 Y120.593 E0.07526
G1 X91.686 Y120.715 E0.03216
G1 X90.874 Y120.755 E0.04056
G1 X88.005 Y120.673 E0.14319
G1 X82.556 Y120.667 E0.27185
G1 X77.981 Y120.889 E0.22852
G1 X77.336 Y120.88 E0.03218
G1 X76.947 Y120.836 E0.01953
G1 X75.592 Y120.63 E0.06838
G1 X74.962 Y120.494 E0.03215
G1 X74.266 Y120.243 E0.03691
G1 X66.518 Y116.807 E0.42285
G1 X61.515 Y114.964 E0.266
G1 X56.341 Y113.384 E0.2699
G1 X53.75 Y112.712 E0.13354
G1 X53.137 Y112.512 E0.03217
G1 X52.554 Y112.237 E0.03216
G1 X52.009 Y111.893 E0.03215
G1 X51.511 Y111.483 E0.03218
G1 X51.067 Y111.015 E0.03218
G1 X50.685 Y110.496 E0.03215
G1 X50.37 Y109.934 E0.03214
G1 X50.127 Y109.337 E0.03216
G1 X49.96 Y108.714 E0.03218
G1 X49.871 Y108.075 E0.03219
G1 X49.856 Y107.738 E0.01683
G1 X49.808 Y103.523 E0.2103
G1 X49.503 Y98.139 E0.26904
G1 X48.894 Y92.776 E0.26928
G1 X48.294 Y88.873 E0.19701
G1 X48.234 Y88.085 E0.03943
G1 X48.226 Y74.043 E0.70056
G1 X48.259 Y73.456 E0.02933
G1 X48.354 Y72.615 E0.04222
G1 X48.479 Y71.925 E0.03498
G1 X48.758 Y70.821 E0.05681
G1 X49.006 Y70.081 E0.03894
G1 X49.448 Y69.029 E0.05693
G1 X49.798 Y68.343 E0.03842
G1 X50.368 Y67.405 E0.05476
G1 X50.781 Y66.82 E0.03573
G1 X51.411 Y66.047 E0.04975
G1 X51.916 Y65.51 E0.03678
G1 X52.572 Y64.905 E0.04452
G0 F1215 X52.766 Y64.726
G1 F2400 E-1.6
G1 F300 Z0.45
G0 F3600 X75.291 Y81.357 Z0.45
;TYPE:SUPPORT
G1 F300 Z0.3
G1 F1800 E1.4885
G1 F1350 X81.437 Y81.373 E0.30663
G1 X81.468 Y81.449 E0.00409
G1 X81.435 Y81.798 E0.01749
G1 X81.439 Y85.927 E0.206
G1 X75.305 Y85.928 E0.30603
G1 X75.714 Y85.31 E0.03697
G1 X75.715 Y81.981 E0.16608
G1 X75.427 Y81.557 E0.02557
G0 F1215 X75.291 Y81.357
G0 F3600 X76 Y81.509
G1 F1800 E0.01207
G1 F1350 X76 Y85.778 E0.21298
G1 F2400 E-1.6
G1 F300 Z0.45
G0 F3600 X75.865 Y84 Z0.45
G1 F300 Z0.3
G1 F1800 E1.47527
G1 F1350 X81.288 Y84 E0.27055
G1 F2400 E-1.6
G1 F300 Z0.45
G0 F3600 X81.286 Y82 Z0.45
G1 F300 Z0.3
G1 F1800 E1.47527
G1 F1350 X75.865 Y82 E0.27045
G1 F2400 E-1.6
G1 F300 Z0.45
G0 F3600 X78 Y81.515 Z0.45
G1 F300 Z0.3
G1 F1800 E1.47527
G1 F1350 X78 Y85.778 E0.21268
G1 F2400 E-1.6
G1 F300 Z0.45
G0 F3600 X80 Y85.778 Z0.45
G1 F300 Z0.3
G1 F1800 E1.47527
G1 F1350 X80 Y81.52 E0.21243
G1 F2400 E-1.6
G1 F300 Z0.45
G0 F3600 X86.433 Y81.374 Z0.45
G1 F300 Z0.3
G1 F1800 E1.47527
G1 F1350 X92.564 Y81.373 E0.30588
G1 X92.156 Y81.972 E0.03616
G1 X92.152 Y83.3 E0.06625
G1 X92.162 Y85.323 E0.10093
G1 X92.579 Y85.944 E0.03732
G1 X86.432 Y85.928 E0.30668
G1 X86.433 Y81.616 E0.21513
G0 F1215 X86.433 Y81.374
G0 F3600 X86.583 Y82
G1 F1800 E0.01207
G1 F1350 X92.005 Y82 E0.2705
G0 F3600 X92 Y81.523
G1 F1350 X92 Y85.792 E0.21298
G1 F2400 E-1.6
G1 F300 Z0.45
G0 F3600 X92.006 Y84 Z0.45
G1 F300 Z0.3
G1 F1800 E1.47527
G1 F1350 X86.583 Y84 E0.27055
G1 F2400 E-1.6
G1 F300 Z0.45
G0 F3600 X88 Y85.782 Z0.45
G1 F300 Z0.3
G1 F1800 E1.47527
G1 F1350 X88 Y81.523 E0.21248
G1 F2400 E-1.6
G1 F300 Z0.45
G0 F3600 X90 Y81.523 Z0.45
G1 F300 Z0.3
G1 F1800 E1.47527
G1 F1350 X90 Y85.787 E0.21273
G1 F2400 E-1.6
G1 F300 Z0.45
G0 F3600 X67.999 Y87.479 Z0.45
;TYPE:WALL-INNER
G1 F300 Z0.3
G1 F1800 E1.47527
G1 F1350 X67.979 Y88.029 E0.02746
G1 X67.92 Y88.549 E0.02611
G1 X67.823 Y89.063 E0.0261
G1 X67.688 Y89.567 E0.02603
G1 X67.509 Y90.074 E0.02682
G1 X67.3 Y90.551 E0.02598
G1 X67.059 Y91.003 E0.02556
G1 X66.767 Y91.466 E0.02731
G1 X66.466 Y91.871 E0.02517
G1 X66.115 Y92.277 E0.02678
G1 X65.737 Y92.652 E0.02656
G1 X65.336 Y92.995 E0.02633
G1 X64.92 Y93.299 E0.02571
G1 X64.473 Y93.576 E0.02624
G1 X63.998 Y93.824 E0.02673
G1 X63.517 Y94.031 E0.02613
G1 X63.034 Y94.197 E0.02548
G1 X62.521 Y94.33 E0.02644
G1 X61.991 Y94.427 E0.02688
G1 X61.474 Y94.481 E0.02593
G1 X60.953 Y94.498 E0.02601
G1 X60.419 Y94.473 E0.02667
G1 X59.89 Y94.409 E0.02658
G1 X59.392 Y94.311 E0.02532
G1 X58.875 Y94.167 E0.02678
G1 X58.39 Y93.992 E0.02572
G1 X57.903 Y93.775 E0.0266
G1 X57.438 Y93.522 E0.02641
G1 X57.082 Y93.298 E0.02098
G1 X56.665 Y92.994 E0.02575
G1 X56.264 Y92.651 E0.02633
G1 X55.886 Y92.276 E0.02656
G1 X55.535 Y91.87 E0.02678
G1 X55.235 Y91.466 E0.02511
G1 X54.939 Y90.996 E0.02771
G1 X54.696 Y90.539 E0.02582
G1 X54.492 Y90.073 E0.02538
G1 X54.314 Y89.569 E0.02667
G1 X54.178 Y89.062 E0.02619
G1 X54.081 Y88.549 E0.02605
G1 X54.022 Y88.029 E0.02611
G1 X54.001 Y87.485 E0.02716
G1 X54.001 Y74.521 E0.64678
G1 X54.021 Y73.964 E0.02781
G1 X54.08 Y73.45 E0.02581
G1 X54.177 Y72.937 E0.02605
G1 X54.312 Y72.433 E0.02603
G1 X54.492 Y71.924 E0.02694
G1 X54.701 Y71.448 E0.02594
G1 X54.945 Y70.992 E0.0258
G1 X55.234 Y70.533 E0.02706
G1 X55.534 Y70.129 E0.02511
G1 X55.885 Y69.723 E0.02678
G1 X56.263 Y69.348 E0.02656
G1 X56.666 Y69.004 E0.02643
G1 X57.081 Y68.701 E0.02564
G1 X57.527 Y68.424 E0.02619
G1 X58.002 Y68.176 E0.02673
G1 X58.483 Y67.969 E0.02613
G1 X58.966 Y67.803 E0.02548
G1 X59.479 Y67.67 E0.02644
G1 X60.009 Y67.573 E0.02688
G1 X60.526 Y67.519 E0.02593
G1 X61.047 Y67.502 E0.02601
G1 X61.581 Y67.527 E0.02667
G1 X62.11 Y67.591 E0.02658
G1 X62.608 Y67.689 E0.02532
G1 X63.125 Y67.833 E0.02678
G1 X63.61 Y68.008 E0.02572
G1 X64.097 Y68.225 E0.0266
G1 X64.562 Y68.478 E0.02641
G1 X64.918 Y68.702 E0.02098
G1 X65.333 Y69.005 E0.02564
G1 X65.736 Y69.349 E0.02643
G1 X66.114 Y69.724 E0.02656
G1 X66.465 Y70.13 E0.02678
G1 X66.765 Y70.534 E0.02511
G1 X67.054 Y70.993 E0.02706
G1 X67.296 Y71.444 E0.02554
G1 X67.507 Y71.925 E0.0262
G1 X67.688 Y72.437 E0.02709
G1 X67.82 Y72.928 E0.02537
G1 X67.919 Y73.451 E0.02656
G1 X67.978 Y73.966 E0.02586
G1 X67.999 Y74.515 E0.02741
G1 X67.999 Y87.214 E0.63356
G0 F1215 X67.999 Y87.479
G1 F2400 E-1.6
G1 F300 Z0.45
G0 F3600 X65.66 Y87.515 Z0.45
G1 F300 Z0.3
G1 F1800 E1.4885
G1 F1350 X65.66 Y74.485 E0.65007
G1 X65.638 Y74.026 E0.02293
G1 X65.565 Y73.554 E0.02383
G1 X65.445 Y73.095 E0.02367
G1 X65.279 Y72.649 E0.02374
G1 X65.068 Y72.222 E0.02376
G1 X64.815 Y71.818 E0.02378
G1 X64.52 Y71.444 E0.02376
G1 X64.191 Y71.101 E0.02371
G1 X63.827 Y70.793 E0.02379
G1 X63.435 Y70.525 E0.02369
G1 X63.017 Y70.298 E0.02373
G1 X62.578 Y70.114 E0.02375
G1 X62.122 Y69.976 E0.02377
G1 X61.655 Y69.885 E0.02374
G1 X61.182 Y69.843 E0.02369
G1 X60.706 Y69.848 E0.02375
G1 X60.233 Y69.902 E0.02375
G1 X59.768 Y70.006 E0.02377
G1 X59.317 Y70.155 E0.0237
G1 X58.883 Y70.349 E0.02372
G1 X58.471 Y70.587 E0.02374
G1 X58.086 Y70.864 E0.02366
G1 X57.732 Y71.177 E0.02357
G1 X57.478 Y71.448 E0.01853
G1 X57.186 Y71.819 E0.02355
G1 X56.933 Y72.223 E0.02378
G1 X56.722 Y72.65 E0.02376
G1 X56.556 Y73.096 E0.02374
G1 X56.436 Y73.555 E0.02367
G1 X56.364 Y74.026 E0.02377
G1 X56.34 Y74.485 E0.02293
G1 X56.34 Y87.515 E0.65007
G1 X56.363 Y87.979 E0.02318
G1 X56.437 Y88.453 E0.02393
G1 X56.558 Y88.916 E0.02387
G1 X56.727 Y89.365 E0.02393
G1 X56.942 Y89.795 E0.02398
G1 X57.2 Y90.2 E0.02396
G1 X57.498 Y90.576 E0.02394
G1 X57.833 Y90.92 E0.02396
G1 X58.202 Y91.226 E0.02392
G1 X58.595 Y91.492 E0.02368
G1 X58.921 Y91.671 E0.01855
G1 X59.358 Y91.861 E0.02377
G1 X59.815 Y92.007 E0.02394
G1 X60.283 Y92.106 E0.02387
G1 X60.76 Y92.155 E0.02392
G1 X61.239 Y92.156 E0.0239
G1 X61.718 Y92.107 E0.02402
G1 X62.186 Y92.008 E0.02387
G1 X62.643 Y91.862 E0.02394
G1 X63.084 Y91.67 E0.024
G1 X63.501 Y91.434 E0.0239
G1 X63.892 Y91.156 E0.02394
G1 X64.253 Y90.839 E0.02397
G1 X64.578 Y90.486 E0.02394
G1 X64.865 Y90.104 E0.02384
G1 X65.11 Y89.696 E0.02374
G1 X65.273 Y89.361 E0.01859
G1 X65.441 Y88.915 E0.02378
G1 X65.562 Y88.452 E0.02387
G1 X65.636 Y87.979 E0.02389
G1 X65.647 Y87.78 E0.00994
G0 F1215 X65.66 Y87.515
G0 F3600 X65.238 Y87.938
;TYPE:WALL-OUTER
G1 F1800 E0.01322
G1 F1350 X65.26 Y87.505 E0.02163
G1 X65.26 Y74.495 E0.64907
G1 X65.239 Y74.066 E0.02143
G1 X65.173 Y73.635 E0.02175
G1 X65.063 Y73.216 E0.02161
G1 X64.911 Y72.808 E0.02172
G1 X64.718 Y72.417 E0.02175
G1 X64.487 Y72.049 E0.02168
G1 X64.218 Y71.707 E0.02171
G1 X63.917 Y71.393 E0.0217
G1 X63.584 Y71.112 E0.02174
G1 X63.226 Y70.867 E0.02164
G1 X62.844 Y70.659 E0.0217
G1 X62.443 Y70.491 E0.02169
G1 X62.026 Y70.365 E0.02173
G1 X61.599 Y70.282 E0.0217
G1 X61.166 Y70.243 E0.02169
G1 X60.731 Y70.248 E0.0217
G1 X60.299 Y70.297 E0.02169
G1 X59.875 Y70.392 E0.02168
G1 X59.462 Y70.528 E0.02169
G1 X59.065 Y70.706 E0.02171
G1 X58.688 Y70.923 E0.0217
G1 X58.336 Y71.177 E0.02166
G1 X58.011 Y71.464 E0.02163
G1 X57.782 Y71.709 E0.01673
G1 X57.514 Y72.05 E0.02164
G1 X57.283 Y72.418 E0.02168
G1 X57.09 Y72.809 E0.02175
G1 X56.938 Y73.217 E0.02172
G1 X56.828 Y73.636 E0.02161
G1 X56.762 Y74.067 E0.02175
G1 X56.74 Y74.495 E0.02138
G1 X56.74 Y87.505 E0.64907
G1 X56.761 Y87.938 E0.02163
G1 X56.829 Y88.371 E0.02187
G1 X56.94 Y88.795 E0.02187
G1 X57.094 Y89.205 E0.02185
G1 X57.291 Y89.598 E0.02193
G1 X57.526 Y89.968 E0.02187
G1 X57.799 Y90.311 E0.02187
G1 X58.105 Y90.626 E0.02191
G1 X58.442 Y90.906 E0.02186
G1 X58.804 Y91.15 E0.02178
G1 X59.098 Y91.312 E0.01675
G1 X59.499 Y91.486 E0.02181
G1 X59.917 Y91.62 E0.0219
G1 X60.345 Y91.71 E0.02182
G1 X60.781 Y91.755 E0.02187
G1 X61.219 Y91.756 E0.02185
G1 X61.656 Y91.711 E0.02192
G1 X62.084 Y91.621 E0.02182
G1 X62.502 Y91.487 E0.0219
G1 X62.905 Y91.312 E0.02192
G1 X63.286 Y91.096 E0.02185
G1 X63.643 Y90.842 E0.02186
G1 X63.973 Y90.552 E0.02192
G1 X64.27 Y90.23 E0.02185
G1 X64.533 Y89.88 E0.02184
G1 X64.758 Y89.505 E0.02182
G1 X64.905 Y89.203 E0.01676
G1 X65.059 Y88.794 E0.0218
G1 X65.17 Y88.37 E0.02187
G1 X65.197 Y88.199 E0.00864
G0 F1215 X65.238 Y87.938
G0 F3600 X65.26 Y87.505
G0 X65.26 Y87.338
G1 F2400 E-1.6
G1 F300 Z0.45
G0 F3600 X68.399 Y87.493 Z0.45
G1 F300 Z0.3
G1 F1800 E1.4885
G1 F1350 X68.379 Y88.05 E0.02781
G1 X68.315 Y88.616 E0.02842
G1 X68.214 Y89.148 E0.02702
G1 X68.07 Y89.685 E0.02774
G1 X67.881 Y90.222 E0.0284
G1 X67.659 Y90.727 E0.02752
G1 X67.402 Y91.209 E0.02725
G1 X67.099 Y91.691 E0.0284
G1 X66.775 Y92.126 E0.02706
G1 X66.411 Y92.547 E0.02777
G1 X66.01 Y92.945 E0.02819
G1 X65.584 Y93.309 E0.02796
G1 X65.142 Y93.632 E0.02731
G1 X64.669 Y93.925 E0.02776
G1 X64.179 Y94.181 E0.02758
G1 X63.659 Y94.405 E0.02825
G1 X63.147 Y94.581 E0.02701
G1 X62.6 Y94.723 E0.02819
G1 X62.052 Y94.823 E0.02779
G1 X61.501 Y94.881 E0.02764
G1 X60.947 Y94.899 E0.02765
G1 X60.393 Y94.873 E0.02767
G1 X59.83 Y94.805 E0.02829
G1 X59.301 Y94.7 E0.02691
G1 X58.75 Y94.547 E0.02853
G1 X58.242 Y94.364 E0.02694
G1 X57.727 Y94.134 E0.02814
G1 X57.233 Y93.865 E0.02806
G1 X56.855 Y93.628 E0.02226
G1 X56.417 Y93.308 E0.02706
G1 X55.991 Y92.944 E0.02796
G1 X55.59 Y92.546 E0.02819
G1 X55.226 Y92.125 E0.02777
G1 X54.903 Y91.691 E0.02699
G1 X54.599 Y91.208 E0.02847
G1 X54.338 Y90.718 E0.0277
G1 X54.12 Y90.221 E0.02708
G1 X53.932 Y89.687 E0.02824
G1 X53.787 Y89.147 E0.0279
G1 X53.686 Y88.616 E0.02697
G1 X53.622 Y88.049 E0.02847
G1 X53.601 Y87.5 E0.02741
G1 X53.601 Y74.507 E0.64822
G1 X53.621 Y73.95 E0.02781
G1 X53.685 Y73.383 E0.02847
G1 X53.786 Y72.852 E0.02697
G1 X53.93 Y72.315 E0.02774
G1 X54.12 Y71.776 E0.02851
G1 X54.343 Y71.268 E0.02768
G1 X54.598 Y70.791 E0.02698
G1 X54.902 Y70.308 E0.02847
G1 X55.225 Y69.874 E0.02699
G1 X55.589 Y69.453 E0.02777
G1 X55.99 Y69.055 E0.02819
G1 X56.418 Y68.69 E0.02806
G1 X56.858 Y68.368 E0.0272
G1 X57.331 Y68.075 E0.02776
G1 X57.821 Y67.819 E0.02758
G1 X58.341 Y67.595 E0.02825
G1 X58.853 Y67.419 E0.02701
G1 X59.4 Y67.277 E0.02819
G1 X59.948 Y67.177 E0.02779
G1 X60.499 Y67.119 E0.02764
G1 X61.053 Y67.101 E0.02765
G1 X61.607 Y67.127 E0.02767
G1 X62.17 Y67.195 E0.02829
G1 X62.699 Y67.3 E0.02691
G1 X63.25 Y67.453 E0.02853
G1 X63.758 Y67.636 E0.02694
G1 X64.273 Y67.866 E0.02814
G1 X64.767 Y68.135 E0.02806
G1 X65.145 Y68.372 E0.02226
G1 X65.581 Y68.691 E0.02695
G1 X66.009 Y69.056 E0.02806
G1 X66.41 Y69.454 E0.02819
G1 X66.774 Y69.875 E0.02777
G1 X67.097 Y70.309 E0.02699
G1 X67.401 Y70.792 E0.02847
G1 X67.656 Y71.269 E0.02698
G1 X67.879 Y71.777 E0.02768
G1 X68.069 Y72.315 E0.02847
G1 X68.213 Y72.853 E0.02779
G1 X68.314 Y73.384 E0.02697
G1 X68.378 Y73.951 E0.02847
G1 X68.399 Y74.5 E0.02741
G1 X68.399 Y87.228 E0.635
G0 F1215 X68.399 Y87.493
G0 F3600 X68.379 Y88.05
G0 X68.375 Y88.092
G0 X67.551 Y87.98
;TYPE:SKIN
G1 F1800 E0.01322
