;FLAVOR:Marlin
;TIME:2648
;Filament used: 0.817397m
;Layer height: 0.1
;Generated with Cura_SteamEngine 3.2.1
M82 ;absolute extrusion mode
;---------------------------------------
; ; ; Jellybox Start Script Begin ; ; ;
;_______________________________________
; M92 E140 ;optionally adjust steps per mm for your filament

;              Print Settings Summary
; (leave these alone: this is only a list of the slicing settings)
; (overwriting these values will NOT change your printer's behavior)
;             sliced for :  {machine_name}
;        nozzle diameter :  {machine_nozzle_size}
;      filament diameter :  {material_diameter}
;           layer height :  {layer_height}
;       1st layer height :  {layer_height_0}
;             line width :  {line_width}  
;  outer wall wipe dist. :  {wall_0_wipe_dist}
;      infill line width :  {infill_line_width}
;         wall thickness :  {wall_thickness}
;          top thickness :  {top_thickness}
;       bottom thickness :  {bottom_thickness}
;         infill density :  {infill_sparse_density}
;         infill pattern :  {infill_pattern}
;      print temperature :  {material_print_temperature}
;  1st layer print temp. :  {material_print_temperature_layer_0}
; heated bed temperature :  {material_bed_temperature}
;    1st layer bed temp. :  {material_bed_temperature_layer_0}
;      regular fan speed :  {cool_fan_speed_min}
;          max fan speed :  {cool_fan_speed_max}
;     retraction amount  :  {retraction_amount}
;   retr. retract speed  :  {retraction_retract_speed}
;     retr. prime speed  :  {retraction_prime_speed}
;   build plate adhesion :  {adhesion_type}
;                support ?  {support_enable}
;             spiralized ?  {magic_spiralize}

G21               ;metric values
G90               ;absolute positioning
M82               ;set extruder to absolute mode
M107              ;start with the fan off
M117 Preparing    ;write Preparing
M140 S45          ;set bed temperature and move on
M109 S180         ;wait for the extruder to reach 180C
G28               ;home all axes
M203 Z4           ;slow Z speed down for greater accuracy when probing
G29               ;auto bed leveling procedure
;M500              ;optionally save the mesh
M203 Z7           ;pick up z speed again for printing
G28 X             ;home x to get as far from the plate as possible
M420 S1           ;(re) enable bed leveling turned off by the G28
G0 Y0 F5000       ;position Y in front
G0 Z15 F3000      ;position Z
M190 S65              ;wait for the bed to reach desired temperature
M109 S235             ;wait for the extruder to reach desired temperature
M300 S440 P100    ;play a tone
G4 P200           ;pause
M300 S440 P100    ;play a tone
G4 P200           ;pause
M300 S440 P800    ;play a tone
M0
M420 S1           ;(re) enable bed leveling to make iron-sure
M117 Print starting   ;write Print starting
;================ ;PRINT:LINE start
G90               ;absolute positioning
G92 E0            ;reset the extruder position
M420 S1           ;(re) enable bed leveling to make iron-sure
G0 Z0             ;get Z down
M83               ;relative extrusion mode
G1 E22 F500       ;extrude __mm of feed stock
G1 E18 F400       ;extrude __mm of feed stock
G1 E10 F400       ;extrude __mm of feed stock
G4 S2             ;pause for ooze
M400              ;make sure all is finished
M420 S1           ;(re) enable bed leveling to make iron-sure
G0 F500 X3 Y0 Z0.6;get to the start of the LINE
G1 E2 F300        ;extrude __mm of feed stock
G1 F1000 X104 E10  ;print a thick LINE extruding __mm along the way
M82               ;absolute extrusion mode
G92 E0            ;reset the extruder position
;---------------------------------------------
; ; ; Jellybox Printer Start Script End ; ; ;
;_____________________________________________

M83 ;relative extrusion mode
;LAYER_COUNT:46
;LAYER:0
M107
G0 F3600 X61.899 Y95.129 Z0.3
;TYPE:SKIRT
G1 F1200 X62.875 Y94.503 E0.05785
G1 X63.592 Y94.118 E0.0406
G1 X65.301 Y93.368 E0.09311
G1 X66.065 Y93.102 E0.04036
G1 X67.191 Y92.805 E0.0581
G1 X67.79 Y92.684 E0.03049
G1 X68.803 Y92.541 E0.05104
G1 X69.377 Y92.492 E0.02874
G1 X70.569 Y92.457 E0.05949
G1 X71.152 Y92.473 E0.0291
G1 X74.557 Y92.755 E0.17046
G1 X79.95 Y92.989 E0.26931
G1 X85.322 Y92.918 E0.26803
G1 X91.338 Y92.488 E0.30091
G1 X91.634 Y92.476 E0.01478
G1 X92.75 Y92.46 E0.05568
G1 X93.377 Y92.488 E0.03131
G1 X94.566 Y92.615 E0.05966
G1 X95.513 Y92.807 E0.04821
G1 X97.812 Y93.499 E0.11978
G1 X98.416 Y93.722 E0.03212
G1 X98.766 Y93.893 E0.01943
G1 X99.994 Y94.55 E0.06948
G1 X100.673 Y94.984 E0.0402
G1 X101.964 Y95.958 E0.08068
G1 X102.645 Y96.573 E0.04578
G1 X103.868 Y97.892 E0.08974
G1 X104.276 Y98.391 E0.03216
G1 X104.459 Y98.664 E0.0164
G1 X105.425 Y100.203 E0.09065
G1 X105.731 Y100.764 E0.03188
G1 X107.047 Y103.577 E0.15494
G1 X109.523 Y108.372 E0.26923
G1 X112.254 Y112.997 E0.26797
G1 X115.29 Y117.533 E0.27231
G1 X117.2 Y120.224 E0.16463
G1 X117.665 Y121.019 E0.04595
G1 X118.453 Y122.693 E0.09231
G1 X118.774 Y123.573 E0.04673
G1 X119.195 Y125.158 E0.08182
G1 X119.321 Y125.79 E0.03215
G1 X119.355 Y126.115 E0.0163
G1 X119.496 Y128.05 E0.09679
G1 X119.492 Y128.862 E0.04051
G1 X119.4 Y129.961 E0.05502
G1 X119.319 Y130.536 E0.02897
G1 X119.122 Y131.532 E0.05065
G1 X118.975 Y132.104 E0.02946
G1 X118.606 Y133.26 E0.06054
G1 X118.383 Y133.837 E0.03086
G1 X117.94 Y134.808 E0.05325
G1 X117.649 Y135.357 E0.031
G1 X117.012 Y136.402 E0.06106
G1 X116.522 Y137.077 E0.04161
G1 X115.302 Y138.502 E0.09359
G1 X114.764 Y139.044 E0.0381
G1 X114.035 Y139.678 E0.0482
G1 X113.567 Y140.041 E0.02955
G1 X112.555 Y140.736 E0.06125
G1 X112.014 Y141.061 E0.03149
G1 X111.014 Y141.582 E0.05626
G1 X110.26 Y141.902 E0.04086
G1 X108.465 Y142.502 E0.09442
G1 X107.719 Y142.691 E0.03839
G1 X106.749 Y142.862 E0.04914
G1 X106.164 Y142.931 E0.02939
G1 X104.989 Y143.003 E0.05873
G1 X104.311 Y143.001 E0.03383
G1 X97.928 Y142.559 E0.31921
G1 X92.581 Y142.471 E0.2668
G1 X87.149 Y142.689 E0.27122
G1 X83.063 Y142.998 E0.20443
G1 X82.373 Y143.004 E0.03443
G1 X81.259 Y142.94 E0.05567
G1 X80.637 Y142.867 E0.03124
G1 X79.447 Y142.653 E0.06032
G1 X78.809 Y142.496 E0.03278
G1 X77.656 Y142.134 E0.06029
G1 X77.082 Y141.916 E0.03063
G1 X76.081 Y141.466 E0.05475
G1 X75.546 Y141.187 E0.0301
G1 X74.55 Y140.592 E0.05788
G1 X74.051 Y140.253 E0.0301
G1 X73.203 Y139.602 E0.05334
G1 X72.725 Y139.187 E0.03158
G1 X71.825 Y138.303 E0.06294
G1 X71.387 Y137.814 E0.03275
G1 X70.657 Y136.889 E0.05879
G1 X70.311 Y136.394 E0.03013
G1 X69.744 Y135.473 E0.05396
G1 X69.48 Y134.989 E0.02751
G1 X67.351 Y130.533 E0.24638
G1 X64.805 Y125.784 E0.26883
G1 X62.014 Y121.221 E0.26686
G1 X58.213 Y115.786 E0.33088
G1 X58.048 Y115.536 E0.01494
G1 X57.48 Y114.615 E0.05398
G1 X57.183 Y114.061 E0.03136
G1 X56.672 Y112.952 E0.06092
G1 X56.394 Y112.199 E0.04005
G1 X55.917 Y110.523 E0.08694
G1 X55.76 Y109.758 E0.03896
G1 X55.612 Y108.598 E0.05834
G1 X55.57 Y107.991 E0.03036
G1 X55.559 Y106.873 E0.05578
G1 X55.592 Y106.236 E0.03182
G1 X55.73 Y105.02 E0.06106
G1 X55.828 Y104.447 E0.029
G1 X56.036 Y103.537 E0.04657
G1 X56.264 Y102.797 E0.03863
G1 X56.972 Y100.992 E0.09673
G1 X57.333 Y100.251 E0.04112
G1 X57.908 Y99.275 E0.05651
G1 X58.278 Y98.73 E0.03286
G1 X59.07 Y97.708 E0.06451
G1 X59.468 Y97.252 E0.0302
G1 X60.138 Y96.569 E0.04773
G1 X60.547 Y96.194 E0.02768
G1 X61.403 Y95.49 E0.05529
G1 X61.469 Y95.442 E0.00407
G0 F1140 X61.899 Y95.129
G1 F2400 E-1.6
G1 F300 Z0.45
G0 F3600 X70.071 Y115.099 Z0.45
;TYPE:WALL-INNER
G1 F300 Z0.3
G1 F1800 E1.58497
G1 F1200 X70.534 Y115.105 E0.0231
G1 X71.078 Y115.078 E0.02717
G1 X71.624 Y115.011 E0.02744
G1 X72.16 Y114.906 E0.02725
G1 X72.687 Y114.764 E0.02723
G1 X73.203 Y114.587 E0.02722
G1 X73.706 Y114.371 E0.02731
G1 X74.192 Y114.123 E0.02722
G1 X74.659 Y113.841 E0.02722
G1 X75.107 Y113.526 E0.02732
G1 X75.528 Y113.182 E0.02712
G1 X75.87 Y112.868 E0.02316
G1 X76.247 Y112.472 E0.02728
G1 X76.594 Y112.051 E0.02722
G1 X76.911 Y111.604 E0.02734
G1 X77.195 Y111.14 E0.02714
G1 X77.449 Y110.655 E0.02731
G1 X77.665 Y110.153 E0.02726
G1 X77.847 Y109.638 E0.02725
G1 X77.992 Y109.11 E0.02732
G1 X78.099 Y108.576 E0.02717
G1 X78.169 Y108.036 E0.02717
G1 X78.2 Y107.572 E0.0232
G1 X78.201 Y107.027 E0.02719
G1 X78.163 Y106.482 E0.02726
G1 X78.086 Y105.94 E0.02731
G1 X77.972 Y105.406 E0.02724
G1 X77.821 Y104.881 E0.02725
G1 X77.635 Y104.368 E0.02722
G1 X77.411 Y103.868 E0.02733
G1 X77.153 Y103.387 E0.02723
G1 X76.863 Y102.925 E0.02721
G1 X76.541 Y102.483 E0.02728
G1 X76.191 Y102.067 E0.02712
G1 X75.869 Y101.731 E0.02322
G1 X75.468 Y101.362 E0.02719
G1 X75.04 Y101.021 E0.0273
G1 X74.589 Y100.711 E0.0273
G1 X74.117 Y100.435 E0.02728
G1 X73.63 Y100.193 E0.02713
G1 X73.124 Y99.983 E0.02733
G1 X72.605 Y99.811 E0.02728
G1 X72.077 Y99.676 E0.02719
G1 X71.539 Y99.577 E0.02729
G1 X70.998 Y99.517 E0.02716
G1 X70.533 Y99.494 E0.02323
G1 X69.99 Y99.502 E0.02709
G1 X69.444 Y99.55 E0.02735
G1 X68.904 Y99.636 E0.02728
G1 X68.372 Y99.759 E0.02724
G1 X67.85 Y99.92 E0.02725
G1 X67.34 Y100.116 E0.02726
G1 X66.845 Y100.348 E0.02727
G1 X66.368 Y100.614 E0.02725
G1 X65.91 Y100.911 E0.02723
G1 X65.474 Y101.242 E0.02731
G1 X65.066 Y101.599 E0.02705
G1 X64.735 Y101.926 E0.02321
G1 X64.372 Y102.334 E0.02725
G1 X64.039 Y102.769 E0.02733
G1 X63.739 Y103.225 E0.02723
G1 X63.469 Y103.7 E0.02726
G1 X63.235 Y104.193 E0.02723
G1 X63.035 Y104.702 E0.02728
G1 X62.872 Y105.224 E0.02728
G1 X62.746 Y105.756 E0.02728
G1 X62.657 Y106.295 E0.02725
G1 X62.606 Y106.835 E0.02706
G1 X62.591 Y107.3 E0.02321
G1 X62.609 Y107.845 E0.0272
G1 X62.667 Y108.39 E0.02734
G1 X62.762 Y108.928 E0.02726
G1 X62.895 Y109.457 E0.02721
G1 X63.064 Y109.977 E0.02728
G1 X63.269 Y110.483 E0.02724
G1 X63.509 Y110.973 E0.02722
G1 X63.783 Y111.447 E0.02731
G1 X64.09 Y111.899 E0.02726
G1 X64.426 Y112.326 E0.02711
G1 X64.735 Y112.674 E0.02322
G1 X65.123 Y113.056 E0.02716
G1 X65.54 Y113.412 E0.02735
G1 X65.979 Y113.736 E0.02722
G1 X66.44 Y114.03 E0.02728
G1 X66.921 Y114.289 E0.02725
G1 X67.418 Y114.516 E0.02726
G1 X67.931 Y114.707 E0.02731
G1 X68.454 Y114.861 E0.0272
G1 X68.988 Y114.978 E0.02727
G1 X69.529 Y115.058 E0.02728
G1 X69.54 Y115.059 E0.00055
G0 F1140 X70.071 Y115.099
G1 F2400 E-1.6
G1 F300 Z0.45
G0 F3600 X71.796 Y116.252 Z0.45
G1 F300 Z0.3
G1 F1800 E1.58497
G1 F1200 X71.253 Y116.32 E0.0273
G1 X70.705 Y116.355 E0.0274
G1 X70.161 Y116.357 E0.02714
G1 X69.62 Y116.326 E0.02703
G1 X69.077 Y116.262 E0.02728
G1 X68.531 Y116.165 E0.02767
G1 X68.006 Y116.038 E0.02695
G1 X67.468 Y115.873 E0.02807
G1 X67.173 Y115.767 E0.01564
G1 X66.65 Y115.549 E0.02827
G1 X66.17 Y115.313 E0.02669
G1 X65.693 Y115.043 E0.02735
G1 X65.242 Y114.75 E0.02683
G1 X64.785 Y114.412 E0.02836
G1 X64.378 Y114.072 E0.02646
G1 X63.974 Y113.69 E0.02774
G1 X63.614 Y113.305 E0.0263
G1 X63.245 Y112.861 E0.0288
G1 X62.934 Y112.435 E0.02631
G1 X62.637 Y111.976 E0.02728
G1 X62.366 Y111.494 E0.02759
G1 X62.13 Y111.007 E0.027
G1 X61.922 Y110.5 E0.02734
G1 X61.747 Y109.997 E0.02657
G1 X61.599 Y109.457 E0.02793
G1 X61.482 Y108.91 E0.02791
G1 X61.402 Y108.384 E0.02654
G1 X61.354 Y107.845 E0.027
G1 X61.337 Y107.305 E0.02695
G1 X61.354 Y106.735 E0.02845
G1 X61.401 Y106.214 E0.0261
G1 X61.481 Y105.688 E0.02654
G1 X61.598 Y105.142 E0.02786
G1 X61.75 Y104.592 E0.02847
G1 X61.916 Y104.11 E0.02543
G1 X62.129 Y103.594 E0.02785
G1 X62.373 Y103.092 E0.02785
G1 X62.636 Y102.622 E0.02687
G1 X62.929 Y102.168 E0.02696
G1 X63.259 Y101.718 E0.02784
G1 X63.601 Y101.308 E0.02664
G1 X63.973 Y100.909 E0.02722
G1 X64.378 Y100.526 E0.02781
G1 X64.788 Y100.184 E0.02664
G1 X65.23 Y99.857 E0.02743
G1 X65.693 Y99.557 E0.02752
G1 X66.171 Y99.285 E0.02744
G1 X66.654 Y99.049 E0.02682
G1 X67.153 Y98.84 E0.02699
G1 X67.685 Y98.655 E0.0281
G1 X68.194 Y98.51 E0.0264
G1 X68.734 Y98.393 E0.02757
G1 X69.276 Y98.309 E0.02736
G1 X69.806 Y98.259 E0.02656
G1 X70.365 Y98.239 E0.02791
G1 X70.908 Y98.254 E0.0271
G1 X71.445 Y98.3 E0.02689
G1 X72.003 Y98.383 E0.02815
G1 X72.522 Y98.493 E0.02647
G1 X73.053 Y98.637 E0.02745
G1 X73.585 Y98.819 E0.02805
G1 X73.882 Y98.935 E0.01591
G1 X74.371 Y99.157 E0.02679
G1 X74.885 Y99.429 E0.02901
G1 X75.332 Y99.7 E0.02608
G1 X75.782 Y100.012 E0.02732
G1 X76.218 Y100.356 E0.02771
G1 X76.617 Y100.71 E0.02661
G1 X77.019 Y101.114 E0.02843
G1 X77.364 Y101.505 E0.02602
G1 X77.707 Y101.946 E0.02787
G1 X78.016 Y102.395 E0.02719
G1 X78.292 Y102.852 E0.02664
G1 X78.544 Y103.333 E0.02709
G1 X78.775 Y103.847 E0.02811
G1 X78.967 Y104.356 E0.02714
G1 X79.13 Y104.879 E0.02733
G1 X79.254 Y105.385 E0.02599
G1 X79.356 Y105.945 E0.0284
G1 X79.421 Y106.477 E0.02674
G1 X79.455 Y107.027 E0.02749
G1 X79.455 Y107.579 E0.02754
G1 X79.423 Y108.11 E0.02654
G1 X79.357 Y108.653 E0.02729
G1 X79.257 Y109.202 E0.02784
G1 X79.129 Y109.728 E0.02701
G1 X78.968 Y110.245 E0.02701
G1 X78.772 Y110.764 E0.02768
G1 X78.553 Y111.251 E0.02664
G1 X78.296 Y111.744 E0.02774
G1 X78.024 Y112.194 E0.02623
G1 X77.702 Y112.663 E0.02838
G1 X77.373 Y113.085 E0.0267
G1 X77.004 Y113.503 E0.02782
G1 X76.627 Y113.881 E0.02663
G1 X76.21 Y114.252 E0.02785
G1 X75.792 Y114.581 E0.02654
G1 X75.342 Y114.893 E0.02732
G1 X74.876 Y115.176 E0.0272
G1 X74.372 Y115.443 E0.02846
G1 X73.893 Y115.66 E0.02624
G1 X73.39 Y115.853 E0.02688
G1 X72.851 Y116.023 E0.0282
G1 X72.331 Y116.153 E0.02674
G1 X72.319 Y116.156 E0.00062
G0 F1140 X71.796 Y116.252
G1 F2400 E-1.6
G1 F300 Z0.45
G0 F3600 X75.266 Y112.88 Z0.45
;TYPE:WALL-OUTER
G1 F300 Z0.3
G1 F1800 E1.58497
G1 F1200 X75.589 Y112.583 E0.02189
G1 X75.947 Y112.207 E0.0259
G1 X76.276 Y111.808 E0.0258
G1 X76.577 Y111.384 E0.02594
G1 X76.847 Y110.943 E0.0258
G1 X77.087 Y110.483 E0.02589
G1 X77.292 Y110.007 E0.02586
G1 X77.465 Y109.518 E0.02588
G1 X77.603 Y109.018 E0.02588
G1 X77.704 Y108.511 E0.02579
G1 X77.771 Y107.997 E0.02586
G1 X77.8 Y107.558 E0.02195
G1 X77.801 Y107.041 E0.02579
G1 X77.765 Y106.524 E0.02586
G1 X77.692 Y106.01 E0.0259
G1 X77.584 Y105.503 E0.02586
G1 X77.44 Y105.005 E0.02586
G1 X77.264 Y104.518 E0.02583
G1 X77.052 Y104.045 E0.02586
G1 X76.807 Y103.588 E0.02587
G1 X76.532 Y103.149 E0.02584
G1 X76.226 Y102.73 E0.02589
G1 X75.893 Y102.334 E0.02581
G1 X75.589 Y102.017 E0.02191
G1 X75.208 Y101.666 E0.02584
G1 X74.802 Y101.343 E0.02588
G1 X74.374 Y101.049 E0.02591
G1 X73.927 Y100.787 E0.02585
G1 X73.464 Y100.557 E0.02579
G1 X72.984 Y100.358 E0.02592
G1 X72.492 Y100.195 E0.02586
G1 X71.991 Y100.067 E0.0258
G1 X71.481 Y99.973 E0.02587
G1 X70.966 Y99.916 E0.02585
G1 X70.526 Y99.894 E0.02198
G1 X70.01 Y99.902 E0.02575
G1 X69.493 Y99.947 E0.02589
G1 X68.981 Y100.029 E0.02587
G1 X68.476 Y100.146 E0.02586
G1 X67.981 Y100.298 E0.02583
G1 X67.497 Y100.484 E0.02587
G1 X67.028 Y100.704 E0.02584
G1 X66.575 Y100.957 E0.02589
G1 X66.14 Y101.239 E0.02586
G1 X65.727 Y101.552 E0.02585
G1 X65.338 Y101.892 E0.02578
G1 X65.025 Y102.201 E0.02194
G1 X64.681 Y102.589 E0.02587
G1 X64.365 Y103.001 E0.0259
G1 X64.08 Y103.434 E0.02586
G1 X63.824 Y103.885 E0.02587
G1 X63.602 Y104.352 E0.0258
G1 X63.413 Y104.835 E0.02588
G1 X63.258 Y105.33 E0.02588
G1 X63.138 Y105.835 E0.0259
G1 X63.054 Y106.346 E0.02584
G1 X63.005 Y106.86 E0.02576
G1 X62.991 Y107.3 E0.02196
G1 X63.008 Y107.817 E0.02581
G1 X63.063 Y108.334 E0.02594
G1 X63.153 Y108.844 E0.02584
G1 X63.28 Y109.346 E0.02583
G1 X63.44 Y109.84 E0.02591
G1 X63.634 Y110.32 E0.02583
G1 X63.862 Y110.785 E0.02584
G1 X64.122 Y111.234 E0.02589
G1 X64.413 Y111.663 E0.02586
G1 X64.733 Y112.069 E0.02579
G1 X65.025 Y112.398 E0.02195
G1 X65.394 Y112.761 E0.02582
G1 X65.789 Y113.099 E0.02594
G1 X66.205 Y113.406 E0.02579
G1 X66.643 Y113.685 E0.02591
G1 X67.099 Y113.931 E0.02585
G1 X67.571 Y114.146 E0.02588
G1 X68.057 Y114.327 E0.02587
G1 X68.553 Y114.473 E0.0258
G1 X69.06 Y114.584 E0.02589
G1 X69.573 Y114.66 E0.02587
G1 X70.089 Y114.699 E0.02582
G1 X70.527 Y114.705 E0.02185
G1 X71.044 Y114.679 E0.02583
G1 X71.561 Y114.616 E0.02598
G1 X72.069 Y114.516 E0.02583
G1 X72.57 Y114.381 E0.02589
G1 X73.059 Y114.213 E0.0258
G1 X73.536 Y114.009 E0.02588
G1 X73.997 Y113.773 E0.02584
G1 X74.44 Y113.506 E0.02581
G1 X74.853 Y113.215 E0.02521
G0 F1140 X74.865 Y113.207
G0 X75.266 Y112.88
G0 F3600 X75.589 Y112.583
