; G-Code generated by Simplify3D(R) Version 3.1.0
; Mar 22, 2017 at 6:38:11 PM
; Settings Summary
;   processName,Process2
;   applyToModels,right fan shroud 4.3.1 green
;   profileName,PETG 0.2 he.20 bt50 (modified)
;   profileVersion,2017-03-22 16:24:12
;   baseProfile,Default (modified)
;   printMaterial,
;   printQuality,
;   printExtruders,
;   extruderName,Primary Extruder
;   extruderToolheadNumber,0
;   extruderDiameter,0.4
;   extruderAutoWidth,0
;   extruderWidth,0.48
;   extrusionMultiplier,0.9
;   extruderUseRetract,1
;   extruderRetractionDistance,1.4
;   extruderExtraRestartDistance,-0.1
;   extruderRetractionZLift,0.1
;   extruderRetractionSpeed,2700
;   extruderUseCoasting,1
;   extruderCoastingDistance,0.2
;   extruderUseWipe,1
;   extruderWipeDistance,0.2
;   primaryExtruder,0
;   layerHeight,0.2
;   topSolidLayers,4
;   bottomSolidLayers,2
;   perimeterOutlines,2
;   printPerimetersInsideOut,1
;   startPointOption,2
;   startPointOriginX,85
;   startPointOriginY,0
;   startPointOriginZ,5
;   sequentialIslands,0
;   spiralVaseMode,0
;   firstLayerHeightPercentage,150
;   firstLayerWidthPercentage,130
;   firstLayerUnderspeed,0.3
;   useRaft,0
;   raftExtruder,0
;   raftLayers,3
;   raftOffset,3
;   raftSeparationDistance,0.14
;   raftInfill,85
;   disableRaftBaseLayers,0
;   useSkirt,1
;   skirtExtruder,0
;   skirtLayers,1
;   skirtOutlines,3
;   skirtOffset,3
;   usePrimePillar,0
;   primePillarExtruder,999
;   primePillarWidth,12
;   primePillarLocation,7
;   primePillarSpeedMultiplier,1
;   useOozeShield,0
;   oozeShieldExtruder,999
;   oozeShieldOffset,2
;   oozeShieldOutlines,1
;   oozeShieldSidewallShape,1
;   oozeShieldSidewallAngle,30
;   oozeShieldSpeedMultiplier,1
;   infillExtruder,0
;   internalInfillPattern,Rectilinear
;   externalInfillPattern,Rectilinear
;   infillPercentage,22
;   outlineOverlapPercentage,30
;   infillExtrusionWidthPercentage,125
;   minInfillLength,5
;   infillLayerInterval,1
;   infillAngles,45,-45
;   overlapInfillAngles,0
;   generateSupport,0
;   supportExtruder,0
;   supportInfillPercentage,20
;   supportExtraInflation,0.5
;   denseSupportLayers,0
;   denseSupportInfillPercentage,70
;   supportLayerInterval,1
;   supportHorizontalPartOffset,0.8
;   supportUpperSeparationLayers,1
;   supportLowerSeparationLayers,1
;   supportType,0
;   supportGridSpacing,1.5
;   maxOverhangAngle,55
;   supportAngles,0
;   temperatureName,Primary Extruder,bed
;   temperatureNumber,0,0
;   temperatureSetpointCount,2,2
;   temperatureSetpointLayers,1,2,1,2
;   temperatureSetpointTemperatures,240,235,65,60
;   temperatureStabilizeAtStartup,1,1
;   temperatureHeatedBed,0,1
;   temperatureRelayBetweenLayers,0,0
;   temperatureRelayBetweenLoops,0,0
;   fanLayers,1,4
;   fanSpeeds,0,20
;   blipFanToFullPower,1
;   adjustSpeedForCooling,0
;   minSpeedLayerTime,15
;   minCoolingSpeedSlowdown,65
;   increaseFanForCooling,1
;   minFanLayerTime,15
;   maxCoolingFanSpeed,60
;   increaseFanForBridging,1
;   bridgingFanSpeed,100
;   use5D,1
;   relativeEdistances,0
;   allowEaxisZeroing,1
;   independentExtruderAxes,0
;   includeM10123,0
;   stickySupport,1
;   applyToolheadOffsets,0
;   gcodeXoffset,0
;   gcodeYoffset,0
;   gcodeZoffset,0
;   overrideMachineDefinition,1
;   machineTypeOverride,0
;   strokeXoverride,170
;   strokeYoverride,160
;   strokeZoverride,145
;   originOffsetXoverride,0
;   originOffsetYoverride,0
;   originOffsetZoverride,0
;   homeXdirOverride,-1
;   homeYdirOverride,-1
;   homeZdirOverride,-1
;   flipXoverride,1
;   flipYoverride,-1
;   flipZoverride,1
;   toolheadOffsets,0,0|0,0|0,0|0,0|0,0|0,0
;   overrideFirmwareConfiguration,1
;   firmwareTypeOverride,RepRap (Marlin/Repetier/Sprinter)
;   GPXconfigOverride,r2
;   baudRateOverride,250000
;   overridePrinterModels,0
;   printerModelsOverride
;   startingGcode,;---------------------------------------,; ; ; Jellybox Start Script Begin ; ; ;,;_______________________________________,; M92 E140            ;optionally adjust steps per mm for your filament,M117 Preparing        ;write Preparing,M206 X10.0 Y0.0       ;set x homing offset for default bed leveling,G21                   ;metric values,G90                   ;absolute positioning,M107                  ;start with the fan off,M82                   ;set extruder to absolute mode,G28                   ;home all axes,M203 Z4               ;slow Z speed down for greater accuracy when probing,G29                   ;auto bed leveling procedure,M203 Z7               ;pick up z speed again for printing,G92 E0                ;reset the extruder position,G1 F1500 E15          ;extrude 15mm of feed stock,G92 E0                ;reset the extruder position again,M117 Print starting   ;write Print starting,;---------------------------------------------,; ; ; Jellybox Printer Start Script End ; ; ;,;_____________________________________________
;   layerChangeGcode,
;   retractionGcode,
;   toolChangeGcode,
;   endingGcode,; ---------------------------------,; ; ;  Jellybox End Script Begin ; ; ;,; _________________________________,M117 Finishing Up  ; write Finishing Up,M104 S0            ; extruder heater off,M140 S0            ; bed heater off (if you have it),G91                ; relative positioning,G1 E-1 F300        ; retract the filament a bit before lifting the nozzle to release some of the pressure,G1 Z+0.5 E-5 X-20 Y-20 F9000 ; move Z up a bit and retract filament even more,G90                ; absolute positioning,G28 X              ; home x so the head is out of the way,G1 Y100            ; move Y forward so the print is more accessible,M84                ; steppers off,M117 Print finished ; write Print finished,; ---------------------------------------,; ; ;  Jellybox End Script End ; ; ;,; _______________________________________
;   exportFileFormat,gcode
;   celebration,0
;   celebrationSong,Random Song
;   postProcessing,|{REPLACE "; layer" "M117 Layer"} ,{REPLACE ", Z = " " | Z="}
;   defaultSpeed,2700
;   outlineUnderspeed,0.55
;   solidInfillUnderspeed,0.55
;   supportUnderspeed,0.9
;   rapidXYspeed,7800
;   rapidZspeed,420
;   minBridgingArea,50
;   bridgingExtraInflation,0.2
;   bridgingExtrusionMultiplier,0.8
;   bridgingSpeedMultiplier,1.3
;   filamentDiameter,1.75
;   filamentPricePerKg,30
;   filamentDensity,1.38
;   useMinPrintHeight,0
;   minPrintHeight,0
;   useMaxPrintHeight,0
;   maxPrintHeight,1
;   useDiaphragm,0
;   diaphragmLayerInterval,20
;   robustSlicing,1
;   mergeAllIntoSolid,0
;   onlyRetractWhenCrossingOutline,0
;   retractBetweenLayers,1
;   useRetractionMinTravel,1
;   retractionMinTravel,1
;   retractWhileWiping,1
;   onlyWipeOutlines,0
;   avoidCrossingOutline,1
;   maxMovementDetourFactor,2.5
;   toolChangeRetractionDistance,1.3
;   toolChangeExtraRestartDistance,0
;   toolChangeRetractionSpeed,600
;   allowThinWallGapFill,0
;   thinWallAllowedOverlapPercentage,0
;   horizontalSizeCompensation,0
G90
M82
M106 S0
M140 S65
M190 S65
M104 S240 T0
M109 S240 T0
;---------------------------------------
; ; ; Jellybox Start Script Begin ; ; ;
;_______________________________________
; M92 E140            ;optionally adjust steps per mm for your filament
M117 Preparing        ;write Preparing
M206 X10.0 Y0.0       ;set x homing offset for default bed leveling
G21                   ;metric values
G90                   ;absolute positioning
M107                  ;start with the fan off
M82                   ;set extruder to absolute mode
G28                   ;home all axes
M203 Z4               ;slow Z speed down for greater accuracy when probing
G29                   ;auto bed leveling procedure
M203 Z7               ;pick up z speed again for printing
G92 E0                ;reset the extruder position
G1 F1500 E15          ;extrude 15mm of feed stock
G92 E0                ;reset the extruder position again
M117 Print starting   ;write Print starting
;---------------------------------------------
; ; ; Jellybox Printer Start Script End ; ; ;
;_____________________________________________
G92 E0
G1 E-1.4000 F2700
G1 Z0.400 F420
M117 Layer 1, Z = 0.3
T0
; tool H0.300 W0.624
; skirt
G1 X67.151 Y82.222 F7800
G1 Z0.300 F420
G1 E-0.1000 F810
G92 E0
G1 X67.591 Y82.037 E0.0334 F810
G1 X67.661 Y82.037 E0.0384
G1 X67.960 Y81.724 E0.0686
G1 X68.002 Y81.685 E0.0727
G1 X68.264 Y81.459 E0.0969
G1 X68.309 Y81.423 E0.1009
G1 X68.976 Y80.952 E0.1581
G1 X69.024 Y80.921 E0.1621
G1 X69.323 Y80.750 E0.1863
G1 X69.374 Y80.724 E0.1903
G1 X69.995 Y80.444 E0.2380
G1 X70.041 Y80.425 E0.2415
G1 X70.326 Y80.325 E0.2626
G1 X70.374 Y80.310 E0.2661
G1 X71.012 Y80.143 E0.3123
G1 X71.061 Y80.132 E0.3158
G1 X71.358 Y80.080 E0.3370
G1 X71.407 Y80.073 E0.3405
G1 X71.989 Y80.021 E0.3814
G1 X72.014 Y80.020 E0.3832
G1 X72.165 Y80.012 E0.3937
G1 X72.190 Y80.012 E0.3955
G1 X97.341 Y79.873 E2.1572
G1 X97.366 Y79.873 E2.1590
G1 X97.518 Y79.879 E2.1696
G1 X97.543 Y79.880 E2.1714
G1 X98.131 Y79.927 E2.2127
G1 X98.182 Y79.933 E2.2163
G1 X98.482 Y79.982 E2.2376
G1 X98.531 Y79.993 E2.2411
G1 X99.177 Y80.156 E2.2878
G1 X99.225 Y80.170 E2.2913
G1 X99.513 Y80.270 E2.3126
G1 X99.560 Y80.288 E2.3162
G1 X100.169 Y80.557 E2.3628
G1 X100.214 Y80.580 E2.3663
G1 X100.481 Y80.726 E2.3876
G1 X100.524 Y80.752 E2.3912
G1 X101.098 Y81.133 E2.4394
G1 X101.145 Y81.167 E2.4435
G1 X101.417 Y81.388 E2.4680
G1 X101.460 Y81.427 E2.4721
G1 X102.050 Y82.010 E2.5302
G1 X102.089 Y82.053 E2.5343
G1 X102.313 Y82.322 E2.5588
G1 X102.348 Y82.369 E2.5629
G1 X102.735 Y82.939 E2.6111
G1 X102.762 Y82.982 E2.6147
G1 X102.911 Y83.247 E2.6360
G1 X102.934 Y83.292 E2.6395
G1 X103.210 Y83.898 E2.6862
G1 X103.229 Y83.945 E2.6897
G1 X103.331 Y84.231 E2.7110
G1 X103.346 Y84.279 E2.7146
G1 X103.516 Y84.923 E2.7612
G1 X103.527 Y84.973 E2.7647
G1 X103.580 Y85.272 E2.7860
G1 X103.587 Y85.322 E2.7896
G1 X103.640 Y85.910 E2.8309
G1 X103.641 Y85.935 E2.8327
G1 X103.649 Y86.087 E2.8433
G1 X103.649 Y86.112 E2.8451
G1 X103.788 Y111.264 E4.6069
G1 X103.788 Y111.289 E4.6087
G1 X103.782 Y111.441 E4.6193
G1 X103.781 Y111.466 E4.6211
G1 X103.735 Y112.054 E4.6624
G1 X103.728 Y112.104 E4.6660
G1 X103.679 Y112.404 E4.6872
G1 X103.669 Y112.454 E4.6908
G1 X103.505 Y113.099 E4.7374
G1 X103.491 Y113.148 E4.7410
G1 X103.392 Y113.435 E4.7623
G1 X103.373 Y113.483 E4.7658
G1 X103.093 Y114.115 E4.8143
G1 X103.067 Y114.168 E4.8184
G1 X102.892 Y114.477 E4.8433
G1 X102.860 Y114.527 E4.8474
G1 X102.383 Y115.204 E4.9055
G1 X102.347 Y115.250 E4.9095
G1 X102.122 Y115.512 E4.9337
G1 X102.083 Y115.553 E4.9377
G1 X101.588 Y116.029 E4.9858
G1 X101.550 Y116.062 E4.9893
G1 X101.314 Y116.254 E5.0106
G1 X101.273 Y116.284 E5.0142
G1 X100.733 Y116.650 E5.0599
G1 X100.694 Y116.675 E5.0631
G1 X100.452 Y116.813 E5.0827
G1 X100.411 Y116.835 E5.0859
G1 X99.943 Y117.056 E5.1221
G1 X99.902 Y117.073 E5.1253
G1 X99.652 Y117.170 E5.1440
G1 X99.610 Y117.184 E5.1472
G1 X98.848 Y117.414 E5.2029
G1 X98.789 Y117.429 E5.2072
G1 X98.430 Y117.498 E5.2328
G1 X98.370 Y117.507 E5.2370
G1 X97.752 Y117.563 E5.2805
G1 X97.726 Y117.564 E5.2823
G1 X97.575 Y117.572 E5.2929
G1 X97.549 Y117.572 E5.2947
G1 X72.238 Y117.712 E7.0677
G1 X72.215 Y117.712 E7.0693
G1 X72.080 Y117.707 E7.0788
G1 X72.057 Y117.706 E7.0804
G1 X71.219 Y117.648 E7.1392
G1 X71.166 Y117.642 E7.1429
G1 X70.851 Y117.591 E7.1653
G1 X70.799 Y117.581 E7.1690
G1 X69.948 Y117.366 E7.2305
G1 X69.902 Y117.353 E7.2338
G1 X69.630 Y117.260 E7.2539
G1 X69.586 Y117.243 E7.2573
G1 X68.936 Y116.964 E7.3068
G1 X68.901 Y116.948 E7.3095
G1 X68.694 Y116.842 E7.3258
G1 X68.660 Y116.823 E7.3285
G1 X68.169 Y116.532 E7.3685
G1 X68.137 Y116.512 E7.3712
G1 X67.952 Y116.386 E7.3869
G1 X67.921 Y116.364 E7.3895
G1 X67.423 Y115.977 E7.4337
G1 X67.385 Y115.944 E7.4372
G1 X67.164 Y115.741 E7.4582
G1 X67.129 Y115.706 E7.4617
G1 X66.481 Y115.003 E7.5287
G1 X66.438 Y114.950 E7.5335
G1 X66.197 Y114.620 E7.5621
G1 X66.160 Y114.563 E7.5668
G1 X65.688 Y113.734 E7.6336
G1 X65.662 Y113.684 E7.6376
G1 X65.523 Y113.374 E7.6614
G1 X65.502 Y113.322 E7.6653
G1 X65.277 Y112.665 E7.7140
G1 X65.261 Y112.609 E7.7180
G1 X65.181 Y112.270 E7.7424
G1 X65.171 Y112.213 E7.7465
G1 X65.052 Y111.348 E7.8076
G1 X65.048 Y111.309 E7.8104
G1 X65.032 Y111.075 E7.8268
G1 X65.030 Y111.036 E7.8296
G1 X64.887 Y84.770 E9.6694
G1 X65.067 Y84.328 E9.7028
G1 X67.010 Y82.364 E9.8963
G1 X67.151 Y82.222 F810
G1 X67.591 Y82.037 F2700
G1 X67.661 Y82.037 F2700
G1 X67.960 Y81.724 F2700
G1 X68.002 Y81.685 F2700
G1 X68.264 Y81.459 F2700
G1 X68.277 Y81.449 F2700
G1 X68.568 Y81.830 F7800
G92 E0
G1 X68.595 Y81.809 E0.0024 F810
G1 X69.243 Y81.351 E0.0580
G1 X69.273 Y81.332 E0.0604
G1 X69.552 Y81.173 E0.0829
G1 X69.582 Y81.157 E0.0853
G1 X70.183 Y80.886 E0.1315
G1 X70.211 Y80.874 E0.1336
G1 X70.476 Y80.781 E0.1534
G1 X70.505 Y80.772 E0.1555
G1 X71.124 Y80.609 E0.2003
G1 X71.153 Y80.603 E0.2024
G1 X71.430 Y80.555 E0.2221
G1 X71.460 Y80.551 E0.2242
G1 X72.027 Y80.500 E0.2640
G1 X72.042 Y80.499 E0.2651
G1 X72.182 Y80.492 E0.2749
G1 X72.198 Y80.492 E0.2760
G1 X97.338 Y80.353 E2.0370
G1 X97.354 Y80.353 E2.0381
G1 X97.495 Y80.358 E2.0480
G1 X97.511 Y80.359 E2.0491
G1 X98.083 Y80.404 E2.0894
G1 X98.113 Y80.408 E2.0915
G1 X98.393 Y80.454 E2.1114
G1 X98.423 Y80.460 E2.1135
G1 X99.049 Y80.619 E2.1587
G1 X99.078 Y80.627 E2.1608
G1 X99.347 Y80.720 E2.1807
G1 X99.375 Y80.731 E2.1829
G1 X99.965 Y80.992 E2.2281
G1 X99.992 Y81.006 E2.2302
G1 X100.241 Y81.142 E2.2501
G1 X100.267 Y81.158 E2.2522
G1 X100.823 Y81.526 E2.2989
G1 X100.851 Y81.547 E2.3014
G1 X101.105 Y81.753 E2.3243
G1 X101.131 Y81.777 E2.3267
G1 X101.704 Y82.343 E2.3831
G1 X101.727 Y82.369 E2.3856
G1 X101.936 Y82.620 E2.4085
G1 X101.957 Y82.648 E2.4109
G1 X102.332 Y83.200 E2.4577
G1 X102.348 Y83.226 E2.4598
G1 X102.487 Y83.473 E2.4797
G1 X102.501 Y83.500 E2.4818
G1 X102.769 Y84.088 E2.5270
G1 X102.780 Y84.116 E2.5291
G1 X102.876 Y84.383 E2.5490
G1 X102.885 Y84.412 E2.5511
G1 X103.050 Y85.036 E2.5964
G1 X103.056 Y85.066 E2.5985
G1 X103.106 Y85.345 E2.6184
G1 X103.110 Y85.375 E2.6205
G1 X103.161 Y85.948 E2.6608
G1 X103.162 Y85.963 E2.6618
G1 X103.169 Y86.105 E2.6718
G1 X103.169 Y86.120 E2.6728
G1 X103.308 Y111.261 E4.4339
G1 X103.308 Y111.276 E4.4350
G1 X103.303 Y111.418 E4.4449
G1 X103.302 Y111.433 E4.4460
G1 X103.257 Y112.006 E4.4862
G1 X103.253 Y112.036 E4.4883
G1 X103.207 Y112.316 E4.5082
G1 X103.201 Y112.346 E4.5103
G1 X103.043 Y112.972 E4.5556
G1 X103.034 Y113.001 E4.5577
G1 X102.941 Y113.269 E4.5776
G1 X102.930 Y113.298 E4.5797
G1 X102.659 Y113.910 E4.6266
G1 X102.643 Y113.942 E4.6291
G1 X102.480 Y114.230 E4.6523
G1 X102.461 Y114.260 E4.6548
G1 X101.997 Y114.919 E4.7112
G1 X101.976 Y114.946 E4.7136
G1 X101.766 Y115.190 E4.7362
G1 X101.742 Y115.215 E4.7386
G1 X101.263 Y115.675 E4.7851
G1 X101.240 Y115.696 E4.7873
G1 X101.020 Y115.874 E4.8072
G1 X100.995 Y115.892 E4.8093
G1 X100.471 Y116.248 E4.8537
G1 X100.448 Y116.263 E4.8556
G1 X100.222 Y116.392 E4.8738
G1 X100.197 Y116.405 E4.8758
G1 X99.746 Y116.618 E4.9107
G1 X99.722 Y116.629 E4.9126
G1 X99.488 Y116.719 E4.9301
G1 X99.463 Y116.727 E4.9320
G1 X98.721 Y116.951 E4.9862
G1 X98.686 Y116.960 E4.9888
G1 X98.351 Y117.025 E5.0127
G1 X98.314 Y117.030 E5.0153
G1 X97.714 Y117.084 E5.0575
G1 X97.698 Y117.085 E5.0586
G1 X97.557 Y117.092 E5.0685
G1 X97.541 Y117.092 E5.0696
G1 X72.240 Y117.232 E6.8419
G1 X72.226 Y117.232 E6.8429
G1 X72.100 Y117.228 E6.8517
G1 X72.086 Y117.227 E6.8527
G1 X71.263 Y117.170 E6.9105
G1 X71.231 Y117.166 E6.9127
G1 X70.937 Y117.119 E6.9336
G1 X70.906 Y117.113 E6.9358
G1 X70.074 Y116.903 E6.9959
G1 X70.047 Y116.895 E6.9979
G1 X69.793 Y116.809 E7.0166
G1 X69.767 Y116.799 E7.0186
G1 X69.133 Y116.526 E7.0670
G1 X69.112 Y116.516 E7.0686
G1 X68.919 Y116.418 E7.0838
G1 X68.898 Y116.407 E7.0854
G1 X68.420 Y116.123 E7.1244
G1 X68.401 Y116.111 E7.1259
G1 X68.228 Y115.993 E7.1406
G1 X68.210 Y115.980 E7.1422
G1 X67.725 Y115.604 E7.1852
G1 X67.702 Y115.584 E7.1873
G1 X67.496 Y115.395 E7.2069
G1 X67.475 Y115.374 E7.2090
G1 X66.843 Y114.687 E7.2743
G1 X66.817 Y114.656 E7.2772
G1 X66.592 Y114.348 E7.3039
G1 X66.570 Y114.314 E7.3067
G1 X66.111 Y113.507 E7.3718
G1 X66.095 Y113.476 E7.3742
