; G-Code generated by Simplify3D(R) Version 3.1.0
; Mar 27, 2017 at 2:24:11 AM
; Settings Summary
;   processName,Process1
;   applyToModels,extruder 7mm 1.5 pink
;   profileName,PETG 0.3 he.20 bt50 (modified)
;   profileVersion,2017-02-27 16:30:54
;   baseProfile,Default (modified)
;   printMaterial,
;   printQuality,
;   printExtruders,
;   extruderName,Primary Extruder
;   extruderToolheadNumber,0
;   extruderDiameter,0.4
;   extruderAutoWidth,0
;   extruderWidth,0.46
;   extrusionMultiplier,1
;   extruderUseRetract,1
;   extruderRetractionDistance,1.4
;   extruderExtraRestartDistance,-0.1
;   extruderRetractionZLift,0.1
;   extruderRetractionSpeed,4200
;   extruderUseCoasting,1
;   extruderCoastingDistance,0.2
;   extruderUseWipe,1
;   extruderWipeDistance,0.2
;   primaryExtruder,0
;   layerHeight,0.3
;   topSolidLayers,3
;   bottomSolidLayers,2
;   perimeterOutlines,2
;   printPerimetersInsideOut,1
;   startPointOption,2
;   startPointOriginX,80
;   startPointOriginY,0
;   startPointOriginZ,5
;   sequentialIslands,0
;   spiralVaseMode,0
;   firstLayerHeightPercentage,100
;   firstLayerWidthPercentage,120
;   firstLayerUnderspeed,0.35
;   useRaft,0
;   raftExtruder,0
;   raftLayers,3
;   raftOffset,3
;   raftSeparationDistance,0.14
;   raftInfill,85
;   disableRaftBaseLayers,0
;   useSkirt,1
;   skirtExtruder,0
;   skirtLayers,1
;   skirtOutlines,2
;   skirtOffset,3
;   usePrimePillar,0
;   primePillarExtruder,999
;   primePillarWidth,12
;   primePillarLocation,7
;   primePillarSpeedMultiplier,1
;   useOozeShield,0
;   oozeShieldExtruder,999
;   oozeShieldOffset,2
;   oozeShieldOutlines,1
;   oozeShieldSidewallShape,1
;   oozeShieldSidewallAngle,30
;   oozeShieldSpeedMultiplier,1
;   infillExtruder,0
;   internalInfillPattern,Rectilinear
;   externalInfillPattern,Rectilinear
;   infillPercentage,25
;   outlineOverlapPercentage,30
;   infillExtrusionWidthPercentage,150
;   minInfillLength,2
;   infillLayerInterval,1
;   infillAngles,45,-45
;   overlapInfillAngles,0
;   generateSupport,1
;   supportExtruder,0
;   supportInfillPercentage,33
;   supportExtraInflation,0.5
;   denseSupportLayers,0
;   denseSupportInfillPercentage,70
;   supportLayerInterval,1
;   supportHorizontalPartOffset,0.8
;   supportUpperSeparationLayers,1
;   supportLowerSeparationLayers,1
;   supportType,0
;   supportGridSpacing,1.5
;   maxOverhangAngle,55
;   supportAngles,15
;   temperatureName,Primary Extruder,bed
;   temperatureNumber,0,0
;   temperatureSetpointCount,2,2
;   temperatureSetpointLayers,1,2,1,2
;   temperatureSetpointTemperatures,240,235,65,60
;   temperatureStabilizeAtStartup,1,1
;   temperatureHeatedBed,0,1
;   temperatureRelayBetweenLayers,0,0
;   temperatureRelayBetweenLoops,0,0
;   fanLayers,1,4
;   fanSpeeds,0,20
;   blipFanToFullPower,1
;   adjustSpeedForCooling,0
;   minSpeedLayerTime,15
;   minCoolingSpeedSlowdown,65
;   increaseFanForCooling,1
;   minFanLayerTime,15
;   maxCoolingFanSpeed,60
;   increaseFanForBridging,1
;   bridgingFanSpeed,100
;   use5D,1
;   relativeEdistances,0
;   allowEaxisZeroing,1
;   independentExtruderAxes,0
;   includeM10123,0
;   stickySupport,1
;   applyToolheadOffsets,0
;   gcodeXoffset,0
;   gcodeYoffset,0
;   gcodeZoffset,0
;   overrideMachineDefinition,1
;   machineTypeOverride,0
;   strokeXoverride,170
;   strokeYoverride,160
;   strokeZoverride,145
;   originOffsetXoverride,0
;   originOffsetYoverride,0
;   originOffsetZoverride,0
;   homeXdirOverride,-1
;   homeYdirOverride,-1
;   homeZdirOverride,-1
;   flipXoverride,1
;   flipYoverride,-1
;   flipZoverride,1
;   toolheadOffsets,0,0|0,0|0,0|0,0|0,0|0,0
;   overrideFirmwareConfiguration,1
;   firmwareTypeOverride,RepRap (Marlin/Repetier/Sprinter)
;   GPXconfigOverride,r2
;   baudRateOverride,250000
;   overridePrinterModels,0
;   printerModelsOverride
;   startingGcode,;---------------------------------------,; ; ; Jellybox Start Script Begin ; ; ;,;_______________________________________,M117 Preparing        ; write Preparing,; M92 E140            ; optionally adjust E steps/mm,M207 S1.5 F600 Z0     ; optionally adjust retract settings,M208 S-0.00 F600      ; optionally adjust unretract = recover settings,M206 X10.0 Y0.0       ; set x homing offset for default bed leveling,G21                   ; metric values,G90                   ; absolute positioning,M107                  ; start with the fan off,M82                   ; set extruder to absolute mode,G28                   ; home all axes,M203 Z4               ; slow Z speed down for greater accuracy when probing,G29                   ; auto bed leveling procedure,M203 Z7               ; pick up z speed again for printing,G92 E0                ; reset the extruder position,G1 F1500 E15          ; extrude 15mm of feed stock,G92 E0                ; reset the extruder position again,M117 Print starting   ; write Print starting,;---------------------------------------------,; ; ; Jellybox Printer Start Script End ; ; ;,;_____________________________________________
;   layerChangeGcode,
;   retractionGcode,
;   toolChangeGcode,
;   endingGcode,; ---------------------------------,; ; ;  Jellybox End Script Begin ; ; ;,; _________________________________,M117 Finishing Up ; write Finishing Up,M107                  ; sfan off,M104 S0            ; extruder heater off,M140 S0            ; bed heater off (if you have it),G91                ; relative positioning,G1 E-1 F300        ; retract the filament a bit before lifting the nozzle to release some of the pressure,G1 Z+0.5 E-5 X-20 Y-20 F9000 ; move Z up a bit and retract filament even more,G90                ; absolute positioning,G28 X              ; home x so the head is out of the way,G1 Y100            ; move Y forward so the print is more accessible,M84                ; steppers off,M117 Print finished ; write Print finisheds,; ---------------------------------------,; ; ;  Jellybox End Script End ; ; ;,; _______________________________________
;   exportFileFormat,gcode
;   celebration,0
;   celebrationSong,Random Song
;   postProcessing,|{REPLACE "; layer" "M117 Layer"},|{REPLACE ", Z = " " "Z="}
;   defaultSpeed,2700
;   outlineUnderspeed,0.55
;   solidInfillUnderspeed,0.55
;   supportUnderspeed,0.9
;   rapidXYspeed,7200
;   rapidZspeed,420
;   minBridgingArea,50
;   bridgingExtraInflation,0.3
;   bridgingExtrusionMultiplier,1
;   bridgingSpeedMultiplier,1
;   filamentDiameter,1.75
;   filamentPricePerKg,30
;   filamentDensity,1.38
;   useMinPrintHeight,0
;   minPrintHeight,30
;   useMaxPrintHeight,0
;   maxPrintHeight,40
;   useDiaphragm,0
;   diaphragmLayerInterval,20
;   robustSlicing,1
;   mergeAllIntoSolid,0
;   onlyRetractWhenCrossingOutline,1
;   retractBetweenLayers,1
;   useRetractionMinTravel,1
;   retractionMinTravel,1
;   retractWhileWiping,1
;   onlyWipeOutlines,1
;   avoidCrossingOutline,1
;   maxMovementDetourFactor,2.5
;   toolChangeRetractionDistance,1.3
;   toolChangeExtraRestartDistance,0
;   toolChangeRetractionSpeed,600
;   allowThinWallGapFill,1
;   thinWallAllowedOverlapPercentage,15
;   horizontalSizeCompensation,0
G90
M82
M106 S0
M140 S65
M190 S65
M104 S240 T0
M109 S240 T0
;---------------------------------------
; ; ; Jellybox Start Script Begin ; ; ;
;_______________________________________
M117 Preparing        ; write Preparing
; M92 E140            ; optionally adjust E steps/mm
M207 S1.5 F600 Z0     ; optionally adjust retract settings
M208 S-0.00 F600      ; optionally adjust unretract = recover settings
M206 X10.0 Y0.0       ; set x homing offset for default bed leveling
G21                   ; metric values
G90                   ; absolute positioning
M107                  ; start with the fan off
M82                   ; set extruder to absolute mode
G28                   ; home all axes
M203 Z4               ; slow Z speed down for greater accuracy when probing
G29                   ; auto bed leveling procedure
M203 Z7               ; pick up z speed again for printing
G92 E0                ; reset the extruder position
G1 F1500 E15          ; extrude 15mm of feed stock
G92 E0                ; reset the extruder position again
M117 Print starting   ; write Print starting
;---------------------------------------------
; ; ; Jellybox Printer Start Script End ; ; ;
;_____________________________________________
G92 E0
G1 E-1.4000 F4200
G1 Z0.400 F420
M117 Layer 1 0.3
T0
; tool H0.300 W0.552
; skirt
G1 X51.382 Y59.007 F7200
G1 Z0.300 F420
G1 E-0.1000 F1260
G92 E0
G1 X51.394 Y58.997 E0.0011 F945
G1 X52.542 Y58.068 E0.1028
G1 X52.555 Y58.058 E0.1039
G1 X52.676 Y57.969 E0.1142
G1 X52.689 Y57.960 E0.1153
G1 X53.918 Y57.136 E0.2172
G1 X53.931 Y57.128 E0.2183
G1 X54.059 Y57.050 E0.2286
G1 X54.072 Y57.042 E0.2296
G1 X55.373 Y56.330 E0.3317
G1 X55.387 Y56.323 E0.3328
G1 X55.519 Y56.258 E0.3429
G1 X55.533 Y56.252 E0.3440
G1 X56.895 Y55.656 E0.4463
G1 X56.909 Y55.650 E0.4473
G1 X57.044 Y55.598 E0.4573
G1 X57.058 Y55.593 E0.4583
G1 X58.469 Y55.116 E0.5609
G1 X58.483 Y55.111 E0.5619
G1 X58.620 Y55.071 E0.5718
G1 X58.634 Y55.067 E0.5728
G1 X60.084 Y54.712 E0.6755
G1 X60.098 Y54.708 E0.6765
G1 X60.237 Y54.681 E0.6863
G1 X60.251 Y54.678 E0.6873
G1 X61.728 Y54.445 E0.7902
G1 X61.742 Y54.443 E0.7912
G1 X61.883 Y54.427 E0.8009
G1 X61.897 Y54.426 E0.8019
G1 X63.390 Y54.319 E0.9050
G1 X63.404 Y54.318 E0.9060
G1 X63.434 Y54.317 E0.9080
G1 X64.232 Y51.561 E1.1055
G1 X64.326 Y51.406 E1.1180
G1 X65.617 Y50.166 E1.2412
G1 X65.776 Y50.079 E1.2537
G1 X96.538 Y42.498 E3.4350
G1 X96.628 Y42.489 E3.4412
G1 X97.508 Y42.506 E3.5019
G1 X97.597 Y42.520 E3.5081
G1 X103.506 Y44.232 E3.9316
G1 X103.588 Y44.268 E3.9378
G1 X104.342 Y44.723 E3.9984
G1 X104.412 Y44.780 E4.0046
G1 X124.371 Y65.562 E5.9884
G1 X124.459 Y65.721 E6.0010
G1 X124.887 Y67.458 E6.1241
G1 X124.883 Y67.640 E6.1367
G1 X121.880 Y78.007 E6.8798
G1 X121.817 Y78.128 E6.8891
G1 X120.984 Y79.168 E6.9809
G1 X120.880 Y79.255 E6.9902
G1 X116.819 Y81.482 E7.3091
G1 X113.026 Y94.574 E8.2475
G1 X115.267 Y98.627 E8.5664
G1 X115.309 Y98.757 E8.5758
G1 X115.457 Y100.081 E8.6675
G1 X115.445 Y100.217 E8.6769
G1 X112.832 Y109.239 E9.3236
G1 X112.738 Y109.395 E9.3361
G1 X111.447 Y110.634 E9.4593
G1 X111.288 Y110.722 E9.4718
G1 X83.310 Y117.616 E11.4557
G1 X83.220 Y117.626 E11.4619
G1 X82.340 Y117.608 E11.5225
G1 X82.251 Y117.595 E11.5287
G1 X76.343 Y115.883 E11.9522
G1 X76.260 Y115.847 E11.9584
G1 X75.507 Y115.391 E12.0190
G1 X75.436 Y115.335 E12.0252
G1 X53.490 Y92.484 E14.2066
G1 X53.403 Y92.325 E14.2191
G1 X52.975 Y90.587 E14.3423
G1 X52.978 Y90.406 E14.3548
G1 X53.777 Y87.650 E14.5523
G1 X53.752 Y87.634 E14.5543
G1 X53.740 Y87.625 E14.5553
G1 X52.536 Y86.737 E14.6584
G1 X52.525 Y86.728 E14.6594
G1 X52.415 Y86.639 E14.6691
G1 X52.404 Y86.630 E14.6701
G1 X51.280 Y85.644 E14.7730
G1 X51.269 Y85.634 E14.7740
G1 X51.167 Y85.536 E14.7838
G1 X51.156 Y85.526 E14.7848
G1 X50.121 Y84.450 E14.8875
G1 X50.111 Y84.440 E14.8885
G1 X50.017 Y84.333 E14.8984
G1 X50.008 Y84.321 E14.8994
G1 X49.070 Y83.164 E15.0019
G1 X49.061 Y83.152 E15.0030
G1 X48.975 Y83.035 E15.0129
G1 X48.966 Y83.023 E15.0140
G1 X48.134 Y81.792 E15.1163
G1 X48.126 Y81.779 E15.1174
G1 X48.049 Y81.653 E15.1275
G1 X48.041 Y81.640 E15.1285
G1 X47.322 Y80.343 E15.2307
G1 X47.315 Y80.329 E15.2317
G1 X47.248 Y80.195 E15.2420
G1 X47.242 Y80.181 E15.2431
G1 X46.643 Y78.828 E15.3450
G1 X46.637 Y78.813 E15.3460
G1 X46.582 Y78.673 E15.3564
G1 X46.577 Y78.658 E15.3575
G1 X46.103 Y77.259 E15.4592
G1 X46.099 Y77.244 E15.4603
G1 X46.057 Y77.098 E15.4708
G1 X46.053 Y77.082 E15.4719
G1 X45.709 Y75.649 E15.5734
G1 X45.706 Y75.633 E15.5744
G1 X45.677 Y75.482 E15.5851
G1 X45.674 Y75.466 E15.5862
G1 X45.464 Y74.011 E15.6874
G1 X45.462 Y73.995 E15.6885
G1 X45.447 Y73.839 E15.6993
G1 X45.446 Y73.823 E15.7004
G1 X45.373 Y72.347 E15.8021
G1 X45.372 Y72.329 E15.8034
G1 X45.373 Y72.152 E15.8155
G1 X45.373 Y72.134 E15.8168
G1 X45.469 Y70.411 E15.9356
G1 X45.470 Y70.396 E15.9367
G1 X45.486 Y70.246 E15.9470
G1 X45.487 Y70.230 E15.9481
G1 X45.663 Y69.037 E16.0311
G1 X45.665 Y69.022 E16.0322
G1 X45.693 Y68.877 E16.0424
G1 X45.696 Y68.862 E16.0434
G1 X46.035 Y67.442 E16.1439
G1 X46.040 Y67.426 E16.1451
G1 X46.084 Y67.273 E16.1560
G1 X46.089 Y67.257 E16.1572
G1 X46.563 Y65.871 E16.2580
G1 X46.569 Y65.856 E16.2592
G1 X46.627 Y65.708 E16.2701
G1 X46.634 Y65.693 E16.2712
G1 X47.238 Y64.356 E16.3722
G1 X47.245 Y64.341 E16.3734
G1 X47.317 Y64.201 E16.3843
G1 X47.325 Y64.186 E16.3854
G1 X48.054 Y62.911 E16.4865
G1 X48.062 Y62.897 E16.4876
G1 X48.147 Y62.764 E16.4985
G1 X48.156 Y62.751 E16.4996
G1 X49.002 Y61.550 E16.6007
G1 X49.011 Y61.537 E16.6018
G1 X49.107 Y61.413 E16.6126
G1 X49.117 Y61.401 E16.6137
G1 X50.073 Y60.283 E16.7150
G1 X50.083 Y60.271 E16.7161
G1 X50.189 Y60.158 E16.7267
G1 X50.200 Y60.147 E16.7278
G1 X51.234 Y59.142 E16.8270
G1 X51.257 Y59.119 F945
G1 X51.268 Y59.108 F945
G1 X51.382 Y59.007 F945
G1 X51.684 Y59.355 F7200
G92 E0
G1 X51.688 Y59.352 E0.0004 F945
G1 X52.828 Y58.429 E0.1013
G1 X52.832 Y58.425 E0.1017
G1 X52.945 Y58.342 E0.1114
G1 X52.949 Y58.339 E0.1117
G1 X54.170 Y57.521 E0.2129
G1 X54.174 Y57.518 E0.2133
G1 X54.293 Y57.446 E0.2229
G1 X54.298 Y57.443 E0.2232
G1 X55.590 Y56.736 E0.3246
G1 X55.594 Y56.734 E0.3250
G1 X55.718 Y56.673 E0.3344
G1 X55.722 Y56.671 E0.3348
G1 X57.075 Y56.079 E0.4364
G1 X57.079 Y56.077 E0.4368
G1 X57.205 Y56.029 E0.4460
G1 X57.210 Y56.027 E0.4464
G1 X58.612 Y55.553 E0.5483
G1 X58.616 Y55.551 E0.5486
G1 X58.744 Y55.514 E0.5578
G1 X58.749 Y55.513 E0.5581
G1 X60.188 Y55.159 E0.6602
G1 X60.193 Y55.158 E0.6605
G1 X60.322 Y55.132 E0.6696
G1 X60.327 Y55.132 E0.6699
G1 X61.795 Y54.901 E0.7722
G1 X61.800 Y54.900 E0.7725
G1 X61.930 Y54.885 E0.7816
G1 X61.935 Y54.885 E0.7819
G1 X63.418 Y54.778 E0.8843
G1 X63.423 Y54.778 E0.8846
G1 X63.553 Y54.774 E0.8936
G1 X63.557 Y54.774 E0.8939
G1 X63.780 Y54.776 E0.9092
G1 X64.657 Y51.748 E1.1263
G1 X64.688 Y51.696 E1.1304
G1 X65.892 Y50.540 E1.2453
G1 X65.945 Y50.511 E1.2495
G1 X96.619 Y42.952 E3.4245
G1 X96.649 Y42.949 E3.4266
G1 X97.468 Y42.966 E3.4830
G1 X97.498 Y42.970 E3.4851
G1 X103.349 Y44.665 E3.9045
G1 X103.376 Y44.677 E3.9065
G1 X104.078 Y45.101 E3.9630
G1 X104.102 Y45.120 E3.9651
G1 X123.998 Y65.837 E5.9426
G1 X124.027 Y65.890 E5.9468
G1 X124.426 Y67.509 E6.0616
G1 X124.425 Y67.570 E6.0658
G1 X121.451 Y77.835 E6.8016
G1 X121.430 Y77.876 E6.8048
G1 X120.654 Y78.844 E6.8902
G1 X120.619 Y78.874 E6.8934
G1 X116.430 Y81.171 E7.2223
G1 X112.531 Y94.630 E8.1870
G1 X114.843 Y98.810 E8.5159
G1 X114.857 Y98.854 E8.5190
G1 X114.995 Y100.087 E8.6045
G1 X114.991 Y100.133 E8.6076
G1 X112.407 Y109.053 E9.2470
G1 X112.375 Y109.105 E9.2512
G1 X111.172 Y110.261 E9.3661
G1 X111.119 Y110.290 E9.3702
G1 X83.230 Y117.162 E11.3478
G1 X83.200 Y117.166 E11.3499
G1 X82.380 Y117.149 E11.4063
G1 X82.350 Y117.144 E11.4084
G1 X76.500 Y115.450 E11.8277
G1 X76.473 Y115.438 E11.8298
G1 X75.771 Y115.013 E11.8863
G1 X75.747 Y114.995 E11.8883
G1 X53.864 Y92.209 E14.0634
G1 X53.835 Y92.156 E14.0676
G1 X53.436 Y90.536 E14.1824
G1 X53.437 Y90.476 E14.1866
G1 X54.314 Y87.447 E14.4037
G1 X54.125 Y87.330 E14.4190
G1 X54.121 Y87.328 E14.4193
G1 X54.014 Y87.255 E14.4282
G1 X54.010 Y87.253 E14.4286
G1 X52.813 Y86.369 E14.5310
G1 X52.809 Y86.366 E14.5313
G1 X52.707 Y86.284 E14.5403
G1 X52.703 Y86.281 E14.5407
G1 X51.587 Y85.301 E14.6429
G1 X51.583 Y85.298 E14.6433
G1 X51.488 Y85.207 E14.6524
G1 X51.484 Y85.203 E14.6527
G1 X50.456 Y84.135 E14.7548
G1 X50.453 Y84.131 E14.7551
G1 X50.365 Y84.032 E14.7643
G1 X50.362 Y84.028 E14.7646
G1 X49.431 Y82.878 E14.8665
G1 X49.427 Y82.874 E14.8668
G1 X49.347 Y82.766 E14.8761
