; G-Code generated by Simplify3D(R) Version 3.0.0
; Nov 15, 2016 at 8:57:01 AM
; Settings Summary
;   processName,Process1
;   applyToModels,fan cover thick plastite(9)
;   profileName,JB Lite6 20mm meltzone 0.2 (modified)
;   profileVersion,2016-07-27 06:45:13
;   baseProfile,Plywood
;   printMaterial,PLA
;   printQuality,0.3 base
;   printExtruders,
;   extruderName,Primary Extruder
;   extruderToolheadNumber,0
;   extruderDiameter,0.4
;   extruderAutoWidth,0
;   extruderWidth,0.48
;   extrusionMultiplier,1
;   extruderUseRetract,1
;   extruderRetractionDistance,1.1
;   extruderExtraRestartDistance,0
;   extruderRetractionZLift,0
;   extruderRetractionSpeed,4200
;   extruderUseCoasting,1
;   extruderCoastingDistance,1
;   extruderUseWipe,1
;   extruderWipeDistance,2
;   primaryExtruder,0
;   layerHeight,0.2
;   topSolidLayers,0
;   bottomSolidLayers,0
;   perimeterOutlines,2
;   printPerimetersInsideOut,1
;   startPointOption,2
;   startPointOriginX,100
;   startPointOriginY,0
;   startPointOriginZ,150
;   sequentialIslands,0
;   spiralVaseMode,0
;   firstLayerHeightPercentage,150
;   firstLayerWidthPercentage,100
;   firstLayerUnderspeed,0.5
;   useRaft,0
;   raftExtruder,0
;   raftLayers,3
;   raftOffset,5
;   raftSeparationDistance,0.1
;   raftInfill,85
;   disableRaftBaseLayers,0
;   useSkirt,1
;   skirtExtruder,0
;   skirtLayers,1
;   skirtOutlines,3
;   skirtOffset,4
;   usePrimePillar,0
;   primePillarExtruder,999
;   primePillarWidth,12
;   primePillarLocation,7
;   primePillarSpeedMultiplier,1
;   useOozeShield,0
;   oozeShieldExtruder,999
;   oozeShieldOffset,10
;   oozeShieldOutlines,1
;   oozeShieldSidewallShape,0
;   oozeShieldSidewallAngle,30
;   oozeShieldSpeedMultiplier,1
;   infillExtruder,0
;   internalInfillPattern,Triangular
;   externalInfillPattern,Rectilinear
;   infillPercentage,35
;   outlineOverlapPercentage,25
;   infillExtrusionWidthPercentage,60
;   minInfillLength,0
;   infillLayerInterval,1
;   infillAngles,0,60,-60
;   overlapInfillAngles,1
;   generateSupport,1
;   supportExtruder,0
;   supportInfillPercentage,20
;   supportExtraInflation,0
;   denseSupportLayers,0
;   denseSupportInfillPercentage,70
;   supportLayerInterval,1
;   supportHorizontalPartOffset,0.3
;   supportUpperSeparationLayers,2
;   supportLowerSeparationLayers,1
;   supportType,0
;   supportGridSpacing,5
;   maxOverhangAngle,35
;   supportAngles,0
;   temperatureName,Extruder 0,Heated Bed
;   temperatureNumber,0,0
;   temperatureSetpointCount,1,1
;   temperatureSetpointLayers,1,1
;   temperatureSetpointTemperatures,210,60
;   temperatureStabilizeAtStartup,1,1
;   temperatureHeatedBed,0,1
;   temperatureRelayBetweenLayers,0,0
;   temperatureRelayBetweenLoops,0,0
;   fanLayers,1,3
;   fanSpeeds,0,60
;   blipFanToFullPower,1
;   adjustSpeedForCooling,1
;   minSpeedLayerTime,15
;   minCoolingSpeedSlowdown,40
;   increaseFanForCooling,1
;   minFanLayerTime,15
;   maxCoolingFanSpeed,100
;   increaseFanForBridging,1
;   bridgingFanSpeed,100
;   use5D,1
;   relativeEdistances,1
;   allowEaxisZeroing,1
;   independentExtruderAxes,0
;   includeM10123,0
;   stickySupport,1
;   applyToolheadOffsets,0
;   gcodeXoffset,0
;   gcodeYoffset,0
;   gcodeZoffset,0
;   overrideMachineDefinition,1
;   machineTypeOverride,0
;   strokeXoverride,170
;   strokeYoverride,160
;   strokeZoverride,145
;   originOffsetXoverride,0
;   originOffsetYoverride,0
;   originOffsetZoverride,0
;   homeXdirOverride,-1
;   homeYdirOverride,-1
;   homeZdirOverride,-1
;   flipXoverride,1
;   flipYoverride,-1
;   flipZoverride,1
;   toolheadOffsets,0,0|0,0|0,0|0,0|0,0|0,0
;   overrideFirmwareConfiguration,0
;   firmwareTypeOverride,RepRap (Marlin/Repetier/Sprinter)
;   GPXconfigOverride,r2
;   baudRateOverride,250000
;   overridePrinterModels,0
;   printerModelsOverride
;   startingGcode,; Jellybox Start Script Begin,M117 Preparing ,,; set x homing offset for default bed leveling,M206 X10.0 Y0.0  ,; optionally adjust Extruder steps per mm for your filament,; M92 E140 ,,; home all axes,G28,; slow Z speed down for greater accuracy,M203 Z5,; auto bed leveling procedure,G29,; pick up z speed again for print,M203 Z7,; reset extruder position,G92 E0,,M117 Print starting,;Jellybox Printer Start Script End
;   layerChangeGcode,
;   retractionGcode,
;   toolChangeGcode,
;   endingGcode,;Jellybox Printer End Script Start,,; extruder heater off,M104 S0,; bed heater off (if you have it),M140 S0,; turn fan off,M107,,; relative positioning,G91,; retract the filament a bit before lifting the nozzle to release some of the pressure,G1 E-1.5 F1200,; move Z up a bit and retract filament even more,G1 Z+1 E-1 X-20 Y-20,;move X/Y to so the head is out of the way,G28 X0,G1 Y100,; steppers off,M84,; absolute positioning,G90,,; Jellybox Printer End Script End
;   createX3G,0
;   celebration,0
;   celebrationSong,Random Song
;   createMB5G,0
;   postProcessing,|{REPLACE "; layer" "M117 Layer"} ,{REPLACE ", Z = " " | Z="}
;   defaultSpeed,3000
;   outlineUnderspeed,0.4
;   solidInfillUnderspeed,0.7
;   supportUnderspeed,0.7
;   rapidXYspeed,7200
;   rapidZspeed,300
;   minBridgingArea,50
;   bridgingExtraInflation,0.4
;   bridgingExtrusionMultiplier,1
;   bridgingSpeedMultiplier,1
;   filamentDiameter,1.75
;   filamentPricePerKg,15
;   filamentDensity,1.25
;   useMinPrintHeight,0
;   minPrintHeight,0
;   useMaxPrintHeight,0
;   maxPrintHeight,0
;   useDiaphragm,0
;   diaphragmLayerInterval,20
;   robustSlicing,1
;   mergeAllIntoSolid,0
;   onlyRetractWhenCrossingOutline,1
;   retractBetweenLayers,1
;   useRetractionMinTravel,1
;   retractionMinTravel,1.5
;   retractWhileWiping,0
;   onlyWipeOutlines,1
;   avoidCrossingOutline,1
;   maxMovementDetourFactor,3
;   toolChangeRetractionDistance,12
;   toolChangeExtraRestartDistance,-0.5
;   toolChangeRetractionSpeed,600
;   allowThinWallGapFill,1
;   thinWallAllowedOverlapPercentage,15
;   horizontalSizeCompensation,0
G90
M83
M106 S0
M140 S60
M190 S60
M104 S210 T0
M109 S210 T0
; Jellybox Start Script Begin
M117 Preparing 
; set x homing offset for default bed leveling
M206 X10.0 Y0.0  
; optionally adjust Extruder steps per mm for your filament
; M92 E140 
; home all axes
G28
; slow Z speed down for greater accuracy
M203 Z5
; auto bed leveling procedure
G29
; pick up z speed again for print
M203 Z7
; reset extruder position
G92 E0
M117 Print starting
;Jellybox Printer Start Script End
G1 E-1.1000 F4200
G1 Z0.300 F300
; layer 1, Z = 0.3
T0
; tool H0.300 W0.480
; skirt
G1 X62.176 Y58.211 F7200
G1 E1.1000 F1260
G1 X62.202 Y58.180 E0.0024 F1500
G1 X62.404 Y57.949 E0.0184
G1 X62.432 Y57.919 E0.0024
G1 X63.004 Y57.348 E0.0484
G1 X63.034 Y57.321 E0.0024
G1 X63.266 Y57.119 E0.0184
G1 X63.297 Y57.093 E0.0024
G1 X63.940 Y56.604 E0.0484
G1 X63.973 Y56.580 E0.0024
G1 X64.230 Y56.411 E0.0184
G1 X64.264 Y56.390 E0.0024
G1 X64.967 Y55.990 E0.0484
G1 X65.003 Y55.972 E0.0024
G1 X65.280 Y55.838 E0.0184
G1 X65.317 Y55.822 E0.0024
G1 X66.067 Y55.519 E0.0484
G1 X66.105 Y55.506 E0.0024
G1 X66.397 Y55.410 E0.0184
G1 X66.436 Y55.399 E0.0024
G1 X67.220 Y55.199 E0.0484
G1 X67.259 Y55.191 E0.0024
G1 X67.561 Y55.135 E0.0184
G1 X67.601 Y55.129 E0.0024
G1 X68.404 Y55.036 E0.0484
G1 X68.444 Y55.033 E0.0024
G1 X68.752 Y55.018 E0.0184
G1 X68.792 Y55.017 E0.0024
G1 X69.599 Y55.032 E0.0483
G1 X69.638 Y55.034 E0.0024
G1 X69.942 Y55.060 E0.0182
G1 X69.981 Y55.064 E0.0024
G1 X70.764 Y55.183 E0.0474
G1 X70.803 Y55.190 E0.0024
G1 X71.099 Y55.255 E0.0181
G1 X71.137 Y55.265 E0.0024
G1 X71.912 Y55.490 E0.0483
G1 X71.950 Y55.502 E0.0024
G1 X72.239 Y55.607 E0.0184
G1 X72.276 Y55.622 E0.0024
G1 X73.016 Y55.949 E0.0484
G1 X73.052 Y55.967 E0.0024
G1 X73.325 Y56.109 E0.0184
G1 X73.360 Y56.129 E0.0024
G1 X74.049 Y56.552 E0.0484
G1 X74.083 Y56.574 E0.0024
G1 X74.334 Y56.752 E0.0184
G1 X74.366 Y56.776 E0.0024
G1 X74.395 Y56.800 E0.0023
G1 X78.143 Y56.800 E0.2244
G1 X78.562 Y56.672 E0.0263
G1 X78.579 Y56.667 E0.0011
G1 X78.713 Y56.631 E0.0083
G1 X78.731 Y56.626 E0.0011
G1 X79.978 Y56.327 E0.0768
G1 X79.995 Y56.323 E0.0011
G1 X80.131 Y56.295 E0.0083
G1 X80.149 Y56.291 E0.0011
G1 X81.411 Y56.068 E0.0768
G1 X81.429 Y56.065 E0.0011
G1 X81.566 Y56.045 E0.0083
G1 X81.584 Y56.042 E0.0011
G1 X82.858 Y55.895 E0.0768
G1 X82.876 Y55.893 E0.0011
G1 X83.014 Y55.882 E0.0083
G1 X83.032 Y55.880 E0.0011
G1 X84.313 Y55.810 E0.0768
G1 X84.331 Y55.809 E0.0011
G1 X84.469 Y55.806 E0.0083
G1 X84.487 Y55.806 E0.0011
G1 X85.770 Y55.812 E0.0768
G1 X85.788 Y55.813 E0.0011
G1 X85.926 Y55.818 E0.0083
G1 X85.944 Y55.819 E0.0011
G1 X87.224 Y55.903 E0.0768
G1 X87.242 Y55.904 E0.0011
G1 X87.380 Y55.917 E0.0083
G1 X87.398 Y55.919 E0.0011
G1 X88.670 Y56.080 E0.0768
G1 X88.688 Y56.083 E0.0011
G1 X88.825 Y56.104 E0.0083
G1 X88.843 Y56.107 E0.0011
G1 X90.103 Y56.344 E0.0768
G1 X90.121 Y56.348 E0.0011
G1 X90.256 Y56.378 E0.0083
G1 X90.274 Y56.382 E0.0011
G1 X91.518 Y56.694 E0.0768
G1 X91.535 Y56.699 E0.0011
G1 X91.668 Y56.737 E0.0083
G1 X91.686 Y56.742 E0.0011
G1 X92.077 Y56.866 E0.0246
G1 X95.676 Y56.866 E0.2155
G1 X95.696 Y56.849 E0.0016
G1 X95.728 Y56.825 E0.0024
G1 X95.978 Y56.647 E0.0184
G1 X96.012 Y56.625 E0.0024
G1 X96.701 Y56.201 E0.0484
G1 X96.736 Y56.182 E0.0024
G1 X97.009 Y56.038 E0.0184
G1 X97.045 Y56.021 E0.0024
G1 X97.784 Y55.693 E0.0484
G1 X97.821 Y55.678 E0.0024
G1 X98.111 Y55.573 E0.0184
G1 X98.149 Y55.560 E0.0024
G1 X98.925 Y55.334 E0.0484
G1 X98.964 Y55.324 E0.0024
G1 X99.264 Y55.258 E0.0184
G1 X99.304 Y55.251 E0.0024
G1 X100.104 Y55.131 E0.0484
G1 X100.144 Y55.126 E0.0024
G1 X100.450 Y55.101 E0.0184
G1 X100.490 Y55.099 E0.0024
G1 X101.299 Y55.086 E0.0484
G1 X101.339 Y55.087 E0.0024
G1 X101.646 Y55.102 E0.0184
G1 X101.686 Y55.106 E0.0024
G1 X102.490 Y55.201 E0.0484
G1 X102.529 Y55.207 E0.0024
G1 X102.832 Y55.264 E0.0184
G1 X102.871 Y55.272 E0.0024
G1 X103.654 Y55.474 E0.0484
G1 X103.693 Y55.485 E0.0024
G1 X103.985 Y55.581 E0.0184
G1 X104.023 Y55.595 E0.0024
G1 X104.772 Y55.899 E0.0484
G1 X104.809 Y55.916 E0.0024
G1 X105.085 Y56.050 E0.0184
G1 X105.121 Y56.069 E0.0024
G1 X105.823 Y56.470 E0.0484
G1 X105.857 Y56.491 E0.0024
G1 X106.114 Y56.661 E0.0184
G1 X106.147 Y56.685 E0.0024
G1 X106.789 Y57.176 E0.0484
G1 X106.820 Y57.202 E0.0024
G1 X107.051 Y57.404 E0.0184
G1 X107.081 Y57.432 E0.0024
G1 X107.652 Y58.004 E0.0484
G1 X107.679 Y58.034 E0.0024
G1 X107.882 Y58.266 E0.0184
G1 X107.907 Y58.297 E0.0024
G1 X108.397 Y58.941 E0.0484
G1 X108.420 Y58.973 E0.0024
G1 X108.589 Y59.230 E0.0184
G1 X108.610 Y59.264 E0.0024
G1 X109.010 Y59.967 E0.0484
G1 X109.028 Y60.003 E0.0024
G1 X109.162 Y60.280 E0.0184
G1 X109.178 Y60.316 E0.0024
G1 X109.481 Y61.067 E0.0484
G1 X109.494 Y61.105 E0.0024
G1 X109.590 Y61.397 E0.0184
G1 X109.601 Y61.436 E0.0024
G1 X109.801 Y62.220 E0.0484
G1 X109.809 Y62.259 E0.0024
G1 X109.865 Y62.561 E0.0184
G1 X109.871 Y62.601 E0.0024
G1 X109.964 Y63.404 E0.0484
G1 X109.967 Y63.444 E0.0024
G1 X109.982 Y63.752 E0.0184
G1 X109.983 Y63.792 E0.0024
G1 X109.968 Y64.599 E0.0483
G1 X109.966 Y64.639 E0.0024
G1 X109.940 Y64.942 E0.0182
G1 X109.936 Y64.981 E0.0024
G1 X109.817 Y65.764 E0.0474
G1 X109.810 Y65.803 E0.0024
G1 X109.745 Y66.099 E0.0181
G1 X109.735 Y66.137 E0.0024
G1 X109.510 Y66.912 E0.0483
G1 X109.498 Y66.950 E0.0024
G1 X109.393 Y67.239 E0.0184
G1 X109.378 Y67.277 E0.0024
G1 X109.051 Y68.016 E0.0484
G1 X109.033 Y68.053 E0.0024
G1 X108.890 Y68.325 E0.0184
G1 X108.871 Y68.360 E0.0024
G1 X108.448 Y69.049 E0.0484
G1 X108.426 Y69.083 E0.0024
G1 X108.248 Y69.334 E0.0184
G1 X108.224 Y69.366 E0.0024
G1 X108.200 Y69.395 E0.0022
G1 X108.200 Y73.143 E0.2244
G1 X108.328 Y73.562 E0.0263
G1 X108.333 Y73.580 E0.0011
G1 X108.369 Y73.713 E0.0083
G1 X108.374 Y73.730 E0.0011
G1 X108.673 Y74.978 E0.0768
G1 X108.677 Y74.995 E0.0011
G1 X108.705 Y75.131 E0.0083
G1 X108.709 Y75.149 E0.0011
G1 X108.932 Y76.412 E0.0768
G1 X108.935 Y76.429 E0.0011
G1 X108.955 Y76.566 E0.0083
G1 X108.958 Y76.584 E0.0011
G1 X109.105 Y77.858 E0.0768
G1 X109.107 Y77.876 E0.0011
G1 X109.118 Y78.014 E0.0083
G1 X109.120 Y78.032 E0.0011
G1 X109.190 Y79.313 E0.0768
G1 X109.191 Y79.331 E0.0011
G1 X109.194 Y79.469 E0.0083
G1 X109.194 Y79.487 E0.0011
G1 X109.188 Y80.770 E0.0768
G1 X109.187 Y80.788 E0.0011
G1 X109.182 Y80.926 E0.0083
G1 X109.181 Y80.944 E0.0011
G1 X109.097 Y82.224 E0.0768
G1 X109.096 Y82.242 E0.0011
G1 X109.083 Y82.380 E0.0083
G1 X109.081 Y82.398 E0.0011
G1 X108.920 Y83.670 E0.0768
G1 X108.917 Y83.688 E0.0011
G1 X108.896 Y83.825 E0.0083
G1 X108.893 Y83.843 E0.0011
G1 X108.656 Y85.103 E0.0768
G1 X108.652 Y85.121 E0.0011
G1 X108.622 Y85.256 E0.0083
G1 X108.618 Y85.274 E0.0011
G1 X108.306 Y86.518 E0.0768
G1 X108.301 Y86.535 E0.0011
G1 X108.263 Y86.668 E0.0083
G1 X108.258 Y86.686 E0.0011
G1 X108.134 Y87.077 E0.0246
G1 X108.134 Y90.676 E0.2155
G1 X108.151 Y90.696 E0.0016
G1 X108.175 Y90.728 E0.0024
G1 X108.353 Y90.979 E0.0184
G1 X108.375 Y91.012 E0.0024
G1 X108.799 Y91.701 E0.0484
G1 X108.818 Y91.736 E0.0024
G1 X108.962 Y92.008 E0.0184
G1 X108.979 Y92.044 E0.0024
G1 X109.307 Y92.784 E0.0484
G1 X109.322 Y92.821 E0.0024
G1 X109.427 Y93.111 E0.0184
G1 X109.440 Y93.149 E0.0024
G1 X109.666 Y93.925 E0.0484
G1 X109.676 Y93.964 E0.0024
G1 X109.742 Y94.265 E0.0184
G1 X109.749 Y94.304 E0.0024
G1 X109.869 Y95.104 E0.0484
G1 X109.874 Y95.144 E0.0024
G1 X109.899 Y95.450 E0.0184
G1 X109.901 Y95.491 E0.0024
G1 X109.914 Y96.299 E0.0484
G1 X109.913 Y96.339 E0.0024
G1 X109.898 Y96.647 E0.0184
G1 X109.894 Y96.687 E0.0024
G1 X109.799 Y97.490 E0.0484
G1 X109.793 Y97.529 E0.0024
G1 X109.737 Y97.832 E0.0184
G1 X109.728 Y97.871 E0.0024
G1 X109.526 Y98.654 E0.0484
G1 X109.515 Y98.693 E0.0024
G1 X109.419 Y98.985 E0.0184
G1 X109.405 Y99.023 E0.0024
G1 X109.101 Y99.772 E0.0484
G1 X109.084 Y99.809 E0.0024
G1 X108.950 Y100.085 E0.0184
G1 X108.931 Y100.121 E0.0024
G1 X108.530 Y100.823 E0.0484
G1 X108.509 Y100.857 E0.0024
G1 X108.339 Y101.114 E0.0184
G1 X108.315 Y101.146 E0.0024
G1 X107.824 Y101.789 E0.0484
G1 X107.799 Y101.820 E0.0024
G1 X107.596 Y102.052 E0.0184
G1 X107.568 Y102.081 E0.0024
G1 X106.995 Y102.652 E0.0484
G1 X106.966 Y102.679 E0.0024
G1 X106.734 Y102.881 E0.0184
G1 X106.703 Y102.907 E0.0024
G1 X106.060 Y103.396 E0.0484
G1 X106.027 Y103.420 E0.0024
G1 X105.770 Y103.589 E0.0184
G1 X105.736 Y103.610 E0.0024
G1 X105.033 Y104.010 E0.0484
G1 X104.997 Y104.028 E0.0024
G1 X104.720 Y104.162 E0.0184
G1 X104.683 Y104.178 E0.0024
G1 X103.933 Y104.481 E0.0484
G1 X103.895 Y104.494 E0.0024
G1 X103.603 Y104.590 E0.0184
G1 X103.564 Y104.601 E0.0024
G1 X102.780 Y104.801 E0.0484
G1 X102.741 Y104.809 E0.0024
G1 X102.439 Y104.865 E0.0184
G1 X102.399 Y104.871 E0.0024
G1 X101.596 Y104.964 E0.0484
G1 X101.556 Y104.967 E0.0024
G1 X101.248 Y104.982 E0.0184
G1 X101.208 Y104.983 E0.0024
G1 X100.401 Y104.968 E0.0483
G1 X100.361 Y104.966 E0.0024
G1 X100.058 Y104.940 E0.0182
G1 X100.019 Y104.936 E0.0024
G1 X99.235 Y104.817 E0.0474
G1 X99.197 Y104.810 E0.0024
G1 X98.901 Y104.745 E0.0181
G1 X98.863 Y104.735 E0.0024
G1 X98.088 Y104.510 E0.0483
G1 X98.050 Y104.498 E0.0024
G1 X97.761 Y104.393 E0.0184
G1 X97.724 Y104.378 E0.0024
G1 X96.984 Y104.051 E0.0484
G1 X96.948 Y104.033 E0.0024
G1 X96.675 Y103.891 E0.0184
G1 X96.640 Y103.871 E0.0024
G1 X95.951 Y103.448 E0.0484
G1 X95.917 Y103.426 E0.0024
G1 X95.666 Y103.248 E0.0184
G1 X95.634 Y103.224 E0.0024
G1 X95.605 Y103.200 E0.0023
G1 X91.857 Y103.200 E0.2244
G1 X91.438 Y103.328 E0.0263
G1 X91.421 Y103.333 E0.0011
G1 X91.287 Y103.369 E0.0083
G1 X91.269 Y103.374 E0.0011
G1 X90.022 Y103.673 E0.0768
G1 X90.005 Y103.677 E0.0011
G1 X89.869 Y103.705 E0.0083
G1 X89.851 Y103.709 E0.0011
G1 X88.589 Y103.932 E0.0768
G1 X88.571 Y103.935 E0.0011
G1 X88.434 Y103.955 E0.0083
G1 X88.416 Y103.958 E0.0011
G1 X87.142 Y104.105 E0.0768
G1 X87.124 Y104.107 E0.0011
G1 X86.986 Y104.118 E0.0083
G1 X86.968 Y104.120 E0.0011
G1 X85.687 Y104.190 E0.0768
G1 X85.669 Y104.191 E0.0011
G1 X85.531 Y104.194 E0.0083
G1 X85.513 Y104.194 E0.0011
G1 X84.230 Y104.188 E0.0768
G1 X84.212 Y104.187 E0.0011
G1 X84.074 Y104.182 E0.0083
G1 X84.056 Y104.181 E0.0011
G1 X82.776 Y104.097 E0.0768
G1 X82.758 Y104.096 E0.0011
G1 X82.620 Y104.083 E0.0083
G1 X82.602 Y104.081 E0.0011
