; G-Code generated by Simplify3D(R) Version 3.1.0
; Mar 22, 2017 at 6:13:35 PM
; Settings Summary
;   processName,Process1
;   applyToModels,feeder latch 1.2.1 green,feeder latch 1.2.1 green(2),feeder latch 1.2.1 green(3),feeder latch 1.2.1 green(4)
;   profileName,PETG 0.3 he.20 bt50 (modified)
;   profileVersion,2017-02-27 23:31:17
;   baseProfile,Default (modified)
;   printMaterial,
;   printQuality,
;   printExtruders,
;   extruderName,Primary Extruder
;   extruderToolheadNumber,0
;   extruderDiameter,0.4
;   extruderAutoWidth,0
;   extruderWidth,0.48
;   extrusionMultiplier,0.95
;   extruderUseRetract,1
;   extruderRetractionDistance,1.4
;   extruderExtraRestartDistance,-0.1
;   extruderRetractionZLift,0.1
;   extruderRetractionSpeed,4200
;   extruderUseCoasting,1
;   extruderCoastingDistance,0.2
;   extruderUseWipe,1
;   extruderWipeDistance,0.2
;   primaryExtruder,0
;   layerHeight,0.3
;   topSolidLayers,3
;   bottomSolidLayers,2
;   perimeterOutlines,2
;   printPerimetersInsideOut,1
;   startPointOption,2
;   startPointOriginX,80
;   startPointOriginY,0
;   startPointOriginZ,5
;   sequentialIslands,0
;   spiralVaseMode,0
;   firstLayerHeightPercentage,100
;   firstLayerWidthPercentage,100
;   firstLayerUnderspeed,0.35
;   useRaft,0
;   raftExtruder,0
;   raftLayers,3
;   raftOffset,3
;   raftSeparationDistance,0.14
;   raftInfill,85
;   disableRaftBaseLayers,0
;   useSkirt,1
;   skirtExtruder,0
;   skirtLayers,1
;   skirtOutlines,3
;   skirtOffset,3
;   usePrimePillar,0
;   primePillarExtruder,999
;   primePillarWidth,12
;   primePillarLocation,7
;   primePillarSpeedMultiplier,1
;   useOozeShield,0
;   oozeShieldExtruder,999
;   oozeShieldOffset,2
;   oozeShieldOutlines,1
;   oozeShieldSidewallShape,1
;   oozeShieldSidewallAngle,30
;   oozeShieldSpeedMultiplier,1
;   infillExtruder,0
;   internalInfillPattern,Rectilinear
;   externalInfillPattern,Rectilinear
;   infillPercentage,45
;   outlineOverlapPercentage,30
;   infillExtrusionWidthPercentage,150
;   minInfillLength,5
;   infillLayerInterval,1
;   infillAngles,45,-45
;   overlapInfillAngles,0
;   generateSupport,1
;   supportExtruder,0
;   supportInfillPercentage,33
;   supportExtraInflation,0.5
;   denseSupportLayers,0
;   denseSupportInfillPercentage,70
;   supportLayerInterval,1
;   supportHorizontalPartOffset,0.8
;   supportUpperSeparationLayers,1
;   supportLowerSeparationLayers,1
;   supportType,0
;   supportGridSpacing,1.5
;   maxOverhangAngle,55
;   supportAngles,90
;   temperatureName,Primary Extruder,bed
;   temperatureNumber,0,0
;   temperatureSetpointCount,2,2
;   temperatureSetpointLayers,1,2,1,2
;   temperatureSetpointTemperatures,240,235,65,60
;   temperatureStabilizeAtStartup,1,1
;   temperatureHeatedBed,0,1
;   temperatureRelayBetweenLayers,0,0
;   temperatureRelayBetweenLoops,0,0
;   fanLayers,1,4
;   fanSpeeds,0,20
;   blipFanToFullPower,1
;   adjustSpeedForCooling,0
;   minSpeedLayerTime,15
;   minCoolingSpeedSlowdown,65
;   increaseFanForCooling,1
;   minFanLayerTime,15
;   maxCoolingFanSpeed,60
;   increaseFanForBridging,1
;   bridgingFanSpeed,100
;   use5D,1
;   relativeEdistances,0
;   allowEaxisZeroing,1
;   independentExtruderAxes,0
;   includeM10123,0
;   stickySupport,1
;   applyToolheadOffsets,0
;   gcodeXoffset,0
;   gcodeYoffset,0
;   gcodeZoffset,0
;   overrideMachineDefinition,1
;   machineTypeOverride,0
;   strokeXoverride,170
;   strokeYoverride,160
;   strokeZoverride,145
;   originOffsetXoverride,0
;   originOffsetYoverride,0
;   originOffsetZoverride,0
;   homeXdirOverride,-1
;   homeYdirOverride,-1
;   homeZdirOverride,-1
;   flipXoverride,1
;   flipYoverride,-1
;   flipZoverride,1
;   toolheadOffsets,0,0|0,0|0,0|0,0|0,0|0,0
;   overrideFirmwareConfiguration,1
;   firmwareTypeOverride,RepRap (Marlin/Repetier/Sprinter)
;   GPXconfigOverride,r2
;   baudRateOverride,250000
;   overridePrinterModels,0
;   printerModelsOverride
;   startingGcode,;---------------------------------------,; ; ; Jellybox Start Script Begin ; ; ;,;_______________________________________,M117 Preparing        ; write Preparing,; M92 E140            ; optionally adjust E steps/mm,M207 S1.5 F600 Z0     ; optionally adjust retract settings,M208 S-0.00 F600      ; optionally adjust unretract = recover settings,M206 X10.0 Y0.0       ; set x homing offset for default bed leveling,G21                   ; metric values,G90                   ; absolute positioning,M107                  ; start with the fan off,M82                   ; set extruder to absolute mode,G28                   ; home all axes,M203 Z4               ; slow Z speed down for greater accuracy when probing,G29                   ; auto bed leveling procedure,M203 Z7               ; pick up z speed again for printing,G92 E0                ; reset the extruder position,G1 F1500 E15          ; extrude 15mm of feed stock,G92 E0                ; reset the extruder position again,M117 Print starting   ; write Print starting,;---------------------------------------------,; ; ; Jellybox Printer Start Script End ; ; ;,;_____________________________________________
;   layerChangeGcode,
;   retractionGcode,
;   toolChangeGcode,
;   endingGcode,; ---------------------------------,; ; ;  Jellybox End Script Begin ; ; ;,; _________________________________,M117 Finishing Up ; write Finishing Up,M107                  ; sfan off,M104 S0            ; extruder heater off,M140 S0            ; bed heater off (if you have it),G91                ; relative positioning,G1 E-1 F300        ; retract the filament a bit before lifting the nozzle to release some of the pressure,G1 Z+0.5 E-5 X-20 Y-20 F9000 ; move Z up a bit and retract filament even more,G90                ; absolute positioning,G28 X              ; home x so the head is out of the way,G1 Y100            ; move Y forward so the print is more accessible,M84                ; steppers off,M117 Print finished ; write Print finisheds,; ---------------------------------------,; ; ;  Jellybox End Script End ; ; ;,; _______________________________________
;   exportFileFormat,gcode
;   celebration,0
;   celebrationSong,Random Song
;   postProcessing,|{REPLACE "; layer" "M117 Layer"},|{REPLACE ", Z = " " "Z="}
;   defaultSpeed,2700
;   outlineUnderspeed,0.55
;   solidInfillUnderspeed,0.55
;   supportUnderspeed,0.9
;   rapidXYspeed,7200
;   rapidZspeed,420
;   minBridgingArea,50
;   bridgingExtraInflation,0.3
;   bridgingExtrusionMultiplier,1
;   bridgingSpeedMultiplier,1
;   filamentDiameter,1.75
;   filamentPricePerKg,30
;   filamentDensity,1.38
;   useMinPrintHeight,0
;   minPrintHeight,30
;   useMaxPrintHeight,0
;   maxPrintHeight,40
;   useDiaphragm,0
;   diaphragmLayerInterval,20
;   robustSlicing,1
;   mergeAllIntoSolid,0
;   onlyRetractWhenCrossingOutline,1
;   retractBetweenLayers,1
;   useRetractionMinTravel,1
;   retractionMinTravel,1
;   retractWhileWiping,1
;   onlyWipeOutlines,1
;   avoidCrossingOutline,1
;   maxMovementDetourFactor,2.5
;   toolChangeRetractionDistance,1.3
;   toolChangeExtraRestartDistance,0
;   toolChangeRetractionSpeed,600
;   allowThinWallGapFill,1
;   thinWallAllowedOverlapPercentage,15
;   horizontalSizeCompensation,0
G90
M82
M106 S0
M140 S65
M190 S65
M104 S240 T0
M109 S240 T0
;---------------------------------------
; ; ; Jellybox Start Script Begin ; ; ;
;_______________________________________
M117 Preparing        ; write Preparing
; M92 E140            ; optionally adjust E steps/mm
M207 S1.5 F600 Z0     ; optionally adjust retract settings
M208 S-0.00 F600      ; optionally adjust unretract = recover settings
M206 X10.0 Y0.0       ; set x homing offset for default bed leveling
G21                   ; metric values
G90                   ; absolute positioning
M107                  ; start with the fan off
M82                   ; set extruder to absolute mode
G28                   ; home all axes
M203 Z4               ; slow Z speed down for greater accuracy when probing
G29                   ; auto bed leveling procedure
M203 Z7               ; pick up z speed again for printing
G92 E0                ; reset the extruder position
G1 F1500 E15          ; extrude 15mm of feed stock
G92 E0                ; reset the extruder position again
M117 Print starting   ; write Print starting
;---------------------------------------------
; ; ; Jellybox Printer Start Script End ; ; ;
;_____________________________________________
G92 E0
G1 E-1.4000 F4200
G1 Z0.400 F420
M117 Layer 1 0.3
T0
; tool H0.300 W0.480
; skirt
G1 X17.807 Y23.496 F7200
G1 Z0.300 F420
G1 E-0.1000 F1260
G92 E0
G1 X18.004 Y23.459 E0.0114 F945
G1 X19.892 Y23.416 E0.1188
G1 X19.950 Y23.418 E0.1221
G1 X20.298 Y23.444 E0.1419
G1 X20.356 Y23.451 E0.1453
G1 X20.989 Y23.561 E0.1818
G1 X21.088 Y23.586 E0.1876
G1 X21.665 Y23.791 E0.2224
G1 X21.758 Y23.834 E0.2282
G1 X22.553 Y24.280 E0.2801
G1 X22.672 Y24.367 E0.2885
G1 X23.318 Y24.977 E0.3390
G1 X23.412 Y25.090 E0.3474
G1 X24.060 Y26.104 E0.4158
G1 X24.128 Y26.252 E0.4251
G1 X24.311 Y26.851 E0.4607
G1 X25.449 Y26.851 E0.5254
G1 X25.516 Y26.628 E0.5387
G1 X25.988 Y24.622 E0.6559
G1 X26.144 Y23.696 E0.7093
G1 X26.240 Y22.666 E0.7681
G1 X26.238 Y22.501 E0.7775
G1 X26.105 Y21.725 E0.8223
G1 X26.101 Y21.699 E0.8238
G1 X26.081 Y21.540 E0.8329
G1 X26.078 Y21.514 E0.8344
G1 X26.030 Y20.926 E0.8679
G1 X26.028 Y20.893 E0.8699
G1 X26.023 Y20.691 E0.8813
G1 X26.023 Y20.657 E0.8832
G1 X26.042 Y20.047 E0.9180
G1 X26.044 Y20.014 E0.9199
G1 X26.062 Y19.813 E0.9314
G1 X26.066 Y19.779 E0.9333
G1 X26.160 Y19.125 E0.9709
G1 X26.169 Y19.075 E0.9737
G1 X26.238 Y18.780 E0.9910
G1 X26.251 Y18.731 E0.9938
G1 X26.594 Y17.666 E1.0575
G1 X26.611 Y17.619 E1.0603
G1 X26.728 Y17.339 E1.0776
G1 X26.749 Y17.294 E1.0804
G1 X27.054 Y16.707 E1.1180
G1 X27.071 Y16.678 E1.1200
G1 X27.174 Y16.504 E1.1314
G1 X27.192 Y16.476 E1.1334
G1 X27.541 Y15.956 E1.1690
G1 X27.564 Y15.924 E1.1712
G1 X27.706 Y15.739 E1.1845
G1 X27.731 Y15.709 E1.1867
G1 X28.240 Y15.131 E1.2305
G1 X28.266 Y15.102 E1.2327
G1 X28.430 Y14.938 E1.2459
G1 X28.459 Y14.912 E1.2481
G1 X28.929 Y14.499 E1.2837
G1 X28.954 Y14.478 E1.2856
G1 X29.113 Y14.353 E1.2971
G1 X29.140 Y14.333 E1.2990
G1 X29.641 Y13.984 E1.3337
G1 X29.669 Y13.966 E1.3356
G1 X29.841 Y13.860 E1.3471
G1 X29.870 Y13.843 E1.3490
G1 X30.407 Y13.552 E1.3837
G1 X30.437 Y13.537 E1.3856
G1 X30.620 Y13.451 E1.3971
G1 X30.650 Y13.438 E1.3990
G1 X31.252 Y13.194 E1.4360
G1 X31.296 Y13.178 E1.4386
G1 X31.562 Y13.094 E1.4545
G1 X31.607 Y13.082 E1.4571
G1 X32.550 Y12.861 E1.5122
G1 X32.596 Y12.853 E1.5149
G1 X32.878 Y12.810 E1.5311
G1 X32.925 Y12.805 E1.5338
G1 X33.725 Y12.747 E1.5794
G1 X33.765 Y12.746 E1.5817
G1 X34.010 Y12.745 E1.5956
G1 X34.050 Y12.746 E1.5979
G1 X34.681 Y12.787 E1.6338
G1 X34.714 Y12.790 E1.6358
G1 X34.915 Y12.814 E1.6472
G1 X34.948 Y12.819 E1.6491
G1 X35.549 Y12.926 E1.6839
G1 X35.582 Y12.933 E1.6858
G1 X35.779 Y12.979 E1.6973
G1 X35.811 Y12.988 E1.6992
G1 X36.396 Y13.161 E1.7339
G1 X36.428 Y13.172 E1.7358
G1 X36.618 Y13.240 E1.7473
G1 X36.650 Y13.252 E1.7492
G1 X37.258 Y13.510 E1.7868
G1 X37.304 Y13.532 E1.7897
G1 X37.572 Y13.673 E1.8069
G1 X37.616 Y13.698 E1.8098
G1 X38.559 Y14.301 E1.8734
G1 X38.600 Y14.330 E1.8763
G1 X38.841 Y14.514 E1.8935
G1 X38.879 Y14.546 E1.8964
G1 X39.369 Y14.990 E1.9340
G1 X39.393 Y15.013 E1.9359
G1 X39.535 Y15.157 E1.9474
G1 X39.558 Y15.182 E1.9493
G1 X39.961 Y15.640 E1.9840
G1 X39.983 Y15.666 E1.9859
G1 X40.108 Y15.825 E1.9974
G1 X40.128 Y15.852 E1.9993
G1 X40.477 Y16.352 E2.0341
G1 X40.496 Y16.380 E2.0360
G1 X40.602 Y16.552 E2.0474
G1 X40.619 Y16.581 E2.0493
G1 X40.918 Y17.131 E2.0850
G1 X40.935 Y17.166 E2.0872
G1 X41.033 Y17.378 E2.1005
G1 X41.048 Y17.414 E2.1027
G1 X41.326 Y18.133 E2.1465
G1 X41.338 Y18.170 E2.1487
G1 X41.408 Y18.391 E2.1619
G1 X41.418 Y18.428 E2.1641
G1 X41.566 Y19.036 E2.1997
G1 X41.573 Y19.069 E2.2016
G1 X41.610 Y19.267 E2.2131
G1 X41.615 Y19.300 E2.2150
G1 X41.656 Y19.624 E2.2336
G1 X42.184 Y19.613 E2.2636
G1 X42.242 Y19.614 E2.2669
G1 X42.590 Y19.640 E2.2867
G1 X42.648 Y19.647 E2.2900
G1 X43.281 Y19.757 E2.3266
G1 X43.379 Y19.783 E2.3324
G1 X43.957 Y19.988 E2.3672
G1 X44.050 Y20.030 E2.3730
G1 X44.845 Y20.476 E2.4249
G1 X44.964 Y20.563 E2.4333
G1 X45.609 Y21.173 E2.4838
G1 X45.704 Y21.286 E2.4922
G1 X46.351 Y22.300 E2.5606
G1 X46.420 Y22.448 E2.5698
G1 X46.603 Y23.048 E2.6055
G1 X47.741 Y23.048 E2.6702
G1 X47.808 Y22.824 E2.6834
G1 X48.279 Y20.818 E2.8007
G1 X48.436 Y19.892 E2.8541
G1 X48.532 Y18.863 E2.9129
G1 X48.529 Y18.698 E2.9223
G1 X48.396 Y17.922 E2.9670
G1 X48.392 Y17.895 E2.9686
G1 X48.372 Y17.737 E2.9776
G1 X48.369 Y17.710 E2.9792
G1 X48.322 Y17.123 E3.0127
G1 X48.320 Y17.089 E3.0146
G1 X48.315 Y16.887 E3.0261
G1 X48.315 Y16.854 E3.0280
G1 X48.334 Y16.243 E3.0627
G1 X48.336 Y16.210 E3.0646
G1 X48.353 Y16.009 E3.0761
G1 X48.357 Y15.975 E3.0780
G1 X48.452 Y15.321 E3.1156
G1 X48.461 Y15.271 E3.1185
G1 X48.529 Y14.976 E3.1357
G1 X48.543 Y14.928 E3.1386
G1 X48.885 Y13.862 E3.2022
G1 X48.903 Y13.815 E3.2051
G1 X49.020 Y13.536 E3.2223
G1 X49.041 Y13.490 E3.2252
G1 X49.346 Y12.903 E3.2628
G1 X49.362 Y12.874 E3.2647
G1 X49.465 Y12.700 E3.2762
G1 X49.483 Y12.672 E3.2781
G1 X49.824 Y12.165 E3.3128
G1 X49.843 Y12.138 E3.3147
G1 X49.965 Y11.977 E3.3262
G1 X49.986 Y11.951 E3.3281
G1 X50.391 Y11.474 E3.3637
G1 X50.417 Y11.445 E3.3659
G1 X50.578 Y11.278 E3.3791
G1 X50.605 Y11.252 E3.3813
G1 X51.175 Y10.733 E3.4251
G1 X51.205 Y10.708 E3.4273
G1 X51.388 Y10.562 E3.4406
G1 X51.419 Y10.539 E3.4428
G1 X51.933 Y10.181 E3.4785
G1 X51.961 Y10.162 E3.4804
G1 X52.133 Y10.056 E3.4918
G1 X52.162 Y10.039 E3.4938
G1 X52.699 Y9.748 E3.5285
G1 X52.729 Y9.733 E3.5304
G1 X52.911 Y9.647 E3.5419
G1 X52.942 Y9.634 E3.5438
G1 X53.508 Y9.405 E3.5785
G1 X53.540 Y9.393 E3.5804
G1 X53.731 Y9.328 E3.5919
G1 X53.763 Y9.318 E3.5938
G1 X54.400 Y9.140 E3.6314
G1 X54.449 Y9.129 E3.6343
G1 X54.746 Y9.072 E3.6515
G1 X54.796 Y9.065 E3.6544
G1 X55.909 Y8.949 E3.7180
G1 X55.959 Y8.945 E3.7209
G1 X56.262 Y8.939 E3.7381
G1 X56.313 Y8.940 E3.7410
G1 X56.972 Y8.983 E3.7786
G1 X57.006 Y8.986 E3.7805
G1 X57.206 Y9.010 E3.7920
G1 X57.240 Y9.015 E3.7939
G1 X57.841 Y9.122 E3.8286
G1 X57.874 Y9.129 E3.8305
G1 X58.070 Y9.175 E3.8420
G1 X58.103 Y9.184 E3.8439
G1 X58.688 Y9.358 E3.8787
G1 X58.720 Y9.368 E3.8806
G1 X58.910 Y9.436 E3.8921
G1 X58.941 Y9.449 E3.8940
G1 X59.550 Y9.706 E3.9316
G1 X59.596 Y9.728 E3.9344
G1 X59.864 Y9.869 E3.9517
G1 X59.907 Y9.894 E3.9545
G1 X60.850 Y10.497 E4.0182
G1 X60.892 Y10.526 E4.0211
G1 X61.132 Y10.710 E4.0383
G1 X61.171 Y10.742 E4.0411
G1 X61.661 Y11.186 E4.0787
G1 X61.685 Y11.210 E4.0807
G1 X61.827 Y11.353 E4.0921
G1 X61.850 Y11.378 E4.0941
G1 X62.253 Y11.836 E4.1288
G1 X62.275 Y11.862 E4.1307
G1 X62.399 Y12.021 E4.1422
G1 X62.419 Y12.048 E4.1441
G1 X62.769 Y12.548 E4.1788
G1 X62.787 Y12.576 E4.1807
G1 X62.893 Y12.748 E4.1922
G1 X62.910 Y12.777 E4.1941
G1 X63.209 Y13.328 E4.2297
G1 X63.227 Y13.362 E4.2320
G1 X63.325 Y13.574 E4.2452
G1 X63.340 Y13.610 E4.2475
G1 X63.617 Y14.329 E4.2913
G1 X63.630 Y14.366 E4.2935
G1 X63.699 Y14.587 E4.3067
G1 X63.709 Y14.624 E4.3089
G1 X63.858 Y15.232 E4.3444
G1 X63.865 Y15.265 E4.3463
G1 X63.901 Y15.463 E4.3578
G1 X63.907 Y15.496 E4.3597
G1 X63.984 Y16.102 E4.3945
G1 X63.987 Y16.136 E4.3964
G1 X64.002 Y16.337 E4.4079
G1 X64.003 Y16.371 E4.4098
G1 X64.012 Y16.981 E4.4445
G1 X64.012 Y17.015 E4.4464
G1 X64.004 Y17.216 E4.4579
G1 X64.001 Y17.250 E4.4598
G1 X63.942 Y17.857 E4.4945
G1 X63.938 Y17.891 E4.4964
G1 X63.907 Y18.090 E4.5079
G1 X63.901 Y18.123 E4.5098
G1 X63.774 Y18.721 E4.5446
G1 X63.766 Y18.753 E4.5465
G1 X63.713 Y18.948 E4.5580
G1 X63.703 Y18.980 E4.5599
G1 X63.511 Y19.560 E4.5946
G1 X63.499 Y19.591 E4.5965
G1 X63.425 Y19.779 E4.6080
G1 X63.411 Y19.810 E4.6099
G1 X63.155 Y20.364 E4.6446
G1 X63.140 Y20.394 E4.6465
G1 X63.045 Y20.572 E4.6580
G1 X63.028 Y20.602 E4.6599
G1 X62.704 Y21.136 E4.6955
G1 X62.683 Y21.168 E4.6977
G1 X62.551 Y21.357 E4.7108
G1 X62.528 Y21.388 E4.7130
G1 X61.727 Y22.391 E4.7859
G1 X61.131 Y23.223 E4.8442
G1 X60.842 Y23.673 E4.8746
G1 X61.378 Y24.140 E4.9151
G1 X61.502 Y24.290 E4.9262
