; G-Code generated by Simplify3D(R) Version 3.0.2
; Feb 6, 2017 at 1:19:28 PM
; Settings Summary
;   processName,Process1
;   applyToModels,p yoke 1.21
;   profileName,Default (modified)
;   profileVersion,2016-05-12 10:03:02
;   baseProfile,Plywood
;   printMaterial,PLA
;   printQuality,Medium
;   printExtruders,
;   extruderName,Primary Extruder
;   extruderToolheadNumber,0
;   extruderDiameter,0.4
;   extruderAutoWidth,1
;   extruderWidth,0.48
;   extrusionMultiplier,0.9
;   extruderUseRetract,1
;   extruderRetractionDistance,0.8
;   extruderExtraRestartDistance,0
;   extruderRetractionZLift,0.2
;   extruderRetractionSpeed,3000
;   extruderUseCoasting,0
;   extruderCoastingDistance,0.2
;   extruderUseWipe,0
;   extruderWipeDistance,5
;   primaryExtruder,0
;   layerHeight,0.2
;   topSolidLayers,3
;   bottomSolidLayers,3
;   perimeterOutlines,2
;   printPerimetersInsideOut,1
;   startPointOption,2
;   startPointOriginX,100
;   startPointOriginY,0
;   startPointOriginZ,150
;   sequentialIslands,0
;   spiralVaseMode,0
;   firstLayerHeightPercentage,100
;   firstLayerWidthPercentage,100
;   firstLayerUnderspeed,0.5
;   useRaft,0
;   raftExtruder,0
;   raftLayers,3
;   raftOffset,5
;   raftSeparationDistance,0.1
;   raftInfill,85
;   disableRaftBaseLayers,0
;   useSkirt,1
;   skirtExtruder,0
;   skirtLayers,1
;   skirtOutlines,5
;   skirtOffset,10
;   usePrimePillar,0
;   primePillarExtruder,999
;   primePillarWidth,12
;   primePillarLocation,7
;   primePillarSpeedMultiplier,1
;   useOozeShield,0
;   oozeShieldExtruder,999
;   oozeShieldOffset,10
;   oozeShieldOutlines,1
;   oozeShieldSidewallShape,0
;   oozeShieldSidewallAngle,30
;   oozeShieldSpeedMultiplier,1
;   infillExtruder,0
;   internalInfillPattern,Full Honeycomb
;   externalInfillPattern,Rectilinear
;   infillPercentage,20
;   outlineOverlapPercentage,20
;   infillExtrusionWidthPercentage,125
;   minInfillLength,1
;   infillLayerInterval,1
;   infillAngles,0,120,-120
;   overlapInfillAngles,0
;   generateSupport,0
;   supportExtruder,0
;   supportInfillPercentage,20
;   supportExtraInflation,0
;   denseSupportLayers,0
;   denseSupportInfillPercentage,70
;   supportLayerInterval,1
;   supportHorizontalPartOffset,0.3
;   supportUpperSeparationLayers,1
;   supportLowerSeparationLayers,1
;   supportType,0
;   supportGridSpacing,5
;   maxOverhangAngle,35
;   supportAngles,0
;   temperatureName,Extruder 0
;   temperatureNumber,0
;   temperatureSetpointCount,2
;   temperatureSetpointLayers,1,2
;   temperatureSetpointTemperatures,215,210
;   temperatureStabilizeAtStartup,1
;   temperatureHeatedBed,0
;   temperatureRelayBetweenLayers,0
;   temperatureRelayBetweenLoops,0
;   fanLayers,1,2
;   fanSpeeds,0,40
;   blipFanToFullPower,1
;   adjustSpeedForCooling,1
;   minSpeedLayerTime,15
;   minCoolingSpeedSlowdown,20
;   increaseFanForCooling,1
;   minFanLayerTime,15
;   maxCoolingFanSpeed,100
;   increaseFanForBridging,1
;   bridgingFanSpeed,100
;   use5D,1
;   relativeEdistances,1
;   allowEaxisZeroing,1
;   independentExtruderAxes,0
;   includeM10123,0
;   stickySupport,1
;   applyToolheadOffsets,0
;   gcodeXoffset,0
;   gcodeYoffset,0
;   gcodeZoffset,0
;   overrideMachineDefinition,1
;   machineTypeOverride,0
;   strokeXoverride,160
;   strokeYoverride,160
;   strokeZoverride,130
;   originOffsetXoverride,0
;   originOffsetYoverride,0
;   originOffsetZoverride,0
;   homeXdirOverride,-1
;   homeYdirOverride,-1
;   homeZdirOverride,-1
;   flipXoverride,1
;   flipYoverride,-1
;   flipZoverride,1
;   toolheadOffsets,0,0|0,0|0,0|0,0|0,0|0,0
;   overrideFirmwareConfiguration,0
;   firmwareTypeOverride,RepRap (Marlin/Repetier/Sprinter)
;   GPXconfigOverride,r2
;   baudRateOverride,250000
;   overridePrinterModels,0
;   printerModelsOverride
;   startingGcode,; Jellybox Start Script Begin,M117 Preparing ,,; set x homing offset for default bed leveling,M206 X10.0 Y0.0  ,; optionally adjust Extruder steps per mm for your filament,; M92 E140 ,,; home all axes,G28,; bed leveling,G29,; slow Z speed down for greater accuracy,M203 Z5,; auto bed leveling procedure,G29,; pick up z speed again for print,M203 Z7,; reset extruder position,G92 E0,,M117 Print starting,;Jellybox Printer Start Script End
;   layerChangeGcode,
;   retractionGcode,
;   toolChangeGcode,
;   endingGcode,;Jellybox Printer End Script Start,,; extruder heater off,M104 S0,; bed heater off (if you have it),M140 S0,; turn fan off,M107,,; relative positioning,G91,; retract the filament a bit before lifting the nozzle to release some of the pressure,G1 E-1.5 F1200,; move Z up a bit and retract filament even more,G1 Z+1 E-1 X-20 Y-20,;move X/Y to so the head is out of the way,G28 X0,G1 Y100,; steppers off,M84,; absolute positioning,G90,,; Jellybox Printer End Script End
;   createX3G,0
;   celebration,0
;   celebrationSong,Random Song
;   createMB5G,0
;   postProcessing,{REPLACE "M117 Layer" "M117 Layer"} ,{REPLACE ", Z = " " | Z="}
;   defaultSpeed,4800
;   outlineUnderspeed,0.8
;   solidInfillUnderspeed,0.8
;   supportUnderspeed,0.8
;   rapidXYspeed,9000
;   rapidZspeed,300
;   minBridgingArea,50
;   bridgingExtraInflation,0.4
;   bridgingExtrusionMultiplier,1
;   bridgingSpeedMultiplier,1
;   filamentDiameter,1.75
;   filamentPricePerKg,15
;   filamentDensity,1.25
;   useMinPrintHeight,0
;   minPrintHeight,0
;   useMaxPrintHeight,0
;   maxPrintHeight,0
;   useDiaphragm,0
;   diaphragmLayerInterval,20
;   robustSlicing,1
;   mergeAllIntoSolid,0
;   onlyRetractWhenCrossingOutline,1
;   retractBetweenLayers,0
;   useRetractionMinTravel,1
;   retractionMinTravel,1.5
;   retractWhileWiping,0
;   onlyWipeOutlines,1
;   avoidCrossingOutline,1
;   maxMovementDetourFactor,3
;   toolChangeRetractionDistance,12
;   toolChangeExtraRestartDistance,-0.5
;   toolChangeRetractionSpeed,600
;   allowThinWallGapFill,1
;   thinWallAllowedOverlapPercentage,15
;   horizontalSizeCompensation,0
G90
M83
M106 S0
M104 S215 T0
M109 S215 T0
; Jellybox Start Script Begin
M117 Preparing 
; set x homing offset for default bed leveling
M206 X10.0 Y0.0  
; optionally adjust Extruder steps per mm for your filament
; M92 E140 
; home all axes
G28
; bed leveling
G29
; slow Z speed down for greater accuracy
M203 Z5
; auto bed leveling procedure
G29
; pick up z speed again for print
M203 Z7
; reset extruder position
G92 E0
M117 Print starting
;Jellybox Printer Start Script End
G1 E-0.8000 F3000
G1 Z0.400 F300
M117 Layer 1, Z = 0.2
T0
; tool H0.200 W0.480
; skirt
G1 X52.204 Y60.359 F9000
G1 Z0.200 F300
G1 E0.8000 F900
G1 X52.271 Y60.304 E0.0031 F2400
G1 X52.978 Y59.770 E0.0318
G1 X53.049 Y59.721 E0.0031
G1 X54.539 Y58.774 E0.0634
G1 X54.613 Y58.730 E0.0031
G1 X55.397 Y58.316 E0.0318
G1 X55.475 Y58.279 E0.0031
G1 X56.994 Y57.624 E0.0594
G1 X57.054 Y57.600 E0.0023
G1 X57.679 Y57.375 E0.0239
G1 X57.741 Y57.354 E0.0023
G1 X58.694 Y57.074 E0.0357
G1 X58.735 Y57.062 E0.0016
G1 X59.165 Y56.954 E0.0159
G1 X59.207 Y56.944 E0.0016
G1 X60.179 Y56.740 E0.0357
G1 X60.243 Y56.729 E0.0023
G1 X60.901 Y56.632 E0.0239
G1 X60.965 Y56.624 E0.0023
G1 X62.502 Y56.490 E0.0554
G1 X62.567 Y56.487 E0.0023
G1 X63.231 Y56.469 E0.0239
G1 X63.296 Y56.469 E0.0023
G1 X64.400 Y56.506 E0.0397
G1 X64.464 Y56.510 E0.0023
G1 X65.126 Y56.571 E0.0239
G1 X65.190 Y56.579 E0.0023
G1 X66.716 Y56.815 E0.0554
G1 X66.779 Y56.827 E0.0023
G1 X67.429 Y56.967 E0.0239
G1 X67.492 Y56.983 E0.0023
G1 X68.555 Y57.280 E0.0397
G1 X68.617 Y57.300 E0.0023
G1 X69.245 Y57.517 E0.0239
G1 X69.306 Y57.540 E0.0023
G1 X70.813 Y58.165 E0.0586
G1 X70.888 Y58.199 E0.0029
G1 X71.638 Y58.579 E0.0302
G1 X71.710 Y58.619 E0.0029
G1 X72.979 Y59.388 E0.0533
G1 X73.030 Y59.421 E0.0022
G1 X73.542 Y59.772 E0.0223
G1 X73.591 Y59.807 E0.0022
G1 X74.495 Y60.504 E0.0410
G1 X74.535 Y60.537 E0.0019
G1 X74.940 Y60.881 E0.0191
G1 X74.979 Y60.916 E0.0019
G1 X75.165 Y61.090 E0.0091
G1 X80.214 Y61.090 E0.1814
G1 X80.331 Y60.911 E0.0077
G1 X80.376 Y60.847 E0.0028
G1 X81.447 Y59.443 E0.0634
G1 X81.497 Y59.382 E0.0028
G1 X82.036 Y58.774 E0.0292
G1 X82.091 Y58.717 E0.0028
G1 X83.354 Y57.485 E0.0634
G1 X83.413 Y57.432 E0.0028
G1 X84.035 Y56.909 E0.0292
G1 X84.098 Y56.860 E0.0028
G1 X85.478 Y55.862 E0.0612
G1 X85.534 Y55.825 E0.0024
G1 X86.117 Y55.456 E0.0248
G1 X86.175 Y55.422 E0.0024
G1 X87.264 Y54.825 E0.0446
G1 X87.314 Y54.799 E0.0020
G1 X87.828 Y54.551 E0.0205
G1 X87.878 Y54.528 E0.0020
G1 X89.155 Y53.991 E0.0498
G1 X89.206 Y53.971 E0.0020
G1 X89.740 Y53.778 E0.0204
G1 X89.793 Y53.760 E0.0020
G1 X90.753 Y53.467 E0.0361
G1 X90.799 Y53.454 E0.0017
G1 X91.271 Y53.333 E0.0175
G1 X91.317 Y53.322 E0.0017
G1 X92.434 Y53.087 E0.0410
G1 X92.488 Y53.076 E0.0020
G1 X93.050 Y52.988 E0.0204
G1 X93.105 Y52.980 E0.0020
G1 X94.482 Y52.835 E0.0497
G1 X94.537 Y52.831 E0.0020
G1 X95.105 Y52.800 E0.0204
G1 X95.160 Y52.798 E0.0020
G1 X96.225 Y52.795 E0.0383
G1 X96.285 Y52.797 E0.0021
G1 X96.893 Y52.829 E0.0219
G1 X96.952 Y52.833 E0.0021
G1 X98.606 Y53.011 E0.0597
G1 X98.684 Y53.023 E0.0028
G1 X99.484 Y53.169 E0.0292
G1 X99.561 Y53.186 E0.0028
G1 X101.269 Y53.629 E0.0634
G1 X101.345 Y53.652 E0.0028
G1 X102.115 Y53.913 E0.0292
G1 X102.189 Y53.941 E0.0028
G1 X103.814 Y54.629 E0.0634
G1 X103.885 Y54.662 E0.0028
G1 X104.609 Y55.033 E0.0292
G1 X104.678 Y55.072 E0.0028
G1 X106.098 Y55.937 E0.0597
G1 X106.148 Y55.969 E0.0021
G1 X106.650 Y56.314 E0.0219
G1 X106.698 Y56.349 E0.0021
G1 X107.558 Y57.013 E0.0390
G1 X107.604 Y57.050 E0.0021
G1 X108.065 Y57.448 E0.0219
G1 X108.109 Y57.488 E0.0021
G1 X109.233 Y58.572 E0.0561
G1 X109.275 Y58.614 E0.0021
G1 X109.690 Y59.061 E0.0219
G1 X109.729 Y59.105 E0.0021
G1 X110.423 Y59.940 E0.0390
G1 X110.460 Y59.987 E0.0021
G1 X110.823 Y60.476 E0.0219
G1 X110.857 Y60.525 E0.0021
G1 X111.774 Y61.912 E0.0597
G1 X111.815 Y61.980 E0.0028
G1 X112.212 Y62.689 E0.0292
G1 X112.249 Y62.759 E0.0028
G1 X112.996 Y64.358 E0.0634
G1 X113.027 Y64.431 E0.0028
G1 X113.316 Y65.190 E0.0292
G1 X113.341 Y65.265 E0.0028
G1 X113.847 Y66.956 E0.0634
G1 X113.867 Y67.033 E0.0028
G1 X114.042 Y67.826 E0.0292
G1 X114.056 Y67.904 E0.0028
G1 X114.310 Y69.650 E0.0634
G1 X114.318 Y69.729 E0.0028
G1 X114.375 Y70.540 E0.0292
G1 X114.378 Y70.619 E0.0028
G1 X114.373 Y72.384 E0.0634
G1 X114.370 Y72.463 E0.0028
G1 X114.309 Y73.273 E0.0292
G1 X114.300 Y73.352 E0.0028
G1 X114.037 Y75.097 E0.0634
G1 X114.023 Y75.175 E0.0028
G1 X113.843 Y75.967 E0.0292
G1 X113.823 Y76.044 E0.0028
G1 X113.309 Y77.732 E0.0634
G1 X113.283 Y77.807 E0.0028
G1 X112.989 Y78.565 E0.0292
G1 X112.958 Y78.638 E0.0028
G1 X112.315 Y79.995 E0.0540
G1 X112.336 Y80.032 E0.0015
G1 X112.363 Y80.084 E0.0021
G1 X112.634 Y80.630 E0.0219
G1 X112.659 Y80.684 E0.0021
G1 X113.088 Y81.681 E0.0390
G1 X113.110 Y81.737 E0.0021
G1 X113.319 Y82.309 E0.0219
G1 X113.338 Y82.365 E0.0021
G1 X113.823 Y83.956 E0.0597
G1 X113.843 Y84.033 E0.0028
G1 X114.023 Y84.825 E0.0292
G1 X114.037 Y84.903 E0.0028
G1 X114.300 Y86.648 E0.0634
G1 X114.309 Y86.727 E0.0028
G1 X114.370 Y87.537 E0.0292
G1 X114.373 Y87.616 E0.0028
G1 X114.378 Y89.279 E0.0597
G1 X114.376 Y89.339 E0.0021
G1 X114.344 Y89.947 E0.0219
G1 X114.340 Y90.006 E0.0021
G1 X114.223 Y91.086 E0.0390
G1 X114.215 Y91.145 E0.0021
G1 X114.117 Y91.746 E0.0219
G1 X114.106 Y91.804 E0.0021
G1 X113.769 Y93.329 E0.0561
G1 X113.755 Y93.387 E0.0021
G1 X113.591 Y93.974 E0.0219
G1 X113.573 Y94.031 E0.0021
G1 X113.224 Y95.059 E0.0390
G1 X113.204 Y95.114 E0.0021
G1 X112.976 Y95.680 E0.0219
G1 X112.953 Y95.734 E0.0021
G1 X112.292 Y97.149 E0.0561
G1 X112.265 Y97.202 E0.0021
G1 X111.977 Y97.739 E0.0219
G1 X111.948 Y97.790 E0.0021
G1 X111.383 Y98.718 E0.0390
G1 X111.350 Y98.767 E0.0021
G1 X111.005 Y99.270 E0.0219
G1 X110.970 Y99.318 E0.0021
G1 X110.016 Y100.554 E0.0561
G1 X109.979 Y100.600 E0.0021
G1 X109.581 Y101.061 E0.0219
G1 X109.540 Y101.105 E0.0021
G1 X108.787 Y101.887 E0.0390
G1 X108.745 Y101.928 E0.0021
G1 X108.298 Y102.343 E0.0219
G1 X108.254 Y102.382 E0.0021
G1 X107.053 Y103.381 E0.0561
G1 X107.006 Y103.417 E0.0021
G1 X106.517 Y103.781 E0.0219
G1 X106.468 Y103.815 E0.0021
G1 X105.562 Y104.413 E0.0390
G1 X105.512 Y104.445 E0.0021
G1 X104.986 Y104.752 E0.0219
G1 X104.934 Y104.780 E0.0021
G1 X103.454 Y105.539 E0.0597
G1 X103.382 Y105.573 E0.0028
G1 X102.634 Y105.890 E0.0292
G1 X102.560 Y105.918 E0.0028
G1 X100.889 Y106.485 E0.0634
G1 X100.813 Y106.508 E0.0028
G1 X100.026 Y106.712 E0.0292
G1 X99.949 Y106.729 E0.0028
G1 X98.213 Y107.046 E0.0634
G1 X98.135 Y107.057 E0.0028
G1 X97.326 Y107.144 E0.0292
G1 X97.248 Y107.149 E0.0028
G1 X95.504 Y107.209 E0.0627
G1 X95.429 Y107.209 E0.0027
G1 X94.658 Y107.181 E0.0277
G1 X94.583 Y107.176 E0.0027
G1 X93.105 Y107.019 E0.0534
G1 X93.050 Y107.012 E0.0020
G1 X92.488 Y106.924 E0.0204
G1 X92.434 Y106.913 E0.0020
G1 X91.318 Y106.678 E0.0410
G1 X91.271 Y106.667 E0.0017
G1 X90.799 Y106.546 E0.0175
G1 X90.753 Y106.533 E0.0017
G1 X89.793 Y106.240 E0.0361
G1 X89.740 Y106.222 E0.0020
G1 X89.206 Y106.029 E0.0204
G1 X89.155 Y106.009 E0.0020
G1 X87.878 Y105.472 E0.0498
G1 X87.828 Y105.449 E0.0020
G1 X87.314 Y105.201 E0.0205
G1 X87.264 Y105.175 E0.0020
G1 X86.264 Y104.627 E0.0410
G1 X86.223 Y104.603 E0.0017
G1 X85.807 Y104.351 E0.0175
G1 X85.767 Y104.325 E0.0017
G1 X84.933 Y103.768 E0.0360
G1 X84.888 Y103.736 E0.0020
G1 X84.433 Y103.397 E0.0204
G1 X84.390 Y103.363 E0.0020
G1 X83.322 Y102.479 E0.0498
G1 X83.280 Y102.443 E0.0020
G1 X82.859 Y102.055 E0.0206
G1 X82.819 Y102.017 E0.0020
G1 X82.019 Y101.202 E0.0410
G1 X81.987 Y101.167 E0.0017
G1 X81.662 Y100.806 E0.0174
G1 X81.631 Y100.770 E0.0017
G1 X80.995 Y99.996 E0.0360
G1 X80.961 Y99.953 E0.0020
G1 X80.624 Y99.498 E0.0203
G1 X80.592 Y99.453 E0.0020
G1 X80.232 Y98.910 E0.0234
G1 X75.174 Y98.910 E0.1817
G1 X75.153 Y98.931 E0.0011
G1 X75.093 Y98.986 E0.0029
G1 X74.454 Y99.534 E0.0302
G1 X74.390 Y99.585 E0.0029
G1 X72.985 Y100.615 E0.0626
G1 X72.914 Y100.663 E0.0031
G1 X72.160 Y101.129 E0.0318
G1 X72.084 Y101.171 E0.0031
G1 X70.513 Y101.975 E0.0634
G1 X70.435 Y102.011 E0.0031
G1 X69.616 Y102.351 E0.0318
G1 X69.535 Y102.380 E0.0031
G1 X67.856 Y102.924 E0.0634
G1 X67.772 Y102.947 E0.0031
G1 X66.910 Y103.152 E0.0318
G1 X66.825 Y103.168 E0.0031
G1 X65.081 Y103.437 E0.0634
G1 X64.995 Y103.447 E0.0031
G1 X64.111 Y103.512 E0.0318
G1 X64.025 Y103.515 E0.0031
G1 X62.260 Y103.503 E0.0634
G1 X62.174 Y103.499 E0.0031
G1 X61.291 Y103.422 E0.0318
G1 X61.205 Y103.411 E0.0031
G1 X59.464 Y103.118 E0.0634
G1 X59.380 Y103.100 E0.0031
G1 X58.520 Y102.884 E0.0318
G1 X58.437 Y102.859 E0.0031
G1 X56.766 Y102.293 E0.0634
G1 X56.685 Y102.262 E0.0031
G1 X55.871 Y101.911 E0.0318
G1 X55.793 Y101.874 E0.0031
G1 X54.331 Y101.101 E0.0594
G1 X54.275 Y101.069 E0.0023
G1 X53.707 Y100.723 E0.0239
G1 X53.653 Y100.688 E0.0023
G1 X52.745 Y100.058 E0.0397
G1 X52.693 Y100.020 E0.0023
G1 X52.171 Y99.609 E0.0239
G1 X52.121 Y99.567 E0.0023
G1 X50.885 Y98.469 E0.0594
G1 X50.823 Y98.409 E0.0031
G1 X50.209 Y97.769 E0.0318
G1 X50.152 Y97.704 E0.0031
G1 X49.036 Y96.337 E0.0634
G1 X48.984 Y96.268 E0.0031
G1 X48.480 Y95.538 E0.0318
G1 X48.434 Y95.465 E0.0031
G1 X47.606 Y94.034 E0.0594
G1 X47.575 Y93.977 E0.0023
G1 X47.277 Y93.382 E0.0239
G1 X47.250 Y93.324 E0.0023
G1 X46.816 Y92.309 E0.0397
G1 X46.792 Y92.248 E0.0023
G1 X46.567 Y91.623 E0.0239
G1 X46.547 Y91.561 E0.0023
G1 X46.083 Y89.974 E0.0594
G1 X46.062 Y89.890 E0.0031
G1 X45.882 Y89.022 E0.0318
G1 X45.868 Y88.937 E0.0031
G1 X45.648 Y87.185 E0.0634
G1 X45.641 Y87.099 E0.0031
G1 X45.601 Y86.214 E0.0318
G1 X45.601 Y86.128 E0.0031
G1 X45.663 Y84.364 E0.0634
G1 X45.669 Y84.278 E0.0031
G1 X45.771 Y83.397 E0.0318
G1 X45.785 Y83.312 E0.0031
G1 X46.127 Y81.580 E0.0634
G1 X46.147 Y81.496 E0.0031
G1 X46.388 Y80.643 E0.0318
G1 X46.414 Y80.561 E0.0031
G1 X46.622 Y80.000 E0.0215
G1 X46.453 Y79.543 E0.0175
G1 X46.432 Y79.481 E0.0023
G1 X46.239 Y78.846 E0.0239
G1 X46.222 Y78.783 E0.0023
G1 X45.965 Y77.709 E0.0397
G1 X45.952 Y77.646 E0.0023
G1 X45.836 Y76.991 E0.0239
G1 X45.826 Y76.927 E0.0023
G1 X45.636 Y75.284 E0.0594
G1 X45.630 Y75.198 E0.0031
G1 X45.599 Y74.312 E0.0318
G1 X45.599 Y74.226 E0.0031
G1 X45.673 Y72.573 E0.0594
G1 X45.678 Y72.509 E0.0023
G1 X45.747 Y71.848 E0.0239
G1 X45.756 Y71.784 E0.0023
