; G-Code generated by Simplify3D(R) Version 3.0.0
; Nov 16, 2016 at 7:57:33 AM
; Settings Summary
;   processName,Process1
;   applyToModels,g arm vertical 2(5)
;   profileName,Default (modified)
;   profileVersion,2015-10-25 10:06:52
;   baseProfile,Default (modified)
;   printMaterial,PLA Lankeda Green
;   printQuality,Fast
;   printExtruders,
;   extruderName,Primary Extruder
;   extruderToolheadNumber,0
;   extruderDiameter,0.4
;   extruderAutoWidth,1
;   extruderWidth,0.48
;   extrusionMultiplier,0.9
;   extruderUseRetract,1
;   extruderRetractionDistance,1.15
;   extruderExtraRestartDistance,0.07
;   extruderRetractionZLift,0.07
;   extruderRetractionSpeed,9000
;   extruderUseCoasting,0
;   extruderCoastingDistance,0.2
;   extruderUseWipe,0
;   extruderWipeDistance,5
;   primaryExtruder,0
;   layerHeight,0.22
;   topSolidLayers,4
;   bottomSolidLayers,3
;   perimeterOutlines,2
;   printPerimetersInsideOut,1
;   startPointOption,2
;   startPointOriginX,0
;   startPointOriginY,0
;   startPointOriginZ,300
;   sequentialIslands,0
;   spiralVaseMode,0
;   firstLayerHeightPercentage,100
;   firstLayerWidthPercentage,85
;   firstLayerUnderspeed,0.5
;   useRaft,0
;   raftExtruder,0
;   raftLayers,3
;   raftOffset,3
;   raftSeparationDistance,0.14
;   raftInfill,85
;   disableRaftBaseLayers,0
;   useSkirt,1
;   skirtExtruder,0
;   skirtLayers,2
;   skirtOutlines,3
;   skirtOffset,6
;   usePrimePillar,0
;   primePillarExtruder,999
;   primePillarWidth,12
;   primePillarLocation,7
;   primePillarSpeedMultiplier,1
;   useOozeShield,0
;   oozeShieldExtruder,999
;   oozeShieldOffset,2
;   oozeShieldOutlines,1
;   oozeShieldSidewallShape,1
;   oozeShieldSidewallAngle,30
;   oozeShieldSpeedMultiplier,1
;   infillExtruder,0
;   internalInfillPattern,Rectilinear
;   externalInfillPattern,Rectilinear
;   infillPercentage,58
;   outlineOverlapPercentage,25
;   infillExtrusionWidthPercentage,110
;   minInfillLength,4
;   infillLayerInterval,1
;   infillAngles,45,-45
;   overlapInfillAngles,0
;   generateSupport,1
;   supportExtruder,0
;   supportInfillPercentage,35
;   supportExtraInflation,0
;   denseSupportLayers,0
;   denseSupportInfillPercentage,70
;   supportLayerInterval,1
;   supportHorizontalPartOffset,0.7
;   supportUpperSeparationLayers,1
;   supportLowerSeparationLayers,1
;   supportType,0
;   supportGridSpacing,2
;   maxOverhangAngle,70
;   supportAngles,90
;   temperatureName,Primary Extruder,Bed
;   temperatureNumber,0,0
;   temperatureSetpointCount,1,1
;   temperatureSetpointLayers,1,1
;   temperatureSetpointTemperatures,210,60
;   temperatureStabilizeAtStartup,1,1
;   temperatureHeatedBed,0,1
;   temperatureRelayBetweenLayers,0,0
;   temperatureRelayBetweenLoops,0,0
;   fanLayers,1,2
;   fanSpeeds,0,70
;   blipFanToFullPower,0
;   adjustSpeedForCooling,1
;   minSpeedLayerTime,15
;   minCoolingSpeedSlowdown,50
;   increaseFanForCooling,1
;   minFanLayerTime,45
;   maxCoolingFanSpeed,100
;   increaseFanForBridging,1
;   bridgingFanSpeed,100
;   use5D,1
;   relativeEdistances,0
;   allowEaxisZeroing,1
;   independentExtruderAxes,0
;   includeM10123,0
;   stickySupport,1
;   applyToolheadOffsets,0
;   gcodeXoffset,0
;   gcodeYoffset,0
;   gcodeZoffset,0
;   overrideMachineDefinition,0
;   machineTypeOverride,0
;   strokeXoverride,200
;   strokeYoverride,200
;   strokeZoverride,200
;   originOffsetXoverride,0
;   originOffsetYoverride,0
;   originOffsetZoverride,0
;   homeXdirOverride,-1
;   homeYdirOverride,-1
;   homeZdirOverride,-1
;   flipXoverride,1
;   flipYoverride,-1
;   flipZoverride,1
;   toolheadOffsets,0,0|0,0|0,0|0,0|0,0|0,0
;   overrideFirmwareConfiguration,0
;   firmwareTypeOverride,RepRap (Marlin/Repetier/Sprinter)
;   GPXconfigOverride,r2
;   baudRateOverride,115200
;   overridePrinterModels,0
;   printerModelsOverride
;   startingGcode,G28 ; home all axes,G29 ; level Bed,
;   layerChangeGcode,
;   retractionGcode,
;   toolChangeGcode,
;   endingGcode,M104 S0 ; turn off extruder,M140 S0 ; turn off bed,G28 X; move X to home position,M84 ; disable motors
;   createX3G,0
;   celebration,0
;   celebrationSong,Random Song
;   createMB5G,0
;   postProcessing,
;   defaultSpeed,3000
;   outlineUnderspeed,0.7
;   solidInfillUnderspeed,0.7
;   supportUnderspeed,0.8
;   rapidXYspeed,7200
;   rapidZspeed,360
;   minBridgingArea,50
;   bridgingExtraInflation,0
;   bridgingExtrusionMultiplier,1
;   bridgingSpeedMultiplier,1
;   filamentDiameter,1.75
;   filamentPricePerKg,46
;   filamentDensity,1.25
;   useMinPrintHeight,0
;   minPrintHeight,0
;   useMaxPrintHeight,0
;   maxPrintHeight,0.4
;   useDiaphragm,0
;   diaphragmLayerInterval,20
;   robustSlicing,1
;   mergeAllIntoSolid,0
;   onlyRetractWhenCrossingOutline,1
;   retractBetweenLayers,1
;   useRetractionMinTravel,1
;   retractionMinTravel,1.5
;   retractWhileWiping,0
;   onlyWipeOutlines,1
;   avoidCrossingOutline,0
;   maxMovementDetourFactor,3
;   toolChangeRetractionDistance,12
;   toolChangeExtraRestartDistance,-0.5
;   toolChangeRetractionSpeed,600
;   allowThinWallGapFill,1
;   thinWallAllowedOverlapPercentage,10
;   horizontalSizeCompensation,0
G90
M82
M106 S0
M140 S60
M190 S60
M104 S210 T0
M109 S210 T0
G28 ; home all axes
G29 ; level Bed
G92 E0
G1 E-1.1500 F9000
G1 Z0.290 F360
; layer 1, Z = 0.22
M106 S102
T0
; tool H0.220 W0.408
; skirt
G1 X83.898 Y70.713 F7200
G1 Z0.220 F360
G1 E0.0700 F2700
G92 E0
G1 X86.417 Y68.789 E0.1065 F1500
G1 X86.590 Y68.697 E0.1130
G1 X88.646 Y68.002 E0.1859
G1 X88.840 Y67.970 E0.1925
G1 X100.249 Y67.970 E0.5757
G1 X100.481 Y68.016 E0.5837
G1 X102.905 Y69.020 E0.6718
G1 X103.101 Y69.151 E0.6797
G1 X105.286 Y71.336 E0.7835
G1 X105.418 Y71.533 E0.7914
G1 X106.421 Y73.957 E0.8795
G1 X106.468 Y74.188 E0.8875
G1 X106.468 Y81.554 E1.1349
G1 X106.285 Y81.995 E1.1509
G1 X106.280 Y82.000 E1.1511
G1 X106.285 Y82.005 E1.1514
G1 X106.468 Y82.446 E1.1674
G1 X106.468 Y89.812 E1.4148
G1 X106.421 Y90.044 E1.4227
G1 X105.418 Y92.467 E1.5108
G1 X105.286 Y92.664 E1.5188
G1 X103.101 Y94.849 E1.6225
G1 X102.905 Y94.980 E1.6305
G1 X100.481 Y95.984 E1.7186
G1 X100.249 Y96.030 E1.7265
G1 X88.840 Y96.030 E2.1097
G1 X88.646 Y95.998 E2.1163
G1 X86.590 Y95.303 E2.1892
G1 X86.417 Y95.211 E2.1958
G1 X83.898 Y93.287 E2.3023
G1 X83.722 Y93.073 E2.3115
G1 X82.356 Y90.311 E2.4151
G1 X82.293 Y90.041 E2.4244
G1 X82.293 Y82.446 E2.6794
G1 X82.476 Y82.005 E2.6955
G1 X82.481 Y82.000 E2.6957
G1 X82.476 Y81.995 E2.6959
G1 X82.293 Y81.554 E2.7120
G1 X82.293 Y73.959 E2.9671
G1 X82.356 Y73.689 E2.9764
G1 X83.722 Y70.927 E3.0799
G1 X83.898 Y70.713 E3.0892
G1 X84.233 Y71.061 F7200
G92 E0
G1 X86.678 Y69.195 E0.1033 F1500
G1 X86.781 Y69.139 E0.1072
G1 X88.763 Y68.469 E0.1775
G1 X88.879 Y68.450 E0.1814
G1 X100.202 Y68.450 E0.5617
G1 X100.341 Y68.478 E0.5665
G1 X102.677 Y69.445 E0.6514
G1 X102.795 Y69.524 E0.6562
G1 X104.913 Y71.642 E0.7568
G1 X104.992 Y71.760 E0.7616
G1 X105.960 Y74.097 E0.8465
G1 X105.988 Y74.236 E0.8513
G1 X105.988 Y81.459 E1.0939
G1 X105.878 Y81.723 E1.1035
G1 X105.601 Y82.000 E1.1166
G1 X105.878 Y82.277 E1.1298
G1 X105.988 Y82.542 E1.1394
G1 X105.988 Y89.764 E1.3820
G1 X105.960 Y89.904 E1.3867
G1 X104.992 Y92.240 E1.4717
G1 X104.913 Y92.358 E1.4764
G1 X102.795 Y94.476 E1.5770
G1 X102.677 Y94.555 E1.5818
G1 X100.341 Y95.522 E1.6667
G1 X100.202 Y95.550 E1.6715
G1 X88.879 Y95.550 E2.0518
G1 X88.763 Y95.531 E2.0557
G1 X86.781 Y94.861 E2.1260
G1 X86.678 Y94.805 E2.1300
G1 X84.234 Y92.939 E2.2332
G1 X84.128 Y92.811 E2.2388
G1 X82.811 Y90.147 E2.3386
G1 X82.773 Y89.986 E2.3442
G1 X82.773 Y82.542 E2.5942
G1 X82.883 Y82.277 E2.6038
G1 X83.159 Y82.000 E2.6170
G1 X82.883 Y81.723 E2.6301
G1 X82.773 Y81.459 E2.6397
G1 X82.773 Y74.014 E2.8898
G1 X82.811 Y73.853 E2.8953
G1 X84.128 Y71.189 E2.9951
G1 X84.234 Y71.061 E3.0007
G1 X84.569 Y71.409 F7200
G92 E0
G1 X86.938 Y69.600 E0.1001 F1500
G1 X86.972 Y69.581 E0.1014
G1 X88.880 Y68.936 E0.1690
G1 X88.918 Y68.930 E0.1704
G1 X100.155 Y68.930 E0.5478
G1 X100.201 Y68.939 E0.5493
G1 X102.450 Y69.871 E0.6311
G1 X102.489 Y69.897 E0.6327
G1 X104.541 Y71.948 E0.7301
G1 X104.567 Y71.988 E0.7317
G1 X105.498 Y74.237 E0.8135
G1 X105.508 Y74.283 E0.8150
G1 X105.508 Y81.363 E1.0528
G1 X105.471 Y81.452 E1.0561
G1 X104.922 Y82.000 E1.0821
G1 X105.471 Y82.549 E1.1082
G1 X105.508 Y82.637 E1.1114
G1 X105.508 Y89.717 E1.3492
G1 X105.498 Y89.763 E1.3508
G1 X104.567 Y92.012 E1.4325
G1 X104.541 Y92.052 E1.4341
G1 X102.489 Y94.103 E1.5315
G1 X102.450 Y94.129 E1.5331
G1 X100.201 Y95.061 E1.6149
G1 X100.155 Y95.070 E1.6165
G1 X88.918 Y95.070 E1.9939
G1 X88.880 Y95.064 E1.9952
G1 X86.972 Y94.419 E2.0628
G1 X86.938 Y94.400 E2.0641
G1 X84.569 Y92.591 E2.1642
G1 X84.534 Y92.548 E2.1661
G1 X83.266 Y89.984 E2.2622
G1 X83.253 Y89.930 E2.2640
G1 X83.253 Y82.637 E2.5090
G1 X83.289 Y82.549 E2.5122
G1 X83.838 Y82.000 E2.5382
G1 X83.289 Y81.452 E2.5643
G1 X83.253 Y81.363 E2.5675
G1 X83.253 Y74.070 E2.8125
G1 X83.266 Y74.016 E2.8143
G1 X84.534 Y71.452 E2.9104
G1 X84.569 Y71.409 E2.9123
G92 E0
G1 E-1.1500 F9000
G1 Z0.290 F360
; inner perimeter
G1 X90.486 Y76.002 F7200
G1 Z0.220 F360
G1 E0.0700 F9000
G92 E0
G1 X98.436 Y76.002 E0.2670 F1275
G1 X98.436 Y77.998 E0.3340
G1 X90.486 Y77.998 E0.6010
G1 X90.486 Y76.002 E0.6681
; outer perimeter
G1 X90.078 Y75.601 F7200
G92 E0
G1 X90.087 Y75.594 E0.0004 F1050
G1 X98.844 Y75.594 E0.2945
G1 X98.844 Y78.406 E0.3889
G1 X90.078 Y78.406 E0.6833
G1 X90.078 Y75.601 E0.7776
; solid layer
G1 X90.792 Y76.516 F7200
G92 E0
G1 X91.000 Y76.308 E0.0099 F1050
G1 X91.577 Y76.308 E0.0293
G1 X90.792 Y77.093 E0.0665
G1 X90.792 Y77.670 E0.0859
G1 X92.154 Y76.308 E0.1506
G1 X92.731 Y76.308 E0.1700
G1 X91.347 Y77.692 E0.2358
G1 X91.924 Y77.692 E0.2551
G1 X93.308 Y76.308 E0.3209
G1 X93.885 Y76.308 E0.3403
G1 X92.501 Y77.692 E0.4060
G1 X93.078 Y77.692 E0.4254
G1 X94.462 Y76.308 E0.4911
G1 X95.039 Y76.308 E0.5105
G1 X93.655 Y77.692 E0.5763
G1 X94.232 Y77.692 E0.5957
G1 X95.616 Y76.308 E0.6614
G1 X96.193 Y76.308 E0.6808
G1 X94.809 Y77.692 E0.7465
G1 X95.386 Y77.692 E0.7659
G1 X96.770 Y76.308 E0.8317
G1 X97.347 Y76.308 E0.8511
G1 X95.963 Y77.692 E0.9168
G1 X96.540 Y77.692 E0.9362
G1 X97.924 Y76.308 E1.0019
G1 X98.130 Y76.308 E1.0088
G1 X98.130 Y76.679 E1.0213
G1 X97.117 Y77.692 E1.0694
G1 X97.694 Y77.692 E1.0888
G1 X98.130 Y77.256 E1.1095
G92 E0
G1 E-1.1500 F9000
G1 Z0.290 F360
; inner perimeter
G1 X98.436 Y86.002 F7200
G1 Z0.220 F360
G1 E0.0700 F9000
G92 E0
G1 X98.436 Y87.998 E0.0670 F1275
G1 X90.486 Y87.998 E0.3340
G1 X90.486 Y86.002 E0.4010
G1 X98.436 Y86.002 E0.6680
; outer perimeter
G1 X98.844 Y85.594 F7200
G92 E0
G1 X98.844 Y88.406 E0.0944 F1050
G1 X90.087 Y88.406 E0.3885
G1 X90.078 Y88.399 E0.3889
G1 X90.078 Y85.594 E0.4831
G1 X98.844 Y85.594 E0.7775
; solid layer
G1 X98.080 Y87.692 F7200
G92 E0
G1 X98.130 Y87.642 E0.0024 F1050
G1 X98.130 Y87.065 E0.0217
G1 X97.503 Y87.692 E0.0515
G1 X96.926 Y87.692 E0.0709
G1 X98.130 Y86.488 E0.1280
G1 X98.130 Y86.308 E0.1341
G1 X97.733 Y86.308 E0.1474
G1 X96.349 Y87.692 E0.2131
G1 X95.772 Y87.692 E0.2325
G1 X97.156 Y86.308 E0.2982
G1 X96.579 Y86.308 E0.3176
G1 X95.195 Y87.692 E0.3833
G1 X94.618 Y87.692 E0.4027
G1 X96.002 Y86.308 E0.4684
G1 X95.425 Y86.308 E0.4878
G1 X94.041 Y87.692 E0.5535
G1 X93.464 Y87.692 E0.5729
G1 X94.848 Y86.308 E0.6386
G1 X94.271 Y86.308 E0.6580
G1 X92.887 Y87.692 E0.7237
G1 X92.310 Y87.692 E0.7431
G1 X93.694 Y86.308 E0.8089
G1 X93.117 Y86.308 E0.8282
G1 X91.733 Y87.692 E0.8940
G1 X91.156 Y87.692 E0.9133
G1 X92.540 Y86.308 E0.9791
G1 X91.963 Y86.308 E0.9984
G1 X90.792 Y87.479 E1.0540
G1 X90.792 Y86.902 E1.0734
G1 X91.386 Y86.308 E1.1016
G1 X90.809 Y86.308 E1.1210
G1 X90.792 Y86.325 E1.1218
G92 E0
G1 E-1.1500 F9000
G1 Z0.290 F360
; support
G1 X95.971 Y84.230 F7200
G1 Z0.220 F360
G1 E0.0700 F9000
G92 E0
G1 X95.971 Y79.770 E0.1498 F1200
G1 X97.343 Y79.770 E0.1959
G1 X97.343 Y84.230 E0.3456
G1 X98.714 Y84.230 E0.3917
G1 X98.714 Y79.770 E0.5415
G92 E0
G1 E-1.1500 F9000
G1 Z0.290 F360
G1 X80.886 Y72.880 F7200
G1 Z0.220 F360
G1 E0.0700 F9000
G92 E0
G1 X80.886 Y89.120 E0.5454 F1200
G1 X79.514 Y89.120 E0.5915
G1 X79.514 Y72.880 E1.1369
G1 X78.143 Y72.880 E1.1830
G1 X78.143 Y89.120 E1.7284
G1 X76.771 Y89.120 E1.7745
G1 X76.771 Y72.880 E2.3199
G1 X75.400 Y72.880 E2.3660
G1 X75.400 Y89.120 E2.9114
G92 E0
G1 E-1.1500 F9000
G1 Z0.510 F360
; layer 2, Z = 0.44
M106 S229
; tool H0.220 W0.480
; skirt
G1 X82.293 Y90.041 F7200
G1 Z0.440 F360
G1 E0.0700 F9000
G92 E0
G1 X82.293 Y82.446 E0.3001 F1500
G1 X82.476 Y82.005 E0.3190
G1 X82.481 Y82.000 E0.3192
G1 X82.476 Y81.995 E0.3195
G1 X82.293 Y81.554 E0.3384
G1 X82.293 Y73.959 E0.6385
G1 X82.356 Y73.689 E0.6494
G1 X83.722 Y70.927 E0.7712
G1 X83.898 Y70.713 E0.7821
G1 X86.417 Y68.789 E0.9074
G1 X86.590 Y68.697 E0.9151
G1 X88.646 Y68.002 E1.0009
G1 X88.840 Y67.970 E1.0086
G1 X100.249 Y67.970 E1.4595
G1 X100.481 Y68.016 E1.4688
G1 X102.905 Y69.020 E1.5725
G1 X103.101 Y69.151 E1.5818
G1 X105.286 Y71.336 E1.7039
G1 X105.418 Y71.533 E1.7132
G1 X106.421 Y73.957 E1.8169
G1 X106.468 Y74.188 E1.8262
G1 X106.468 Y81.554 E2.1173
G1 X106.285 Y81.995 E2.1361
G1 X106.280 Y82.000 E2.1364
G1 X106.285 Y82.005 E2.1367
G1 X106.468 Y82.446 E2.1556
G1 X106.468 Y89.812 E2.4466
G1 X106.421 Y90.044 E2.4559
G1 X105.418 Y92.467 E2.5596
G1 X105.286 Y92.664 E2.5689
G1 X103.101 Y94.849 E2.6910
G1 X102.905 Y94.980 E2.7004
G1 X100.481 Y95.984 E2.8040
G1 X100.249 Y96.030 E2.8134
G1 X88.840 Y96.030 E3.2642
G1 X88.646 Y95.998 E3.2719
G1 X86.590 Y95.303 E3.3577
G1 X86.417 Y95.211 E3.3654
G1 X83.898 Y93.287 E3.4907
G1 X83.722 Y93.073 E3.5016
G1 X82.356 Y90.311 E3.6234
G1 X82.293 Y90.041 E3.6343
G1 X82.773 Y89.986 F7200
G92 E0
G1 X82.773 Y82.542 E0.2941 F1500
G1 X82.883 Y82.277 E0.3054
G1 X83.159 Y82.000 E0.3209
G1 X82.883 Y81.723 E0.3364
G1 X82.773 Y81.459 E0.3477
G1 X82.773 Y74.014 E0.6419
G1 X82.811 Y73.853 E0.6484
G1 X84.128 Y71.189 E0.7658
G1 X84.234 Y71.061 E0.7724
G1 X86.678 Y69.195 E0.8939
G1 X86.781 Y69.139 E0.8986
G1 X88.763 Y68.469 E0.9812
G1 X88.879 Y68.450 E0.9859
G1 X100.202 Y68.450 E1.4333
G1 X100.341 Y68.478 E1.4389
G1 X102.677 Y69.445 E1.5388
G1 X102.795 Y69.524 E1.5444
G1 X104.913 Y71.642 E1.6627
G1 X104.992 Y71.760 E1.6683
G1 X105.960 Y74.097 E1.7683
G1 X105.988 Y74.236 E1.7739
G1 X105.988 Y81.459 E2.0593
G1 X105.878 Y81.723 E2.0706
G1 X105.601 Y82.000 E2.0861
G1 X105.878 Y82.277 E2.1015
G1 X105.988 Y82.542 E2.1129
G1 X105.988 Y89.764 E2.3982
G1 X105.960 Y89.904 E2.4039
G1 X104.992 Y92.240 E2.5038
G1 X104.913 Y92.358 E2.5094
G1 X102.795 Y94.476 E2.6277
G1 X102.677 Y94.555 E2.6333
G1 X100.341 Y95.522 E2.7333
G1 X100.202 Y95.550 E2.7389
G1 X88.879 Y95.550 E3.1863
G1 X88.763 Y95.531 E3.1909
G1 X86.781 Y94.861 E3.2736
G1 X86.678 Y94.805 E3.2782
G1 X84.234 Y92.939 E3.3997
G1 X84.128 Y92.811 E3.4063
G1 X82.811 Y90.147 E3.5237
G1 X82.773 Y89.986 E3.5303
G1 X83.253 Y89.930 F7200
G92 E0
G1 X83.253 Y82.637 E0.2882 F1500
G1 X83.289 Y82.549 E0.2919
G1 X83.838 Y82.000 E0.3226
G1 X83.289 Y81.452 E0.3533
G1 X83.253 Y81.363 E0.3570
G1 X83.253 Y74.070 E0.6452
G1 X83.266 Y74.016 E0.6474
G1 X84.534 Y71.452 E0.7605
G1 X84.569 Y71.409 E0.7626
G1 X86.938 Y69.600 E0.8804
G1 X86.972 Y69.581 E0.8820
G1 X88.880 Y68.936 E0.9615
G1 X88.918 Y68.930 E0.9631
G1 X100.155 Y68.930 E1.4071
G1 X100.201 Y68.939 E1.4089
G1 X102.450 Y69.871 E1.5051
G1 X102.489 Y69.897 E1.5070
G1 X104.541 Y71.948 E1.6216
G1 X104.567 Y71.988 E1.6235
G1 X105.498 Y74.237 E1.7197
G1 X105.508 Y74.283 E1.7215
G1 X105.508 Y81.363 E2.0013
G1 X105.471 Y81.452 E2.0051
G1 X104.922 Y82.000 E2.0357
G1 X105.471 Y82.549 E2.0664
