; G-Code generated by Simplify3D(R) Version 3.0.2
; Feb 6, 2017 at 1:15:03 PM
; Settings Summary
;   processName,Process1
;   applyToModels,J_g arm 1.21 turnd 180
;   profileName,Default (modified)
;   profileVersion,2016-05-12 10:03:02
;   baseProfile,Plywood
;   printMaterial,PLA
;   printQuality,Medium
;   printExtruders,
;   extruderName,Primary Extruder
;   extruderToolheadNumber,0
;   extruderDiameter,0.4
;   extruderAutoWidth,1
;   extruderWidth,0.48
;   extrusionMultiplier,0.9
;   extruderUseRetract,1
;   extruderRetractionDistance,0.8
;   extruderExtraRestartDistance,0
;   extruderRetractionZLift,0.2
;   extruderRetractionSpeed,3000
;   extruderUseCoasting,0
;   extruderCoastingDistance,0.2
;   extruderUseWipe,0
;   extruderWipeDistance,5
;   primaryExtruder,0
;   layerHeight,0.2
;   topSolidLayers,3
;   bottomSolidLayers,3
;   perimeterOutlines,2
;   printPerimetersInsideOut,1
;   startPointOption,2
;   startPointOriginX,100
;   startPointOriginY,0
;   startPointOriginZ,150
;   sequentialIslands,0
;   spiralVaseMode,0
;   firstLayerHeightPercentage,100
;   firstLayerWidthPercentage,100
;   firstLayerUnderspeed,0.5
;   useRaft,0
;   raftExtruder,0
;   raftLayers,3
;   raftOffset,5
;   raftSeparationDistance,0.1
;   raftInfill,85
;   disableRaftBaseLayers,0
;   useSkirt,1
;   skirtExtruder,0
;   skirtLayers,1
;   skirtOutlines,5
;   skirtOffset,10
;   usePrimePillar,0
;   primePillarExtruder,999
;   primePillarWidth,12
;   primePillarLocation,7
;   primePillarSpeedMultiplier,1
;   useOozeShield,0
;   oozeShieldExtruder,999
;   oozeShieldOffset,10
;   oozeShieldOutlines,1
;   oozeShieldSidewallShape,0
;   oozeShieldSidewallAngle,30
;   oozeShieldSpeedMultiplier,1
;   infillExtruder,0
;   internalInfillPattern,Full Honeycomb
;   externalInfillPattern,Rectilinear
;   infillPercentage,20
;   outlineOverlapPercentage,20
;   infillExtrusionWidthPercentage,125
;   minInfillLength,1
;   infillLayerInterval,1
;   infillAngles,0,120,-120
;   overlapInfillAngles,0
;   generateSupport,1
;   supportExtruder,0
;   supportInfillPercentage,20
;   supportExtraInflation,0
;   denseSupportLayers,0
;   denseSupportInfillPercentage,70
;   supportLayerInterval,1
;   supportHorizontalPartOffset,0.3
;   supportUpperSeparationLayers,1
;   supportLowerSeparationLayers,1
;   supportType,0
;   supportGridSpacing,5
;   maxOverhangAngle,35
;   supportAngles,0
;   temperatureName,Extruder 0
;   temperatureNumber,0
;   temperatureSetpointCount,2
;   temperatureSetpointLayers,1,2
;   temperatureSetpointTemperatures,215,210
;   temperatureStabilizeAtStartup,1
;   temperatureHeatedBed,0
;   temperatureRelayBetweenLayers,0
;   temperatureRelayBetweenLoops,0
;   fanLayers,1,2
;   fanSpeeds,0,40
;   blipFanToFullPower,1
;   adjustSpeedForCooling,1
;   minSpeedLayerTime,15
;   minCoolingSpeedSlowdown,20
;   increaseFanForCooling,1
;   minFanLayerTime,15
;   maxCoolingFanSpeed,100
;   increaseFanForBridging,1
;   bridgingFanSpeed,100
;   use5D,1
;   relativeEdistances,1
;   allowEaxisZeroing,1
;   independentExtruderAxes,0
;   includeM10123,0
;   stickySupport,1
;   applyToolheadOffsets,0
;   gcodeXoffset,0
;   gcodeYoffset,0
;   gcodeZoffset,0
;   overrideMachineDefinition,1
;   machineTypeOverride,0
;   strokeXoverride,160
;   strokeYoverride,160
;   strokeZoverride,130
;   originOffsetXoverride,0
;   originOffsetYoverride,0
;   originOffsetZoverride,0
;   homeXdirOverride,-1
;   homeYdirOverride,-1
;   homeZdirOverride,-1
;   flipXoverride,1
;   flipYoverride,-1
;   flipZoverride,1
;   toolheadOffsets,0,0|0,0|0,0|0,0|0,0|0,0
;   overrideFirmwareConfiguration,0
;   firmwareTypeOverride,RepRap (Marlin/Repetier/Sprinter)
;   GPXconfigOverride,r2
;   baudRateOverride,250000
;   overridePrinterModels,0
;   printerModelsOverride
;   startingGcode,; Jellybox Start Script Begin,M117 Preparing ,,; set x homing offset for default bed leveling,M206 X10.0 Y0.0  ,; optionally adjust Extruder steps per mm for your filament,; M92 E140 ,,; home all axes,G28,; bed leveling,G29,; slow Z speed down for greater accuracy,M203 Z5,; auto bed leveling procedure,G29,; pick up z speed again for print,M203 Z7,; reset extruder position,G92 E0,,M117 Print starting,;Jellybox Printer Start Script End
;   layerChangeGcode,
;   retractionGcode,
;   toolChangeGcode,
;   endingGcode,;Jellybox Printer End Script Start,,; extruder heater off,M104 S0,; bed heater off (if you have it),M140 S0,; turn fan off,M107,,; relative positioning,G91,; retract the filament a bit before lifting the nozzle to release some of the pressure,G1 E-1.5 F1200,; move Z up a bit and retract filament even more,G1 Z+1 E-1 X-20 Y-20,;move X/Y to so the head is out of the way,G28 X0,G1 Y100,; steppers off,M84,; absolute positioning,G90,,; Jellybox Printer End Script End
;   createX3G,0
;   celebration,0
;   celebrationSong,Random Song
;   createMB5G,0
;   postProcessing,{REPLACE "M117 Layer" "M117 Layer"} ,{REPLACE ", Z = " " | Z="}
;   defaultSpeed,4800
;   outlineUnderspeed,0.8
;   solidInfillUnderspeed,0.8
;   supportUnderspeed,0.8
;   rapidXYspeed,9000
;   rapidZspeed,300
;   minBridgingArea,50
;   bridgingExtraInflation,0.4
;   bridgingExtrusionMultiplier,1
;   bridgingSpeedMultiplier,1
;   filamentDiameter,1.75
;   filamentPricePerKg,15
;   filamentDensity,1.25
;   useMinPrintHeight,0
;   minPrintHeight,0
;   useMaxPrintHeight,0
;   maxPrintHeight,0
;   useDiaphragm,0
;   diaphragmLayerInterval,20
;   robustSlicing,1
;   mergeAllIntoSolid,0
;   onlyRetractWhenCrossingOutline,1
;   retractBetweenLayers,0
;   useRetractionMinTravel,1
;   retractionMinTravel,1.5
;   retractWhileWiping,0
;   onlyWipeOutlines,1
;   avoidCrossingOutline,1
;   maxMovementDetourFactor,3
;   toolChangeRetractionDistance,12
;   toolChangeExtraRestartDistance,-0.5
;   toolChangeRetractionSpeed,600
;   allowThinWallGapFill,1
;   thinWallAllowedOverlapPercentage,15
;   horizontalSizeCompensation,0
G90
M83
M106 S0
M104 S215 T0
M109 S215 T0
; Jellybox Start Script Begin
M117 Preparing 
; set x homing offset for default bed leveling
M206 X10.0 Y0.0  
; optionally adjust Extruder steps per mm for your filament
; M92 E140 
; home all axes
G28
; bed leveling
G29
; slow Z speed down for greater accuracy
M203 Z5
; auto bed leveling procedure
G29
; pick up z speed again for print
M203 Z7
; reset extruder position
G92 E0
M117 Print starting
;Jellybox Printer Start Script End
G1 E-0.8000 F3000
G1 Z0.400 F300
M117 Layer 1, Z = 0.2
T0
; tool H0.200 W0.480
; skirt
G1 X65.245 Y59.021 F9000
G1 Z0.200 F300
G1 E0.8000 F900
G1 X68.459 Y55.807 E0.1633 F960
G1 X68.812 Y55.571 E0.0153
G1 X72.881 Y53.885 E0.1582
G1 X73.298 Y53.802 E0.0153
G1 X90.702 Y53.802 E0.6252
G1 X91.119 Y53.885 E0.0153
G1 X95.188 Y55.571 E0.1582
G1 X95.541 Y55.807 E0.0153
G1 X98.755 Y59.021 E0.1633
G1 X98.992 Y59.375 E0.0153
G1 X100.677 Y63.443 E0.1582
G1 X100.760 Y63.861 E0.0153
G1 X100.760 Y76.799 E0.4648
G1 X100.703 Y77.148 E0.0127
G1 X99.536 Y80.599 E0.1309
G1 X99.370 Y80.911 E0.0127
G1 X96.594 Y84.545 E0.1643
G1 X96.209 Y84.862 E0.0179
G1 X91.572 Y87.155 E0.1858
G1 X91.087 Y87.269 E0.0179
G1 X80.829 Y87.269 E0.3685
G1 X80.828 Y87.269 E0.0000
G1 X72.913 Y87.269 E0.2843
G1 X72.428 Y87.155 E0.0179
G1 X67.791 Y84.862 E0.1858
G1 X67.406 Y84.545 E0.0179
G1 X64.630 Y80.911 E0.1643
G1 X64.464 Y80.599 E0.0127
G1 X63.297 Y77.148 E0.1309
G1 X63.240 Y76.799 E0.0127
G1 X63.240 Y63.861 E0.4648
G1 X63.323 Y63.443 E0.0153
G1 X65.008 Y59.375 E0.1582
G1 X65.245 Y59.021 E0.0153
G1 X65.617 Y59.327 F9000
G1 X68.765 Y56.180 E0.1599 F960
G1 X69.040 Y55.996 E0.0119
G1 X73.021 Y54.347 E0.1548
G1 X73.345 Y54.282 E0.0119
G1 X90.655 Y54.282 E0.6218
G1 X90.979 Y54.347 E0.0119
G1 X94.960 Y55.996 E0.1548
G1 X95.235 Y56.180 E0.0119
G1 X98.383 Y59.327 E0.1599
G1 X98.566 Y59.602 E0.0119
G1 X100.215 Y63.583 E0.1548
G1 X100.280 Y63.908 E0.0119
G1 X100.280 Y76.760 E0.4617
G1 X100.235 Y77.031 E0.0099
G1 X99.093 Y80.408 E0.1281
G1 X98.964 Y80.650 E0.0099
G1 X96.246 Y84.210 E0.1609
G1 X95.947 Y84.456 E0.0139
G1 X91.409 Y86.701 E0.1819
G1 X91.031 Y86.789 E0.0139
G1 X80.924 Y86.789 E0.3631
G1 X80.924 Y86.789 E0.0000
G1 X72.969 Y86.789 E0.2858
G1 X72.591 Y86.701 E0.0139
G1 X68.053 Y84.456 E0.1819
G1 X67.754 Y84.210 E0.0139
G1 X65.036 Y80.650 E0.1609
G1 X64.907 Y80.408 E0.0099
G1 X63.765 Y77.031 E0.1281
G1 X63.720 Y76.760 E0.0099
G1 X63.720 Y63.908 E0.4617
G1 X63.785 Y63.583 E0.0119
G1 X65.434 Y59.602 E0.1548
G1 X65.617 Y59.327 E0.0119
G1 X65.990 Y59.633 F9000
G1 X69.070 Y56.553 E0.1565 F960
G1 X69.267 Y56.421 E0.0085
G1 X73.161 Y54.809 E0.1514
G1 X73.393 Y54.762 E0.0085
G1 X90.607 Y54.762 E0.6184
G1 X90.839 Y54.809 E0.0085
G1 X94.733 Y56.421 E0.1514
G1 X94.930 Y56.553 E0.0085
G1 X98.010 Y59.633 E0.1565
G1 X98.141 Y59.830 E0.0085
G1 X99.754 Y63.723 E0.1514
G1 X99.800 Y63.955 E0.0085
G1 X99.800 Y76.721 E0.4586
G1 X99.768 Y76.914 E0.0070
G1 X98.651 Y80.217 E0.1252
G1 X98.559 Y80.390 E0.0070
G1 X95.898 Y83.874 E0.1575
G1 X95.685 Y84.050 E0.0099
G1 X91.246 Y86.246 E0.1779
G1 X90.976 Y86.309 E0.0099
G1 X81.019 Y86.309 E0.3577
G1 X81.019 Y86.309 E0.0000
G1 X73.024 Y86.309 E0.2872
G1 X72.754 Y86.246 E0.0099
G1 X68.315 Y84.050 E0.1779
G1 X68.102 Y83.874 E0.0099
G1 X65.441 Y80.390 E0.1575
G1 X65.349 Y80.217 E0.0070
G1 X64.232 Y76.914 E0.1252
G1 X64.200 Y76.721 E0.0070
G1 X64.200 Y63.955 E0.4586
G1 X64.246 Y63.723 E0.0085
G1 X65.859 Y59.830 E0.1514
G1 X65.990 Y59.633 E0.0085
G1 X66.363 Y59.939 F9000
G1 X69.376 Y56.926 E0.1531 F960
G1 X69.494 Y56.847 E0.0051
G1 X73.301 Y55.270 E0.1480
G1 X73.440 Y55.242 E0.0051
G1 X90.560 Y55.242 E0.6150
G1 X90.699 Y55.270 E0.0051
G1 X94.506 Y56.847 E0.1480
G1 X94.624 Y56.926 E0.0051
G1 X97.637 Y59.939 E0.1531
G1 X97.716 Y60.057 E0.0051
G1 X99.292 Y63.863 E0.1480
G1 X99.320 Y64.002 E0.0051
G1 X99.320 Y76.682 E0.4555
G1 X99.301 Y76.798 E0.0042
G1 X98.209 Y80.026 E0.1224
G1 X98.154 Y80.130 E0.0042
G1 X95.550 Y83.539 E0.1541
G1 X95.422 Y83.645 E0.0060
G1 X91.082 Y85.791 E0.1739
G1 X90.921 Y85.829 E0.0060
G1 X81.115 Y85.829 E0.3522
G1 X81.115 Y85.829 E0.0000
G1 X73.079 Y85.829 E0.2886
G1 X72.918 Y85.791 E0.0060
G1 X68.578 Y83.645 E0.1739
G1 X68.450 Y83.539 E0.0060
G1 X65.846 Y80.130 E0.1541
G1 X65.791 Y80.026 E0.0042
G1 X64.699 Y76.798 E0.1224
G1 X64.680 Y76.682 E0.0042
G1 X64.680 Y64.002 E0.4555
G1 X64.708 Y63.863 E0.0051
G1 X66.284 Y60.057 E0.1480
G1 X66.363 Y59.939 E0.0051
G1 X66.736 Y60.245 F9000
G1 X69.682 Y57.298 E0.1497 F960
G1 X69.722 Y57.272 E0.0017
G1 X73.441 Y55.732 E0.1446
G1 X73.487 Y55.722 E0.0017
G1 X90.513 Y55.722 E0.6116
G1 X90.559 Y55.732 E0.0017
G1 X94.278 Y57.272 E0.1446
G1 X94.318 Y57.298 E0.0017
G1 X97.264 Y60.245 E0.1497
G1 X97.290 Y60.284 E0.0017
G1 X98.831 Y64.003 E0.1446
G1 X98.840 Y64.050 E0.0017
G1 X98.840 Y76.643 E0.4523
G1 X98.834 Y76.681 E0.0014
G1 X97.767 Y79.835 E0.1196
G1 X97.749 Y79.870 E0.0014
G1 X95.202 Y83.204 E0.1507
G1 X95.160 Y83.239 E0.0020
G1 X90.919 Y85.336 E0.1699
G1 X90.865 Y85.349 E0.0020
G1 X81.210 Y85.349 E0.3468
G1 X81.210 Y85.349 E0.0000
G1 X73.135 Y85.349 E0.2901
G1 X73.081 Y85.336 E0.0020
G1 X68.840 Y83.239 E0.1699
G1 X68.798 Y83.204 E0.0020
G1 X66.251 Y79.870 E0.1507
G1 X66.233 Y79.835 E0.0014
G1 X65.166 Y76.681 E0.1196
G1 X65.160 Y76.643 E0.0014
G1 X65.160 Y64.050 E0.4523
G1 X65.169 Y64.003 E0.0017
G1 X66.710 Y60.284 E0.1446
G1 X66.736 Y60.245 E0.0017
; inner perimeter
G1 X76.120 Y66.682 F9000
G1 X77.880 Y66.682 E0.0632 F864
G1 X77.880 Y74.389 E0.2768
G1 X76.120 Y74.389 E0.0632
G1 X76.120 Y66.682 E0.2768
; outer perimeter
G1 X75.640 Y66.202 F9000
G1 X78.360 Y66.202 E0.0977 F768
G1 X78.360 Y74.869 E0.3113
G1 X75.640 Y74.869 E0.0977
G1 X75.640 Y66.202 E0.3113
; solid layer
G1 X76.504 Y67.204 F9000
G1 X76.642 Y67.066 E0.0070 F768
G1 X77.321 Y67.066 E0.0244
G1 X76.504 Y67.883 E0.0415
G1 X76.504 Y68.562 E0.0244
G1 X77.496 Y67.570 E0.0504
G1 X77.496 Y68.248 E0.0244
G1 X76.504 Y69.241 E0.0504
G1 X76.504 Y69.920 E0.0244
G1 X77.496 Y68.927 E0.0504
G1 X77.496 Y69.606 E0.0244
G1 X76.504 Y70.598 E0.0504
G1 X76.504 Y71.277 E0.0244
G1 X77.496 Y70.285 E0.0504
G1 X77.496 Y70.964 E0.0244
G1 X76.504 Y71.956 E0.0504
G1 X76.504 Y72.635 E0.0244
G1 X77.496 Y71.643 E0.0504
G1 X77.496 Y72.321 E0.0244
G1 X76.504 Y73.314 E0.0504
G1 X76.504 Y73.993 E0.0244
G1 X77.496 Y73.000 E0.0504
G1 X77.496 Y73.679 E0.0244
G1 X77.171 Y74.005 E0.0165
G1 E-0.8000 F3000
G1 Z0.400 F300
; inner perimeter
G1 X86.120 Y74.389 F9000
G1 Z0.200 F300
G1 E0.8000 F3000
G1 X86.120 Y66.682 E0.2768 F864
G1 X87.880 Y66.682 E0.0632
G1 X87.880 Y74.389 E0.2768
G1 X86.120 Y74.389 E0.0632
; outer perimeter
G1 X85.640 Y74.869 F9000
G1 X85.640 Y66.202 E0.3113 F768
G1 X88.360 Y66.202 E0.0977
G1 X88.360 Y74.869 E0.3113
G1 X85.640 Y74.869 E0.0977
; solid layer
G1 X87.353 Y74.005 F9000
G1 X87.496 Y73.862 E0.0073 F768
G1 X87.496 Y73.183 E0.0244
G1 X86.674 Y74.005 E0.0418
G1 X86.504 Y74.005 E0.0061
G1 X86.504 Y73.496 E0.0183
G1 X87.496 Y72.504 E0.0504
G1 X87.496 Y71.825 E0.0244
G1 X86.504 Y72.817 E0.0504
G1 X86.504 Y72.138 E0.0244
G1 X87.496 Y71.146 E0.0504
G1 X87.496 Y70.468 E0.0244
G1 X86.504 Y71.459 E0.0504
G1 X86.504 Y70.780 E0.0244
G1 X87.496 Y69.789 E0.0504
G1 X87.496 Y69.110 E0.0244
G1 X86.504 Y70.102 E0.0504
G1 X86.504 Y69.423 E0.0244
G1 X87.496 Y68.431 E0.0504
G1 X87.496 Y67.752 E0.0244
G1 X86.504 Y68.744 E0.0504
G1 X86.504 Y68.065 E0.0244
G1 X87.496 Y67.073 E0.0504
G1 X87.496 Y67.066 E0.0003
G1 X86.824 Y67.066 E0.0241
G1 X86.504 Y67.386 E0.0162
G1 E-0.8000 F3000
G1 Z0.400 F300
; support
G1 X76.708 Y80.000 F9000
G1 Z0.200 F300
G1 E0.8000 F3000
G1 X79.468 Y80.000 E0.0991 F768
G1 X79.468 Y81.380 E0.0496
G1 X80.523 Y81.380 E0.0379
G1 X80.523 Y80.000 E0.0496
G1 X83.283 Y80.000 E0.0991
G1 X83.283 Y81.069 E0.0384
G1 X86.395 Y81.069 E0.1118
G1 X86.395 Y81.380 E0.0112
G1 X89.120 Y81.380 E0.0979
G1 X89.120 Y82.400 E0.0366
G1 X83.635 Y82.400 E0.1970
G1 X83.635 Y82.275 E0.0045
G1 X80.120 Y82.275 E0.1262
G1 X80.120 Y82.400 E0.0045
G1 X73.880 Y82.400 E0.2241
G1 X73.880 Y84.800 E0.0862
G1 X82.796 Y84.800 E0.3203
G1 E-0.8000 F3000
G1 Z0.400 F300
G1 X85.880 Y84.800 F9000
G1 Z0.200 F300
G1 E0.8000 F3000
G1 X89.120 Y84.800 E0.1164 F768
G1 E-0.8000 F3000
G1 Z0.400 F300
G1 X89.120 Y89.600 F9000
G1 Z0.200 F300
G1 E0.8000 F3000
G1 X73.880 Y89.600 E0.5474 F768
M117 Layer 2, Z = 0.4
M104 S210 T0
M106 S255
G4 P500
M106 S102
; inner perimeter
G1 X75.920 Y74.735 F9000
G1 Z0.400 F300
G1 X75.920 Y66.482 E0.2964 F1047
G1 X78.080 Y66.482 E0.0776
G1 X78.080 Y74.735 E0.2964
G1 X75.920 Y74.735 E0.0776
; outer perimeter
G1 X75.619 Y75.215 F9000
G1 X75.440 Y74.981 E0.0106 F930
G1 X75.440 Y66.162 E0.3168
G1 X75.599 Y66.002 E0.0081
G1 X78.560 Y66.002 E0.1064
G1 X78.560 Y75.215 E0.3309
G1 X75.619 Y75.215 E0.1057
; solid layer
G1 X76.388 Y74.351 F9000
G1 X76.304 Y74.268 E0.0042 F930
G1 X76.304 Y73.589 E0.0244
G1 X77.066 Y74.351 E0.0387
G1 X77.696 Y74.351 E0.0226
G1 X77.696 Y74.302 E0.0018
G1 X76.304 Y72.910 E0.0707
G1 X76.304 Y72.231 E0.0244
G1 X77.696 Y73.623 E0.0707
G1 X77.696 Y72.945 E0.0244
G1 X76.304 Y71.552 E0.0707
G1 X76.304 Y70.873 E0.0244
G1 X77.696 Y72.266 E0.0707
G1 X77.696 Y71.587 E0.0244
G1 X76.304 Y70.195 E0.0707
G1 X76.304 Y69.516 E0.0244
G1 X77.696 Y70.908 E0.0707
G1 X77.696 Y70.229 E0.0244
G1 X76.304 Y68.837 E0.0707
G1 X76.304 Y68.158 E0.0244
G1 X77.696 Y69.550 E0.0707
G1 X77.696 Y68.872 E0.0244
G1 X76.304 Y67.479 E0.0707
G1 X76.304 Y66.866 E0.0220
G1 X76.370 Y66.866 E0.0024
G1 X77.696 Y68.193 E0.0674
G1 X77.696 Y67.514 E0.0244
G1 X77.049 Y66.866 E0.0329
G1 E-0.8000 F3000
G1 Z0.600 F300
; inner perimeter
G1 X85.920 Y66.482 F9000
G1 Z0.400 F300
