; G-Code generated by Simplify3D(R) Version 3.0.0
; Nov 16, 2016 at 8:01:38 AM
; Settings Summary
;   processName,Process1
;   applyToModels,g harness spacer long 1.2
;   profileName,JB Lite6 20mm meltzone 0.2
;   profileVersion,2016-07-27 06:45:13
;   baseProfile,Plywood
;   printMaterial,PLA
;   printQuality,0.3 base
;   printExtruders,
;   extruderName,Primary Extruder
;   extruderToolheadNumber,0
;   extruderDiameter,0.4
;   extruderAutoWidth,0
;   extruderWidth,0.48
;   extrusionMultiplier,1
;   extruderUseRetract,1
;   extruderRetractionDistance,1.1
;   extruderExtraRestartDistance,0
;   extruderRetractionZLift,0
;   extruderRetractionSpeed,4200
;   extruderUseCoasting,1
;   extruderCoastingDistance,1
;   extruderUseWipe,1
;   extruderWipeDistance,2
;   primaryExtruder,0
;   layerHeight,0.2
;   topSolidLayers,4
;   bottomSolidLayers,2
;   perimeterOutlines,2
;   printPerimetersInsideOut,1
;   startPointOption,2
;   startPointOriginX,100
;   startPointOriginY,0
;   startPointOriginZ,150
;   sequentialIslands,0
;   spiralVaseMode,0
;   firstLayerHeightPercentage,150
;   firstLayerWidthPercentage,100
;   firstLayerUnderspeed,0.5
;   useRaft,0
;   raftExtruder,0
;   raftLayers,3
;   raftOffset,5
;   raftSeparationDistance,0.1
;   raftInfill,85
;   disableRaftBaseLayers,0
;   useSkirt,1
;   skirtExtruder,0
;   skirtLayers,1
;   skirtOutlines,3
;   skirtOffset,4
;   usePrimePillar,0
;   primePillarExtruder,999
;   primePillarWidth,12
;   primePillarLocation,7
;   primePillarSpeedMultiplier,1
;   useOozeShield,0
;   oozeShieldExtruder,999
;   oozeShieldOffset,10
;   oozeShieldOutlines,1
;   oozeShieldSidewallShape,0
;   oozeShieldSidewallAngle,30
;   oozeShieldSpeedMultiplier,1
;   infillExtruder,0
;   internalInfillPattern,Rectilinear
;   externalInfillPattern,Rectilinear
;   infillPercentage,30
;   outlineOverlapPercentage,15
;   infillExtrusionWidthPercentage,125
;   minInfillLength,1
;   infillLayerInterval,1
;   infillAngles,45,-45
;   overlapInfillAngles,0
;   generateSupport,0
;   supportExtruder,0
;   supportInfillPercentage,20
;   supportExtraInflation,0
;   denseSupportLayers,0
;   denseSupportInfillPercentage,70
;   supportLayerInterval,1
;   supportHorizontalPartOffset,0.3
;   supportUpperSeparationLayers,1
;   supportLowerSeparationLayers,1
;   supportType,0
;   supportGridSpacing,5
;   maxOverhangAngle,35
;   supportAngles,0
;   temperatureName,Extruder 0,Heated Bed
;   temperatureNumber,0,0
;   temperatureSetpointCount,1,1
;   temperatureSetpointLayers,1,1
;   temperatureSetpointTemperatures,210,60
;   temperatureStabilizeAtStartup,1,1
;   temperatureHeatedBed,0,1
;   temperatureRelayBetweenLayers,0,0
;   temperatureRelayBetweenLoops,0,0
;   fanLayers,1,3
;   fanSpeeds,0,60
;   blipFanToFullPower,1
;   adjustSpeedForCooling,1
;   minSpeedLayerTime,15
;   minCoolingSpeedSlowdown,40
;   increaseFanForCooling,1
;   minFanLayerTime,15
;   maxCoolingFanSpeed,100
;   increaseFanForBridging,1
;   bridgingFanSpeed,100
;   use5D,1
;   relativeEdistances,1
;   allowEaxisZeroing,1
;   independentExtruderAxes,0
;   includeM10123,0
;   stickySupport,1
;   applyToolheadOffsets,0
;   gcodeXoffset,0
;   gcodeYoffset,0
;   gcodeZoffset,0
;   overrideMachineDefinition,1
;   machineTypeOverride,0
;   strokeXoverride,170
;   strokeYoverride,160
;   strokeZoverride,145
;   originOffsetXoverride,0
;   originOffsetYoverride,0
;   originOffsetZoverride,0
;   homeXdirOverride,-1
;   homeYdirOverride,-1
;   homeZdirOverride,-1
;   flipXoverride,1
;   flipYoverride,-1
;   flipZoverride,1
;   toolheadOffsets,0,0|0,0|0,0|0,0|0,0|0,0
;   overrideFirmwareConfiguration,0
;   firmwareTypeOverride,RepRap (Marlin/Repetier/Sprinter)
;   GPXconfigOverride,r2
;   baudRateOverride,250000
;   overridePrinterModels,0
;   printerModelsOverride
;   startingGcode,; Jellybox Start Script Begin,M117 Preparing ,,; set x homing offset for default bed leveling,M206 X10.0 Y0.0  ,; optionally adjust Extruder steps per mm for your filament,; M92 E140 ,,; home all axes,G28,; slow Z speed down for greater accuracy,M203 Z5,; auto bed leveling procedure,G29,; pick up z speed again for print,M203 Z7,; reset extruder position,G92 E0,,M117 Print starting,;Jellybox Printer Start Script End
;   layerChangeGcode,
;   retractionGcode,
;   toolChangeGcode,
;   endingGcode,;Jellybox Printer End Script Start,,; extruder heater off,M104 S0,; bed heater off (if you have it),M140 S0,; turn fan off,M107,,; relative positioning,G91,; retract the filament a bit before lifting the nozzle to release some of the pressure,G1 E-1.5 F1200,; move Z up a bit and retract filament even more,G1 Z+1 E-1 X-20 Y-20,;move X/Y to so the head is out of the way,G28 X0,G1 Y100,; steppers off,M84,; absolute positioning,G90,,; Jellybox Printer End Script End
;   createX3G,0
;   celebration,0
;   celebrationSong,Random Song
;   createMB5G,0
;   postProcessing,|{REPLACE "; layer" "M117 Layer"} ,{REPLACE ", Z = " " | Z="}
;   defaultSpeed,3000
;   outlineUnderspeed,0.4
;   solidInfillUnderspeed,0.75
;   supportUnderspeed,0.75
;   rapidXYspeed,7200
;   rapidZspeed,300
;   minBridgingArea,50
;   bridgingExtraInflation,0.4
;   bridgingExtrusionMultiplier,1
;   bridgingSpeedMultiplier,1
;   filamentDiameter,1.75
;   filamentPricePerKg,15
;   filamentDensity,1.25
;   useMinPrintHeight,0
;   minPrintHeight,0
;   useMaxPrintHeight,0
;   maxPrintHeight,0
;   useDiaphragm,0
;   diaphragmLayerInterval,20
;   robustSlicing,1
;   mergeAllIntoSolid,0
;   onlyRetractWhenCrossingOutline,1
;   retractBetweenLayers,1
;   useRetractionMinTravel,1
;   retractionMinTravel,1.5
;   retractWhileWiping,0
;   onlyWipeOutlines,1
;   avoidCrossingOutline,1
;   maxMovementDetourFactor,3
;   toolChangeRetractionDistance,12
;   toolChangeExtraRestartDistance,-0.5
;   toolChangeRetractionSpeed,600
;   allowThinWallGapFill,1
;   thinWallAllowedOverlapPercentage,15
;   horizontalSizeCompensation,0
G90
M83
M106 S0
M140 S60
M190 S60
M104 S210 T0
M109 S210 T0
; Jellybox Start Script Begin
M117 Preparing 
; set x homing offset for default bed leveling
M206 X10.0 Y0.0  
; optionally adjust Extruder steps per mm for your filament
; M92 E140 
; home all axes
G28
; slow Z speed down for greater accuracy
M203 Z5
; auto bed leveling procedure
G29
; pick up z speed again for print
M203 Z7
; reset extruder position
G92 E0
M117 Print starting
;Jellybox Printer Start Script End
G1 E-1.1000 F4200
G1 Z0.300 F300
; layer 1, Z = 0.3
M106 S255
G4 P500
M106 S56
T0
; tool H0.300 W0.480
; skirt
G1 X78.613 Y80.369 F7200
G1 E1.1000 F1260
G1 X79.276 Y79.745 E0.0545 F1200
G1 X79.308 Y79.717 E0.0025
G1 X79.560 Y79.511 E0.0195
G1 X79.594 Y79.486 E0.0025
G1 X80.208 Y79.053 E0.0450
G1 X80.238 Y79.033 E0.0022
G1 X80.479 Y78.885 E0.0169
G1 X80.511 Y78.866 E0.0022
G1 X81.154 Y78.522 E0.0437
G1 X81.187 Y78.506 E0.0022
G1 X81.444 Y78.388 E0.0169
G1 X81.478 Y78.374 E0.0022
G1 X82.158 Y78.111 E0.0437
G1 X82.193 Y78.099 E0.0022
G1 X82.462 Y78.014 E0.0169
G1 X82.498 Y78.004 E0.0022
G1 X83.206 Y77.826 E0.0437
G1 X83.242 Y77.819 E0.0022
G1 X83.519 Y77.767 E0.0169
G1 X83.556 Y77.761 E0.0022
G1 X84.280 Y77.672 E0.0437
G1 X84.317 Y77.669 E0.0022
G1 X84.598 Y77.651 E0.0169
G1 X84.635 Y77.650 E0.0022
G1 X85.365 Y77.650 E0.0437
G1 X85.402 Y77.651 E0.0022
G1 X85.683 Y77.669 E0.0169
G1 X85.720 Y77.672 E0.0022
G1 X86.444 Y77.761 E0.0437
G1 X86.481 Y77.767 E0.0022
G1 X86.758 Y77.819 E0.0169
G1 X86.794 Y77.826 E0.0022
G1 X87.502 Y78.004 E0.0437
G1 X87.538 Y78.014 E0.0022
G1 X87.807 Y78.099 E0.0169
G1 X87.842 Y78.111 E0.0022
G1 X88.522 Y78.374 E0.0437
G1 X88.556 Y78.388 E0.0022
G1 X88.813 Y78.506 E0.0169
G1 X88.846 Y78.522 E0.0022
G1 X89.489 Y78.866 E0.0437
G1 X89.521 Y78.885 E0.0022
G1 X89.762 Y79.033 E0.0169
G1 X89.792 Y79.053 E0.0022
G1 X90.406 Y79.486 E0.0450
G1 X90.440 Y79.511 E0.0025
G1 X90.692 Y79.717 E0.0195
G1 X90.724 Y79.745 E0.0025
G1 X91.387 Y80.369 E0.0545
G1 X91.416 Y80.399 E0.0025
G1 X91.636 Y80.636 E0.0194
G1 X91.663 Y80.668 E0.0025
G1 X92.123 Y81.242 E0.0440
G1 X92.142 Y81.268 E0.0020
G1 X92.289 Y81.474 E0.0151
G1 X92.308 Y81.501 E0.0020
G1 X92.610 Y81.978 E0.0338
G1 X92.627 Y82.007 E0.0020
G1 X92.755 Y82.235 E0.0156
G1 X92.770 Y82.265 E0.0020
G1 X93.156 Y83.060 E0.0529
G1 X93.174 Y83.100 E0.0026
G1 X93.298 Y83.410 E0.0200
G1 X93.312 Y83.451 E0.0026
G1 X93.540 Y84.171 E0.0452
G1 X93.550 Y84.206 E0.0022
G1 X93.619 Y84.480 E0.0169
G1 X93.627 Y84.516 E0.0022
G1 X93.761 Y85.234 E0.0437
G1 X93.766 Y85.270 E0.0022
G1 X93.801 Y85.550 E0.0169
G1 X93.804 Y85.587 E0.0022
G1 X93.849 Y86.315 E0.0437
G1 X93.850 Y86.352 E0.0022
G1 X93.850 Y86.634 E0.0169
G1 X93.849 Y86.671 E0.0022
G1 X93.804 Y87.399 E0.0437
G1 X93.801 Y87.436 E0.0022
G1 X93.766 Y87.717 E0.0169
G1 X93.761 Y87.753 E0.0022
G1 X93.627 Y88.470 E0.0437
G1 X93.619 Y88.506 E0.0022
G1 X93.550 Y88.780 E0.0169
G1 X93.540 Y88.816 E0.0022
G1 X93.312 Y89.536 E0.0452
G1 X93.298 Y89.577 E0.0026
G1 X93.174 Y89.887 E0.0200
G1 X93.156 Y89.927 E0.0026
G1 X92.738 Y90.789 E0.0574
G1 X92.712 Y90.836 E0.0032
G1 X92.501 Y91.188 E0.0246
G1 X92.471 Y91.233 E0.0032
G1 X91.780 Y92.179 E0.0702
G1 X91.745 Y92.223 E0.0033
G1 X91.463 Y92.542 E0.0255
G1 X91.424 Y92.582 E0.0033
G1 X90.724 Y93.242 E0.0576
G1 X90.692 Y93.269 E0.0025
G1 X90.440 Y93.475 E0.0195
G1 X90.406 Y93.501 E0.0025
G1 X89.792 Y93.933 E0.0450
G1 X89.762 Y93.953 E0.0022
G1 X89.521 Y94.102 E0.0169
G1 X89.489 Y94.120 E0.0022
G1 X88.846 Y94.464 E0.0437
G1 X88.813 Y94.480 E0.0022
G1 X88.556 Y94.598 E0.0169
G1 X88.522 Y94.612 E0.0022
G1 X87.842 Y94.875 E0.0437
G1 X87.807 Y94.887 E0.0022
G1 X87.537 Y94.973 E0.0169
G1 X87.502 Y94.983 E0.0022
G1 X86.794 Y95.160 E0.0437
G1 X86.758 Y95.168 E0.0022
G1 X86.481 Y95.220 E0.0169
G1 X86.444 Y95.225 E0.0022
G1 X85.720 Y95.315 E0.0437
G1 X85.684 Y95.318 E0.0022
G1 X85.402 Y95.335 E0.0169
G1 X85.365 Y95.336 E0.0022
G1 X84.635 Y95.336 E0.0437
G1 X84.598 Y95.335 E0.0022
G1 X84.316 Y95.318 E0.0169
G1 X84.280 Y95.314 E0.0022
G1 X83.556 Y95.225 E0.0437
G1 X83.519 Y95.220 E0.0022
G1 X83.242 Y95.168 E0.0169
G1 X83.206 Y95.160 E0.0022
G1 X82.498 Y94.983 E0.0437
G1 X82.463 Y94.973 E0.0022
G1 X82.193 Y94.887 E0.0169
G1 X82.158 Y94.875 E0.0022
G1 X81.478 Y94.612 E0.0437
G1 X81.444 Y94.598 E0.0022
G1 X81.187 Y94.480 E0.0169
G1 X81.154 Y94.464 E0.0022
G1 X80.511 Y94.120 E0.0437
G1 X80.479 Y94.102 E0.0022
G1 X80.238 Y93.953 E0.0169
G1 X80.208 Y93.933 E0.0022
G1 X79.611 Y93.513 E0.0437
G1 X79.582 Y93.491 E0.0022
G1 X79.361 Y93.314 E0.0169
G1 X79.333 Y93.290 E0.0022
G1 X78.778 Y92.787 E0.0448
G1 X78.748 Y92.758 E0.0025
G1 X78.526 Y92.526 E0.0193
G1 X78.498 Y92.495 E0.0025
G1 X77.915 Y91.795 E0.0545
G1 X77.889 Y91.761 E0.0026
G1 X77.698 Y91.496 E0.0196
G1 X77.675 Y91.460 E0.0026
G1 X77.280 Y90.820 E0.0450
G1 X77.262 Y90.789 E0.0022
G1 X77.128 Y90.540 E0.0169
G1 X77.112 Y90.507 E0.0022
G1 X76.808 Y89.843 E0.0437
G1 X76.794 Y89.809 E0.0022
G1 X76.692 Y89.546 E0.0169
G1 X76.680 Y89.511 E0.0022
G1 X76.460 Y88.816 E0.0437
G1 X76.450 Y88.780 E0.0022
G1 X76.381 Y88.506 E0.0169
G1 X76.373 Y88.470 E0.0022
G1 X76.240 Y87.753 E0.0437
G1 X76.234 Y87.717 E0.0022
G1 X76.199 Y87.436 E0.0169
G1 X76.196 Y87.400 E0.0022
G1 X76.149 Y86.640 E0.0455
G1 X76.148 Y86.595 E0.0027
G1 X76.153 Y86.251 E0.0206
G1 X76.155 Y86.206 E0.0027
G1 X76.232 Y85.336 E0.0523
G1 X76.235 Y85.306 E0.0018
G1 X76.267 Y85.078 E0.0138
G1 X76.272 Y85.048 E0.0018
G1 X76.377 Y84.499 E0.0335
G1 X76.385 Y84.464 E0.0021
G1 X76.451 Y84.200 E0.0163
G1 X76.461 Y84.166 E0.0021
G1 X76.688 Y83.451 E0.0449
G1 X76.702 Y83.410 E0.0026
G1 X76.826 Y83.100 E0.0200
G1 X76.844 Y83.060 E0.0026
G1 X77.230 Y82.265 E0.0529
G1 X77.245 Y82.235 E0.0020
G1 X77.373 Y82.007 E0.0156
G1 X77.390 Y81.978 E0.0020
G1 X77.692 Y81.501 E0.0338
G1 X77.711 Y81.474 E0.0020
G1 X77.858 Y81.268 E0.0151
G1 X77.877 Y81.242 E0.0020
G1 X77.966 Y81.131 E0.0085
G1 X78.337 Y80.668 F1200
G1 X78.364 Y80.636 F1200
G1 X78.583 Y80.399 F1200
G1 X78.613 Y80.369 F1200
G1 X78.948 Y80.713 F7200
G1 X79.599 Y80.100 E0.0535 F1200
G1 X79.618 Y80.083 E0.0015
G1 X79.857 Y79.889 E0.0185
G1 X79.877 Y79.873 E0.0015
G1 X80.478 Y79.450 E0.0440
G1 X80.497 Y79.438 E0.0013
G1 X80.724 Y79.297 E0.0160
G1 X80.743 Y79.286 E0.0013
G1 X81.374 Y78.949 E0.0428
G1 X81.394 Y78.939 E0.0013
G1 X81.637 Y78.828 E0.0160
G1 X81.657 Y78.819 E0.0013
G1 X82.324 Y78.562 E0.0428
G1 X82.345 Y78.555 E0.0013
G1 X82.600 Y78.474 E0.0160
G1 X82.622 Y78.468 E0.0013
G1 X83.315 Y78.294 E0.0428
G1 X83.337 Y78.289 E0.0013
G1 X83.600 Y78.240 E0.0160
G1 X83.622 Y78.237 E0.0013
G1 X84.331 Y78.149 E0.0428
G1 X84.353 Y78.147 E0.0013
G1 X84.620 Y78.131 E0.0160
G1 X84.643 Y78.130 E0.0013
G1 X85.357 Y78.130 E0.0428
G1 X85.380 Y78.131 E0.0013
G1 X85.647 Y78.147 E0.0160
G1 X85.669 Y78.149 E0.0013
G1 X86.378 Y78.237 E0.0428
G1 X86.400 Y78.240 E0.0013
G1 X86.663 Y78.289 E0.0160
G1 X86.685 Y78.294 E0.0013
G1 X87.378 Y78.468 E0.0428
G1 X87.400 Y78.474 E0.0013
G1 X87.655 Y78.555 E0.0160
G1 X87.676 Y78.562 E0.0013
G1 X88.343 Y78.819 E0.0428
G1 X88.363 Y78.828 E0.0013
G1 X88.606 Y78.939 E0.0160
G1 X88.626 Y78.949 E0.0013
G1 X89.257 Y79.286 E0.0428
G1 X89.276 Y79.297 E0.0013
G1 X89.503 Y79.438 E0.0160
G1 X89.522 Y79.450 E0.0013
G1 X90.123 Y79.873 E0.0440
G1 X90.143 Y79.889 E0.0015
G1 X90.382 Y80.083 E0.0185
G1 X90.401 Y80.100 E0.0015
G1 X91.052 Y80.713 E0.0535
G1 X91.070 Y80.731 E0.0015
G1 X91.277 Y80.956 E0.0183
G1 X91.294 Y80.975 E0.0015
G1 X91.744 Y81.537 E0.0431
G1 X91.756 Y81.553 E0.0012
G1 X91.895 Y81.747 E0.0143
G1 X91.906 Y81.764 E0.0012
G1 X92.201 Y82.229 E0.0330
G1 X92.212 Y82.247 E0.0012
G1 X92.332 Y82.463 E0.0148
G1 X92.341 Y82.481 E0.0012
G1 X92.721 Y83.262 E0.0520
G1 X92.731 Y83.286 E0.0016
G1 X92.848 Y83.580 E0.0189
G1 X92.857 Y83.604 E0.0016
G1 X93.081 Y84.309 E0.0443
G1 X93.087 Y84.330 E0.0013
G1 X93.152 Y84.590 E0.0160
G1 X93.156 Y84.611 E0.0013
G1 X93.287 Y85.314 E0.0428
G1 X93.291 Y85.336 E0.0013
G1 X93.323 Y85.602 E0.0160
G1 X93.325 Y85.624 E0.0013
G1 X93.369 Y86.337 E0.0428
G1 X93.370 Y86.359 E0.0013
G1 X93.370 Y86.627 E0.0160
G1 X93.369 Y86.649 E0.0013
G1 X93.325 Y87.363 E0.0428
G1 X93.323 Y87.385 E0.0013
G1 X93.291 Y87.650 E0.0160
G1 X93.287 Y87.672 E0.0013
G1 X93.156 Y88.375 E0.0428
G1 X93.152 Y88.397 E0.0013
G1 X93.087 Y88.656 E0.0160
G1 X93.081 Y88.678 E0.0013
G1 X92.857 Y89.382 E0.0443
G1 X92.848 Y89.407 E0.0016
G1 X92.731 Y89.701 E0.0189
G1 X92.721 Y89.725 E0.0016
G1 X92.311 Y90.570 E0.0562
G1 X92.295 Y90.598 E0.0019
G1 X92.095 Y90.932 E0.0233
G1 X92.077 Y90.958 E0.0019
G1 X91.399 Y91.888 E0.0689
G1 X91.378 Y91.913 E0.0020
G1 X91.110 Y92.216 E0.0242
G1 X91.087 Y92.240 E0.0020
G1 X90.401 Y92.886 E0.0564
G1 X90.382 Y92.903 E0.0015
G1 X90.143 Y93.098 E0.0184
G1 X90.123 Y93.113 E0.0015
G1 X89.522 Y93.537 E0.0440
G1 X89.504 Y93.549 E0.0013
G1 X89.276 Y93.689 E0.0160
G1 X89.257 Y93.700 E0.0013
G1 X88.626 Y94.037 E0.0428
G1 X88.606 Y94.047 E0.0013
G1 X88.363 Y94.159 E0.0160
G1 X88.343 Y94.167 E0.0013
G1 X87.676 Y94.425 E0.0428
G1 X87.655 Y94.432 E0.0013
G1 X87.399 Y94.513 E0.0160
G1 X87.378 Y94.519 E0.0013
G1 X86.685 Y94.693 E0.0428
G1 X86.663 Y94.697 E0.0013
G1 X86.400 Y94.746 E0.0160
G1 X86.378 Y94.750 E0.0013
G1 X85.669 Y94.837 E0.0428
G1 X85.647 Y94.839 E0.0013
G1 X85.380 Y94.856 E0.0160
G1 X85.358 Y94.856 E0.0013
G1 X84.642 Y94.856 E0.0428
G1 X84.620 Y94.856 E0.0013
G1 X84.353 Y94.839 E0.0160
G1 X84.331 Y94.837 E0.0013
G1 X83.622 Y94.750 E0.0428
G1 X83.600 Y94.746 E0.0013
G1 X83.337 Y94.697 E0.0160
G1 X83.315 Y94.693 E0.0013
G1 X82.622 Y94.519 E0.0428
G1 X82.601 Y94.513 E0.0013
G1 X82.345 Y94.432 E0.0160
G1 X82.324 Y94.425 E0.0013
