; G-Code generated by Simplify3D(R) Version 3.0.0
; Nov 16, 2016 at 8:03:58 AM
; Settings Summary
;   processName,Process1
;   applyToModels,g hotend shroud thick plastite support(6)
;   profileName,Default (modified)
;   profileVersion,2016-03-18 16:10:16
;   baseProfile,Default (modified)
;   printMaterial,PLA Lankeda Green
;   printQuality,Fast
;   printExtruders,
;   extruderName,Primary Extruder
;   extruderToolheadNumber,0
;   extruderDiameter,0.4
;   extruderAutoWidth,1
;   extruderWidth,0.48
;   extrusionMultiplier,1
;   extruderUseRetract,1
;   extruderRetractionDistance,1.5
;   extruderExtraRestartDistance,0.07
;   extruderRetractionZLift,0.07
;   extruderRetractionSpeed,9600
;   extruderUseCoasting,0
;   extruderCoastingDistance,0.2
;   extruderUseWipe,0
;   extruderWipeDistance,5
;   primaryExtruder,0
;   layerHeight,0.202
;   topSolidLayers,4
;   bottomSolidLayers,3
;   perimeterOutlines,2
;   printPerimetersInsideOut,1
;   startPointOption,2
;   startPointOriginX,0
;   startPointOriginY,0
;   startPointOriginZ,300
;   sequentialIslands,0
;   spiralVaseMode,0
;   firstLayerHeightPercentage,100
;   firstLayerWidthPercentage,95
;   firstLayerUnderspeed,0.5
;   useRaft,0
;   raftExtruder,0
;   raftLayers,1
;   raftOffset,3
;   raftSeparationDistance,0.25
;   raftInfill,100
;   disableRaftBaseLayers,0
;   useSkirt,1
;   skirtExtruder,0
;   skirtLayers,1
;   skirtOutlines,6
;   skirtOffset,0
;   usePrimePillar,0
;   primePillarExtruder,999
;   primePillarWidth,12
;   primePillarLocation,7
;   primePillarSpeedMultiplier,1
;   useOozeShield,0
;   oozeShieldExtruder,999
;   oozeShieldOffset,2
;   oozeShieldOutlines,1
;   oozeShieldSidewallShape,1
;   oozeShieldSidewallAngle,30
;   oozeShieldSpeedMultiplier,1
;   infillExtruder,0
;   internalInfillPattern,Rectilinear
;   externalInfillPattern,Rectilinear
;   infillPercentage,30
;   outlineOverlapPercentage,25
;   infillExtrusionWidthPercentage,125
;   minInfillLength,4
;   infillLayerInterval,1
;   infillAngles,45,-45
;   overlapInfillAngles,0
;   generateSupport,0
;   supportExtruder,0
;   supportInfillPercentage,25
;   supportExtraInflation,0
;   denseSupportLayers,2
;   denseSupportInfillPercentage,60
;   supportLayerInterval,1
;   supportHorizontalPartOffset,0.3
;   supportUpperSeparationLayers,1
;   supportLowerSeparationLayers,1
;   supportType,0
;   supportGridSpacing,3
;   maxOverhangAngle,55
;   supportAngles,0
;   temperatureName,Primary Extruder,bed
;   temperatureNumber,0,0
;   temperatureSetpointCount,1,1
;   temperatureSetpointLayers,1,1
;   temperatureSetpointTemperatures,210,60
;   temperatureStabilizeAtStartup,1,1
;   temperatureHeatedBed,0,1
;   temperatureRelayBetweenLayers,0,0
;   temperatureRelayBetweenLoops,0,0
;   fanLayers,1,2
;   fanSpeeds,0,30
;   blipFanToFullPower,1
;   adjustSpeedForCooling,1
;   minSpeedLayerTime,15
;   minCoolingSpeedSlowdown,50
;   increaseFanForCooling,0
;   minFanLayerTime,45
;   maxCoolingFanSpeed,100
;   increaseFanForBridging,1
;   bridgingFanSpeed,100
;   use5D,1
;   relativeEdistances,0
;   allowEaxisZeroing,1
;   independentExtruderAxes,0
;   includeM10123,0
;   stickySupport,1
;   applyToolheadOffsets,0
;   gcodeXoffset,0
;   gcodeYoffset,0
;   gcodeZoffset,0
;   overrideMachineDefinition,1
;   machineTypeOverride,0
;   strokeXoverride,170
;   strokeYoverride,160
;   strokeZoverride,120
;   originOffsetXoverride,0
;   originOffsetYoverride,0
;   originOffsetZoverride,0
;   homeXdirOverride,-1
;   homeYdirOverride,-1
;   homeZdirOverride,-1
;   flipXoverride,1
;   flipYoverride,-1
;   flipZoverride,1
;   toolheadOffsets,0,0|0,0|0,0|0,0|0,0|0,0
;   overrideFirmwareConfiguration,0
;   firmwareTypeOverride,RepRap (Marlin/Repetier/Sprinter)
;   GPXconfigOverride,r2
;   baudRateOverride,115200
;   overridePrinterModels,0
;   printerModelsOverride
;   startingGcode,G92 E0;,G1 E-3;,G92 E0;,G28     ; home all axes,M203 Z5 ; slow Z speed down for greater accuracy when getting the matrix,G29     ; level the bed,M203 Z10     ; pick up z speeed again for,G1 Z5 F5000 ; lift the nozzle a little before moving onto printing. It looks deliberate and cool. 
;   layerChangeGcode,
;   retractionGcode,
;   toolChangeGcode,
;   endingGcode,; by Filip inspired by Cura,M104 S0        ; turn off extruder heater,M140 S0        ; turn off heated bed heater (if you have it),G28 X0         ; home X axis,M107           ; turn fan off,G91            ;relative positioning,G1 E-1 F3000   ;retract the filament a bit before lifting the nozzle to release some of the pressure,G1 Z+0.5 E-5 X-20 Y-20 F300 ;move Z up a bit and retract filament even more,G90            ;absolute positioning,G28 X0 Y0      ;move X/Y to min endstops so the head is out of the way,M84            ;steppers off,
;   createX3G,0
;   celebration,0
;   celebrationSong,Random Song
;   createMB5G,0
;   postProcessing,
;   defaultSpeed,3000
;   outlineUnderspeed,0.7
;   solidInfillUnderspeed,0.7
;   supportUnderspeed,0.9
;   rapidXYspeed,9000
;   rapidZspeed,360
;   minBridgingArea,50
;   bridgingExtraInflation,0
;   bridgingExtrusionMultiplier,1
;   bridgingSpeedMultiplier,1
;   filamentDiameter,1.75
;   filamentPricePerKg,46
;   filamentDensity,1.25
;   useMinPrintHeight,0
;   minPrintHeight,93
;   useMaxPrintHeight,0
;   maxPrintHeight,0.6
;   useDiaphragm,0
;   diaphragmLayerInterval,20
;   robustSlicing,1
;   mergeAllIntoSolid,0
;   onlyRetractWhenCrossingOutline,1
;   retractBetweenLayers,1
;   useRetractionMinTravel,1
;   retractionMinTravel,1.5
;   retractWhileWiping,1
;   onlyWipeOutlines,1
;   avoidCrossingOutline,0
;   maxMovementDetourFactor,3
;   toolChangeRetractionDistance,12
;   toolChangeExtraRestartDistance,-0.5
;   toolChangeRetractionSpeed,600
;   allowThinWallGapFill,1
;   thinWallAllowedOverlapPercentage,15
;   horizontalSizeCompensation,0
G90
M82
M106 S0
M140 S60
M190 S60
M104 S210 T0
M109 S210 T0
G92 E0;
G1 E-3;
G92 E0;
G28     ; home all axes
M203 Z5 ; slow Z speed down for greater accuracy when getting the matrix
G29     ; level the bed
M203 Z10     ; pick up z speeed again for
G1 Z5 F5000 ; lift the nozzle a little before moving onto printing. It looks deliberate and cool. 
G92 E0
G1 E-1.5000 F9600
G1 Z0.272 F360
; layer 1, Z = 0.202
T0
; tool H0.202 W0.456
; skirt
G1 X67.506 Y55.591 F9000
G1 Z0.202 F360
G1 E0.0700 F2880
G92 E0
G1 X68.684 Y54.950 E0.0513 F1500
G1 X71.644 Y54.948 E0.1647
G1 X71.902 Y55.478 E0.1873
G1 X72.125 Y55.424 E0.1960
G1 X72.329 Y55.392 E0.2040
G1 X72.888 Y55.347 E0.2254
G1 X73.096 Y55.347 E0.2334
G1 X73.654 Y55.391 E0.2549
G1 X73.859 Y55.423 E0.2628
G1 X74.123 Y55.486 E0.2732
G1 X74.557 Y54.755 E0.3057
G1 X77.526 Y55.013 E0.4199
G1 X78.644 Y55.751 E0.4712
G1 X79.216 Y56.822 E0.5177
G1 X79.275 Y56.948 E0.5230
G1 X79.505 Y57.517 E0.5465
G1 X79.550 Y57.648 E0.5518
G1 X79.720 Y58.238 E0.5753
G1 X79.751 Y58.374 E0.5807
G1 X79.857 Y58.979 E0.6042
G1 X79.874 Y59.117 E0.6095
G1 X79.916 Y59.729 E0.6330
G1 X79.918 Y59.868 E0.6384
G1 X79.895 Y60.482 E0.6619
G1 X79.883 Y60.621 E0.6672
G1 X79.796 Y61.228 E0.6907
G1 X79.769 Y61.365 E0.6960
G1 X79.708 Y61.604 E0.7055
G1 X90.291 Y61.604 E1.1108
G1 X90.290 Y61.604 E1.1108
G1 X90.257 Y61.462 E1.1164
G1 X90.144 Y60.829 E1.1410
G1 X90.127 Y60.684 E1.1466
G1 X90.085 Y60.042 E1.1712
G1 X90.083 Y59.896 E1.1768
G1 X90.113 Y59.254 E1.2014
G1 X90.127 Y59.108 E1.2070
G1 X90.227 Y58.473 E1.2316
G1 X90.257 Y58.330 E1.2372
G1 X90.427 Y57.710 E1.2619
G1 X90.473 Y57.571 E1.2675
G1 X90.709 Y56.973 E1.2921
G1 X90.771 Y56.841 E1.2977
G1 X91.352 Y55.744 E1.3452
G1 X92.470 Y55.003 E1.3966
G1 X95.427 Y54.742 E1.5103
G1 X95.863 Y55.472 E1.5428
G1 X96.127 Y55.408 E1.5532
G1 X96.332 Y55.375 E1.5612
G1 X96.891 Y55.331 E1.5826
G1 X97.098 Y55.331 E1.5906
G1 X97.657 Y55.374 E1.6121
G1 X97.862 Y55.407 E1.6200
G1 X98.087 Y55.461 E1.6289
G1 X98.344 Y54.930 E1.6514
G1 X101.307 Y54.928 E1.7649
G1 X102.485 Y55.566 E1.8162
G1 X103.154 Y56.591 E1.8631
G1 X103.225 Y56.714 E1.8685
G1 X103.508 Y57.271 E1.8924
G1 X103.565 Y57.400 E1.8979
G1 X103.787 Y57.984 E1.9218
G1 X103.830 Y58.119 E1.9272
G1 X103.988 Y58.724 E1.9511
G1 X104.016 Y58.862 E1.9566
G1 X104.108 Y59.480 E1.9805
G1 X104.122 Y59.621 E1.9859
G1 X104.147 Y60.246 E2.0098
G1 X104.145 Y60.387 E2.0153
G1 X104.104 Y61.011 E2.0392
G1 X104.087 Y61.151 E2.0446
G1 X103.978 Y61.767 E2.0685
G1 X103.946 Y61.905 E2.0740
G1 X103.945 Y61.908 E2.0741
G1 X104.144 Y61.965 E2.0820
G1 X104.388 Y62.061 E2.0921
G1 X105.038 Y62.395 E2.1201
G1 X105.206 Y62.498 E2.1276
G1 X105.670 Y62.832 E2.1495
G1 X105.804 Y62.941 E2.1561
G1 X106.287 Y63.396 E2.1815
G1 X106.524 Y63.694 E2.1961
G1 X106.928 Y64.386 E2.2268
G1 X107.007 Y64.545 E2.2336
G1 X107.285 Y65.217 E2.2615
G1 X107.345 Y65.395 E2.2686
G1 X107.534 Y66.131 E2.2977
G1 X107.570 Y66.343 E2.3060
G1 X107.650 Y67.243 E2.3406
G1 X107.655 Y67.360 E2.3451
G1 X107.640 Y99.495 E3.5757
G1 X107.637 Y99.588 E3.5793
G1 X107.581 Y100.373 E3.6094
G1 X107.545 Y100.600 E3.6182
G1 X107.357 Y101.349 E3.6478
G1 X107.312 Y101.495 E3.6536
G1 X107.110 Y102.029 E3.6755
G1 X107.054 Y102.157 E3.6808
G1 X106.801 Y102.660 E3.7024
G1 X106.732 Y102.780 E3.7077
G1 X106.370 Y103.342 E3.7333
G1 X106.122 Y103.628 E3.7478
G1 X105.623 Y104.059 E3.7731
G1 X105.487 Y104.163 E3.7796
G1 X105.022 Y104.469 E3.8009
G1 X104.874 Y104.554 E3.8075
G1 X104.374 Y104.798 E3.8288
G1 X104.216 Y104.863 E3.8353
G1 X103.688 Y105.040 E3.8566
G1 X103.523 Y105.084 E3.8632
G1 X102.977 Y105.191 E3.8845
G1 X102.807 Y105.213 E3.8910
G1 X102.295 Y105.246 E3.9107
G1 X102.210 Y105.249 E3.9140
G1 X97.450 Y105.249 E4.0962
G1 X96.321 Y104.674 E4.1448
G1 X95.839 Y104.012 E4.1761
G1 X95.759 Y103.973 E4.1795
G1 X95.754 Y103.973 E4.1798
G1 X95.743 Y103.976 E4.1802
G1 X95.733 Y103.980 E4.1806
G1 X95.724 Y103.986 E4.1810
G1 X95.715 Y103.993 E4.1814
G1 X95.710 Y103.998 E4.1817
G1 X95.219 Y104.674 E4.2137
G1 X94.089 Y105.249 E4.2622
G1 X75.967 Y105.249 E4.9562
G1 X74.869 Y104.711 E5.0031
G1 X74.349 Y104.042 E5.0355
G1 X74.295 Y103.995 E5.0383
G1 X74.224 Y104.000 E5.0410
G1 X74.219 Y104.004 E5.0412
G1 X74.212 Y104.011 E5.0416
G1 X73.721 Y104.680 E5.0734
G1 X72.596 Y105.249 E5.1217
G1 X67.804 Y105.249 E5.3052
G1 X67.720 Y105.247 E5.3084
G1 X67.217 Y105.214 E5.3277
G1 X67.050 Y105.193 E5.3342
G1 X66.514 Y105.090 E5.3551
G1 X66.352 Y105.047 E5.3615
G1 X65.833 Y104.876 E5.3824
G1 X65.677 Y104.814 E5.3888
G1 X65.184 Y104.579 E5.4097
G1 X65.038 Y104.497 E5.4162
G1 X64.579 Y104.201 E5.4371
G1 X64.444 Y104.101 E5.4435
G1 X63.924 Y103.663 E5.4695
G1 X63.642 Y103.333 E5.4862
G1 X63.157 Y102.528 E5.5222
G1 X63.071 Y102.360 E5.5294
G1 X62.783 Y101.678 E5.5578
G1 X62.725 Y101.508 E5.5646
G1 X62.542 Y100.832 E5.5915
G1 X62.506 Y100.644 E5.5988
G1 X62.411 Y99.849 E5.6294
G1 X62.401 Y99.695 E5.6353
G1 X62.343 Y67.214 E6.8792
G1 X62.350 Y67.073 E6.8846
G1 X62.428 Y66.338 E6.9129
G1 X62.462 Y66.148 E6.9204
G1 X62.650 Y65.417 E6.9492
G1 X62.702 Y65.257 E6.9557
G1 X62.922 Y64.707 E6.9784
G1 X62.998 Y64.547 E6.9852
G1 X63.462 Y63.724 E7.0213
G1 X63.727 Y63.393 E7.0376
G1 X64.351 Y62.826 E7.0699
G1 X64.551 Y62.676 E7.0794
G1 X65.335 Y62.198 E7.1146
G1 X65.571 Y62.085 E7.1246
G1 X66.053 Y61.909 E7.1443
G1 X66.027 Y61.796 E7.1487
G1 X65.918 Y61.181 E7.1726
G1 X65.900 Y61.041 E7.1781
G1 X65.857 Y60.417 E7.2020
G1 X65.855 Y60.276 E7.2074
G1 X65.879 Y59.651 E7.2313
G1 X65.892 Y59.510 E7.2368
G1 X65.983 Y58.892 E7.2607
G1 X66.011 Y58.753 E7.2661
G1 X66.167 Y58.148 E7.2901
G1 X66.210 Y58.013 E7.2955
G1 X66.431 Y57.429 E7.3194
G1 X66.488 Y57.299 E7.3248
G1 X66.769 Y56.741 E7.3488
G1 X66.840 Y56.618 E7.3542
G1 X67.506 Y55.591 E7.4011
G1 X67.843 Y55.954 F9000
G92 E0
G1 X68.806 Y55.430 E0.0420 F1500
G1 X71.344 Y55.429 E0.1392
G1 X71.641 Y56.040 E0.1652
G1 X71.710 Y56.018 E0.1680
G1 X72.219 Y55.895 E0.1880
G1 X72.386 Y55.869 E0.1945
G1 X72.907 Y55.827 E0.2146
G1 X73.077 Y55.827 E0.2211
G1 X73.598 Y55.868 E0.2411
G1 X73.766 Y55.894 E0.2476
G1 X74.274 Y56.016 E0.2676
G1 X74.352 Y56.041 E0.2707
G1 X74.816 Y55.259 E0.3055
G1 X77.363 Y55.480 E0.4035
G1 X78.278 Y56.084 E0.4454
G1 X78.786 Y57.036 E0.4868
G1 X78.834 Y57.140 E0.4911
G1 X79.055 Y57.685 E0.5137
G1 X79.093 Y57.793 E0.5180
G1 X79.255 Y58.359 E0.5406
G1 X79.280 Y58.470 E0.5449
G1 X79.382 Y59.049 E0.5675
G1 X79.396 Y59.162 E0.5718
G1 X79.436 Y59.749 E0.5944
G1 X79.438 Y59.863 E0.5987
G1 X79.416 Y60.451 E0.6213
G1 X79.406 Y60.565 E0.6256
G1 X79.322 Y61.147 E0.6482
G1 X79.300 Y61.259 E0.6525
G1 X79.156 Y61.830 E0.6751
G1 X79.122 Y61.938 E0.6794
G1 X79.068 Y62.084 E0.6854
G1 X90.933 Y62.084 E1.1398
G1 X90.929 Y62.072 E1.1402
G1 X90.755 Y61.481 E1.1639
G1 X90.727 Y61.365 E1.1684
G1 X90.619 Y60.758 E1.1920
G1 X90.605 Y60.639 E1.1966
G1 X90.565 Y60.024 E1.2202
G1 X90.564 Y59.904 E1.2248
G1 X90.591 Y59.288 E1.2484
G1 X90.603 Y59.170 E1.2530
G1 X90.699 Y58.561 E1.2766
G1 X90.724 Y58.444 E1.2812
G1 X90.886 Y57.849 E1.3048
G1 X90.924 Y57.736 E1.3093
G1 X91.151 Y57.162 E1.3330
G1 X91.201 Y57.054 E1.3375
G1 X91.719 Y56.077 E1.3799
G1 X92.634 Y55.470 E1.4219
G1 X95.169 Y55.246 E1.5194
G1 X95.635 Y56.027 E1.5542
G1 X95.713 Y56.001 E1.5573
G1 X96.221 Y55.879 E1.5774
G1 X96.389 Y55.852 E1.5839
G1 X96.910 Y55.811 E1.6039
G1 X97.079 Y55.811 E1.6104
G1 X97.601 Y55.852 E1.6304
G1 X97.768 Y55.878 E1.6369
G1 X98.277 Y56.000 E1.6569
G1 X98.347 Y56.023 E1.6598
G1 X98.645 Y55.410 E1.6859
G1 X101.186 Y55.408 E1.7832
G1 X102.150 Y55.930 E1.8251
G1 X102.744 Y56.842 E1.8669
G1 X102.802 Y56.943 E1.8713
G1 X103.074 Y57.477 E1.8942
G1 X103.121 Y57.583 E1.8987
G1 X103.333 Y58.143 E1.9216
G1 X103.369 Y58.253 E1.9260
G1 X103.520 Y58.832 E1.9490
G1 X103.543 Y58.946 E1.9534
G1 X103.632 Y59.538 E1.9764
G1 X103.642 Y59.654 E1.9808
G1 X103.667 Y60.252 E2.0037
G1 X103.665 Y60.368 E2.0082
G1 X103.625 Y60.966 E2.0311
G1 X103.612 Y61.081 E2.0355
G1 X103.508 Y61.671 E2.0585
G1 X103.482 Y61.784 E2.0629
G1 X103.350 Y62.239 E2.0811
G1 X103.990 Y62.420 E2.1065
G1 X104.190 Y62.499 E2.1147
G1 X104.803 Y62.814 E2.1411
G1 X104.941 Y62.898 E2.1473
G1 X105.377 Y63.212 E2.1679
G1 X105.486 Y63.302 E2.1733
G1 X105.933 Y63.722 E2.1968
G1 X106.127 Y63.966 E2.2088
G1 X106.505 Y64.613 E2.2375
G1 X106.570 Y64.744 E2.2430
G1 X106.836 Y65.385 E2.2696
G1 X106.884 Y65.531 E2.2755
G1 X107.064 Y66.232 E2.3032
G1 X107.094 Y66.405 E2.3099
G1 X107.171 Y67.274 E2.3434
G1 X107.175 Y67.370 E2.3471
G1 X107.160 Y99.486 E3.5769
G1 X107.158 Y99.562 E3.5799
G1 X107.104 Y100.318 E3.6089
G1 X107.074 Y100.504 E3.6161
G1 X106.895 Y101.219 E3.6443
G1 X106.858 Y101.338 E3.6491
G1 X106.665 Y101.848 E3.6700
G1 X106.619 Y101.952 E3.6743
G1 X106.378 Y102.432 E3.6949
G1 X106.321 Y102.531 E3.6993
G1 X105.985 Y103.054 E3.7231
G1 X105.782 Y103.287 E3.7349
G1 X105.321 Y103.686 E3.7583
G1 X105.209 Y103.771 E3.7636
G1 X104.771 Y104.060 E3.7837
G1 X104.649 Y104.129 E3.7891
G1 X104.177 Y104.359 E3.8092
G1 X104.048 Y104.413 E3.8146
G1 X103.550 Y104.580 E3.8347
G1 X103.415 Y104.616 E3.8400
G1 X102.900 Y104.717 E3.8602
G1 X102.761 Y104.735 E3.8655
G1 X102.272 Y104.767 E3.8843
G1 X102.202 Y104.769 E3.8870
G1 X97.565 Y104.769 E4.0645
G1 X96.641 Y104.299 E4.1042
G1 X96.198 Y103.689 E4.1331
G1 X96.168 Y103.657 E4.1348
G1 X96.094 Y103.602 E4.1383
G1 X95.900 Y103.507 E4.1466
G1 X95.882 Y103.502 E4.1473
G1 X95.807 Y103.492 E4.1502
G1 X95.732 Y103.492 E4.1531
G1 X95.657 Y103.502 E4.1559
G1 X95.585 Y103.522 E4.1588
G1 X95.515 Y103.552 E4.1617
G1 X95.451 Y103.590 E4.1646
G1 X95.392 Y103.637 E4.1675
G1 X95.341 Y103.689 E4.1703
G1 X94.898 Y104.299 E4.1991
G1 X93.974 Y104.769 E4.2388
G1 X76.078 Y104.769 E4.9242
G1 X75.180 Y104.329 E4.9625
