; G-Code generated by Simplify3D(R) Version 3.0.0
; Nov 16, 2016 at 8:06:39 AM
; Settings Summary
;   processName,Process1
;   applyToModels,g QR knob 2.0
;   profileName,Default (modified)
;   profileVersion,2015-10-25 10:06:52
;   baseProfile,Default (modified)
;   printMaterial,PLA Lankeda Green
;   printQuality,Fast
;   printExtruders,
;   extruderName,Primary Extruder
;   extruderToolheadNumber,0
;   extruderDiameter,0.4
;   extruderAutoWidth,1
;   extruderWidth,0.48
;   extrusionMultiplier,0.9
;   extruderUseRetract,1
;   extruderRetractionDistance,1.15
;   extruderExtraRestartDistance,0.07
;   extruderRetractionZLift,0.07
;   extruderRetractionSpeed,9000
;   extruderUseCoasting,0
;   extruderCoastingDistance,0.2
;   extruderUseWipe,0
;   extruderWipeDistance,5
;   primaryExtruder,0
;   layerHeight,0.22
;   topSolidLayers,4
;   bottomSolidLayers,3
;   perimeterOutlines,2
;   printPerimetersInsideOut,1
;   startPointOption,2
;   startPointOriginX,0
;   startPointOriginY,0
;   startPointOriginZ,300
;   sequentialIslands,0
;   spiralVaseMode,0
;   firstLayerHeightPercentage,100
;   firstLayerWidthPercentage,85
;   firstLayerUnderspeed,0.5
;   useRaft,0
;   raftExtruder,0
;   raftLayers,3
;   raftOffset,3
;   raftSeparationDistance,0.14
;   raftInfill,85
;   disableRaftBaseLayers,0
;   useSkirt,1
;   skirtExtruder,0
;   skirtLayers,2
;   skirtOutlines,3
;   skirtOffset,6
;   usePrimePillar,0
;   primePillarExtruder,999
;   primePillarWidth,12
;   primePillarLocation,7
;   primePillarSpeedMultiplier,1
;   useOozeShield,0
;   oozeShieldExtruder,999
;   oozeShieldOffset,2
;   oozeShieldOutlines,1
;   oozeShieldSidewallShape,1
;   oozeShieldSidewallAngle,30
;   oozeShieldSpeedMultiplier,1
;   infillExtruder,0
;   internalInfillPattern,Rectilinear
;   externalInfillPattern,Rectilinear
;   infillPercentage,58
;   outlineOverlapPercentage,25
;   infillExtrusionWidthPercentage,110
;   minInfillLength,4
;   infillLayerInterval,1
;   infillAngles,45,-45
;   overlapInfillAngles,0
;   generateSupport,1
;   supportExtruder,0
;   supportInfillPercentage,25
;   supportExtraInflation,0
;   denseSupportLayers,2
;   denseSupportInfillPercentage,70
;   supportLayerInterval,1
;   supportHorizontalPartOffset,1
;   supportUpperSeparationLayers,1
;   supportLowerSeparationLayers,1
;   supportType,1
;   supportGridSpacing,3
;   maxOverhangAngle,60
;   supportAngles,0
;   temperatureName,Primary Extruder,Bed
;   temperatureNumber,0,0
;   temperatureSetpointCount,1,1
;   temperatureSetpointLayers,1,1
;   temperatureSetpointTemperatures,210,60
;   temperatureStabilizeAtStartup,1,1
;   temperatureHeatedBed,0,1
;   temperatureRelayBetweenLayers,0,0
;   temperatureRelayBetweenLoops,0,0
;   fanLayers,1,2
;   fanSpeeds,0,70
;   blipFanToFullPower,0
;   adjustSpeedForCooling,1
;   minSpeedLayerTime,15
;   minCoolingSpeedSlowdown,50
;   increaseFanForCooling,1
;   minFanLayerTime,45
;   maxCoolingFanSpeed,100
;   increaseFanForBridging,1
;   bridgingFanSpeed,100
;   use5D,1
;   relativeEdistances,0
;   allowEaxisZeroing,1
;   independentExtruderAxes,0
;   includeM10123,0
;   stickySupport,1
;   applyToolheadOffsets,0
;   gcodeXoffset,0
;   gcodeYoffset,0
;   gcodeZoffset,0
;   overrideMachineDefinition,0
;   machineTypeOverride,0
;   strokeXoverride,200
;   strokeYoverride,200
;   strokeZoverride,200
;   originOffsetXoverride,0
;   originOffsetYoverride,0
;   originOffsetZoverride,0
;   homeXdirOverride,-1
;   homeYdirOverride,-1
;   homeZdirOverride,-1
;   flipXoverride,1
;   flipYoverride,-1
;   flipZoverride,1
;   toolheadOffsets,0,0|0,0|0,0|0,0|0,0|0,0
;   overrideFirmwareConfiguration,0
;   firmwareTypeOverride,RepRap (Marlin/Repetier/Sprinter)
;   GPXconfigOverride,r2
;   baudRateOverride,115200
;   overridePrinterModels,0
;   printerModelsOverride
;   startingGcode,G28 ; home all axes,G29 ; level Bed,
;   layerChangeGcode,
;   retractionGcode,
;   toolChangeGcode,
;   endingGcode,M104 S0 ; turn off extruder,M140 S0 ; turn off bed,G28 X; move X to home position,M84 ; disable motors
;   createX3G,0
;   celebration,0
;   celebrationSong,Random Song
;   createMB5G,0
;   postProcessing,
;   defaultSpeed,3000
;   outlineUnderspeed,0.7
;   solidInfillUnderspeed,0.7
;   supportUnderspeed,0.8
;   rapidXYspeed,7200
;   rapidZspeed,360
;   minBridgingArea,50
;   bridgingExtraInflation,0
;   bridgingExtrusionMultiplier,1
;   bridgingSpeedMultiplier,1
;   filamentDiameter,1.75
;   filamentPricePerKg,46
;   filamentDensity,1.25
;   useMinPrintHeight,0
;   minPrintHeight,0
;   useMaxPrintHeight,0
;   maxPrintHeight,0.4
;   useDiaphragm,0
;   diaphragmLayerInterval,20
;   robustSlicing,1
;   mergeAllIntoSolid,0
;   onlyRetractWhenCrossingOutline,1
;   retractBetweenLayers,1
;   useRetractionMinTravel,1
;   retractionMinTravel,1.5
;   retractWhileWiping,0
;   onlyWipeOutlines,1
;   avoidCrossingOutline,0
;   maxMovementDetourFactor,3
;   toolChangeRetractionDistance,12
;   toolChangeExtraRestartDistance,-0.5
;   toolChangeRetractionSpeed,600
;   allowThinWallGapFill,1
;   thinWallAllowedOverlapPercentage,10
;   horizontalSizeCompensation,0
G90
M82
M106 S0
M140 S60
M190 S60
M104 S210 T0
M109 S210 T0
G28 ; home all axes
G29 ; level Bed
G92 E0
G1 E-1.1500 F9000
G1 Z0.290 F360
; layer 1, Z = 0.22
T0
; tool H0.220 W0.408
; skirt
G1 X70.662 Y69.290 F7200
G1 Z0.220 F360
G1 E0.0700 F2700
G92 E0
G1 X70.937 Y69.040 E0.0125 F1500
G1 X72.968 Y68.101 E0.0876
G1 X74.382 Y65.418 E0.1895
G1 X74.677 Y65.142 E0.2030
G1 X79.103 Y63.172 E0.3657
G1 X79.161 Y63.150 E0.3679
G1 X79.819 Y62.936 E0.3911
G1 X79.880 Y62.919 E0.3932
G1 X82.726 Y62.315 E0.4909
G1 X83.081 Y62.345 E0.5029
G1 X85.000 Y63.108 E0.5723
G1 X86.920 Y62.345 E0.6416
G1 X87.274 Y62.315 E0.6536
G1 X90.120 Y62.919 E0.7513
G1 X90.181 Y62.936 E0.7534
G1 X90.839 Y63.150 E0.7767
G1 X90.897 Y63.172 E0.7788
G1 X95.323 Y65.142 E0.9415
G1 X95.617 Y65.418 E0.9550
G1 X97.032 Y68.101 E1.0569
G1 X99.063 Y69.040 E1.1320
G1 X99.338 Y69.290 E1.1445
G1 X101.119 Y72.376 E1.2642
G1 X101.148 Y72.432 E1.2663
G1 X101.429 Y73.064 E1.2895
G1 X101.452 Y73.123 E1.2916
G1 X102.752 Y77.123 E1.4329
G1 X102.749 Y77.511 E1.4459
G1 X101.907 Y80.000 E1.5342
G1 X102.749 Y82.489 E1.6225
G1 X102.752 Y82.877 E1.6355
G1 X101.452 Y86.877 E1.7767
G1 X101.429 Y86.936 E1.7789
G1 X101.148 Y87.568 E1.8021
G1 X101.119 Y87.624 E1.8042
G1 X99.338 Y90.710 E1.9239
G1 X99.063 Y90.960 E1.9364
G1 X97.032 Y91.899 E2.0115
G1 X95.617 Y94.582 E2.1134
G1 X95.323 Y94.858 E2.1269
G1 X90.897 Y96.828 E2.2896
G1 X90.839 Y96.850 E2.2917
G1 X90.181 Y97.064 E2.3150
G1 X90.120 Y97.081 E2.3171
G1 X87.274 Y97.686 E2.4148
G1 X86.919 Y97.655 E2.4268
G1 X85.000 Y96.892 E2.4961
G1 X83.081 Y97.655 E2.5655
G1 X82.726 Y97.686 E2.5774
G1 X79.880 Y97.081 E2.6752
G1 X79.819 Y97.064 E2.6773
G1 X79.161 Y96.850 E2.7005
G1 X79.103 Y96.828 E2.7026
G1 X74.677 Y94.858 E2.8653
G1 X74.382 Y94.582 E2.8789
G1 X72.968 Y91.899 E2.9808
G1 X70.937 Y90.960 E3.0559
G1 X70.662 Y90.710 E3.0684
G1 X68.881 Y87.624 E3.1881
G1 X68.852 Y87.568 E3.1902
G1 X68.571 Y86.936 E3.2134
G1 X68.548 Y86.877 E3.2155
G1 X67.248 Y82.877 E3.3568
G1 X67.251 Y82.489 E3.3698
G1 X68.093 Y80.000 E3.4581
G1 X67.251 Y77.511 E3.5463
G1 X67.248 Y77.123 E3.5593
G1 X68.548 Y73.123 E3.7006
G1 X68.571 Y73.064 E3.7027
G1 X68.852 Y72.432 E3.7260
G1 X68.881 Y72.376 E3.7281
G1 X70.662 Y69.290 E3.8478
G1 X71.041 Y69.594 F7200
G92 E0
G1 X71.205 Y69.444 E0.0075 F1500
G1 X73.316 Y68.468 E0.0856
G1 X74.769 Y65.714 E0.1902
G1 X74.946 Y65.548 E0.1983
G1 X79.286 Y63.616 E0.3579
G1 X79.322 Y63.602 E0.3592
G1 X79.956 Y63.396 E0.3816
G1 X79.992 Y63.386 E0.3828
G1 X82.757 Y62.799 E0.4778
G1 X82.969 Y62.817 E0.4849
G1 X85.000 Y63.625 E0.5583
G1 X87.031 Y62.817 E0.6317
G1 X87.243 Y62.799 E0.6389
G1 X90.008 Y63.386 E0.7338
G1 X90.044 Y63.396 E0.7351
G1 X90.678 Y63.602 E0.7575
G1 X90.714 Y63.616 E0.7587
G1 X95.054 Y65.548 E0.9183
G1 X95.231 Y65.714 E0.9264
G1 X96.684 Y68.468 E1.0310
G1 X98.795 Y69.444 E1.1092
G1 X98.959 Y69.594 E1.1166
G1 X100.697 Y72.605 E1.2334
G1 X100.714 Y72.639 E1.2347
G1 X100.986 Y73.248 E1.2570
G1 X100.999 Y73.283 E1.2583
G1 X102.271 Y77.198 E1.3966
G1 X102.270 Y77.430 E1.4044
G1 X101.400 Y80.000 E1.4955
G1 X102.270 Y82.570 E1.5866
G1 X102.271 Y82.802 E1.5944
G1 X100.999 Y86.717 E1.7327
G1 X100.986 Y86.752 E1.7339
G1 X100.714 Y87.361 E1.7563
G1 X100.697 Y87.395 E1.7576
G1 X98.959 Y90.406 E1.8743
G1 X98.795 Y90.556 E1.8818
G1 X96.684 Y91.532 E1.9599
G1 X95.231 Y94.286 E2.0645
G1 X95.054 Y94.452 E2.0727
G1 X90.714 Y96.384 E2.2322
G1 X90.678 Y96.398 E2.2335
G1 X90.044 Y96.604 E2.2559
G1 X90.008 Y96.614 E2.2572
G1 X87.243 Y97.201 E2.3521
G1 X87.031 Y97.183 E2.3593
G1 X85.000 Y96.375 E2.4327
G1 X82.969 Y97.183 E2.5061
G1 X82.757 Y97.201 E2.5132
G1 X79.992 Y96.614 E2.6082
G1 X79.956 Y96.604 E2.6094
G1 X79.322 Y96.398 E2.6318
G1 X79.286 Y96.384 E2.6331
G1 X74.946 Y94.452 E2.7926
G1 X74.769 Y94.286 E2.8008
G1 X73.316 Y91.532 E2.9054
G1 X71.205 Y90.556 E2.9835
G1 X71.041 Y90.406 E2.9910
G1 X69.303 Y87.395 E3.1077
G1 X69.286 Y87.361 E3.1090
G1 X69.014 Y86.752 E3.1314
G1 X69.001 Y86.717 E3.1327
G1 X67.729 Y82.802 E3.2709
G1 X67.730 Y82.570 E3.2787
G1 X68.600 Y80.000 E3.3698
G1 X67.730 Y77.430 E3.4609
G1 X67.729 Y77.198 E3.4687
G1 X69.001 Y73.283 E3.6070
G1 X69.014 Y73.248 E3.6083
G1 X69.286 Y72.639 E3.6307
G1 X69.303 Y72.605 E3.6319
G1 X71.041 Y69.594 E3.7487
G1 X71.419 Y69.899 F7200
G92 E0
G1 X71.474 Y69.849 E0.0025 F1500
G1 X73.665 Y68.836 E0.0836
G1 X75.156 Y66.009 E0.1909
G1 X75.215 Y65.954 E0.1936
G1 X79.470 Y64.059 E0.3501
G1 X79.482 Y64.055 E0.3505
G1 X80.092 Y63.857 E0.3720
G1 X80.104 Y63.853 E0.3724
G1 X82.787 Y63.283 E0.4646
G1 X82.858 Y63.289 E0.4669
G1 X85.000 Y64.141 E0.5444
G1 X87.142 Y63.289 E0.6218
G1 X87.213 Y63.283 E0.6242
G1 X89.896 Y63.853 E0.7163
G1 X89.908 Y63.857 E0.7167
G1 X90.518 Y64.055 E0.7383
G1 X90.530 Y64.059 E0.7387
G1 X94.785 Y65.954 E0.8951
G1 X94.844 Y66.009 E0.8979
G1 X96.335 Y68.836 E1.0052
G1 X98.526 Y69.849 E1.0863
G1 X98.581 Y69.899 E1.0888
G1 X100.275 Y72.834 E1.2026
G1 X100.281 Y72.845 E1.2030
G1 X100.542 Y73.431 E1.2246
G1 X100.546 Y73.443 E1.2250
G1 X101.791 Y77.273 E1.3602
G1 X101.790 Y77.350 E1.3628
G1 X100.894 Y80.000 E1.4568
G1 X101.790 Y82.650 E1.5507
G1 X101.791 Y82.727 E1.5533
G1 X100.546 Y86.557 E1.6886
G1 X100.542 Y86.569 E1.6890
G1 X100.281 Y87.155 E1.7105
G1 X100.275 Y87.166 E1.7110
G1 X98.581 Y90.101 E1.8248
G1 X98.526 Y90.151 E1.8273
G1 X96.335 Y91.164 E1.9084
G1 X94.844 Y93.991 E2.0157
G1 X94.785 Y94.046 E2.0184
G1 X90.530 Y95.941 E2.1749
G1 X90.518 Y95.945 E2.1753
G1 X89.908 Y96.143 E2.1968
G1 X89.896 Y96.147 E2.1972
G1 X87.213 Y96.717 E2.2894
G1 X87.142 Y96.711 E2.2918
G1 X85.000 Y95.859 E2.3692
G1 X82.858 Y96.711 E2.4466
G1 X82.787 Y96.717 E2.4490
G1 X80.104 Y96.147 E2.5411
G1 X80.092 Y96.143 E2.5415
G1 X79.482 Y95.945 E2.5631
G1 X79.470 Y95.941 E2.5635
G1 X75.215 Y94.046 E2.7199
G1 X75.156 Y93.991 E2.7227
G1 X73.665 Y91.164 E2.8300
G1 X71.474 Y90.151 E2.9111
G1 X71.419 Y90.101 E2.9136
G1 X69.725 Y87.166 E3.0274
G1 X69.719 Y87.155 E3.0278
G1 X69.458 Y86.569 E3.0494
G1 X69.454 Y86.557 E3.0498
G1 X68.209 Y82.727 E3.1850
G1 X68.210 Y82.650 E3.1876
G1 X69.106 Y80.000 E3.2816
G1 X68.210 Y77.350 E3.3755
G1 X68.209 Y77.273 E3.3782
G1 X69.454 Y73.443 E3.5134
G1 X69.458 Y73.431 E3.5138
G1 X69.719 Y72.845 E3.5354
G1 X69.725 Y72.834 E3.5358
G1 X71.419 Y69.899 E3.6496
G92 E0
G1 E-1.1500 F9000
G1 Z0.290 F360
; inner perimeter
G1 X76.289 Y75.606 F7200
G1 Z0.220 F360
G1 E0.0700 F9000
G92 E0
G1 X76.432 Y75.632 E0.0049 F1275
G1 X78.478 Y74.994 E0.0769
G1 X79.994 Y73.478 E0.1489
G1 X80.632 Y71.432 E0.2209
G1 X80.607 Y71.293 E0.2256
G1 X81.928 Y70.705 E0.2742
G1 X82.030 Y70.853 E0.2802
G1 X83.928 Y71.849 E0.3522
G1 X86.072 Y71.849 E0.4242
G1 X87.970 Y70.853 E0.4962
G1 X88.072 Y70.705 E0.5023
G1 X89.393 Y71.293 E0.5508
G1 X89.368 Y71.432 E0.5555
G1 X90.006 Y73.478 E0.6275
G1 X91.522 Y74.994 E0.6996
G1 X93.568 Y75.632 E0.7716
G1 X93.711 Y75.606 E0.7764
G1 X93.948 Y76.016 E0.7923
G1 X94.253 Y76.956 E0.8255
G1 X94.147 Y77.030 E0.8299
G1 X93.151 Y78.928 E0.9019
G1 X93.151 Y81.072 E0.9739
G1 X94.147 Y82.970 E1.0459
G1 X94.253 Y83.043 E1.0502
G1 X93.948 Y83.984 E1.0834
G1 X93.711 Y84.394 E1.0993
G1 X93.568 Y84.368 E1.1042
G1 X91.522 Y85.006 E1.1762
G1 X90.006 Y86.522 E1.2482
G1 X89.368 Y88.568 E1.3202
G1 X89.393 Y88.707 E1.3249
G1 X88.072 Y89.295 E1.3735
G1 X87.970 Y89.147 E1.3795
G1 X86.072 Y88.151 E1.4515
G1 X83.928 Y88.151 E1.5235
G1 X82.030 Y89.147 E1.5956
G1 X81.928 Y89.295 E1.6016
G1 X80.607 Y88.707 E1.6501
G1 X80.632 Y88.568 E1.6549
G1 X79.994 Y86.522 E1.7269
G1 X78.478 Y85.006 E1.7989
G1 X76.432 Y84.368 E1.8709
G1 X76.289 Y84.394 E1.8758
G1 X76.052 Y83.984 E1.8917
G1 X75.747 Y83.043 E1.9249
G1 X75.853 Y82.970 E1.9292
G1 X76.849 Y81.072 E2.0012
G1 X76.849 Y78.928 E2.0732
G1 X75.853 Y77.030 E2.1452
G1 X75.747 Y76.956 E2.1495
G1 X76.052 Y76.016 E2.1828
G1 X76.289 Y75.606 E2.1987
; outer perimeter
G1 X76.079 Y75.153 F7200
G92 E0
G1 X76.406 Y75.213 E0.0112 F1050
G1 X78.261 Y74.635 E0.0764
G1 X79.635 Y73.261 E0.1417
G1 X80.213 Y71.406 E0.2069
G1 X80.148 Y71.051 E0.2190
G1 X81.847 Y70.295 E0.2815
G1 X82.103 Y70.240 E0.2903
G1 X82.308 Y70.538 E0.3025
G1 X84.029 Y71.441 E0.3677
G1 X85.971 Y71.441 E0.4330
G1 X87.692 Y70.538 E0.4982
G1 X87.897 Y70.240 E0.5104
G1 X88.153 Y70.295 E0.5192
G1 X89.852 Y71.051 E0.5816
G1 X89.787 Y71.406 E0.5938
G1 X90.365 Y73.261 E0.6590
G1 X91.739 Y74.635 E0.7243
G1 X93.594 Y75.213 E0.7895
G1 X93.921 Y75.153 E0.8007
G1 X94.323 Y75.849 E0.8277
G1 X94.735 Y77.120 E0.8725
G1 X94.462 Y77.308 E0.8837
G1 X93.559 Y79.029 E0.9489
G1 X93.559 Y80.971 E1.0142
G1 X94.462 Y82.692 E1.0794
G1 X94.735 Y82.880 E1.0906
G1 X94.323 Y84.151 E1.1355
G1 X93.921 Y84.847 E1.1625
G1 X93.594 Y84.787 E1.1736
G1 X91.739 Y85.365 E1.2389
G1 X90.365 Y86.739 E1.3041
G1 X89.787 Y88.594 E1.3694
G1 X89.852 Y88.949 E1.3815
G1 X88.153 Y89.705 E1.4440
G1 X87.897 Y89.760 E1.4528
G1 X87.692 Y89.462 E1.4649
G1 X85.971 Y88.559 E1.5302
G1 X84.029 Y88.559 E1.5954
G1 X82.308 Y89.462 E1.6607
G1 X82.103 Y89.760 E1.6728
G1 X81.847 Y89.705 E1.6816
G1 X80.148 Y88.949 E1.7441
G1 X80.213 Y88.594 E1.7562
G1 X79.635 Y86.739 E1.8215
G1 X78.261 Y85.365 E1.8867
G1 X76.406 Y84.787 E1.9520
G1 X76.079 Y84.847 E1.9631
G1 X75.677 Y84.151 E1.9901
G1 X75.265 Y82.880 E2.0350
G1 X75.538 Y82.692 E2.0462
G1 X76.441 Y80.971 E2.1114
G1 X76.441 Y79.029 E2.1767
G1 X75.538 Y77.308 E2.2419
G1 X75.265 Y77.120 E2.2531
G1 X75.677 Y75.849 E2.2979
G1 X76.079 Y75.153 E2.3249
; inner perimeter
G1 X81.992 Y78.905 F7200
G92 E0
G1 X81.992 Y81.095 E0.0735 F1275
G1 X83.399 Y82.772 E0.1471
G1 X85.556 Y83.153 E0.2206
G1 X87.452 Y82.058 E0.2942
G1 X88.201 Y80.000 E0.3677
G1 X87.452 Y77.942 E0.4413
G1 X85.556 Y76.847 E0.5148
G1 X83.399 Y77.228 E0.5884
G1 X81.992 Y78.905 E0.6619
; outer perimeter
G1 X82.400 Y79.054 F7200
G92 E0
G1 X82.400 Y80.946 E0.0636 F1050
G1 X83.616 Y82.396 E0.1271
G1 X85.481 Y82.725 E0.1907
G1 X87.120 Y81.779 E0.2543
G1 X87.767 Y80.000 E0.3179
G1 X87.120 Y78.221 E0.3814
G1 X85.481 Y77.275 E0.4450
G1 X83.616 Y77.604 E0.5086
G1 X82.400 Y79.054 E0.5721
; solid layer
G1 X84.182 Y76.779 F7200
G92 E0
G1 X89.162 Y71.799 E0.2365 F1050
G1 X89.299 Y72.239 E0.2520
G1 X84.883 Y76.655 E0.4618
G1 X85.583 Y76.532 E0.4857
G1 X89.436 Y72.679 E0.6686
G1 X89.573 Y73.119 E0.6841
G1 X85.963 Y76.729 E0.8556
G1 X86.329 Y76.940 E0.8698
G1 X89.710 Y73.559 E1.0304
G1 X89.736 Y73.641 E1.0333
G1 X89.970 Y73.876 E1.0444
G1 X86.695 Y77.151 E1.2000
G1 X87.060 Y77.363 E1.2142
