; G-Code generated by Simplify3D(R) Version 3.0.0
; Nov 16, 2016 at 8:00:48 AM
; Settings Summary
;   processName,Process1
;   applyToModels,p flat proximity sensor and right fan mount 1.2
;   profileName,JB Lite6 20mm meltzone 0.2 (modified)
;   profileVersion,2016-07-27 06:45:13
;   baseProfile,Plywood
;   printMaterial,PLA
;   printQuality,0.3 base
;   printExtruders,
;   extruderName,Primary Extruder
;   extruderToolheadNumber,0
;   extruderDiameter,0.4
;   extruderAutoWidth,0
;   extruderWidth,0.48
;   extrusionMultiplier,1
;   extruderUseRetract,1
;   extruderRetractionDistance,1.1
;   extruderExtraRestartDistance,0
;   extruderRetractionZLift,0
;   extruderRetractionSpeed,4200
;   extruderUseCoasting,1
;   extruderCoastingDistance,1
;   extruderUseWipe,1
;   extruderWipeDistance,2
;   primaryExtruder,0
;   layerHeight,0.2
;   topSolidLayers,4
;   bottomSolidLayers,2
;   perimeterOutlines,2
;   printPerimetersInsideOut,1
;   startPointOption,3
;   startPointOriginX,100
;   startPointOriginY,0
;   startPointOriginZ,10
;   sequentialIslands,0
;   spiralVaseMode,0
;   firstLayerHeightPercentage,150
;   firstLayerWidthPercentage,100
;   firstLayerUnderspeed,0.5
;   useRaft,0
;   raftExtruder,0
;   raftLayers,3
;   raftOffset,5
;   raftSeparationDistance,0.1
;   raftInfill,85
;   disableRaftBaseLayers,0
;   useSkirt,1
;   skirtExtruder,0
;   skirtLayers,1
;   skirtOutlines,5
;   skirtOffset,0
;   usePrimePillar,0
;   primePillarExtruder,999
;   primePillarWidth,12
;   primePillarLocation,7
;   primePillarSpeedMultiplier,1
;   useOozeShield,0
;   oozeShieldExtruder,999
;   oozeShieldOffset,10
;   oozeShieldOutlines,1
;   oozeShieldSidewallShape,0
;   oozeShieldSidewallAngle,30
;   oozeShieldSpeedMultiplier,1
;   infillExtruder,0
;   internalInfillPattern,Rectilinear
;   externalInfillPattern,Rectilinear
;   infillPercentage,30
;   outlineOverlapPercentage,15
;   infillExtrusionWidthPercentage,125
;   minInfillLength,1
;   infillLayerInterval,1
;   infillAngles,45,-45
;   overlapInfillAngles,0
;   generateSupport,0
;   supportExtruder,0
;   supportInfillPercentage,20
;   supportExtraInflation,0
;   denseSupportLayers,0
;   denseSupportInfillPercentage,70
;   supportLayerInterval,1
;   supportHorizontalPartOffset,0.3
;   supportUpperSeparationLayers,1
;   supportLowerSeparationLayers,1
;   supportType,0
;   supportGridSpacing,5
;   maxOverhangAngle,35
;   supportAngles,0
;   temperatureName,Extruder 0,Heated Bed
;   temperatureNumber,0,0
;   temperatureSetpointCount,1,1
;   temperatureSetpointLayers,1,1
;   temperatureSetpointTemperatures,210,60
;   temperatureStabilizeAtStartup,1,1
;   temperatureHeatedBed,0,1
;   temperatureRelayBetweenLayers,0,0
;   temperatureRelayBetweenLoops,0,0
;   fanLayers,1,3
;   fanSpeeds,0,60
;   blipFanToFullPower,1
;   adjustSpeedForCooling,1
;   minSpeedLayerTime,15
;   minCoolingSpeedSlowdown,40
;   increaseFanForCooling,1
;   minFanLayerTime,15
;   maxCoolingFanSpeed,100
;   increaseFanForBridging,1
;   bridgingFanSpeed,100
;   use5D,1
;   relativeEdistances,1
;   allowEaxisZeroing,1
;   independentExtruderAxes,0
;   includeM10123,0
;   stickySupport,1
;   applyToolheadOffsets,0
;   gcodeXoffset,0
;   gcodeYoffset,0
;   gcodeZoffset,0
;   overrideMachineDefinition,1
;   machineTypeOverride,0
;   strokeXoverride,170
;   strokeYoverride,160
;   strokeZoverride,145
;   originOffsetXoverride,0
;   originOffsetYoverride,0
;   originOffsetZoverride,0
;   homeXdirOverride,-1
;   homeYdirOverride,-1
;   homeZdirOverride,-1
;   flipXoverride,1
;   flipYoverride,-1
;   flipZoverride,1
;   toolheadOffsets,0,0|0,0|0,0|0,0|0,0|0,0
;   overrideFirmwareConfiguration,0
;   firmwareTypeOverride,RepRap (Marlin/Repetier/Sprinter)
;   GPXconfigOverride,r2
;   baudRateOverride,250000
;   overridePrinterModels,0
;   printerModelsOverride
;   startingGcode,; Jellybox Start Script Begin,M117 Preparing ,,; set x homing offset for default bed leveling,M206 X10.0 Y0.0  ,; optionally adjust Extruder steps per mm for your filament,; M92 E140 ,,; home all axes,G28,; slow Z speed down for greater accuracy,M203 Z5,; auto bed leveling procedure,G29,; pick up z speed again for print,M203 Z7,; reset extruder position,G92 E0,,M117 Print starting,;Jellybox Printer Start Script End
;   layerChangeGcode,
;   retractionGcode,
;   toolChangeGcode,
;   endingGcode,;Jellybox Printer End Script Start,,; extruder heater off,M104 S0,; bed heater off (if you have it),M140 S0,; turn fan off,M107,,; relative positioning,G91,; retract the filament a bit before lifting the nozzle to release some of the pressure,G1 E-1.5 F1200,; move Z up a bit and retract filament even more,G1 Z+1 E-1 X-20 Y-20,;move X/Y to so the head is out of the way,G28 X0,G1 Y100,; steppers off,M84,; absolute positioning,G90,,; Jellybox Printer End Script End
;   createX3G,0
;   celebration,0
;   celebrationSong,Random Song
;   createMB5G,0
;   postProcessing,|{REPLACE "; layer" "M117 Layer"} ,{REPLACE ", Z = " " | Z="}
;   defaultSpeed,3000
;   outlineUnderspeed,0.4
;   solidInfillUnderspeed,0.75
;   supportUnderspeed,0.75
;   rapidXYspeed,7200
;   rapidZspeed,300
;   minBridgingArea,50
;   bridgingExtraInflation,0.4
;   bridgingExtrusionMultiplier,1
;   bridgingSpeedMultiplier,1
;   filamentDiameter,1.75
;   filamentPricePerKg,15
;   filamentDensity,1.25
;   useMinPrintHeight,0
;   minPrintHeight,0
;   useMaxPrintHeight,1
;   maxPrintHeight,6
;   useDiaphragm,0
;   diaphragmLayerInterval,20
;   robustSlicing,1
;   mergeAllIntoSolid,0
;   onlyRetractWhenCrossingOutline,1
;   retractBetweenLayers,1
;   useRetractionMinTravel,1
;   retractionMinTravel,1.5
;   retractWhileWiping,0
;   onlyWipeOutlines,1
;   avoidCrossingOutline,1
;   maxMovementDetourFactor,3
;   toolChangeRetractionDistance,12
;   toolChangeExtraRestartDistance,-0.5
;   toolChangeRetractionSpeed,600
;   allowThinWallGapFill,1
;   thinWallAllowedOverlapPercentage,15
;   horizontalSizeCompensation,0
G90
M83
M106 S0
M140 S60
M190 S60
M104 S210 T0
M109 S210 T0
; Jellybox Start Script Begin
M117 Preparing 
; set x homing offset for default bed leveling
M206 X10.0 Y0.0  
; optionally adjust Extruder steps per mm for your filament
; M92 E140 
; home all axes
G28
; slow Z speed down for greater accuracy
M203 Z5
; auto bed leveling procedure
G29
; pick up z speed again for print
M203 Z7
; reset extruder position
G92 E0
M117 Print starting
;Jellybox Printer Start Script End
G1 E-1.1000 F4200
G1 Z0.300 F300
; layer 1, Z = 0.3
T0
; tool H0.300 W0.480
; skirt
G1 X69.629 Y66.967 F7200
G1 E1.1000 F1260
G1 X70.894 Y65.702 E0.1071 F1500
G1 X71.361 Y65.702 E0.0279
G1 X71.598 Y65.356 E0.0251
G1 X71.713 Y65.216 E0.0108
G1 X72.096 Y64.820 E0.0331
G1 X72.254 Y64.685 E0.0124
G1 X72.811 Y64.296 E0.0406
G1 X72.991 Y64.195 E0.0124
G1 X73.495 Y63.970 E0.0330
G1 X73.665 Y63.911 E0.0108
G1 X74.187 Y63.777 E0.0323
G1 X74.366 Y63.747 E0.0108
G1 X74.858 Y63.705 E0.0296
G1 X74.948 Y63.702 E0.0054
G1 X100.039 Y63.699 E1.5021
G1 X100.130 Y63.703 E0.0055
G1 X100.627 Y63.745 E0.0298
G1 X100.807 Y63.776 E0.0109
G1 X101.334 Y63.912 E0.0326
G1 X101.506 Y63.972 E0.0109
G1 X102.002 Y64.195 E0.0326
G1 X102.162 Y64.284 E0.0109
G1 X102.625 Y64.595 E0.0334
G1 X102.787 Y64.728 E0.0126
G1 X103.274 Y65.215 E0.0412
G1 X103.408 Y65.377 E0.0126
G1 X103.719 Y65.841 E0.0334
G1 X103.807 Y66.000 E0.0109
G1 X104.030 Y66.496 E0.0326
G1 X104.091 Y66.669 E0.0109
G1 X104.227 Y67.195 E0.0326
G1 X104.258 Y67.375 E0.0109
G1 X104.300 Y67.872 E0.0298
G1 X104.304 Y67.963 E0.0055
G1 X104.306 Y93.054 E1.5022
G1 X104.302 Y93.146 E0.0055
G1 X104.260 Y93.642 E0.0298
G1 X104.230 Y93.822 E0.0109
G1 X104.093 Y94.349 E0.0326
G1 X104.033 Y94.521 E0.0109
G1 X103.804 Y95.031 E0.0335
G1 X103.698 Y95.216 E0.0128
G1 X103.298 Y95.777 E0.0412
G1 X103.162 Y95.934 E0.0124
G1 X102.759 Y96.317 E0.0333
G1 X102.617 Y96.431 E0.0109
G1 X102.171 Y96.730 E0.0321
G1 X102.026 Y96.812 E0.0100
G1 X101.656 Y96.984 E0.0244
G1 X101.506 Y97.041 E0.0096
G1 X100.864 Y97.231 E0.0400
G1 X100.649 Y97.272 E0.0131
G1 X100.133 Y97.315 E0.0310
G1 X100.042 Y97.319 E0.0055
G1 X74.788 Y97.322 E1.5119
G1 X74.707 Y97.319 E0.0049
G1 X73.960 Y97.262 E0.0449
G1 X73.771 Y97.231 E0.0115
G1 X73.038 Y97.042 E0.0453
G1 X72.875 Y96.986 E0.0103
G1 X72.323 Y96.745 E0.0361
G1 X72.199 Y96.681 E0.0084
G1 X71.787 Y96.434 E0.0287
G1 X71.676 Y96.357 E0.0080
G1 X71.262 Y96.032 E0.0315
G1 X71.131 Y95.910 E0.0108
G1 X70.582 Y95.308 E0.0488
G1 X70.438 Y95.109 E0.0147
G1 X70.044 Y94.408 E0.0482
G1 X69.962 Y94.222 E0.0122
G1 X69.784 Y93.694 E0.0333
G1 X69.737 Y93.490 E0.0125
G1 X69.639 Y92.740 E0.0453
G1 X69.630 Y92.600 E0.0084
G1 X69.629 Y67.967 E1.4747
G1 X69.629 Y66.967 F1500
G1 X70.109 Y67.166 F7200
G1 X71.093 Y66.182 E0.0833 F1500
G1 X71.629 Y66.182 E0.0321
G1 X71.631 Y66.178 E0.0003
G1 X71.700 Y66.056 E0.0084
G1 X71.982 Y65.645 E0.0299
G1 X72.071 Y65.536 E0.0084
G1 X72.425 Y65.170 E0.0305
G1 X72.548 Y65.065 E0.0097
G1 X73.067 Y64.703 E0.0379
G1 X73.207 Y64.624 E0.0096
G1 X73.671 Y64.417 E0.0305
G1 X73.804 Y64.371 E0.0084
G1 X74.287 Y64.247 E0.0299
G1 X74.426 Y64.223 E0.0084
G1 X74.888 Y64.185 E0.0278
G1 X74.958 Y64.182 E0.0042
G1 X100.029 Y64.179 E1.5009
G1 X100.100 Y64.182 E0.0042
G1 X100.566 Y64.222 E0.0280
G1 X100.706 Y64.245 E0.0085
G1 X101.194 Y64.372 E0.0302
G1 X101.328 Y64.419 E0.0085
G1 X101.787 Y64.625 E0.0301
G1 X101.911 Y64.694 E0.0085
G1 X102.338 Y64.980 E0.0308
G1 X102.464 Y65.084 E0.0098
G1 X102.918 Y65.538 E0.0384
G1 X103.022 Y65.664 E0.0098
G1 X103.309 Y66.091 E0.0308
G1 X103.378 Y66.215 E0.0085
G1 X103.584 Y66.675 E0.0301
G1 X103.631 Y66.809 E0.0085
G1 X103.757 Y67.296 E0.0302
G1 X103.781 Y67.436 E0.0085
G1 X103.821 Y67.903 E0.0280
G1 X103.824 Y67.973 E0.0042
G1 X103.826 Y93.044 E1.5010
G1 X103.823 Y93.115 E0.0042
G1 X103.784 Y93.582 E0.0280
G1 X103.760 Y93.722 E0.0085
G1 X103.634 Y94.209 E0.0301
G1 X103.587 Y94.343 E0.0085
G1 X103.376 Y94.813 E0.0309
G1 X103.293 Y94.957 E0.0099
G1 X102.920 Y95.480 E0.0384
G1 X102.815 Y95.602 E0.0096
G1 X102.443 Y95.955 E0.0307
G1 X102.332 Y96.044 E0.0085
G1 X101.919 Y96.321 E0.0298
G1 X101.806 Y96.385 E0.0078
G1 X101.469 Y96.542 E0.0222
G1 X101.352 Y96.586 E0.0075
G1 X100.752 Y96.764 E0.0375
G1 X100.584 Y96.795 E0.0102
G1 X100.103 Y96.836 E0.0289
G1 X100.032 Y96.839 E0.0042
G1 X74.797 Y96.842 E1.5108
G1 X74.734 Y96.839 E0.0038
G1 X74.017 Y96.785 E0.0430
G1 X73.870 Y96.761 E0.0089
G1 X73.176 Y96.582 E0.0429
G1 X73.050 Y96.538 E0.0080
G1 X72.529 Y96.311 E0.0340
G1 X72.432 Y96.261 E0.0065
G1 X72.047 Y96.030 E0.0269
G1 X71.961 Y95.970 E0.0063
G1 X71.575 Y95.667 E0.0294
G1 X71.472 Y95.572 E0.0084
G1 X70.955 Y95.004 E0.0459
G1 X70.844 Y94.850 E0.0114
G1 X70.474 Y94.192 E0.0452
G1 X70.409 Y94.048 E0.0095
G1 X70.247 Y93.563 E0.0306
G1 X70.210 Y93.405 E0.0097
G1 X70.117 Y92.693 E0.0430
G1 X70.110 Y92.584 E0.0066
G1 X70.109 Y68.166 E1.4619
G1 X70.109 Y67.166 F1500
G1 X70.589 Y67.365 F7200
G1 X71.292 Y66.662 E0.0595 F1500
G1 X71.935 Y66.662 E0.0385
G1 X72.058 Y66.398 E0.0174
G1 X72.107 Y66.311 E0.0060
G1 X72.367 Y65.933 E0.0274
G1 X72.430 Y65.855 E0.0060
G1 X72.754 Y65.520 E0.0279
G1 X72.842 Y65.445 E0.0069
G1 X73.323 Y65.110 E0.0351
G1 X73.423 Y65.053 E0.0069
G1 X73.848 Y64.864 E0.0279
G1 X73.943 Y64.831 E0.0060
G1 X74.387 Y64.717 E0.0274
G1 X74.486 Y64.700 E0.0060
G1 X74.918 Y64.664 E0.0259
G1 X74.968 Y64.662 E0.0030
G1 X100.019 Y64.659 E1.4997
G1 X100.069 Y64.661 E0.0030
G1 X100.506 Y64.698 E0.0262
G1 X100.606 Y64.715 E0.0061
G1 X101.054 Y64.831 E0.0277
G1 X101.149 Y64.865 E0.0061
G1 X101.572 Y65.054 E0.0277
G1 X101.660 Y65.104 E0.0061
G1 X102.051 Y65.366 E0.0282
G1 X102.141 Y65.440 E0.0070
G1 X102.563 Y65.861 E0.0356
G1 X102.637 Y65.951 E0.0070
G1 X102.899 Y66.342 E0.0282
G1 X102.948 Y66.430 E0.0061
G1 X103.138 Y66.853 E0.0277
G1 X103.172 Y66.948 E0.0061
G1 X103.288 Y67.397 E0.0277
G1 X103.305 Y67.497 E0.0061
G1 X103.342 Y67.933 E0.0262
G1 X103.344 Y67.984 E0.0030
G1 X103.346 Y93.034 E1.4997
G1 X103.344 Y93.085 E0.0030
G1 X103.307 Y93.521 E0.0262
G1 X103.290 Y93.621 E0.0061
G1 X103.174 Y94.069 E0.0277
G1 X103.141 Y94.165 E0.0061
G1 X102.947 Y94.595 E0.0282
G1 X102.889 Y94.698 E0.0071
G1 X102.543 Y95.183 E0.0356
G1 X102.468 Y95.269 E0.0069
G1 X102.127 Y95.593 E0.0281
G1 X102.048 Y95.656 E0.0061
G1 X101.667 Y95.912 E0.0275
G1 X101.586 Y95.958 E0.0056
G1 X101.283 Y96.099 E0.0201
G1 X101.199 Y96.131 E0.0054
G1 X100.639 Y96.297 E0.0350
G1 X100.519 Y96.319 E0.0073
G1 X100.073 Y96.357 E0.0268
G1 X100.022 Y96.359 E0.0030
G1 X74.806 Y96.362 E1.5096
G1 X74.761 Y96.360 E0.0027
G1 X74.074 Y96.308 E0.0412
G1 X73.969 Y96.291 E0.0064
G1 X73.315 Y96.122 E0.0405
G1 X73.224 Y96.091 E0.0057
G1 X72.735 Y95.877 E0.0320
G1 X72.666 Y95.842 E0.0046
G1 X72.307 Y95.626 E0.0251
G1 X72.246 Y95.584 E0.0045
G1 X71.887 Y95.302 E0.0273
G1 X71.813 Y95.234 E0.0060
G1 X71.328 Y94.701 E0.0431
G1 X71.249 Y94.591 E0.0082
G1 X70.903 Y93.977 E0.0422
G1 X70.857 Y93.873 E0.0068
G1 X70.709 Y93.432 E0.0278
G1 X70.683 Y93.319 E0.0070
G1 X70.595 Y92.646 E0.0406
G1 X70.590 Y92.568 E0.0047
G1 X70.589 Y68.365 E1.4490
G1 X70.589 Y67.365 F1500
G1 X71.069 Y67.564 F7200
G1 X71.491 Y67.142 E0.0357 F1500
G1 X72.264 Y67.142 E0.0463
G1 X72.288 Y67.054 E0.0054
G1 X72.309 Y66.998 E0.0036
G1 X72.485 Y66.618 E0.0250
G1 X72.514 Y66.566 E0.0036
G1 X72.751 Y66.221 E0.0250
G1 X72.789 Y66.174 E0.0036
G1 X73.083 Y65.871 E0.0253
G1 X73.136 Y65.826 E0.0041
G1 X73.579 Y65.516 E0.0324
G1 X73.639 Y65.482 E0.0041
G1 X74.025 Y65.311 E0.0253
G1 X74.082 Y65.291 E0.0036
G1 X74.487 Y65.187 E0.0250
G1 X74.546 Y65.177 E0.0036
G1 X74.948 Y65.143 E0.0241
G1 X74.978 Y65.142 E0.0018
G1 X100.009 Y65.139 E1.4985
G1 X100.039 Y65.140 E0.0018
G1 X100.445 Y65.175 E0.0244
G1 X100.505 Y65.185 E0.0036
G1 X100.914 Y65.291 E0.0253
G1 X100.971 Y65.311 E0.0036
G1 X101.357 Y65.484 E0.0253
G1 X101.410 Y65.514 E0.0036
G1 X101.765 Y65.751 E0.0256
G1 X101.819 Y65.796 E0.0042
G1 X102.207 Y66.184 E0.0329
G1 X102.251 Y66.238 E0.0042
G1 X102.489 Y66.593 E0.0256
G1 X102.519 Y66.646 E0.0036
G1 X102.692 Y67.031 E0.0253
G1 X102.712 Y67.088 E0.0036
G1 X102.818 Y67.497 E0.0253
G1 X102.828 Y67.557 E0.0036
G1 X102.862 Y67.963 E0.0244
G1 X102.864 Y67.994 E0.0018
G1 X102.866 Y93.024 E1.4985
G1 X102.865 Y93.054 E0.0018
G1 X102.831 Y93.460 E0.0244
G1 X102.820 Y93.520 E0.0036
G1 X102.715 Y93.929 E0.0253
G1 X102.694 Y93.987 E0.0036
G1 X102.519 Y94.377 E0.0256
G1 X102.484 Y94.438 E0.0043
G1 X102.165 Y94.885 E0.0328
G1 X102.120 Y94.937 E0.0041
G1 X101.811 Y95.231 E0.0255
G1 X101.764 Y95.269 E0.0036
G1 X101.415 Y95.503 E0.0251
G1 X101.367 Y95.530 E0.0033
G1 X101.096 Y95.657 E0.0179
G1 X101.046 Y95.676 E0.0032
G1 X100.526 Y95.829 E0.0324
G1 X100.454 Y95.843 E0.0044
G1 X100.042 Y95.878 E0.0248
G1 X100.012 Y95.879 E0.0018
G1 X74.815 Y95.882 E1.5085
G1 X74.788 Y95.881 E0.0016
G1 X74.131 Y95.831 E0.0394
G1 X74.068 Y95.821 E0.0038
G1 X73.453 Y95.662 E0.0380
G1 X73.399 Y95.643 E0.0034
G1 X72.942 Y95.444 E0.0299
G1 X72.900 Y95.422 E0.0028
G1 X72.567 Y95.222 E0.0233
G1 X72.530 Y95.197 E0.0027
G1 X72.199 Y94.937 E0.0252
G1 X72.155 Y94.896 E0.0036
G1 X71.701 Y94.398 E0.0403
G1 X71.654 Y94.332 E0.0049
G1 X71.333 Y93.761 E0.0392
G1 X71.305 Y93.699 E0.0041
G1 X71.172 Y93.302 E0.0251
G1 X71.156 Y93.234 E0.0042
G1 X71.073 Y92.600 E0.0383
G1 X71.070 Y92.553 E0.0028
G1 X71.069 Y68.564 E1.4362
G1 X71.069 Y67.564 F1500
G1 X71.549 Y67.762 F7200
G1 X71.690 Y67.622 E0.0119 F1500
G1 X72.638 Y67.622 E0.0568
G1 X72.643 Y67.582 E0.0024
G1 X72.646 Y67.564 E0.0011
G1 X72.746 Y67.200 E0.0226
G1 X72.753 Y67.181 E0.0012
G1 X72.912 Y66.838 E0.0226
G1 X72.922 Y66.821 E0.0012
