; G-Code generated by Simplify3D(R) Version 3.0.0
; Nov 16, 2016 at 8:02:33 AM
; Settings Summary
;   processName,Process1
;   applyToModels,g harness spacer short 1.2
;   profileName,JB Lite6 20mm meltzone 0.2
;   profileVersion,2016-09-16 10:20:33
;   baseProfile,Plywood
;   printMaterial,PLA
;   printQuality,0.3 base
;   printExtruders,
;   extruderName,Primary Extruder
;   extruderToolheadNumber,0
;   extruderDiameter,0.4
;   extruderAutoWidth,0
;   extruderWidth,0.48
;   extrusionMultiplier,1
;   extruderUseRetract,1
;   extruderRetractionDistance,1.1
;   extruderExtraRestartDistance,0
;   extruderRetractionZLift,0
;   extruderRetractionSpeed,4200
;   extruderUseCoasting,1
;   extruderCoastingDistance,1
;   extruderUseWipe,1
;   extruderWipeDistance,2
;   primaryExtruder,0
;   layerHeight,0.2
;   topSolidLayers,4
;   bottomSolidLayers,2
;   perimeterOutlines,2
;   printPerimetersInsideOut,1
;   startPointOption,2
;   startPointOriginX,100
;   startPointOriginY,0
;   startPointOriginZ,150
;   sequentialIslands,0
;   spiralVaseMode,0
;   firstLayerHeightPercentage,150
;   firstLayerWidthPercentage,100
;   firstLayerUnderspeed,0.5
;   useRaft,0
;   raftExtruder,0
;   raftLayers,3
;   raftOffset,5
;   raftSeparationDistance,0.1
;   raftInfill,85
;   disableRaftBaseLayers,0
;   useSkirt,1
;   skirtExtruder,0
;   skirtLayers,1
;   skirtOutlines,3
;   skirtOffset,4
;   usePrimePillar,0
;   primePillarExtruder,999
;   primePillarWidth,12
;   primePillarLocation,7
;   primePillarSpeedMultiplier,1
;   useOozeShield,0
;   oozeShieldExtruder,999
;   oozeShieldOffset,10
;   oozeShieldOutlines,1
;   oozeShieldSidewallShape,0
;   oozeShieldSidewallAngle,30
;   oozeShieldSpeedMultiplier,1
;   infillExtruder,0
;   internalInfillPattern,Rectilinear
;   externalInfillPattern,Rectilinear
;   infillPercentage,30
;   outlineOverlapPercentage,15
;   infillExtrusionWidthPercentage,125
;   minInfillLength,1
;   infillLayerInterval,1
;   infillAngles,45,-45
;   overlapInfillAngles,0
;   generateSupport,0
;   supportExtruder,0
;   supportInfillPercentage,20
;   supportExtraInflation,0
;   denseSupportLayers,0
;   denseSupportInfillPercentage,70
;   supportLayerInterval,1
;   supportHorizontalPartOffset,0.3
;   supportUpperSeparationLayers,1
;   supportLowerSeparationLayers,1
;   supportType,0
;   supportGridSpacing,5
;   maxOverhangAngle,35
;   supportAngles,0
;   temperatureName,Extruder 0,Heated Bed
;   temperatureNumber,0,0
;   temperatureSetpointCount,1,1
;   temperatureSetpointLayers,1,1
;   temperatureSetpointTemperatures,210,60
;   temperatureStabilizeAtStartup,1,1
;   temperatureHeatedBed,0,1
;   temperatureRelayBetweenLayers,0,0
;   temperatureRelayBetweenLoops,0,0
;   fanLayers,1,3
;   fanSpeeds,0,60
;   blipFanToFullPower,1
;   adjustSpeedForCooling,1
;   minSpeedLayerTime,15
;   minCoolingSpeedSlowdown,40
;   increaseFanForCooling,1
;   minFanLayerTime,15
;   maxCoolingFanSpeed,100
;   increaseFanForBridging,1
;   bridgingFanSpeed,100
;   use5D,1
;   relativeEdistances,1
;   allowEaxisZeroing,1
;   independentExtruderAxes,0
;   includeM10123,0
;   stickySupport,1
;   applyToolheadOffsets,0
;   gcodeXoffset,0
;   gcodeYoffset,0
;   gcodeZoffset,0
;   overrideMachineDefinition,1
;   machineTypeOverride,0
;   strokeXoverride,170
;   strokeYoverride,160
;   strokeZoverride,145
;   originOffsetXoverride,0
;   originOffsetYoverride,0
;   originOffsetZoverride,0
;   homeXdirOverride,-1
;   homeYdirOverride,-1
;   homeZdirOverride,-1
;   flipXoverride,1
;   flipYoverride,-1
;   flipZoverride,1
;   toolheadOffsets,0,0|0,0|0,0|0,0|0,0|0,0
;   overrideFirmwareConfiguration,0
;   firmwareTypeOverride,RepRap (Marlin/Repetier/Sprinter)
;   GPXconfigOverride,r2
;   baudRateOverride,250000
;   overridePrinterModels,0
;   printerModelsOverride
;   startingGcode,; Jellybox Start Script Begin,M117 Preparing ,,; set x homing offset for default bed leveling,M206 X10.0 Y0.0  ,; optionally adjust Extruder steps per mm for your filament,; M92 E140 ,,; home all axes,G28,; slow Z speed down for greater accuracy,M203 Z5,; auto bed leveling procedure,G29,; pick up z speed again for print,M203 Z7,; reset extruder position,G92 E0,,M117 Print starting,;Jellybox Printer Start Script End
;   layerChangeGcode,
;   retractionGcode,
;   toolChangeGcode,
;   endingGcode,;Jellybox Printer End Script Start,,; extruder heater off,M104 S0,; bed heater off (if you have it),M140 S0,; turn fan off,M107,,; relative positioning,G91,; retract the filament a bit before lifting the nozzle to release some of the pressure,G1 E-1.5 F1200,; move Z up a bit and retract filament even more,G1 Z+1 E-1 X-20 Y-20,;move X/Y to so the head is out of the way,G28 X0,G1 Y100,; steppers off,M84,; absolute positioning,G90,,; Jellybox Printer End Script End
;   createX3G,0
;   celebration,0
;   celebrationSong,Random Song
;   createMB5G,0
;   postProcessing,|{REPLACE "; layer" "M117 Layer"} ,{REPLACE ", Z = " " | Z="}
;   defaultSpeed,3000
;   outlineUnderspeed,0.4
;   solidInfillUnderspeed,0.75
;   supportUnderspeed,0.75
;   rapidXYspeed,7200
;   rapidZspeed,300
;   minBridgingArea,50
;   bridgingExtraInflation,0.4
;   bridgingExtrusionMultiplier,1
;   bridgingSpeedMultiplier,1
;   filamentDiameter,1.75
;   filamentPricePerKg,15
;   filamentDensity,1.25
;   useMinPrintHeight,0
;   minPrintHeight,0
;   useMaxPrintHeight,0
;   maxPrintHeight,0
;   useDiaphragm,0
;   diaphragmLayerInterval,20
;   robustSlicing,1
;   mergeAllIntoSolid,0
;   onlyRetractWhenCrossingOutline,1
;   retractBetweenLayers,1
;   useRetractionMinTravel,1
;   retractionMinTravel,1.5
;   retractWhileWiping,0
;   onlyWipeOutlines,1
;   avoidCrossingOutline,1
;   maxMovementDetourFactor,3
;   toolChangeRetractionDistance,12
;   toolChangeExtraRestartDistance,-0.5
;   toolChangeRetractionSpeed,600
;   allowThinWallGapFill,1
;   thinWallAllowedOverlapPercentage,15
;   horizontalSizeCompensation,0
G90
M83
M106 S0
M140 S60
M190 S60
M104 S210 T0
M109 S210 T0
; Jellybox Start Script Begin
M117 Preparing 
; set x homing offset for default bed leveling
M206 X10.0 Y0.0  
; optionally adjust Extruder steps per mm for your filament
; M92 E140 
; home all axes
G28
; slow Z speed down for greater accuracy
M203 Z5
; auto bed leveling procedure
G29
; pick up z speed again for print
M203 Z7
; reset extruder position
G92 E0
M117 Print starting
;Jellybox Printer Start Script End
G1 E-1.1000 F4200
G1 Z0.300 F300
; layer 1, Z = 0.3
M106 S255
G4 P500
M106 S53
T0
; tool H0.300 W0.480
; skirt
G1 X78.751 Y80.231 F7200
G1 E1.1000 F1260
G1 X78.775 Y80.208 E0.0020 F1200
G1 X79.258 Y79.764 E0.0393
G1 X79.283 Y79.742 E0.0020
G1 X79.480 Y79.581 E0.0152
G1 X79.506 Y79.561 E0.0020
G1 X80.051 Y79.162 E0.0404
G1 X80.082 Y79.140 E0.0023
G1 X80.329 Y78.982 E0.0175
G1 X80.361 Y78.963 E0.0023
G1 X81.137 Y78.534 E0.0531
G1 X81.186 Y78.510 E0.0033
G1 X81.571 Y78.341 E0.0252
G1 X81.622 Y78.321 E0.0033
G1 X82.764 Y77.939 E0.0721
G1 X82.812 Y77.925 E0.0030
G1 X83.182 Y77.834 E0.0228
G1 X83.230 Y77.825 E0.0030
G1 X83.942 Y77.712 E0.0431
G1 X83.974 Y77.708 E0.0020
G1 X84.227 Y77.682 E0.0152
G1 X84.260 Y77.679 E0.0020
G1 X84.916 Y77.649 E0.0393
G1 X84.949 Y77.648 E0.0020
G1 X85.203 Y77.650 E0.0152
G1 X85.236 Y77.651 E0.0020
G1 X85.891 Y77.693 E0.0393
G1 X85.924 Y77.696 E0.0020
G1 X86.176 Y77.726 E0.0152
G1 X86.209 Y77.731 E0.0020
G1 X86.855 Y77.845 E0.0393
G1 X86.888 Y77.851 E0.0020
G1 X87.135 Y77.909 E0.0152
G1 X87.167 Y77.918 E0.0020
G1 X87.797 Y78.102 E0.0393
G1 X87.829 Y78.112 E0.0020
G1 X88.068 Y78.197 E0.0152
G1 X88.099 Y78.209 E0.0020
G1 X88.705 Y78.461 E0.0393
G1 X88.735 Y78.475 E0.0020
G1 X88.964 Y78.585 E0.0152
G1 X88.993 Y78.600 E0.0020
G1 X89.568 Y78.918 E0.0393
G1 X89.596 Y78.935 E0.0020
G1 X89.811 Y79.070 E0.0152
G1 X89.839 Y79.088 E0.0020
G1 X90.427 Y79.504 E0.0431
G1 X90.466 Y79.534 E0.0030
G1 X90.758 Y79.779 E0.0228
G1 X90.795 Y79.813 E0.0030
G1 X91.636 Y80.647 E0.0709
G1 X91.670 Y80.683 E0.0030
G1 X91.917 Y80.973 E0.0228
G1 X91.948 Y81.012 E0.0030
G1 X92.369 Y81.596 E0.0431
G1 X92.387 Y81.624 E0.0020
G1 X92.524 Y81.838 E0.0152
G1 X92.541 Y81.866 E0.0020
G1 X92.864 Y82.438 E0.0393
G1 X92.879 Y82.467 E0.0020
G1 X92.991 Y82.695 E0.0152
G1 X93.005 Y82.725 E0.0020
G1 X93.263 Y83.329 E0.0393
G1 X93.275 Y83.359 E0.0020
G1 X93.362 Y83.598 E0.0152
G1 X93.372 Y83.630 E0.0020
G1 X93.562 Y84.258 E0.0393
G1 X93.570 Y84.290 E0.0020
G1 X93.630 Y84.537 E0.0152
G1 X93.637 Y84.569 E0.0020
G1 X93.760 Y85.234 E0.0405
G1 X93.765 Y85.272 E0.0023
G1 X93.800 Y85.564 E0.0176
G1 X93.803 Y85.602 E0.0023
G1 X93.848 Y86.424 E0.0493
G1 X93.849 Y86.462 E0.0023
G1 X93.847 Y86.753 E0.0175
G1 X93.845 Y86.791 E0.0023
G1 X93.797 Y87.465 E0.0404
G1 X93.793 Y87.498 E0.0020
G1 X93.761 Y87.750 E0.0152
G1 X93.756 Y87.783 E0.0020
G1 X93.637 Y88.428 E0.0393
G1 X93.630 Y88.460 E0.0020
G1 X93.570 Y88.707 E0.0152
G1 X93.562 Y88.739 E0.0020
G1 X93.372 Y89.368 E0.0393
G1 X93.362 Y89.399 E0.0020
G1 X93.275 Y89.638 E0.0152
G1 X93.263 Y89.669 E0.0020
G1 X93.005 Y90.272 E0.0393
G1 X92.991 Y90.302 E0.0020
G1 X92.879 Y90.530 E0.0152
G1 X92.864 Y90.559 E0.0020
G1 X92.541 Y91.131 E0.0393
G1 X92.524 Y91.159 E0.0020
G1 X92.387 Y91.373 E0.0152
G1 X92.369 Y91.401 E0.0020
G1 X91.985 Y91.934 E0.0393
G1 X91.965 Y91.960 E0.0020
G1 X91.805 Y92.158 E0.0152
G1 X91.784 Y92.183 E0.0020
G1 X91.344 Y92.670 E0.0393
G1 X91.321 Y92.694 E0.0020
G1 X91.141 Y92.873 E0.0152
G1 X91.117 Y92.895 E0.0020
G1 X90.626 Y93.331 E0.0393
G1 X90.600 Y93.352 E0.0020
G1 X90.401 Y93.510 E0.0152
G1 X90.375 Y93.530 E0.0020
G1 X89.839 Y93.909 E0.0393
G1 X89.811 Y93.928 E0.0020
G1 X89.596 Y94.062 E0.0152
G1 X89.568 Y94.079 E0.0020
G1 X88.993 Y94.397 E0.0393
G1 X88.964 Y94.412 E0.0020
G1 X88.735 Y94.523 E0.0152
G1 X88.705 Y94.536 E0.0020
G1 X88.099 Y94.789 E0.0393
G1 X88.068 Y94.801 E0.0020
G1 X87.829 Y94.885 E0.0152
G1 X87.797 Y94.895 E0.0020
G1 X87.167 Y95.080 E0.0393
G1 X87.135 Y95.088 E0.0020
G1 X86.888 Y95.146 E0.0152
G1 X86.856 Y95.152 E0.0020
G1 X86.146 Y95.277 E0.0431
G1 X86.097 Y95.284 E0.0030
G1 X85.718 Y95.318 E0.0228
G1 X85.668 Y95.321 E0.0030
G1 X84.483 Y95.331 E0.0709
G1 X84.434 Y95.329 E0.0030
G1 X84.054 Y95.301 E0.0228
G1 X84.004 Y95.295 E0.0030
G1 X83.293 Y95.182 E0.0431
G1 X83.261 Y95.176 E0.0020
G1 X83.013 Y95.123 E0.0152
G1 X82.980 Y95.115 E0.0020
G1 X82.347 Y94.941 E0.0393
G1 X82.316 Y94.932 E0.0020
G1 X82.075 Y94.851 E0.0152
G1 X82.044 Y94.840 E0.0020
G1 X81.415 Y94.590 E0.0405
G1 X81.380 Y94.575 E0.0023
G1 X81.115 Y94.450 E0.0176
G1 X81.081 Y94.433 E0.0023
G1 X80.361 Y94.034 E0.0492
G1 X80.329 Y94.015 E0.0023
G1 X80.082 Y93.857 E0.0175
G1 X80.051 Y93.836 E0.0023
G1 X79.506 Y93.436 E0.0404
G1 X79.480 Y93.416 E0.0020
G1 X79.284 Y93.255 E0.0152
G1 X79.259 Y93.233 E0.0020
G1 X78.775 Y92.789 E0.0393
G1 X78.751 Y92.766 E0.0020
G1 X78.574 Y92.584 E0.0152
G1 X78.551 Y92.560 E0.0020
G1 X78.120 Y92.065 E0.0393
G1 X78.099 Y92.040 E0.0020
G1 X77.943 Y91.839 E0.0152
G1 X77.923 Y91.813 E0.0020
G1 X77.521 Y91.234 E0.0422
G1 X77.496 Y91.195 E0.0027
G1 X77.318 Y90.892 E0.0210
G1 X77.297 Y90.852 E0.0027
G1 X76.844 Y89.926 E0.0617
G1 X76.825 Y89.884 E0.0028
G1 X76.694 Y89.551 E0.0214
G1 X76.678 Y89.507 E0.0028
G1 X76.424 Y88.683 E0.0516
G1 X76.414 Y88.645 E0.0024
G1 X76.343 Y88.345 E0.0184
G1 X76.335 Y88.306 E0.0024
G1 X76.222 Y87.632 E0.0409
G1 X76.218 Y87.600 E0.0020
G1 X76.190 Y87.347 E0.0152
G1 X76.187 Y87.314 E0.0020
G1 X76.151 Y86.659 E0.0393
G1 X76.150 Y86.626 E0.0020
G1 X76.150 Y86.372 E0.0152
G1 X76.151 Y86.338 E0.0020
G1 X76.187 Y85.683 E0.0393
G1 X76.190 Y85.650 E0.0020
G1 X76.218 Y85.398 E0.0152
G1 X76.222 Y85.365 E0.0020
G1 X76.335 Y84.691 E0.0409
G1 X76.343 Y84.652 E0.0024
G1 X76.414 Y84.352 E0.0184
G1 X76.424 Y84.314 E0.0024
G1 X76.678 Y83.490 E0.0516
G1 X76.694 Y83.446 E0.0028
G1 X76.825 Y83.114 E0.0214
G1 X76.844 Y83.071 E0.0028
G1 X77.297 Y82.145 E0.0617
G1 X77.318 Y82.105 E0.0027
G1 X77.496 Y81.802 E0.0210
G1 X77.521 Y81.763 E0.0027
G1 X77.923 Y81.184 E0.0422
G1 X77.943 Y81.158 E0.0020
G1 X78.084 Y80.976 E0.0138
G1 X78.099 Y80.958 F1200
G1 X78.120 Y80.932 F1200
G1 X78.551 Y80.437 F1200
G1 X78.574 Y80.413 F1200
G1 X78.751 Y80.231 F1200
G1 X79.090 Y80.571 F7200
G1 X79.105 Y80.557 E0.0012 F1200
G1 X79.578 Y80.122 E0.0385
G1 X79.593 Y80.109 E0.0012
G1 X79.779 Y79.956 E0.0144
G1 X79.795 Y79.944 E0.0012
G1 X80.328 Y79.553 E0.0396
G1 X80.347 Y79.540 E0.0014
G1 X80.581 Y79.391 E0.0166
G1 X80.601 Y79.379 E0.0014
G1 X81.360 Y78.959 E0.0519
G1 X81.389 Y78.945 E0.0020
G1 X81.754 Y78.784 E0.0238
G1 X81.784 Y78.773 E0.0020
G1 X82.907 Y78.397 E0.0708
G1 X82.935 Y78.389 E0.0018
G1 X83.286 Y78.303 E0.0216
G1 X83.315 Y78.297 E0.0018
G1 X84.010 Y78.187 E0.0421
G1 X84.030 Y78.185 E0.0012
G1 X84.269 Y78.160 E0.0144
G1 X84.289 Y78.159 E0.0012
G1 X84.932 Y78.129 E0.0385
G1 X84.951 Y78.128 E0.0012
G1 X85.192 Y78.130 E0.0144
G1 X85.212 Y78.131 E0.0012
G1 X85.854 Y78.172 E0.0385
G1 X85.874 Y78.174 E0.0012
G1 X86.113 Y78.202 E0.0144
G1 X86.132 Y78.205 E0.0012
G1 X86.766 Y78.316 E0.0385
G1 X86.785 Y78.320 E0.0012
G1 X87.020 Y78.375 E0.0144
G1 X87.039 Y78.380 E0.0012
G1 X87.656 Y78.561 E0.0385
G1 X87.675 Y78.567 E0.0012
G1 X87.902 Y78.647 E0.0144
G1 X87.921 Y78.654 E0.0012
G1 X88.514 Y78.902 E0.0385
G1 X88.533 Y78.910 E0.0012
G1 X88.749 Y79.014 E0.0144
G1 X88.767 Y79.023 E0.0012
G1 X89.330 Y79.335 E0.0385
G1 X89.347 Y79.345 E0.0012
G1 X89.551 Y79.473 E0.0144
G1 X89.567 Y79.484 E0.0012
G1 X90.141 Y79.890 E0.0421
G1 X90.165 Y79.908 E0.0018
G1 X90.442 Y80.140 E0.0216
G1 X90.464 Y80.160 E0.0018
G1 X91.291 Y80.981 E0.0697
G1 X91.311 Y81.002 E0.0018
G1 X91.546 Y81.277 E0.0216
G1 X91.564 Y81.301 E0.0018
G1 X91.975 Y81.871 E0.0421
G1 X91.986 Y81.888 E0.0012
G1 X92.116 Y82.091 E0.0144
G1 X92.126 Y82.108 E0.0012
G1 X92.442 Y82.668 E0.0385
G1 X92.452 Y82.686 E0.0012
G1 X92.558 Y82.901 E0.0144
G1 X92.566 Y82.919 E0.0012
G1 X92.819 Y83.511 E0.0385
G1 X92.826 Y83.529 E0.0012
G1 X92.908 Y83.756 E0.0144
G1 X92.914 Y83.775 E0.0012
G1 X93.100 Y84.390 E0.0385
G1 X93.105 Y84.409 E0.0012
G1 X93.162 Y84.643 E0.0144
G1 X93.166 Y84.663 E0.0012
G1 X93.286 Y85.314 E0.0396
G1 X93.290 Y85.337 E0.0014
G1 X93.323 Y85.613 E0.0167
G1 X93.325 Y85.636 E0.0014
G1 X93.369 Y86.442 E0.0483
G1 X93.369 Y86.465 E0.0014
G1 X93.367 Y86.742 E0.0166
G1 X93.366 Y86.765 E0.0014
G1 X93.318 Y87.424 E0.0396
G1 X93.316 Y87.444 E0.0012
G1 X93.286 Y87.682 E0.0144
G1 X93.283 Y87.702 E0.0012
G1 X93.166 Y88.334 E0.0385
G1 X93.162 Y88.354 E0.0012
G1 X93.105 Y88.588 E0.0144
G1 X93.100 Y88.607 E0.0012
G1 X92.914 Y89.223 E0.0385
G1 X92.908 Y89.241 E0.0012
G1 X92.826 Y89.468 E0.0144
G1 X92.819 Y89.486 E0.0012
G1 X92.566 Y90.078 E0.0385
G1 X92.558 Y90.096 E0.0012
G1 X92.452 Y90.312 E0.0144
G1 X92.442 Y90.329 E0.0012
G1 X92.126 Y90.889 E0.0385
G1 X92.116 Y90.906 E0.0012
G1 X91.986 Y91.109 E0.0144
G1 X91.975 Y91.126 E0.0012
G1 X91.599 Y91.648 E0.0385
G1 X91.587 Y91.664 E0.0012
G1 X91.436 Y91.851 E0.0144
G1 X91.423 Y91.866 E0.0012
G1 X90.992 Y92.343 E0.0385
G1 X90.978 Y92.358 E0.0012
G1 X90.808 Y92.527 E0.0144
G1 X90.793 Y92.541 E0.0012
G1 X90.312 Y92.968 E0.0385
G1 X90.297 Y92.980 E0.0012
G1 X90.108 Y93.130 E0.0144
G1 X90.092 Y93.142 E0.0012
G1 X89.567 Y93.513 E0.0385
G1 X89.551 Y93.524 E0.0012
G1 X89.347 Y93.652 E0.0144
G1 X89.330 Y93.662 E0.0012
G1 X88.767 Y93.974 E0.0385
G1 X88.749 Y93.983 E0.0012
G1 X88.532 Y94.088 E0.0144
G1 X88.514 Y94.096 E0.0012
G1 X87.921 Y94.343 E0.0385
G1 X87.902 Y94.350 E0.0012
G1 X87.675 Y94.430 E0.0144
G1 X87.656 Y94.437 E0.0012
G1 X87.039 Y94.617 E0.0385
G1 X87.020 Y94.622 E0.0012
G1 X86.785 Y94.677 E0.0144
G1 X86.766 Y94.681 E0.0012
G1 X86.073 Y94.803 E0.0421
G1 X86.044 Y94.806 E0.0018
G1 X85.684 Y94.839 E0.0216
G1 X85.654 Y94.841 E0.0018
G1 X84.489 Y94.851 E0.0697
G1 X84.459 Y94.850 E0.0018
G1 X84.099 Y94.823 E0.0216
G1 X84.070 Y94.819 E0.0018
G1 X83.375 Y94.709 E0.0421
G1 X83.355 Y94.706 E0.0012
G1 X83.120 Y94.655 E0.0144
G1 X83.101 Y94.650 E0.0012
G1 X82.481 Y94.480 E0.0385
G1 X82.462 Y94.475 E0.0012
G1 X82.233 Y94.398 E0.0144
G1 X82.215 Y94.391 E0.0012
G1 X81.600 Y94.147 E0.0396
G1 X81.579 Y94.138 E0.0014
G1 X81.327 Y94.019 E0.0166
