; G-Code generated by Simplify3D(R) Version 3.0.0
; Nov 16, 2016 at 8:09:34 AM
; Settings Summary
;   processName,Process1
;   applyToModels,f shroud mount 1.4(6)
;   profileName,JB Lite6 20mm meltzone 0.2 (modified)
;   profileVersion,2016-07-27 06:45:13
;   baseProfile,Plywood
;   printMaterial,PLA
;   printQuality,0.3 base
;   printExtruders,
;   extruderName,Primary Extruder
;   extruderToolheadNumber,0
;   extruderDiameter,0.4
;   extruderAutoWidth,0
;   extruderWidth,0.48
;   extrusionMultiplier,1
;   extruderUseRetract,1
;   extruderRetractionDistance,1.1
;   extruderExtraRestartDistance,0
;   extruderRetractionZLift,0
;   extruderRetractionSpeed,4200
;   extruderUseCoasting,1
;   extruderCoastingDistance,1
;   extruderUseWipe,1
;   extruderWipeDistance,2
;   primaryExtruder,0
;   layerHeight,0.2
;   topSolidLayers,5
;   bottomSolidLayers,2
;   perimeterOutlines,2
;   printPerimetersInsideOut,1
;   startPointOption,2
;   startPointOriginX,100
;   startPointOriginY,0
;   startPointOriginZ,150
;   sequentialIslands,0
;   spiralVaseMode,0
;   firstLayerHeightPercentage,150
;   firstLayerWidthPercentage,100
;   firstLayerUnderspeed,0.5
;   useRaft,0
;   raftExtruder,0
;   raftLayers,3
;   raftOffset,5
;   raftSeparationDistance,0.1
;   raftInfill,85
;   disableRaftBaseLayers,0
;   useSkirt,1
;   skirtExtruder,0
;   skirtLayers,1
;   skirtOutlines,3
;   skirtOffset,4
;   usePrimePillar,0
;   primePillarExtruder,999
;   primePillarWidth,12
;   primePillarLocation,7
;   primePillarSpeedMultiplier,1
;   useOozeShield,0
;   oozeShieldExtruder,999
;   oozeShieldOffset,10
;   oozeShieldOutlines,1
;   oozeShieldSidewallShape,0
;   oozeShieldSidewallAngle,30
;   oozeShieldSpeedMultiplier,1
;   infillExtruder,0
;   internalInfillPattern,Rectilinear
;   externalInfillPattern,Rectilinear
;   infillPercentage,30
;   outlineOverlapPercentage,15
;   infillExtrusionWidthPercentage,125
;   minInfillLength,1
;   infillLayerInterval,1
;   infillAngles,45,-45
;   overlapInfillAngles,0
;   generateSupport,0
;   supportExtruder,0
;   supportInfillPercentage,20
;   supportExtraInflation,0
;   denseSupportLayers,0
;   denseSupportInfillPercentage,70
;   supportLayerInterval,1
;   supportHorizontalPartOffset,0.3
;   supportUpperSeparationLayers,1
;   supportLowerSeparationLayers,1
;   supportType,0
;   supportGridSpacing,5
;   maxOverhangAngle,35
;   supportAngles,0
;   temperatureName,Extruder 0,Heated Bed
;   temperatureNumber,0,0
;   temperatureSetpointCount,1,1
;   temperatureSetpointLayers,1,1
;   temperatureSetpointTemperatures,210,60
;   temperatureStabilizeAtStartup,1,1
;   temperatureHeatedBed,0,1
;   temperatureRelayBetweenLayers,0,0
;   temperatureRelayBetweenLoops,0,0
;   fanLayers,1,3
;   fanSpeeds,0,60
;   blipFanToFullPower,1
;   adjustSpeedForCooling,1
;   minSpeedLayerTime,15
;   minCoolingSpeedSlowdown,40
;   increaseFanForCooling,1
;   minFanLayerTime,15
;   maxCoolingFanSpeed,100
;   increaseFanForBridging,1
;   bridgingFanSpeed,100
;   use5D,1
;   relativeEdistances,1
;   allowEaxisZeroing,1
;   independentExtruderAxes,0
;   includeM10123,0
;   stickySupport,1
;   applyToolheadOffsets,0
;   gcodeXoffset,0
;   gcodeYoffset,0
;   gcodeZoffset,0
;   overrideMachineDefinition,1
;   machineTypeOverride,0
;   strokeXoverride,170
;   strokeYoverride,160
;   strokeZoverride,145
;   originOffsetXoverride,0
;   originOffsetYoverride,0
;   originOffsetZoverride,0
;   homeXdirOverride,-1
;   homeYdirOverride,-1
;   homeZdirOverride,-1
;   flipXoverride,1
;   flipYoverride,-1
;   flipZoverride,1
;   toolheadOffsets,0,0|0,0|0,0|0,0|0,0|0,0
;   overrideFirmwareConfiguration,0
;   firmwareTypeOverride,RepRap (Marlin/Repetier/Sprinter)
;   GPXconfigOverride,r2
;   baudRateOverride,250000
;   overridePrinterModels,0
;   printerModelsOverride
;   startingGcode,; Jellybox Start Script Begin,M117 Preparing ,,; set x homing offset for default bed leveling,M206 X10.0 Y0.0  ,; optionally adjust Extruder steps per mm for your filament,; M92 E140 ,,; home all axes,G28,; slow Z speed down for greater accuracy,M203 Z5,; auto bed leveling procedure,G29,; pick up z speed again for print,M203 Z7,; reset extruder position,G92 E0,,M117 Print starting,;Jellybox Printer Start Script End
;   layerChangeGcode,
;   retractionGcode,
;   toolChangeGcode,
;   endingGcode,;Jellybox Printer End Script Start,,; extruder heater off,M104 S0,; bed heater off (if you have it),M140 S0,; turn fan off,M107,,; relative positioning,G91,; retract the filament a bit before lifting the nozzle to release some of the pressure,G1 E-1.5 F1200,; move Z up a bit and retract filament even more,G1 Z+1 E-1 X-20 Y-20,;move X/Y to so the head is out of the way,G28 X0,G1 Y100,; steppers off,M84,; absolute positioning,G90,,; Jellybox Printer End Script End
;   createX3G,0
;   celebration,0
;   celebrationSong,Random Song
;   createMB5G,0
;   postProcessing,|{REPLACE "; layer" "M117 Layer"} ,{REPLACE ", Z = " " | Z="}
;   defaultSpeed,3000
;   outlineUnderspeed,0.4
;   solidInfillUnderspeed,0.75
;   supportUnderspeed,0.75
;   rapidXYspeed,7200
;   rapidZspeed,300
;   minBridgingArea,50
;   bridgingExtraInflation,0.4
;   bridgingExtrusionMultiplier,1
;   bridgingSpeedMultiplier,1
;   filamentDiameter,1.75
;   filamentPricePerKg,15
;   filamentDensity,1.25
;   useMinPrintHeight,0
;   minPrintHeight,0
;   useMaxPrintHeight,0
;   maxPrintHeight,0
;   useDiaphragm,0
;   diaphragmLayerInterval,20
;   robustSlicing,1
;   mergeAllIntoSolid,0
;   onlyRetractWhenCrossingOutline,1
;   retractBetweenLayers,1
;   useRetractionMinTravel,1
;   retractionMinTravel,1.5
;   retractWhileWiping,0
;   onlyWipeOutlines,1
;   avoidCrossingOutline,1
;   maxMovementDetourFactor,3
;   toolChangeRetractionDistance,12
;   toolChangeExtraRestartDistance,-0.5
;   toolChangeRetractionSpeed,600
;   allowThinWallGapFill,1
;   thinWallAllowedOverlapPercentage,15
;   horizontalSizeCompensation,0
G90
M83
M106 S0
M140 S60
M190 S60
M104 S210 T0
M109 S210 T0
; Jellybox Start Script Begin
M117 Preparing 
; set x homing offset for default bed leveling
M206 X10.0 Y0.0  
; optionally adjust Extruder steps per mm for your filament
; M92 E140 
; home all axes
G28
; slow Z speed down for greater accuracy
M203 Z5
; auto bed leveling procedure
G29
; pick up z speed again for print
M203 Z7
; reset extruder position
G92 E0
M117 Print starting
;Jellybox Printer Start Script End
G1 E-1.1000 F4200
G1 Z0.300 F300
; layer 1, Z = 0.3
T0
; tool H0.300 W0.480
; skirt
G1 X73.642 Y54.484 F7200
G1 E1.1000 F1260
G1 X76.322 Y51.803 E0.2270 F1500
G1 X76.763 Y51.620 E0.0286
G1 X86.749 Y51.620 E0.5978
G1 X86.980 Y51.666 E0.0141
G1 X88.662 Y52.360 E0.1090
G1 X88.858 Y52.490 E0.0141
G1 X92.034 Y55.644 E0.2679
G1 X92.166 Y55.841 E0.0142
G1 X92.871 Y57.536 E0.1099
G1 X92.918 Y57.769 E0.0142
G1 X92.918 Y84.416 E1.5953
G1 X93.276 Y84.416 E0.0214
G1 X93.717 Y84.598 E0.0286
G1 X96.397 Y87.279 E0.2270
G1 X96.580 Y87.720 E0.0286
G1 X96.580 Y103.364 E0.9366
G1 X96.397 Y103.805 E0.0286
G1 X93.717 Y106.486 E0.2270
G1 X93.276 Y106.669 E0.0286
G1 X81.059 Y106.669 E0.7314
G1 X80.947 Y106.658 E0.0067
G1 X80.096 Y106.497 E0.0518
G1 X79.987 Y106.465 E0.0067
G1 X75.438 Y104.672 E0.2928
G1 X75.156 Y104.446 E0.0216
G1 X73.566 Y102.110 E0.1692
G1 X73.460 Y101.765 E0.0216
G1 X73.459 Y55.448 E2.7730
G1 X73.459 Y54.925 F1500
G1 X73.642 Y54.484 F1500
G1 X74.048 Y54.756 F7200
G1 X76.594 Y52.210 E0.2155 F1500
G1 X76.859 Y52.100 E0.0171
G1 X86.702 Y52.100 E0.5893
G1 X86.841 Y52.128 E0.0085
G1 X88.436 Y52.786 E0.1033
G1 X88.554 Y52.864 E0.0085
G1 X91.662 Y55.951 E0.2623
G1 X91.741 Y56.070 E0.0085
G1 X92.410 Y57.677 E0.1042
G1 X92.438 Y57.816 E0.0085
G1 X92.438 Y84.896 E1.6212
G1 X93.180 Y84.896 E0.0444
G1 X93.445 Y85.005 E0.0171
G1 X95.990 Y87.551 E0.2155
G1 X96.100 Y87.815 E0.0171
G1 X96.100 Y103.269 E0.9252
G1 X95.990 Y103.534 E0.0171
G1 X93.445 Y106.079 E0.2155
G1 X93.180 Y106.189 E0.0171
G1 X81.081 Y106.189 E0.7243
G1 X81.014 Y106.183 E0.0040
G1 X80.208 Y106.029 E0.0491
G1 X80.143 Y106.010 E0.0040
G1 X75.681 Y104.252 E0.2871
G1 X75.512 Y104.116 E0.0130
G1 X74.004 Y101.900 E0.1605
G1 X73.940 Y101.693 E0.0130
G1 X73.939 Y55.734 E2.7515
G1 X73.939 Y55.020 F1500
G1 X74.048 Y54.756 F1500
G1 X74.455 Y55.028 F7200
G1 X76.866 Y52.617 E0.2041 F1500
G1 X76.954 Y52.580 E0.0057
G1 X86.655 Y52.580 E0.5808
G1 X86.701 Y52.590 E0.0028
G1 X88.209 Y53.211 E0.0977
G1 X88.249 Y53.237 E0.0028
G1 X91.290 Y56.259 E0.2566
G1 X91.316 Y56.298 E0.0028
G1 X91.948 Y57.817 E0.0985
G1 X91.958 Y57.864 E0.0028
G1 X91.958 Y85.376 E1.6471
G1 X93.085 Y85.376 E0.0675
G1 X93.173 Y85.412 E0.0057
G1 X95.583 Y87.823 E0.2041
G1 X95.620 Y87.911 E0.0057
G1 X95.620 Y103.173 E0.9137
G1 X95.583 Y103.262 E0.0057
G1 X93.173 Y105.672 E0.2041
G1 X93.085 Y105.709 E0.0057
G1 X81.104 Y105.709 E0.7173
G1 X81.081 Y105.707 E0.0013
G1 X80.319 Y105.562 E0.0464
G1 X80.298 Y105.556 E0.0013
G1 X75.925 Y103.832 E0.2814
G1 X75.868 Y103.787 E0.0043
G1 X74.441 Y101.690 E0.1519
G1 X74.420 Y101.621 E0.0043
G1 X74.419 Y56.020 E2.7300
G1 X74.419 Y55.116 F1500
G1 X74.455 Y55.028 F1500
; inner perimeter
G1 X79.379 Y57.540 F7200
G1 X85.542 Y57.540 E0.3690 F1050
G1 X86.998 Y58.986 E0.1228
G1 X86.998 Y63.337 E0.2605
G1 X86.678 Y63.352 E0.0192
G1 X86.643 Y62.991 E0.0218
G1 X86.514 Y62.566 E0.0266
G1 X86.306 Y62.174 E0.0266
G1 X86.025 Y61.830 E0.0266
G1 X85.675 Y61.542 E0.0271
G1 X85.293 Y61.337 E0.0260
G1 X84.837 Y61.200 E0.0285
G1 X84.415 Y61.159 E0.0254
G1 X83.969 Y61.203 E0.0268
G1 X83.540 Y61.333 E0.0269
G1 X83.145 Y61.545 E0.0268
G1 X82.801 Y61.830 E0.0267
G1 X82.526 Y62.165 E0.0259
G1 X82.314 Y62.558 E0.0268
G1 X82.183 Y62.986 E0.0268
G1 X82.143 Y63.386 E0.0241
G1 X82.143 Y85.594 E1.3296
G1 X82.183 Y86.004 E0.0247
G1 X82.314 Y86.433 E0.0268
G1 X82.526 Y86.827 E0.0268
G1 X82.802 Y87.163 E0.0261
G1 X83.159 Y87.455 E0.0276
G1 X83.541 Y87.658 E0.0259
G1 X83.969 Y87.789 E0.0268
G1 X84.415 Y87.832 E0.0268
G1 X84.837 Y87.792 E0.0254
G1 X85.293 Y87.654 E0.0285
G1 X85.674 Y87.450 E0.0259
G1 X86.017 Y87.169 E0.0265
G1 X86.300 Y86.826 E0.0266
G1 X86.510 Y86.435 E0.0266
G1 X86.640 Y86.010 E0.0266
G1 X86.679 Y85.636 E0.0225
G1 X86.998 Y85.652 E0.0191
G1 X86.998 Y90.336 E0.2804
G1 X90.660 Y90.336 E0.2193
G1 X90.660 Y94.517 E0.2503
G1 X90.304 Y94.176 E0.0296
G1 X90.070 Y93.995 E0.0177
G1 X89.790 Y93.818 E0.0198
G1 X89.228 Y93.553 E0.0372
G1 X88.605 Y93.362 E0.0390
G1 X88.274 Y93.294 E0.0202
G1 X87.913 Y93.241 E0.0219
G1 X87.230 Y93.202 E0.0409
G1 X86.538 Y93.241 E0.0415
G1 X85.867 Y93.357 E0.0408
G1 X85.248 Y93.545 E0.0388
G1 X84.923 Y93.683 E0.0211
G1 X84.661 Y93.819 E0.0176
G1 X84.385 Y93.992 E0.0196
G1 X84.161 Y94.165 E0.0169
G1 X83.931 Y94.383 E0.0190
G1 X83.768 Y94.580 E0.0153
G1 X83.719 Y94.648 E0.0051
G1 X83.585 Y94.863 E0.0152
G1 X83.476 Y95.112 E0.0163
G1 X83.391 Y95.418 E0.0190
G1 X83.366 Y95.739 E0.0193
G1 X83.390 Y96.017 E0.0167
G1 X83.469 Y96.321 E0.0188
G1 X83.580 Y96.575 E0.0166
G1 X83.746 Y96.841 E0.0188
G1 X83.922 Y97.054 E0.0165
G1 X84.150 Y97.274 E0.0190
G1 X84.374 Y97.447 E0.0169
G1 X84.662 Y97.630 E0.0205
G1 X85.224 Y97.894 E0.0372
G1 X85.856 Y98.088 E0.0396
G1 X86.528 Y98.205 E0.0408
G1 X87.221 Y98.245 E0.0415
G1 X87.904 Y98.207 E0.0409
G1 X88.278 Y98.153 E0.0227
G1 X88.923 Y97.999 E0.0397
G1 X89.515 Y97.771 E0.0380
G1 X89.797 Y97.625 E0.0190
G1 X90.066 Y97.455 E0.0190
G1 X90.299 Y97.275 E0.0176
G1 X90.660 Y96.932 E0.0298
G1 X90.660 Y100.749 E0.2285
G1 X81.629 Y100.749 E0.5407
G1 X79.380 Y99.862 E0.1447
G1 X79.379 Y58.540 E2.4739
G1 X79.379 Y57.540 F1050
; outer perimeter
G1 X78.899 Y57.060 F7200
G1 X85.740 Y57.060 E0.4096 F600
G1 X87.478 Y58.786 E0.1466
G1 X87.478 Y89.856 E1.8601
G1 X91.140 Y89.856 E0.2193
G1 X91.140 Y101.229 E0.6809
G1 X81.537 Y101.229 E0.5749
G1 X78.900 Y100.189 E0.1697
G1 X78.899 Y58.060 E2.5222
G1 X78.899 Y57.060 F600
G1 X80.899 Y57.060 F3000
; inner perimeter
; outer perimeter
G1 X83.142 Y62.170 F7200
G1 X82.926 Y62.433 E0.0204 F600
G1 X82.759 Y62.744 E0.0211
G1 X82.656 Y63.081 E0.0211
G1 X82.623 Y63.410 E0.0198
G1 X82.623 Y85.571 E1.3267
G1 X82.656 Y85.910 E0.0204
G1 X82.759 Y86.248 E0.0211
G1 X82.926 Y86.558 E0.0211
G1 X83.143 Y86.822 E0.0204
G1 X83.427 Y87.054 E0.0219
G1 X83.725 Y87.213 E0.0203
G1 X84.063 Y87.315 E0.0212
G1 X84.416 Y87.350 E0.0212
G1 X84.744 Y87.318 E0.0198
G1 X85.108 Y87.209 E0.0228
G1 X85.406 Y87.049 E0.0202
G1 X85.677 Y86.828 E0.0209
G1 X85.899 Y86.557 E0.0210
G1 X86.065 Y86.249 E0.0210
G1 X86.168 Y85.915 E0.0210
G1 X86.202 Y85.578 E0.0203
G1 X86.203 Y63.421 E1.3265
G1 X86.169 Y63.085 E0.0202
G1 X86.068 Y62.750 E0.0209
G1 X85.904 Y62.441 E0.0209
G1 X85.683 Y62.171 E0.0209
G1 X85.407 Y61.943 E0.0215
G1 X85.108 Y61.783 E0.0203
G1 X84.744 Y61.673 E0.0228
G1 X84.416 Y61.642 E0.0198
G1 X84.063 Y61.676 E0.0212
G1 X84.007 Y61.693 E0.0035
G1 X83.725 Y61.779 F600
G1 X83.414 Y61.946 F600
G1 X83.142 Y62.170 F600
G1 X82.926 Y62.433 F3000
G1 X82.759 Y62.744 F3000
G1 X82.656 Y63.081 F3000
G1 X82.623 Y63.410 F3000
G1 X82.623 Y64.034 F3000
; inner perimeter
; outer perimeter
G1 X82.628 Y64.076 F7200
G1 X82.627 Y85.570 F7200
G1 X82.661 Y85.909 F7200
G1 X82.764 Y86.246 F7200
G1 X82.930 Y86.555 F7200
G1 X83.146 Y86.818 F7200
G1 X83.429 Y87.050 F7200
G1 X83.727 Y87.208 F7200
G1 X84.064 Y87.311 F7200
G1 X84.416 Y87.345 F7200
G1 X84.744 Y87.314 F7200
G1 X85.107 Y87.204 F7200
G1 X85.225 Y87.140 F7200
G1 X85.978 Y93.825 F7200
G1 X85.411 Y93.997 E0.0355 F600
G1 X85.128 Y94.117 E0.0184
G1 X84.900 Y94.236 E0.0154
G1 X84.660 Y94.386 E0.0170
G1 X84.473 Y94.531 E0.0141
G1 X84.282 Y94.711 E0.0158
G1 X84.148 Y94.873 E0.0126
G1 X84.117 Y94.916 E0.0031
G1 X84.010 Y95.087 E0.0121
G1 X83.929 Y95.273 E0.0121
G1 X83.866 Y95.501 E0.0142
G1 X83.847 Y95.737 E0.0141
G1 X83.864 Y95.935 E0.0119
G1 X83.924 Y96.164 E0.0141
G1 X84.006 Y96.351 E0.0122
G1 X84.136 Y96.560 E0.0148
G1 X84.274 Y96.727 E0.0130
G1 X84.464 Y96.910 E0.0158
G1 X84.650 Y97.054 E0.0141
G1 X84.894 Y97.209 E0.0173
G1 X85.397 Y97.445 E0.0333
G1 X85.968 Y97.620 E0.0358
G1 X86.583 Y97.728 E0.0374
G1 X87.221 Y97.764 E0.0383
G1 X87.856 Y97.729 E0.0381
G1 X88.188 Y97.681 E0.0201
G1 X88.781 Y97.539 E0.0365
G1 X89.318 Y97.333 E0.0345
G1 X89.558 Y97.208 E0.0162
G1 X89.790 Y97.062 E0.0165
G1 X89.986 Y96.910 E0.0148
G1 X90.169 Y96.736 E0.0152
G1 X90.315 Y96.559 E0.0137
G1 X90.441 Y96.359 E0.0141
G1 X90.533 Y96.148 E0.0138
G1 X90.586 Y95.942 E0.0128
G1 X90.605 Y95.719 E0.0134
G1 X90.586 Y95.508 E0.0127
G1 X90.530 Y95.290 E0.0135
G1 X90.443 Y95.092 E0.0130
G1 X90.318 Y94.892 E0.0141
G1 X90.172 Y94.715 E0.0137
G1 X89.990 Y94.540 E0.0151
G1 X89.794 Y94.388 E0.0148
G1 X89.559 Y94.239 E0.0167
G1 X89.055 Y94.002 E0.0333
G1 X88.486 Y93.828 E0.0356
G1 X88.191 Y93.767 E0.0180
G1 X87.864 Y93.719 E0.0198
G1 X87.230 Y93.683 E0.0380
G1 X86.969 Y93.698 E0.0157
G1 X86.593 Y93.719 F600
G1 X85.978 Y93.825 F600
G1 X85.411 Y93.997 F3000
G1 X85.128 Y94.117 F3000
G1 X84.900 Y94.236 F3000
G1 X84.660 Y94.386 F3000
G1 X84.473 Y94.531 F3000
G1 X84.282 Y94.711 F3000
G1 X84.244 Y94.758 F3000
; gap fill
G1 X86.615 Y85.173 F7200
G1 X87.065 Y84.723 E0.0381 F1500
G1 X87.065 Y84.045 E0.0406
G1 X86.615 Y84.494 E0.0381
G1 X86.615 Y83.816 E0.0406
G1 X87.065 Y83.366 E0.0381
G1 X87.065 Y82.687 E0.0406
G1 X86.615 Y83.137 E0.0381
G1 X86.615 Y82.458 E0.0406
G1 X87.065 Y82.008 E0.0381
G1 X87.065 Y81.329 E0.0406
G1 X86.615 Y81.779 E0.0381
G1 X86.615 Y81.100 E0.0406
G1 X87.065 Y80.650 E0.0381
G1 X87.065 Y79.972 E0.0406
G1 X86.615 Y80.421 E0.0381
G1 X86.615 Y79.743 E0.0406
G1 X87.065 Y79.293 E0.0381
G1 X87.065 Y78.614 E0.0406
G1 X86.615 Y79.064 E0.0381
G1 X86.615 Y78.385 E0.0406
G1 X87.065 Y77.935 E0.0381
G1 X87.065 Y77.256 E0.0406
G1 X86.615 Y77.706 E0.0381
G1 X86.615 Y77.027 E0.0406
G1 X87.065 Y76.578 E0.0381
G1 X87.065 Y75.899 E0.0406
G1 X86.615 Y76.348 E0.0381
G1 X86.615 Y75.670 E0.0406
G1 X87.065 Y75.220 E0.0381
G1 X87.065 Y74.541 E0.0406
G1 X86.615 Y74.991 E0.0381
G1 X86.615 Y74.312 E0.0406
G1 X87.065 Y73.862 E0.0381
G1 X87.065 Y73.183 E0.0406
G1 X86.615 Y73.633 E0.0381
G1 X86.615 Y72.954 E0.0406
G1 X87.065 Y72.505 E0.0381
G1 X87.065 Y71.826 E0.0406
G1 X86.615 Y72.275 E0.0381
