; G-Code generated by Simplify3D(R) Version 3.0.0
; Nov 16, 2016 at 8:08:32 AM
; Settings Summary
;   processName,Process1
;   applyToModels,latch 1.2(5)
;   profileName,JB Lite6 20mm meltzone 0.2 (modified)
;   profileVersion,2016-07-27 06:45:13
;   baseProfile,Plywood
;   printMaterial,PLA
;   printQuality,0.3 base
;   printExtruders,
;   extruderName,Primary Extruder
;   extruderToolheadNumber,0
;   extruderDiameter,0.4
;   extruderAutoWidth,0
;   extruderWidth,0.48
;   extrusionMultiplier,1
;   extruderUseRetract,1
;   extruderRetractionDistance,1.1
;   extruderExtraRestartDistance,0
;   extruderRetractionZLift,0
;   extruderRetractionSpeed,4200
;   extruderUseCoasting,1
;   extruderCoastingDistance,1
;   extruderUseWipe,1
;   extruderWipeDistance,2
;   primaryExtruder,0
;   layerHeight,0.2
;   topSolidLayers,5
;   bottomSolidLayers,2
;   perimeterOutlines,2
;   printPerimetersInsideOut,1
;   startPointOption,2
;   startPointOriginX,100
;   startPointOriginY,0
;   startPointOriginZ,150
;   sequentialIslands,0
;   spiralVaseMode,0
;   firstLayerHeightPercentage,150
;   firstLayerWidthPercentage,100
;   firstLayerUnderspeed,0.5
;   useRaft,0
;   raftExtruder,0
;   raftLayers,3
;   raftOffset,5
;   raftSeparationDistance,0.1
;   raftInfill,85
;   disableRaftBaseLayers,0
;   useSkirt,1
;   skirtExtruder,0
;   skirtLayers,1
;   skirtOutlines,3
;   skirtOffset,4
;   usePrimePillar,0
;   primePillarExtruder,999
;   primePillarWidth,12
;   primePillarLocation,7
;   primePillarSpeedMultiplier,1
;   useOozeShield,0
;   oozeShieldExtruder,999
;   oozeShieldOffset,10
;   oozeShieldOutlines,1
;   oozeShieldSidewallShape,0
;   oozeShieldSidewallAngle,30
;   oozeShieldSpeedMultiplier,1
;   infillExtruder,0
;   internalInfillPattern,Rectilinear
;   externalInfillPattern,Rectilinear
;   infillPercentage,30
;   outlineOverlapPercentage,15
;   infillExtrusionWidthPercentage,125
;   minInfillLength,1
;   infillLayerInterval,1
;   infillAngles,45,-45
;   overlapInfillAngles,0
;   generateSupport,0
;   supportExtruder,0
;   supportInfillPercentage,20
;   supportExtraInflation,0
;   denseSupportLayers,0
;   denseSupportInfillPercentage,70
;   supportLayerInterval,1
;   supportHorizontalPartOffset,0.3
;   supportUpperSeparationLayers,1
;   supportLowerSeparationLayers,1
;   supportType,0
;   supportGridSpacing,5
;   maxOverhangAngle,35
;   supportAngles,0
;   temperatureName,Extruder 0,Heated Bed
;   temperatureNumber,0,0
;   temperatureSetpointCount,1,1
;   temperatureSetpointLayers,1,1
;   temperatureSetpointTemperatures,210,60
;   temperatureStabilizeAtStartup,1,1
;   temperatureHeatedBed,0,1
;   temperatureRelayBetweenLayers,0,0
;   temperatureRelayBetweenLoops,0,0
;   fanLayers,1,3
;   fanSpeeds,0,60
;   blipFanToFullPower,1
;   adjustSpeedForCooling,1
;   minSpeedLayerTime,15
;   minCoolingSpeedSlowdown,40
;   increaseFanForCooling,1
;   minFanLayerTime,15
;   maxCoolingFanSpeed,100
;   increaseFanForBridging,1
;   bridgingFanSpeed,100
;   use5D,1
;   relativeEdistances,1
;   allowEaxisZeroing,1
;   independentExtruderAxes,0
;   includeM10123,0
;   stickySupport,1
;   applyToolheadOffsets,0
;   gcodeXoffset,0
;   gcodeYoffset,0
;   gcodeZoffset,0
;   overrideMachineDefinition,1
;   machineTypeOverride,0
;   strokeXoverride,170
;   strokeYoverride,160
;   strokeZoverride,145
;   originOffsetXoverride,0
;   originOffsetYoverride,0
;   originOffsetZoverride,0
;   homeXdirOverride,-1
;   homeYdirOverride,-1
;   homeZdirOverride,-1
;   flipXoverride,1
;   flipYoverride,-1
;   flipZoverride,1
;   toolheadOffsets,0,0|0,0|0,0|0,0|0,0|0,0
;   overrideFirmwareConfiguration,0
;   firmwareTypeOverride,RepRap (Marlin/Repetier/Sprinter)
;   GPXconfigOverride,r2
;   baudRateOverride,250000
;   overridePrinterModels,0
;   printerModelsOverride
;   startingGcode,; Jellybox Start Script Begin,M117 Preparing ,,; set x homing offset for default bed leveling,M206 X10.0 Y0.0  ,; optionally adjust Extruder steps per mm for your filament,; M92 E140 ,,; home all axes,G28,; slow Z speed down for greater accuracy,M203 Z5,; auto bed leveling procedure,G29,; pick up z speed again for print,M203 Z7,; reset extruder position,G92 E0,,M117 Print starting,;Jellybox Printer Start Script End
;   layerChangeGcode,
;   retractionGcode,
;   toolChangeGcode,
;   endingGcode,;Jellybox Printer End Script Start,,; extruder heater off,M104 S0,; bed heater off (if you have it),M140 S0,; turn fan off,M107,,; relative positioning,G91,; retract the filament a bit before lifting the nozzle to release some of the pressure,G1 E-1.5 F1200,; move Z up a bit and retract filament even more,G1 Z+1 E-1 X-20 Y-20,;move X/Y to so the head is out of the way,G28 X0,G1 Y100,; steppers off,M84,; absolute positioning,G90,,; Jellybox Printer End Script End
;   createX3G,0
;   celebration,0
;   celebrationSong,Random Song
;   createMB5G,0
;   postProcessing,|{REPLACE "; layer" "M117 Layer"} ,{REPLACE ", Z = " " | Z="}
;   defaultSpeed,3000
;   outlineUnderspeed,0.4
;   solidInfillUnderspeed,0.75
;   supportUnderspeed,0.75
;   rapidXYspeed,7200
;   rapidZspeed,300
;   minBridgingArea,50
;   bridgingExtraInflation,0.4
;   bridgingExtrusionMultiplier,1
;   bridgingSpeedMultiplier,1
;   filamentDiameter,1.75
;   filamentPricePerKg,15
;   filamentDensity,1.25
;   useMinPrintHeight,0
;   minPrintHeight,0
;   useMaxPrintHeight,0
;   maxPrintHeight,0
;   useDiaphragm,0
;   diaphragmLayerInterval,20
;   robustSlicing,1
;   mergeAllIntoSolid,0
;   onlyRetractWhenCrossingOutline,1
;   retractBetweenLayers,1
;   useRetractionMinTravel,1
;   retractionMinTravel,1.5
;   retractWhileWiping,0
;   onlyWipeOutlines,1
;   avoidCrossingOutline,1
;   maxMovementDetourFactor,3
;   toolChangeRetractionDistance,12
;   toolChangeExtraRestartDistance,-0.5
;   toolChangeRetractionSpeed,600
;   allowThinWallGapFill,1
;   thinWallAllowedOverlapPercentage,15
;   horizontalSizeCompensation,0
G90
M83
M106 S0
M140 S60
M190 S60
M104 S210 T0
M109 S210 T0
; Jellybox Start Script Begin
M117 Preparing 
; set x homing offset for default bed leveling
M206 X10.0 Y0.0  
; optionally adjust Extruder steps per mm for your filament
; M92 E140 
; home all axes
G28
; slow Z speed down for greater accuracy
M203 Z5
; auto bed leveling procedure
G29
; pick up z speed again for print
M203 Z7
; reset extruder position
G92 E0
M117 Print starting
;Jellybox Printer Start Script End
G1 E-1.1000 F4200
G1 Z0.300 F300
; layer 1, Z = 0.3
T0
; tool H0.300 W0.480
; skirt
G1 X72.009 Y74.972 F7200
G1 E1.1000 F1260
G1 X73.384 Y73.841 E0.1066 F1500
G1 X73.558 Y73.741 E0.0120
G1 X75.005 Y73.204 E0.0924
G1 X75.202 Y73.167 E0.0120
G1 X77.306 Y73.120 E0.1260
G1 X77.364 Y73.121 E0.0035
G1 X77.809 Y73.154 E0.0267
G1 X77.867 Y73.161 E0.0035
G1 X78.632 Y73.294 E0.0465
G1 X78.730 Y73.319 E0.0061
G1 X79.468 Y73.582 E0.0469
G1 X79.561 Y73.624 E0.0061
G1 X80.539 Y74.172 E0.0671
G1 X80.657 Y74.259 E0.0088
G1 X81.482 Y75.038 E0.0679
G1 X81.577 Y75.152 E0.0088
G1 X82.171 Y76.082 E0.0661
G1 X82.395 Y75.128 E0.0587
G1 X82.540 Y74.270 E0.0521
G1 X82.628 Y73.332 E0.0564
G1 X82.627 Y73.298 E0.0020
G1 X82.503 Y72.576 E0.0439
G1 X82.499 Y72.550 E0.0016
G1 X82.474 Y72.348 E0.0122
G1 X82.471 Y72.321 E0.0016
G1 X82.419 Y71.683 E0.0383
G1 X82.418 Y71.650 E0.0020
G1 X82.411 Y71.392 E0.0154
G1 X82.411 Y71.358 E0.0020
G1 X82.432 Y70.692 E0.0399
G1 X82.434 Y70.658 E0.0020
G1 X82.456 Y70.402 E0.0154
G1 X82.460 Y70.368 E0.0020
G1 X82.565 Y69.644 E0.0438
G1 X82.574 Y69.595 E0.0030
G1 X82.661 Y69.218 E0.0232
G1 X82.674 Y69.169 E0.0030
G1 X83.043 Y68.024 E0.0720
G1 X83.061 Y67.976 E0.0030
G1 X83.210 Y67.619 E0.0232
G1 X83.231 Y67.574 E0.0030
G1 X83.568 Y66.925 E0.0438
G1 X83.585 Y66.895 E0.0020
G1 X83.716 Y66.674 E0.0154
G1 X83.734 Y66.645 E0.0020
G1 X84.106 Y66.092 E0.0399
G1 X84.126 Y66.065 E0.0020
G1 X84.281 Y65.859 E0.0154
G1 X84.302 Y65.833 E0.0020
G1 X84.746 Y65.310 E0.0411
G1 X84.772 Y65.281 E0.0023
G1 X84.978 Y65.068 E0.0177
G1 X85.005 Y65.041 E0.0023
G1 X85.623 Y64.479 E0.0500
G1 X85.653 Y64.454 E0.0023
G1 X85.886 Y64.268 E0.0179
G1 X85.917 Y64.244 E0.0023
G1 X86.481 Y63.852 E0.0411
G1 X86.509 Y63.833 E0.0020
G1 X86.728 Y63.698 E0.0154
G1 X86.757 Y63.681 E0.0020
G1 X87.344 Y63.364 E0.0399
G1 X87.374 Y63.348 E0.0020
G1 X87.607 Y63.238 E0.0154
G1 X87.638 Y63.225 E0.0020
G1 X88.256 Y62.975 E0.0399
G1 X88.287 Y62.963 E0.0020
G1 X88.531 Y62.880 E0.0154
G1 X88.563 Y62.870 E0.0020
G1 X89.268 Y62.674 E0.0438
G1 X89.317 Y62.662 E0.0030
G1 X89.697 Y62.590 E0.0232
G1 X89.747 Y62.582 E0.0030
G1 X90.944 Y62.457 E0.0720
G1 X90.994 Y62.454 E0.0030
G1 X91.381 Y62.446 E0.0232
G1 X91.431 Y62.448 E0.0030
G1 X92.161 Y62.494 E0.0438
G1 X92.195 Y62.497 E0.0020
G1 X92.451 Y62.528 E0.0154
G1 X92.484 Y62.533 E0.0020
G1 X93.140 Y62.650 E0.0399
G1 X93.173 Y62.657 E0.0020
G1 X93.424 Y62.716 E0.0154
G1 X93.457 Y62.725 E0.0020
G1 X94.096 Y62.915 E0.0399
G1 X94.128 Y62.925 E0.0020
G1 X94.371 Y63.012 E0.0154
G1 X94.402 Y63.024 E0.0020
G1 X95.075 Y63.309 E0.0438
G1 X95.121 Y63.331 E0.0030
G1 X95.463 Y63.511 E0.0232
G1 X95.507 Y63.537 E0.0030
G1 X96.521 Y64.185 E0.0720
G1 X96.562 Y64.214 E0.0030
G1 X96.870 Y64.449 E0.0232
G1 X96.908 Y64.481 E0.0030
G1 X97.450 Y64.972 E0.0438
G1 X97.474 Y64.995 E0.0020
G1 X97.655 Y65.179 E0.0154
G1 X97.678 Y65.204 E0.0020
G1 X98.119 Y65.704 E0.0399
G1 X98.140 Y65.730 E0.0020
G1 X98.300 Y65.933 E0.0154
G1 X98.320 Y65.960 E0.0020
G1 X98.701 Y66.506 E0.0399
G1 X98.720 Y66.535 E0.0020
G1 X98.855 Y66.754 E0.0154
G1 X98.872 Y66.783 E0.0020
G1 X99.200 Y67.386 E0.0411
G1 X99.218 Y67.421 E0.0023
G1 X99.343 Y67.692 E0.0179
G1 X99.358 Y67.728 E0.0023
G1 X99.658 Y68.507 E0.0500
G1 X99.671 Y68.544 E0.0023
G1 X99.760 Y68.827 E0.0177
G1 X99.770 Y68.864 E0.0023
G1 X99.933 Y69.530 E0.0411
G1 X99.940 Y69.563 E0.0020
G1 X99.987 Y69.816 E0.0154
G1 X99.992 Y69.850 E0.0020
G1 X100.076 Y70.511 E0.0399
G1 X100.080 Y70.544 E0.0020
G1 X100.098 Y70.802 E0.0154
G1 X100.099 Y70.835 E0.0020
G1 X100.109 Y71.502 E0.0399
G1 X100.109 Y71.535 E0.0020
G1 X100.098 Y71.793 E0.0154
G1 X100.096 Y71.827 E0.0020
G1 X100.031 Y72.490 E0.0399
G1 X100.027 Y72.524 E0.0020
G1 X99.988 Y72.778 E0.0154
G1 X99.982 Y72.811 E0.0020
G1 X99.843 Y73.464 E0.0399
G1 X99.835 Y73.496 E0.0020
G1 X99.768 Y73.745 E0.0154
G1 X99.758 Y73.777 E0.0020
G1 X99.547 Y74.410 E0.0399
G1 X99.536 Y74.442 E0.0020
G1 X99.441 Y74.681 E0.0154
G1 X99.427 Y74.712 E0.0020
G1 X99.147 Y75.317 E0.0399
G1 X99.132 Y75.347 E0.0020
G1 X99.011 Y75.575 E0.0154
G1 X98.994 Y75.604 E0.0020
G1 X98.639 Y76.190 E0.0410
G1 X98.618 Y76.222 E0.0023
G1 X98.449 Y76.463 E0.0176
G1 X98.426 Y76.494 E0.0023
G1 X97.622 Y77.502 E0.0772
G1 X97.055 Y78.293 E0.0583
G1 X96.618 Y78.971 E0.0483
G1 X96.106 Y79.848 E0.0608
G1 X95.663 Y80.710 E0.0580
G1 X95.382 Y81.360 E0.0424
G1 X95.252 Y81.733 E0.0236
G1 X95.180 Y82.012 E0.0173
G1 X95.168 Y82.083 E0.0043
G1 X95.157 Y82.228 E0.0087
G1 X95.157 Y92.502 E0.6151
G1 X95.152 Y92.581 E0.0047
G1 X95.073 Y93.178 E0.0361
G1 X95.058 Y93.255 E0.0047
G1 X94.803 Y94.206 E0.0589
G1 X94.743 Y94.351 E0.0094
G1 X94.138 Y95.399 E0.0725
G1 X94.042 Y95.524 E0.0094
G1 X93.131 Y96.435 E0.0771
G1 X93.006 Y96.531 E0.0094
G1 X91.957 Y97.136 E0.0725
G1 X91.812 Y97.197 E0.0094
G1 X90.568 Y97.530 E0.0771
G1 X90.412 Y97.550 E0.0094
G1 X89.202 Y97.550 E0.0725
G1 X89.046 Y97.530 E0.0094
G1 X87.802 Y97.197 E0.0771
G1 X87.656 Y97.136 E0.0094
G1 X86.608 Y96.531 E0.0725
G1 X86.483 Y96.435 E0.0094
G1 X85.787 Y95.739 E0.0589
G1 X85.735 Y95.680 E0.0047
G1 X85.368 Y95.202 E0.0361
G1 X85.324 Y95.136 E0.0047
G1 X85.191 Y94.905 E0.0160
G1 X83.136 Y94.905 E0.1230
G1 X82.831 Y94.823 E0.0189
G1 X80.701 Y93.593 E0.1472
G1 X80.478 Y93.370 E0.0189
G1 X78.102 Y89.255 E0.2845
G1 X75.394 Y89.255 E0.1621
G1 X75.238 Y89.235 E0.0094
G1 X74.069 Y88.921 E0.0725
G1 X73.923 Y88.861 E0.0094
G1 X72.650 Y88.126 E0.0880
G1 X72.525 Y88.030 E0.0094
G1 X71.669 Y87.174 E0.0725
G1 X71.573 Y87.050 E0.0094
G1 X70.364 Y84.954 E0.1448
G1 X70.317 Y84.853 E0.0067
G1 X70.034 Y84.048 E0.0511
G1 X70.007 Y83.940 E0.0067
G1 X69.834 Y82.820 E0.0679
G1 X69.827 Y82.709 E0.0067
G1 X69.854 Y81.856 E0.0511
G1 X69.868 Y81.745 E0.0067
G1 X70.996 Y76.625 E0.3139
G1 X71.071 Y76.439 E0.0120
G1 X71.460 Y75.805 E0.0446
G1 X71.878 Y75.123 F1500
G1 X72.009 Y74.972 F1500
G1 X72.345 Y75.317 F7200
G1 X73.658 Y74.237 E0.1018 F1500
G1 X73.762 Y74.178 E0.0072
G1 X75.135 Y73.668 E0.0876
G1 X75.253 Y73.646 E0.0072
G1 X77.305 Y73.600 E0.1229
G1 X77.340 Y73.601 E0.0021
G1 X77.762 Y73.632 E0.0253
G1 X77.796 Y73.636 E0.0021
G1 X78.530 Y73.763 E0.0446
G1 X78.589 Y73.779 E0.0037
G1 X79.288 Y74.027 E0.0444
G1 X79.344 Y74.052 E0.0037
G1 X80.278 Y74.576 E0.0641
G1 X80.349 Y74.629 E0.0053
G1 X81.131 Y75.367 E0.0644
G1 X81.188 Y75.435 E0.0053
G1 X81.942 Y76.615 E0.0838
G1 X81.983 Y76.704 E0.0059
G1 X82.084 Y77.035 E0.0207
G1 X82.440 Y77.035 E0.0213
G1 X82.866 Y75.223 E0.1115
G1 X83.016 Y74.332 E0.0541
G1 X83.108 Y73.350 E0.0591
G1 X83.107 Y73.254 E0.0058
G1 X82.977 Y72.501 E0.0457
G1 X82.975 Y72.485 E0.0010
G1 X82.951 Y72.293 E0.0116
G1 X82.949 Y72.277 E0.0010
G1 X82.898 Y71.651 E0.0376
G1 X82.897 Y71.631 E0.0012
G1 X82.891 Y71.387 E0.0146
G1 X82.891 Y71.366 E0.0012
G1 X82.912 Y70.714 E0.0391
G1 X82.913 Y70.693 E0.0012
G1 X82.934 Y70.450 E0.0146
G1 X82.936 Y70.430 E0.0012
G1 X83.038 Y69.723 E0.0428
G1 X83.044 Y69.693 E0.0018
G1 X83.126 Y69.336 E0.0220
G1 X83.135 Y69.306 E0.0018
G1 X83.497 Y68.180 E0.0708
G1 X83.507 Y68.152 E0.0018
G1 X83.649 Y67.813 E0.0220
G1 X83.661 Y67.786 E0.0018
G1 X83.991 Y67.152 E0.0428
G1 X84.001 Y67.135 E0.0012
G1 X84.126 Y66.924 E0.0146
G1 X84.136 Y66.907 E0.0012
G1 X84.501 Y66.365 E0.0391
G1 X84.512 Y66.349 E0.0012
G1 X84.660 Y66.154 E0.0146
G1 X84.672 Y66.138 E0.0012
G1 X85.107 Y65.626 E0.0402
G1 X85.122 Y65.609 E0.0014
G1 X85.317 Y65.407 E0.0168
G1 X85.334 Y65.391 E0.0014
G1 X85.940 Y64.839 E0.0491
G1 X85.958 Y64.824 E0.0014
G1 X86.179 Y64.648 E0.0169
G1 X86.198 Y64.634 E0.0014
G1 X86.750 Y64.249 E0.0402
G1 X86.766 Y64.238 E0.0012
G1 X86.975 Y64.110 E0.0146
G1 X86.992 Y64.100 E0.0012
G1 X87.566 Y63.789 E0.0391
G1 X87.584 Y63.780 E0.0012
G1 X87.805 Y63.675 E0.0146
G1 X87.824 Y63.667 E0.0012
G1 X88.429 Y63.422 E0.0391
G1 X88.448 Y63.415 E0.0012
G1 X88.680 Y63.337 E0.0146
G1 X88.699 Y63.331 E0.0012
G1 X89.387 Y63.139 E0.0428
G1 X89.417 Y63.132 E0.0018
G1 X89.777 Y63.063 E0.0220
G1 X89.807 Y63.059 E0.0018
G1 X90.984 Y62.936 E0.0708
G1 X91.014 Y62.934 E0.0018
G1 X91.381 Y62.927 E0.0220
G1 X91.411 Y62.927 E0.0018
G1 X92.124 Y62.973 E0.0428
G1 X92.144 Y62.975 E0.0012
G1 X92.387 Y63.004 E0.0146
G1 X92.407 Y63.007 E0.0012
G1 X93.050 Y63.122 E0.0391
G1 X93.069 Y63.126 E0.0012
G1 X93.307 Y63.182 E0.0146
G1 X93.327 Y63.187 E0.0012
G1 X93.953 Y63.373 E0.0391
G1 X93.972 Y63.379 E0.0012
G1 X94.202 Y63.462 E0.0146
G1 X94.221 Y63.469 E0.0012
G1 X94.879 Y63.748 E0.0428
G1 X94.906 Y63.761 E0.0018
G1 X95.231 Y63.931 E0.0220
G1 X95.257 Y63.947 E0.0018
G1 X96.254 Y64.584 E0.0708
G1 X96.279 Y64.601 E0.0018
G1 X96.570 Y64.824 E0.0220
G1 X96.593 Y64.843 E0.0018
G1 X97.122 Y65.323 E0.0428
G1 X97.137 Y65.337 E0.0012
G1 X97.309 Y65.511 E0.0146
G1 X97.322 Y65.526 E0.0012
G1 X97.754 Y66.016 E0.0391
G1 X97.767 Y66.032 E0.0012
G1 X97.918 Y66.224 E0.0146
G1 X97.930 Y66.240 E0.0012
G1 X98.304 Y66.776 E0.0391
G1 X98.315 Y66.793 E0.0012
G1 X98.444 Y67.001 E0.0146
G1 X98.454 Y67.018 E0.0012
G1 X98.775 Y67.609 E0.0403
G1 X98.785 Y67.630 E0.0014
G1 X98.904 Y67.886 E0.0169
G1 X98.913 Y67.908 E0.0014
G1 X99.208 Y68.673 E0.0491
G1 X99.215 Y68.695 E0.0014
G1 X99.299 Y68.963 E0.0168
G1 X99.306 Y68.985 E0.0014
