; G-Code generated by Simplify3D(R) Version 3.0.0
; Oct 5, 2016 at 3:28:09 PM
; Settings Summary
;   processName,Process1
;   applyToModels,g fan shroud R 4.3
;   profileName,JB Lite6 20mm meltzone 0.2 (modified)
;   profileVersion,2016-07-27 06:45:13
;   baseProfile,Plywood
;   printMaterial,PLA
;   printQuality,0.3 base
;   printExtruders,
;   extruderName,Primary Extruder
;   extruderToolheadNumber,0
;   extruderDiameter,0.4
;   extruderAutoWidth,0
;   extruderWidth,0.48
;   extrusionMultiplier,1
;   extruderUseRetract,1
;   extruderRetractionDistance,1.1
;   extruderExtraRestartDistance,0
;   extruderRetractionZLift,0
;   extruderRetractionSpeed,4200
;   extruderUseCoasting,1
;   extruderCoastingDistance,1
;   extruderUseWipe,1
;   extruderWipeDistance,2
;   primaryExtruder,0
;   layerHeight,0.2
;   topSolidLayers,5
;   bottomSolidLayers,2
;   perimeterOutlines,2
;   printPerimetersInsideOut,1
;   startPointOption,2
;   startPointOriginX,100
;   startPointOriginY,0
;   startPointOriginZ,150
;   sequentialIslands,0
;   spiralVaseMode,0
;   firstLayerHeightPercentage,150
;   firstLayerWidthPercentage,100
;   firstLayerUnderspeed,0.5
;   useRaft,0
;   raftExtruder,0
;   raftLayers,3
;   raftOffset,5
;   raftSeparationDistance,0.1
;   raftInfill,85
;   disableRaftBaseLayers,0
;   useSkirt,1
;   skirtExtruder,0
;   skirtLayers,1
;   skirtOutlines,3
;   skirtOffset,4
;   usePrimePillar,0
;   primePillarExtruder,999
;   primePillarWidth,12
;   primePillarLocation,7
;   primePillarSpeedMultiplier,1
;   useOozeShield,0
;   oozeShieldExtruder,999
;   oozeShieldOffset,10
;   oozeShieldOutlines,1
;   oozeShieldSidewallShape,0
;   oozeShieldSidewallAngle,30
;   oozeShieldSpeedMultiplier,1
;   infillExtruder,0
;   internalInfillPattern,Rectilinear
;   externalInfillPattern,Rectilinear
;   infillPercentage,30
;   outlineOverlapPercentage,15
;   infillExtrusionWidthPercentage,125
;   minInfillLength,1
;   infillLayerInterval,1
;   infillAngles,45,-45
;   overlapInfillAngles,0
;   generateSupport,0
;   supportExtruder,0
;   supportInfillPercentage,20
;   supportExtraInflation,0
;   denseSupportLayers,0
;   denseSupportInfillPercentage,70
;   supportLayerInterval,1
;   supportHorizontalPartOffset,0.3
;   supportUpperSeparationLayers,1
;   supportLowerSeparationLayers,1
;   supportType,0
;   supportGridSpacing,5
;   maxOverhangAngle,35
;   supportAngles,0
;   temperatureName,Extruder 0,Heated Bed
;   temperatureNumber,0,0
;   temperatureSetpointCount,1,1
;   temperatureSetpointLayers,1,1
;   temperatureSetpointTemperatures,210,60
;   temperatureStabilizeAtStartup,1,1
;   temperatureHeatedBed,0,1
;   temperatureRelayBetweenLayers,0,0
;   temperatureRelayBetweenLoops,0,0
;   fanLayers,1,3
;   fanSpeeds,0,60
;   blipFanToFullPower,1
;   adjustSpeedForCooling,1
;   minSpeedLayerTime,15
;   minCoolingSpeedSlowdown,40
;   increaseFanForCooling,1
;   minFanLayerTime,15
;   maxCoolingFanSpeed,100
;   increaseFanForBridging,1
;   bridgingFanSpeed,100
;   use5D,1
;   relativeEdistances,1
;   allowEaxisZeroing,1
;   independentExtruderAxes,0
;   includeM10123,0
;   stickySupport,1
;   applyToolheadOffsets,0
;   gcodeXoffset,0
;   gcodeYoffset,0
;   gcodeZoffset,0
;   overrideMachineDefinition,1
;   machineTypeOverride,0
;   strokeXoverride,170
;   strokeYoverride,160
;   strokeZoverride,145
;   originOffsetXoverride,0
;   originOffsetYoverride,0
;   originOffsetZoverride,0
;   homeXdirOverride,-1
;   homeYdirOverride,-1
;   homeZdirOverride,-1
;   flipXoverride,1
;   flipYoverride,-1
;   flipZoverride,1
;   toolheadOffsets,0,0|0,0|0,0|0,0|0,0|0,0
;   overrideFirmwareConfiguration,0
;   firmwareTypeOverride,RepRap (Marlin/Repetier/Sprinter)
;   GPXconfigOverride,r2
;   baudRateOverride,250000
;   overridePrinterModels,0
;   printerModelsOverride
;   startingGcode,; Jellybox Start Script Begin,M117 Preparing ,,; set x homing offset for default bed leveling,M206 X10.0 Y0.0  ,; optionally adjust Extruder steps per mm for your filament,; M92 E140 ,,; home all axes,G28,; slow Z speed down for greater accuracy,M203 Z5,; auto bed leveling procedure,G29,; pick up z speed again for print,M203 Z7,; reset extruder position,G92 E0,,M117 Print starting,;Jellybox Printer Start Script End
;   layerChangeGcode,
;   retractionGcode,
;   toolChangeGcode,
;   endingGcode,;Jellybox Printer End Script Start,,; extruder heater off,M104 S0,; bed heater off (if you have it),M140 S0,; turn fan off,M107,,; relative positioning,G91,; retract the filament a bit before lifting the nozzle to release some of the pressure,G1 E-1.5 F1200,; move Z up a bit and retract filament even more,G1 Z+1 E-1 X-20 Y-20,;move X/Y to so the head is out of the way,G28 X0,G1 Y100,; steppers off,M84,; absolute positioning,G90,,; Jellybox Printer End Script End
;   createX3G,0
;   celebration,0
;   celebrationSong,Random Song
;   createMB5G,0
;   postProcessing,|{REPLACE "; layer" "M117 Layer"} ,{REPLACE ", Z = " " | Z="}
;   defaultSpeed,3000
;   outlineUnderspeed,0.4
;   solidInfillUnderspeed,0.75
;   supportUnderspeed,0.75
;   rapidXYspeed,7200
;   rapidZspeed,300
;   minBridgingArea,50
;   bridgingExtraInflation,0.4
;   bridgingExtrusionMultiplier,1
;   bridgingSpeedMultiplier,1
;   filamentDiameter,1.75
;   filamentPricePerKg,15
;   filamentDensity,1.25
;   useMinPrintHeight,0
;   minPrintHeight,0
;   useMaxPrintHeight,0
;   maxPrintHeight,0
;   useDiaphragm,0
;   diaphragmLayerInterval,20
;   robustSlicing,1
;   mergeAllIntoSolid,0
;   onlyRetractWhenCrossingOutline,1
;   retractBetweenLayers,1
;   useRetractionMinTravel,1
;   retractionMinTravel,1.5
;   retractWhileWiping,0
;   onlyWipeOutlines,1
;   avoidCrossingOutline,1
;   maxMovementDetourFactor,3
;   toolChangeRetractionDistance,12
;   toolChangeExtraRestartDistance,-0.5
;   toolChangeRetractionSpeed,600
;   allowThinWallGapFill,1
;   thinWallAllowedOverlapPercentage,15
;   horizontalSizeCompensation,0
G90
M83
M106 S0
M140 S60
M190 S60
M104 S210 T0
M109 S210 T0
; Jellybox Start Script Begin
M117 Preparing 
; set x homing offset for default bed leveling
M206 X10.0 Y0.0  
; optionally adjust Extruder steps per mm for your filament
; M92 E140 
; home all axes
G28
; slow Z speed down for greater accuracy
M203 Z5
; auto bed leveling procedure
G29
; pick up z speed again for print
M203 Z7
; reset extruder position
G92 E0
M117 Print starting
;Jellybox Printer Start Script End
G1 E-1.1000 F4200
G1 Z0.300 F300
; layer 1, Z = 0.3
T0
; tool H0.300 W0.480
; skirt
G1 X64.545 Y47.438 F7200
G1 E1.1000 F1260
G1 X67.173 Y44.705 E0.2270 F1500
G1 X67.611 Y44.514 E0.0286
G1 X79.193 Y44.291 E0.6936
G1 X79.638 Y44.465 E0.0286
G1 X82.370 Y47.093 E0.2270
G1 X82.561 Y47.531 E0.0286
G1 X83.678 Y105.436 E3.4674
G1 X83.504 Y105.881 E0.0286
G1 X80.876 Y108.613 E0.2270
G1 X80.438 Y108.804 E0.0286
G1 X75.486 Y108.900 E0.2965
G1 X75.041 Y108.725 E0.0286
G1 X72.310 Y106.097 E0.2270
G1 X72.118 Y105.659 E0.0286
G1 X71.887 Y93.669 E0.7180
G1 X71.739 Y93.552 E0.0113
G1 X68.567 Y93.613 E0.1899
G1 X68.123 Y93.439 E0.0286
G1 X65.391 Y90.811 E0.2269
G1 X65.200 Y90.374 E0.0286
G1 X64.381 Y48.405 E2.5131
G1 X64.371 Y47.882 F1500
G1 X64.545 Y47.438 F1500
G1 X64.957 Y47.702 F7200
G1 X67.453 Y45.107 E0.2156 F1500
G1 X67.716 Y44.992 E0.0172
G1 X79.107 Y44.772 E0.6821
G1 X79.374 Y44.877 E0.0171
G1 X81.968 Y47.373 E0.2155
G1 X82.083 Y47.636 E0.0171
G1 X83.197 Y105.350 E3.4559
G1 X83.092 Y105.617 E0.0171
G1 X80.596 Y108.211 E0.2155
G1 X80.334 Y108.326 E0.0171
G1 X75.572 Y108.418 E0.2851
G1 X75.305 Y108.313 E0.0171
G1 X72.711 Y105.817 E0.2155
G1 X72.596 Y105.555 E0.0171
G1 X72.363 Y93.432 E0.7259
G1 X71.901 Y93.069 E0.0352
G1 X68.653 Y93.131 E0.1945
G1 X68.387 Y93.027 E0.0171
G1 X65.793 Y90.532 E0.2155
G1 X65.678 Y90.269 E0.0171
G1 X64.866 Y48.682 E2.4902
G1 X64.852 Y47.969 F1500
G1 X64.957 Y47.702 F1500
G1 X65.369 Y47.966 F7200
G1 X67.733 Y45.508 E0.2041 F1500
G1 X67.820 Y45.470 E0.0057
G1 X79.021 Y45.254 E0.6707
G1 X79.110 Y45.289 E0.0057
G1 X81.567 Y47.653 E0.2041
G1 X81.605 Y47.740 E0.0057
G1 X82.715 Y105.264 E3.4445
G1 X82.680 Y105.353 E0.0057
G1 X80.316 Y107.810 E0.2041
G1 X80.229 Y107.848 E0.0057
G1 X75.658 Y107.936 E0.2737
G1 X75.569 Y107.901 E0.0057
G1 X73.113 Y105.537 E0.2041
G1 X73.075 Y105.450 E0.0057
G1 X72.838 Y93.196 E0.7338
G1 X72.064 Y92.586 E0.0590
G1 X68.740 Y92.650 E0.1990
G1 X68.651 Y92.615 E0.0057
G1 X66.194 Y90.252 E0.2041
G1 X66.156 Y90.164 E0.0057
G1 X65.352 Y48.959 E2.4674
G1 X65.334 Y48.055 F1500
G1 X65.369 Y47.966 F1500
; inner perimeter
G1 X70.341 Y50.382 F7200
G1 X76.692 Y50.260 E0.3803 F1050
G1 X76.885 Y60.211 E0.5958
G1 X76.600 Y60.260 E0.0173
G1 X76.395 Y59.647 E0.0387
G1 X76.089 Y59.119 E0.0365
G1 X75.690 Y58.672 E0.0359
G1 X75.306 Y58.369 E0.0292
G1 X74.774 Y58.087 E0.0360
G1 X74.189 Y57.916 E0.0365
G1 X73.581 Y57.866 E0.0365
G1 X72.978 Y57.939 E0.0363
G1 X72.555 Y58.076 E0.0267
G1 X72.386 Y58.139 E0.0108
G1 X71.876 Y58.435 E0.0353
G1 X71.504 Y58.752 E0.0292
G1 X71.123 Y59.215 E0.0359
G1 X70.535 Y60.324 E0.0752
G1 X70.360 Y51.382 E0.5355
G1 X70.341 Y50.382 F1050
G1 X70.910 Y79.578 F7200
G1 X71.536 Y80.656 E0.0746 F1050
G1 X71.935 Y81.103 E0.0359
G1 X72.318 Y81.406 E0.0292
G1 X72.850 Y81.688 E0.0360
G1 X73.436 Y81.859 E0.0365
G1 X74.044 Y81.909 E0.0365
G1 X74.646 Y81.836 E0.0363
G1 X75.070 Y81.698 E0.0267
G1 X75.238 Y81.636 E0.0108
G1 X75.756 Y81.336 E0.0358
G1 X76.203 Y80.937 E0.0359
G1 X76.506 Y80.553 E0.0292
G1 X76.788 Y80.021 E0.0360
G1 X76.970 Y79.399 E0.0388
G1 X77.256 Y79.437 E0.0173
G1 X77.470 Y90.530 E0.6642
G1 X74.384 Y88.100 E0.2351
G1 X74.852 Y87.973 E0.0290
G1 X75.212 Y87.813 E0.0236
G1 X75.546 Y87.599 E0.0238
G1 X75.841 Y87.334 E0.0237
G1 X76.085 Y87.023 E0.0237
G1 X76.269 Y86.678 E0.0234
G1 X76.387 Y86.314 E0.0229
G1 X76.435 Y85.978 E0.0203
G1 X76.419 Y85.550 E0.0256
G1 X76.326 Y85.171 E0.0234
G1 X76.171 Y84.825 E0.0227
G1 X75.978 Y84.532 E0.0210
G1 X75.712 Y84.244 E0.0235
G1 X75.393 Y83.999 E0.0241
G1 X75.037 Y83.811 E0.0241
G1 X74.663 Y83.681 E0.0237
G1 X74.262 Y83.605 E0.0244
G1 X73.852 Y83.590 E0.0246
G1 X73.438 Y83.640 E0.0249
G1 X73.037 Y83.756 E0.0250
G1 X72.670 Y83.924 E0.0241
G1 X72.318 Y84.161 E0.0254
G1 X71.968 Y84.505 E0.0294
G1 X71.696 Y84.927 E0.0301
G1 X71.528 Y85.402 E0.0302
G1 X71.476 Y85.900 E0.0299
G1 X71.532 Y86.343 E0.0267
G1 X71.675 Y86.754 E0.0261
G1 X71.891 Y87.120 E0.0254
G1 X72.322 Y87.620 E0.0395
G1 X71.068 Y87.644 E0.0751
G1 X70.930 Y80.578 E0.4231
G1 X70.910 Y79.578 F1050
; outer perimeter
G1 X69.851 Y49.912 F7200
G1 X77.163 Y49.771 E0.4378 F600
G1 X78.198 Y103.406 E3.2117
G1 X77.516 Y103.419 E0.0408
G1 X77.277 Y90.989 E0.7444
G1 X73.578 Y88.076 E0.2819
G1 X70.597 Y88.133 E0.1785
G1 X69.871 Y50.912 E2.2288
G1 X69.851 Y49.912 F600
G1 X71.851 Y49.873 F3000
; inner perimeter
; outer perimeter
G1 X72.154 Y58.829 F7200
G1 X71.848 Y59.090 E0.0241 F600
G1 X71.524 Y59.483 E0.0305
G1 X71.286 Y59.932 E0.0304
G1 X71.246 Y60.054 E0.0077
G1 X71.140 Y60.428 E0.0233
G1 X71.099 Y60.926 E0.0299
G1 X71.446 Y78.947 E1.0791
G1 X71.507 Y79.444 E0.0300
G1 X71.669 Y79.930 E0.0307
G1 X71.927 Y80.373 E0.0307
G1 X72.265 Y80.752 E0.0305
G1 X72.582 Y81.002 E0.0241
G1 X73.032 Y81.241 E0.0305
G1 X73.524 Y81.385 E0.0307
G1 X74.035 Y81.427 E0.0307
G1 X74.542 Y81.365 E0.0306
G1 X74.912 Y81.245 E0.0233
G1 X75.033 Y81.200 E0.0077
G1 X75.473 Y80.945 E0.0304
G1 X75.852 Y80.606 E0.0305
G1 X76.102 Y80.290 E0.0241
G1 X76.341 Y79.839 E0.0305
G1 X76.484 Y79.348 E0.0307
G1 X76.525 Y78.849 E0.0300
G1 X76.178 Y60.828 E1.0791
G1 X76.118 Y60.331 E0.0300
G1 X75.955 Y59.845 E0.0307
G1 X75.698 Y59.402 E0.0307
G1 X75.359 Y59.022 E0.0305
G1 X75.043 Y58.773 E0.0241
G1 X74.593 Y58.534 E0.0305
G1 X74.101 Y58.390 E0.0307
G1 X73.590 Y58.348 E0.0307
G1 X73.082 Y58.410 E0.0306
G1 X73.060 Y58.417 E0.0014
G1 X72.713 Y58.530 F600
G1 X72.592 Y58.575 F600
G1 X72.154 Y58.829 F600
G1 X71.848 Y59.090 F3000
G1 X71.524 Y59.483 F3000
G1 X71.286 Y59.932 F3000
G1 X71.246 Y60.054 F3000
G1 X71.140 Y60.428 F3000
G1 X71.135 Y60.490 F3000
; inner perimeter
; outer perimeter
G1 X71.138 Y60.517 F7200
G1 X71.104 Y60.926 F7200
G1 X71.451 Y78.947 F7200
G1 X71.511 Y79.442 F7200
G1 X71.674 Y79.928 F7200
G1 X71.930 Y80.370 F7200
G1 X72.269 Y80.749 F7200
G1 X72.584 Y80.998 F7200
G1 X73.034 Y81.236 F7200
G1 X73.248 Y81.299 F7200
G1 X73.534 Y84.112 F7200
G1 X73.204 Y84.207 E0.0205 F600
G1 X72.906 Y84.344 E0.0197
G1 X72.622 Y84.534 E0.0204
G1 X72.343 Y84.810 E0.0235
G1 X72.130 Y85.140 E0.0235
G1 X71.999 Y85.509 E0.0234
G1 X71.959 Y85.894 E0.0232
G1 X72.002 Y86.233 E0.0204
G1 X72.113 Y86.552 E0.0202
G1 X72.282 Y86.839 E0.0200
G1 X72.481 Y87.069 E0.0182
G1 X72.745 Y87.285 E0.0204
G1 X73.043 Y87.452 E0.0204
G1 X73.363 Y87.568 E0.0204
G1 X73.695 Y87.631 E0.0203
G1 X74.033 Y87.644 E0.0202
G1 X74.368 Y87.607 E0.0202
G1 X74.691 Y87.519 E0.0200
G1 X74.984 Y87.389 E0.0192
G1 X75.254 Y87.216 E0.0192
G1 X75.489 Y87.004 E0.0190
G1 X75.682 Y86.760 E0.0186
G1 X75.826 Y86.490 E0.0183
G1 X75.917 Y86.206 E0.0179
G1 X75.953 Y85.953 E0.0153
G1 X75.941 Y85.617 E0.0201
G1 X75.870 Y85.327 E0.0179
G1 X75.749 Y85.056 E0.0178
G1 X75.599 Y84.829 E0.0163
G1 X75.387 Y84.600 E0.0187
G1 X75.132 Y84.405 E0.0192
G1 X74.845 Y84.252 E0.0195
G1 X74.539 Y84.146 E0.0194
G1 X74.525 Y84.143 E0.0008
G1 X74.209 Y84.083 F600
G1 X73.872 Y84.071 F600
G1 X73.534 Y84.112 F600
G1 X73.204 Y84.207 F3000
G1 X72.906 Y84.344 F3000
G1 X72.622 Y84.534 F3000
G1 X72.343 Y84.810 F3000
G1 X72.130 Y85.140 F3000
G1 X72.062 Y85.330 F3000
; gap fill
G1 X71.022 Y78.365 F7200
G1 X70.823 Y78.564 E0.0169 F1500
G1 X70.810 Y77.898 E0.0399
G1 X71.010 Y77.699 E0.0169
G1 X70.997 Y77.033 E0.0399
G1 X70.797 Y77.232 E0.0169
G1 X70.784 Y76.566 E0.0399
G1 X70.984 Y76.367 E0.0169
G1 X70.971 Y75.701 E0.0399
G1 X70.771 Y75.900 E0.0169
G1 X70.758 Y75.235 E0.0399
G1 X70.958 Y75.035 E0.0169
G1 X70.945 Y74.369 E0.0399
G1 X70.745 Y74.569 E0.0169
G1 X70.732 Y73.903 E0.0399
G1 X70.932 Y73.703 E0.0169
G1 X70.920 Y73.037 E0.0399
G1 X70.719 Y73.237 E0.0170
G1 X70.706 Y72.571 E0.0399
G1 X70.907 Y72.371 E0.0170
G1 X70.894 Y71.705 E0.0399
G1 X70.693 Y71.906 E0.0170
G1 X70.680 Y71.240 E0.0399
G1 X70.881 Y71.039 E0.0170
G1 X70.868 Y70.373 E0.0399
G1 X70.667 Y70.574 E0.0170
G1 X70.654 Y69.908 E0.0399
G1 X70.855 Y69.707 E0.0170
G1 X70.843 Y69.041 E0.0399
G1 X70.641 Y69.242 E0.0170
G1 X70.628 Y68.576 E0.0399
G1 X70.830 Y68.375 E0.0171
G1 X70.817 Y67.709 E0.0399
G1 X70.615 Y67.911 E0.0171
G1 X70.602 Y67.245 E0.0399
G1 X70.804 Y67.043 E0.0171
G1 X70.791 Y66.377 E0.0399
G1 X70.589 Y66.579 E0.0171
G1 X70.576 Y65.913 E0.0399
G1 X70.778 Y65.711 E0.0171
G1 X70.766 Y65.045 E0.0399
G1 X70.563 Y65.247 E0.0171
G1 X70.550 Y64.581 E0.0399
G1 X70.753 Y64.379 E0.0171
G1 X70.740 Y63.713 E0.0399
G1 X70.537 Y63.916 E0.0171
G1 X70.524 Y63.250 E0.0399
G1 X70.727 Y63.047 E0.0172
G1 X70.714 Y62.381 E0.0399
G1 X70.511 Y62.584 E0.0172
G1 X70.498 Y61.918 E0.0399
G1 X70.628 Y61.789 E0.0109
G1 X70.701 Y61.715 F1500
G1 X70.689 Y61.049 F1500
G1 X70.526 Y61.211 F1500
G1 X71.109 Y61.215 F7200
G1 X71.104 Y60.926 F7200
G1 X71.145 Y60.429 F7200
G1 X71.250 Y60.056 F7200
G1 X71.290 Y59.934 F7200
G1 X71.528 Y59.485 F7200
G1 X71.851 Y59.094 F7200
G1 X72.157 Y58.832 F7200
G1 X72.594 Y58.579 F7200
G1 X72.714 Y58.534 F7200
G1 X73.083 Y58.415 F7200
G1 X73.590 Y58.353 F7200
G1 X74.100 Y58.395 F7200
G1 X74.591 Y58.539 F7200
G1 X75.040 Y58.777 F7200
G1 X75.356 Y59.026 F7200
G1 X75.694 Y59.405 F7200
G1 X75.951 Y59.847 F7200
G1 X76.113 Y60.332 F7200
G1 X76.173 Y60.828 F7200
G1 X76.181 Y61.245 F7200
G1 X76.599 Y61.248 F7200
G1 X76.965 Y60.882 E0.0309 F1500
