; G-Code generated by Simplify3D(R) Version 3.0.0
; Nov 16, 2016 at 8:12:24 AM
; Settings Summary
;   processName,Process1
;   applyToModels,p sensor mount 1.2(4)
;   profileName,JB Lite6 20mm meltzone 0.2 (modified)
;   profileVersion,2016-07-27 06:45:13
;   baseProfile,Plywood
;   printMaterial,PLA
;   printQuality,0.3 base
;   printExtruders,
;   extruderName,Primary Extruder
;   extruderToolheadNumber,0
;   extruderDiameter,0.4
;   extruderAutoWidth,0
;   extruderWidth,0.48
;   extrusionMultiplier,1
;   extruderUseRetract,1
;   extruderRetractionDistance,1.1
;   extruderExtraRestartDistance,0
;   extruderRetractionZLift,0
;   extruderRetractionSpeed,4200
;   extruderUseCoasting,1
;   extruderCoastingDistance,1
;   extruderUseWipe,1
;   extruderWipeDistance,2
;   primaryExtruder,0
;   layerHeight,0.2
;   topSolidLayers,5
;   bottomSolidLayers,2
;   perimeterOutlines,2
;   printPerimetersInsideOut,1
;   startPointOption,2
;   startPointOriginX,100
;   startPointOriginY,0
;   startPointOriginZ,150
;   sequentialIslands,0
;   spiralVaseMode,0
;   firstLayerHeightPercentage,150
;   firstLayerWidthPercentage,100
;   firstLayerUnderspeed,0.5
;   useRaft,0
;   raftExtruder,0
;   raftLayers,3
;   raftOffset,5
;   raftSeparationDistance,0.1
;   raftInfill,85
;   disableRaftBaseLayers,0
;   useSkirt,1
;   skirtExtruder,0
;   skirtLayers,1
;   skirtOutlines,7
;   skirtOffset,0
;   usePrimePillar,0
;   primePillarExtruder,999
;   primePillarWidth,12
;   primePillarLocation,7
;   primePillarSpeedMultiplier,1
;   useOozeShield,0
;   oozeShieldExtruder,999
;   oozeShieldOffset,10
;   oozeShieldOutlines,1
;   oozeShieldSidewallShape,0
;   oozeShieldSidewallAngle,30
;   oozeShieldSpeedMultiplier,1
;   infillExtruder,0
;   internalInfillPattern,Rectilinear
;   externalInfillPattern,Rectilinear
;   infillPercentage,30
;   outlineOverlapPercentage,15
;   infillExtrusionWidthPercentage,125
;   minInfillLength,1
;   infillLayerInterval,1
;   infillAngles,45,-45
;   overlapInfillAngles,0
;   generateSupport,0
;   supportExtruder,0
;   supportInfillPercentage,20
;   supportExtraInflation,0
;   denseSupportLayers,0
;   denseSupportInfillPercentage,70
;   supportLayerInterval,1
;   supportHorizontalPartOffset,0.3
;   supportUpperSeparationLayers,1
;   supportLowerSeparationLayers,1
;   supportType,0
;   supportGridSpacing,5
;   maxOverhangAngle,35
;   supportAngles,0
;   temperatureName,Extruder 0,Heated Bed
;   temperatureNumber,0,0
;   temperatureSetpointCount,1,1
;   temperatureSetpointLayers,1,1
;   temperatureSetpointTemperatures,210,60
;   temperatureStabilizeAtStartup,1,1
;   temperatureHeatedBed,0,1
;   temperatureRelayBetweenLayers,0,0
;   temperatureRelayBetweenLoops,0,0
;   fanLayers,1,3
;   fanSpeeds,0,60
;   blipFanToFullPower,1
;   adjustSpeedForCooling,1
;   minSpeedLayerTime,15
;   minCoolingSpeedSlowdown,40
;   increaseFanForCooling,1
;   minFanLayerTime,15
;   maxCoolingFanSpeed,100
;   increaseFanForBridging,1
;   bridgingFanSpeed,100
;   use5D,1
;   relativeEdistances,1
;   allowEaxisZeroing,1
;   independentExtruderAxes,0
;   includeM10123,0
;   stickySupport,1
;   applyToolheadOffsets,0
;   gcodeXoffset,0
;   gcodeYoffset,0
;   gcodeZoffset,0
;   overrideMachineDefinition,1
;   machineTypeOverride,0
;   strokeXoverride,170
;   strokeYoverride,160
;   strokeZoverride,145
;   originOffsetXoverride,0
;   originOffsetYoverride,0
;   originOffsetZoverride,0
;   homeXdirOverride,-1
;   homeYdirOverride,-1
;   homeZdirOverride,-1
;   flipXoverride,1
;   flipYoverride,-1
;   flipZoverride,1
;   toolheadOffsets,0,0|0,0|0,0|0,0|0,0|0,0
;   overrideFirmwareConfiguration,0
;   firmwareTypeOverride,RepRap (Marlin/Repetier/Sprinter)
;   GPXconfigOverride,r2
;   baudRateOverride,250000
;   overridePrinterModels,0
;   printerModelsOverride
;   startingGcode,; Jellybox Start Script Begin,M117 Preparing ,,; set x homing offset for default bed leveling,M206 X10.0 Y0.0  ,; optionally adjust Extruder steps per mm for your filament,; M92 E140 ,,; home all axes,G28,; slow Z speed down for greater accuracy,M203 Z5,; auto bed leveling procedure,G29,; pick up z speed again for print,M203 Z7,; reset extruder position,G92 E0,,M117 Print starting,;Jellybox Printer Start Script End
;   layerChangeGcode,
;   retractionGcode,
;   toolChangeGcode,
;   endingGcode,;Jellybox Printer End Script Start,,; extruder heater off,M104 S0,; bed heater off (if you have it),M140 S0,; turn fan off,M107,,; relative positioning,G91,; retract the filament a bit before lifting the nozzle to release some of the pressure,G1 E-1.5 F1200,; move Z up a bit and retract filament even more,G1 Z+1 E-1 X-20 Y-20,;move X/Y to so the head is out of the way,G28 X0,G1 Y100,; steppers off,M84,; absolute positioning,G90,,; Jellybox Printer End Script End
;   createX3G,0
;   celebration,0
;   celebrationSong,Random Song
;   createMB5G,0
;   postProcessing,|{REPLACE "; layer" "M117 Layer"} ,{REPLACE ", Z = " " | Z="}
;   defaultSpeed,3000
;   outlineUnderspeed,0.4
;   solidInfillUnderspeed,0.75
;   supportUnderspeed,0.75
;   rapidXYspeed,7200
;   rapidZspeed,300
;   minBridgingArea,50
;   bridgingExtraInflation,0.4
;   bridgingExtrusionMultiplier,1
;   bridgingSpeedMultiplier,1
;   filamentDiameter,1.75
;   filamentPricePerKg,15
;   filamentDensity,1.25
;   useMinPrintHeight,0
;   minPrintHeight,0
;   useMaxPrintHeight,0
;   maxPrintHeight,0
;   useDiaphragm,0
;   diaphragmLayerInterval,20
;   robustSlicing,1
;   mergeAllIntoSolid,0
;   onlyRetractWhenCrossingOutline,1
;   retractBetweenLayers,1
;   useRetractionMinTravel,1
;   retractionMinTravel,1.5
;   retractWhileWiping,0
;   onlyWipeOutlines,1
;   avoidCrossingOutline,1
;   maxMovementDetourFactor,3
;   toolChangeRetractionDistance,12
;   toolChangeExtraRestartDistance,-0.5
;   toolChangeRetractionSpeed,600
;   allowThinWallGapFill,1
;   thinWallAllowedOverlapPercentage,15
;   horizontalSizeCompensation,0
G90
M83
M106 S0
M140 S60
M190 S60
M104 S210 T0
M109 S210 T0
; Jellybox Start Script Begin
M117 Preparing 
; set x homing offset for default bed leveling
M206 X10.0 Y0.0  
; optionally adjust Extruder steps per mm for your filament
; M92 E140 
; home all axes
G28
; slow Z speed down for greater accuracy
M203 Z5
; auto bed leveling procedure
G29
; pick up z speed again for print
M203 Z7
; reset extruder position
G92 E0
M117 Print starting
;Jellybox Printer Start Script End
G1 E-1.1000 F4200
G1 Z0.300 F300
; layer 1, Z = 0.3
T0
; tool H0.300 W0.480
; skirt
G1 X83.078 Y42.059 F7200
G1 E1.1000 F1260
G1 X84.763 Y40.757 E0.1275 F1500
G1 X92.610 Y40.756 E0.4698
G1 X94.438 Y42.584 E0.1547
G1 X94.443 Y101.857 E3.5486
G1 X93.964 Y103.008 E0.0746
G1 X85.840 Y111.080 E0.6857
G1 X81.997 Y109.482 E0.2492
G1 X81.992 Y46.423 E3.7752
G1 X82.043 Y46.027 E0.0239
G1 X82.826 Y43.027 E0.1857
G1 X83.078 Y42.059 F1500
G1 X83.501 Y42.339 F7200
G1 X84.927 Y41.237 E0.1079 F1500
G1 X92.412 Y41.236 E0.4481
G1 X93.958 Y42.783 E0.1309
G1 X93.963 Y101.761 E3.5309
G1 X93.557 Y102.735 E0.0631
G1 X85.728 Y110.514 E0.6607
G1 X82.477 Y109.161 E0.2108
G1 X82.472 Y46.453 E3.7542
G1 X82.515 Y46.119 E0.0202
G1 X83.249 Y43.306 E0.1740
G1 X83.501 Y42.339 F1500
G1 X83.924 Y42.618 F7200
G1 X85.091 Y41.717 E0.0883 F1500
G1 X92.213 Y41.716 E0.4264
G1 X93.478 Y42.982 E0.1071
G1 X93.483 Y101.665 E3.5133
G1 X93.151 Y102.462 E0.0517
G1 X85.617 Y109.948 E0.6358
G1 X82.957 Y108.841 E0.1725
G1 X82.952 Y46.484 E3.7332
G1 X82.987 Y46.210 E0.0165
G1 X83.672 Y43.586 E0.1624
G1 X83.924 Y42.618 F1500
G1 X84.347 Y42.898 F7200
G1 X85.255 Y42.197 E0.0686 F1500
G1 X92.014 Y42.196 E0.4047
G1 X92.998 Y43.181 E0.0833
G1 X93.003 Y101.569 E3.4956
G1 X92.745 Y102.189 E0.0402
G1 X85.506 Y109.382 E0.6109
G1 X83.437 Y108.521 E0.1342
G1 X83.432 Y46.515 E3.7122
G1 X83.459 Y46.302 E0.0129
G1 X84.095 Y43.866 E0.1507
G1 X84.347 Y42.898 F1500
G1 X84.771 Y43.178 F7200
G1 X85.419 Y42.677 E0.0490 F1500
G1 X91.815 Y42.676 E0.3829
G1 X92.518 Y43.379 E0.0595
G1 X92.523 Y101.474 E3.4780
G1 X92.338 Y101.916 E0.0287
G1 X85.395 Y108.816 E0.5860
G1 X83.917 Y108.201 E0.0958
G1 X83.912 Y46.545 E3.6912
G1 X83.932 Y46.393 E0.0092
G1 X84.518 Y44.145 E0.1391
G1 X84.771 Y43.178 F1500
G1 X85.194 Y43.457 F7200
G1 X85.583 Y43.157 E0.0294 F1500
G1 X91.616 Y43.157 E0.3612
G1 X92.038 Y43.578 E0.0357
G1 X92.043 Y101.378 E3.4604
G1 X91.932 Y101.643 E0.0172
G1 X85.283 Y108.250 E0.5611
G1 X84.397 Y107.881 E0.0575
G1 X84.392 Y46.576 E3.6702
G1 X84.404 Y46.485 E0.0055
G1 X84.941 Y44.425 E0.1274
G1 X85.194 Y43.457 F1500
G1 X85.617 Y43.737 F7200
G1 X85.746 Y43.637 E0.0098 F1500
G1 X91.418 Y43.637 E0.3395
G1 X91.558 Y43.777 E0.0119
G1 X91.563 Y101.282 E3.4427
G1 X91.526 Y101.370 E0.0057
G1 X85.172 Y107.683 E0.5362
G1 X84.877 Y107.560 E0.0192
G1 X84.872 Y46.607 E3.6492
G1 X84.876 Y46.576 E0.0018
G1 X85.364 Y44.705 E0.1158
G1 X85.617 Y43.737 F1500
; inner perimeter
G1 X86.385 Y44.597 F7200
G1 X90.598 Y44.597 E0.2523 F1050
G1 X90.602 Y100.934 E3.3728
G1 X85.837 Y105.670 E0.4022
G1 X85.835 Y87.933 E1.0619
G1 X86.179 Y88.238 E0.0275
G1 X86.664 Y88.493 E0.0328
G1 X87.197 Y88.624 E0.0328
G1 X87.745 Y88.624 E0.0328
G1 X88.278 Y88.492 E0.0328
G1 X88.764 Y88.238 E0.0328
G1 X89.174 Y87.874 E0.0328
G1 X89.486 Y87.422 E0.0328
G1 X89.680 Y86.909 E0.0328
G1 X89.741 Y86.408 E0.0302
G1 X89.738 Y49.195 E2.2279
G1 X89.677 Y48.694 E0.0302
G1 X89.483 Y48.182 E0.0328
G1 X89.171 Y47.730 E0.0328
G1 X88.761 Y47.366 E0.0328
G1 X88.275 Y47.112 E0.0328
G1 X87.742 Y46.980 E0.0328
G1 X87.194 Y46.980 E0.0328
G1 X86.661 Y47.112 E0.0328
G1 X86.175 Y47.367 E0.0328
G1 X85.832 Y47.671 E0.0275
G1 X85.832 Y46.714 E0.0573
G1 X86.132 Y45.565 E0.0711
G1 X86.385 Y44.597 F1050
; outer perimeter
G1 X86.014 Y44.117 F7200
G1 X91.078 Y44.117 E0.3032 F600
G1 X91.082 Y101.134 E3.4135
G1 X85.357 Y106.824 E0.4832
G1 X85.352 Y46.653 E3.6023
G1 X85.761 Y45.085 E0.0970
G1 X86.014 Y44.117 F600
G1 X88.014 Y44.117 F3000
; inner perimeter
; outer perimeter
G1 X86.833 Y47.564 F7200
G1 X86.450 Y47.765 E0.0259 F600
G1 X86.127 Y48.051 E0.0258
G1 X85.882 Y48.406 E0.0259
G1 X85.728 Y48.810 E0.0259
G1 X85.679 Y49.216 E0.0245
G1 X85.681 Y86.383 E2.2251
G1 X85.731 Y86.794 E0.0248
G1 X85.885 Y87.198 E0.0259
G1 X86.130 Y87.553 E0.0259
G1 X86.453 Y87.840 E0.0259
G1 X86.836 Y88.040 E0.0259
G1 X87.255 Y88.144 E0.0259
G1 X87.687 Y88.144 E0.0259
G1 X88.106 Y88.040 E0.0259
G1 X88.489 Y87.840 E0.0259
G1 X88.812 Y87.553 E0.0259
G1 X89.058 Y87.198 E0.0259
G1 X89.211 Y86.794 E0.0259
G1 X89.261 Y86.379 E0.0250
G1 X89.258 Y49.224 E2.2244
G1 X89.208 Y48.810 E0.0250
G1 X89.055 Y48.406 E0.0259
G1 X88.809 Y48.051 E0.0259
G1 X88.486 Y47.764 E0.0259
G1 X88.103 Y47.564 E0.0259
G1 X87.816 Y47.493 E0.0177
G1 X87.684 Y47.460 F600
G1 X87.252 Y47.460 F600
G1 X86.833 Y47.564 F600
G1 X86.450 Y47.765 F3000
G1 X86.127 Y48.051 F3000
G1 X85.882 Y48.406 F3000
G1 X85.728 Y48.810 F3000
G1 X85.695 Y49.081 F3000
; solid layer
G1 X85.705 Y49.042 F7200
G1 X85.733 Y48.811 F7200
G1 X85.815 Y48.597 F7200
G1 X86.688 Y45.050 F7200
G1 X86.733 Y45.005 E0.0038 F1125
G1 X87.412 Y45.005 E0.0406
G1 X86.448 Y45.968 E0.0816
G1 X86.240 Y46.767 E0.0494
G1 X86.240 Y46.855 E0.0053
G1 X88.091 Y45.005 E0.1567
G1 X88.769 Y45.005 E0.0406
G1 X87.202 Y46.572 E0.1327
G1 X87.792 Y46.572 E0.0353
G1 X87.863 Y46.590 E0.0044
G1 X89.448 Y45.005 E0.1342
G1 X90.127 Y45.005 E0.0406
G1 X88.408 Y46.724 E0.1456
G1 X88.421 Y46.727 E0.0008
G1 X88.855 Y46.955 E0.0294
G1 X90.190 Y45.620 E0.1130
G1 X90.190 Y46.299 E0.0406
G1 X89.242 Y47.248 E0.0803
G1 X89.479 Y47.457 E0.0189
G1 X89.574 Y47.595 E0.0100
G1 X90.190 Y46.978 E0.0522
G1 X90.190 Y47.657 E0.0406
G1 X89.849 Y47.998 E0.0289
G1 X90.036 Y48.490 E0.0315
G1 X90.191 Y48.335 E0.0131
G1 X90.191 Y49.014 E0.0406
G1 X90.134 Y49.071 E0.0048
G1 X90.146 Y49.170 E0.0060
G1 X90.146 Y49.737 E0.0339
G1 X90.191 Y49.693 E0.0038
G1 X90.191 Y50.372 E0.0406
G1 X90.146 Y50.416 E0.0038
G1 X90.146 Y51.095 E0.0406
G1 X90.191 Y51.050 E0.0038
G1 X90.191 Y51.729 E0.0406
G1 X90.146 Y51.774 E0.0038
G1 X90.147 Y52.452 E0.0406
G1 X90.191 Y52.408 E0.0038
G1 X90.191 Y53.087 E0.0406
G1 X90.147 Y53.131 E0.0038
G1 X90.147 Y53.810 E0.0406
G1 X90.191 Y53.766 E0.0038
G1 X90.191 Y54.444 E0.0406
G1 X90.147 Y54.489 E0.0038
G1 X90.147 Y55.167 E0.0406
G1 X90.191 Y55.123 E0.0038
G1 X90.191 Y55.802 E0.0406
G1 X90.147 Y55.846 E0.0038
G1 X90.147 Y56.525 E0.0406
G1 X90.191 Y56.481 E0.0038
G1 X90.191 Y57.159 E0.0406
G1 X90.147 Y57.204 E0.0038
G1 X90.147 Y57.883 E0.0406
G1 X90.191 Y57.838 E0.0038
G1 X90.191 Y58.517 E0.0406
G1 X90.147 Y58.561 E0.0038
G1 X90.147 Y59.240 E0.0406
G1 X90.191 Y59.196 E0.0038
G1 X90.191 Y59.875 E0.0406
G1 X90.147 Y59.919 E0.0038
G1 X90.147 Y60.598 E0.0406
G1 X90.191 Y60.553 E0.0038
G1 X90.192 Y61.232 E0.0406
G1 X90.147 Y61.276 E0.0038
G1 X90.147 Y61.955 E0.0406
G1 X90.192 Y61.911 E0.0038
G1 X90.192 Y62.590 E0.0406
G1 X90.147 Y62.634 E0.0038
G1 X90.147 Y63.313 E0.0406
G1 X90.192 Y63.268 E0.0038
G1 X90.192 Y63.947 E0.0406
G1 X90.147 Y63.991 E0.0038
G1 X90.147 Y64.670 E0.0406
G1 X90.192 Y64.626 E0.0038
G1 X90.192 Y65.305 E0.0406
G1 X90.147 Y65.349 E0.0038
G1 X90.148 Y66.028 E0.0406
G1 X90.192 Y65.983 E0.0038
G1 X90.192 Y66.662 E0.0406
G1 X90.148 Y66.707 E0.0038
G1 X90.148 Y67.385 E0.0406
G1 X90.192 Y67.341 E0.0038
G1 X90.192 Y68.020 E0.0406
G1 X90.148 Y68.064 E0.0038
G1 X90.148 Y68.743 E0.0406
G1 X90.192 Y68.699 E0.0038
G1 X90.192 Y69.377 E0.0406
G1 X90.148 Y69.422 E0.0038
G1 X90.148 Y70.100 E0.0406
G1 X90.192 Y70.056 E0.0038
G1 X90.192 Y70.735 E0.0406
G1 X90.148 Y70.779 E0.0038
G1 X90.148 Y71.458 E0.0406
G1 X90.192 Y71.414 E0.0038
G1 X90.192 Y72.092 E0.0406
G1 X90.148 Y72.137 E0.0038
G1 X90.148 Y72.816 E0.0406
G1 X90.192 Y72.771 E0.0038
G1 X90.192 Y73.450 E0.0406
G1 X90.148 Y73.494 E0.0038
G1 X90.148 Y74.173 E0.0406
G1 X90.192 Y74.129 E0.0038
G1 X90.193 Y74.808 E0.0406
G1 X90.148 Y74.852 E0.0038
G1 X90.148 Y75.531 E0.0406
G1 X90.193 Y75.486 E0.0038
G1 X90.193 Y76.165 E0.0406
G1 X90.148 Y76.209 E0.0038
G1 X90.148 Y76.888 E0.0406
G1 X90.193 Y76.844 E0.0038
G1 X90.193 Y77.523 E0.0406
G1 X90.148 Y77.567 E0.0038
G1 X90.148 Y78.246 E0.0406
G1 X90.193 Y78.201 E0.0038
G1 X90.193 Y78.880 E0.0406
G1 X90.148 Y78.924 E0.0038
G1 X90.149 Y79.603 E0.0406
G1 X90.193 Y79.559 E0.0038
G1 X90.193 Y80.238 E0.0406
G1 X90.149 Y80.282 E0.0038
G1 X90.149 Y80.961 E0.0406
G1 X90.193 Y80.916 E0.0038
G1 X90.193 Y81.595 E0.0406
G1 X90.149 Y81.640 E0.0038
G1 X90.149 Y82.318 E0.0406
G1 X90.193 Y82.274 E0.0038
G1 X90.193 Y82.953 E0.0406
G1 X90.149 Y82.997 E0.0038
G1 X90.149 Y83.676 E0.0406
G1 X90.193 Y83.632 E0.0038
G1 X90.193 Y84.310 E0.0406
G1 X90.149 Y84.355 E0.0038
G1 X90.149 Y85.033 E0.0406
G1 X90.193 Y84.989 E0.0038
G1 X90.193 Y85.668 E0.0406
G1 X90.149 Y85.712 E0.0038
G1 X90.149 Y86.391 E0.0406
G1 X90.193 Y86.347 E0.0038
G1 X90.193 Y87.025 E0.0406
G1 X89.999 Y87.220 E0.0165
G1 X89.850 Y87.613 E0.0252
G1 X89.482 Y88.146 E0.0388
G1 X88.997 Y88.576 E0.0388
G1 X88.424 Y88.877 E0.0388
G1 X88.315 Y88.903 E0.0067
G1 X86.243 Y90.975 E0.1754
G1 X86.243 Y90.297 E0.0406
G1 X87.508 Y89.032 E0.1071
G1 X87.147 Y89.032 E0.0216
G1 X86.892 Y88.969 E0.0157
G1 X86.335 Y89.526 E0.0472
G1 X86.243 Y89.618 F1125
G1 X86.243 Y88.939 F1125
G1 X86.379 Y88.804 F1125
G1 X86.243 Y91.654 F7200
G1 X90.193 Y87.704 E0.3344 F1125
G1 X90.194 Y88.383 E0.0406
G1 X86.243 Y92.333 E0.3344
G1 X86.244 Y93.012 E0.0406
G1 X90.194 Y89.062 E0.3344
G1 X90.194 Y89.740 E0.0406
G1 X86.244 Y93.691 E0.3344
G1 X86.244 Y94.369 E0.0406
G1 X90.194 Y90.419 E0.3344
G1 X90.194 Y91.098 E0.0406
G1 X86.244 Y95.048 E0.3344
G1 X86.244 Y95.727 E0.0406
G1 X90.194 Y91.777 E0.3344
