; G-Code generated by Simplify3D(R) Version 3.0.0
; Nov 16, 2016 at 8:15:22 AM
; Settings Summary
;   processName,Process1
;   applyToModels,p yoke vertical(5)
;   profileName,JB Lite6 20mm meltzone 0.2 (modified)
;   profileVersion,2016-07-27 06:45:13
;   baseProfile,Plywood
;   printMaterial,PLA
;   printQuality,0.3 base
;   printExtruders,
;   extruderName,Primary Extruder
;   extruderToolheadNumber,0
;   extruderDiameter,0.4
;   extruderAutoWidth,0
;   extruderWidth,0.48
;   extrusionMultiplier,1
;   extruderUseRetract,1
;   extruderRetractionDistance,1.1
;   extruderExtraRestartDistance,0
;   extruderRetractionZLift,0
;   extruderRetractionSpeed,4200
;   extruderUseCoasting,1
;   extruderCoastingDistance,1
;   extruderUseWipe,1
;   extruderWipeDistance,2
;   primaryExtruder,0
;   layerHeight,0.2
;   topSolidLayers,5
;   bottomSolidLayers,2
;   perimeterOutlines,2
;   printPerimetersInsideOut,1
;   startPointOption,2
;   startPointOriginX,100
;   startPointOriginY,0
;   startPointOriginZ,150
;   sequentialIslands,0
;   spiralVaseMode,0
;   firstLayerHeightPercentage,150
;   firstLayerWidthPercentage,100
;   firstLayerUnderspeed,0.5
;   useRaft,0
;   raftExtruder,0
;   raftLayers,3
;   raftOffset,5
;   raftSeparationDistance,0.1
;   raftInfill,85
;   disableRaftBaseLayers,0
;   useSkirt,1
;   skirtExtruder,0
;   skirtLayers,1
;   skirtOutlines,3
;   skirtOffset,4
;   usePrimePillar,0
;   primePillarExtruder,999
;   primePillarWidth,12
;   primePillarLocation,7
;   primePillarSpeedMultiplier,1
;   useOozeShield,0
;   oozeShieldExtruder,999
;   oozeShieldOffset,10
;   oozeShieldOutlines,1
;   oozeShieldSidewallShape,0
;   oozeShieldSidewallAngle,30
;   oozeShieldSpeedMultiplier,1
;   infillExtruder,0
;   internalInfillPattern,Rectilinear
;   externalInfillPattern,Rectilinear
;   infillPercentage,30
;   outlineOverlapPercentage,15
;   infillExtrusionWidthPercentage,125
;   minInfillLength,1
;   infillLayerInterval,1
;   infillAngles,45,-45
;   overlapInfillAngles,0
;   generateSupport,0
;   supportExtruder,0
;   supportInfillPercentage,20
;   supportExtraInflation,0
;   denseSupportLayers,0
;   denseSupportInfillPercentage,70
;   supportLayerInterval,1
;   supportHorizontalPartOffset,0.3
;   supportUpperSeparationLayers,1
;   supportLowerSeparationLayers,1
;   supportType,0
;   supportGridSpacing,5
;   maxOverhangAngle,35
;   supportAngles,0
;   temperatureName,Extruder 0,Heated Bed
;   temperatureNumber,0,0
;   temperatureSetpointCount,1,1
;   temperatureSetpointLayers,1,1
;   temperatureSetpointTemperatures,210,60
;   temperatureStabilizeAtStartup,1,1
;   temperatureHeatedBed,0,1
;   temperatureRelayBetweenLayers,0,0
;   temperatureRelayBetweenLoops,0,0
;   fanLayers,1,3
;   fanSpeeds,0,60
;   blipFanToFullPower,1
;   adjustSpeedForCooling,1
;   minSpeedLayerTime,15
;   minCoolingSpeedSlowdown,40
;   increaseFanForCooling,1
;   minFanLayerTime,15
;   maxCoolingFanSpeed,100
;   increaseFanForBridging,1
;   bridgingFanSpeed,100
;   use5D,1
;   relativeEdistances,1
;   allowEaxisZeroing,1
;   independentExtruderAxes,0
;   includeM10123,0
;   stickySupport,1
;   applyToolheadOffsets,0
;   gcodeXoffset,0
;   gcodeYoffset,0
;   gcodeZoffset,0
;   overrideMachineDefinition,1
;   machineTypeOverride,0
;   strokeXoverride,170
;   strokeYoverride,160
;   strokeZoverride,145
;   originOffsetXoverride,0
;   originOffsetYoverride,0
;   originOffsetZoverride,0
;   homeXdirOverride,-1
;   homeYdirOverride,-1
;   homeZdirOverride,-1
;   flipXoverride,1
;   flipYoverride,-1
;   flipZoverride,1
;   toolheadOffsets,0,0|0,0|0,0|0,0|0,0|0,0
;   overrideFirmwareConfiguration,0
;   firmwareTypeOverride,RepRap (Marlin/Repetier/Sprinter)
;   GPXconfigOverride,r2
;   baudRateOverride,250000
;   overridePrinterModels,0
;   printerModelsOverride
;   startingGcode,; Jellybox Start Script Begin,M117 Preparing ,,; set x homing offset for default bed leveling,M206 X10.0 Y0.0  ,; optionally adjust Extruder steps per mm for your filament,; M92 E140 ,,; home all axes,G28,; slow Z speed down for greater accuracy,M203 Z5,; auto bed leveling procedure,G29,; pick up z speed again for print,M203 Z7,; reset extruder position,G92 E0,,M117 Print starting,;Jellybox Printer Start Script End
;   layerChangeGcode,
;   retractionGcode,
;   toolChangeGcode,
;   endingGcode,;Jellybox Printer End Script Start,,; extruder heater off,M104 S0,; bed heater off (if you have it),M140 S0,; turn fan off,M107,,; relative positioning,G91,; retract the filament a bit before lifting the nozzle to release some of the pressure,G1 E-1.5 F1200,; move Z up a bit and retract filament even more,G1 Z+1 E-1 X-20 Y-20,;move X/Y to so the head is out of the way,G28 X0,G1 Y100,; steppers off,M84,; absolute positioning,G90,,; Jellybox Printer End Script End
;   createX3G,0
;   celebration,0
;   celebrationSong,Random Song
;   createMB5G,0
;   postProcessing,|{REPLACE "; layer" "M117 Layer"} ,{REPLACE ", Z = " " | Z="}
;   defaultSpeed,3000
;   outlineUnderspeed,0.4
;   solidInfillUnderspeed,0.75
;   supportUnderspeed,0.75
;   rapidXYspeed,7200
;   rapidZspeed,300
;   minBridgingArea,50
;   bridgingExtraInflation,0.4
;   bridgingExtrusionMultiplier,1
;   bridgingSpeedMultiplier,1
;   filamentDiameter,1.75
;   filamentPricePerKg,15
;   filamentDensity,1.25
;   useMinPrintHeight,0
;   minPrintHeight,0
;   useMaxPrintHeight,0
;   maxPrintHeight,0
;   useDiaphragm,0
;   diaphragmLayerInterval,20
;   robustSlicing,1
;   mergeAllIntoSolid,0
;   onlyRetractWhenCrossingOutline,1
;   retractBetweenLayers,1
;   useRetractionMinTravel,1
;   retractionMinTravel,1.5
;   retractWhileWiping,0
;   onlyWipeOutlines,1
;   avoidCrossingOutline,1
;   maxMovementDetourFactor,3
;   toolChangeRetractionDistance,12
;   toolChangeExtraRestartDistance,-0.5
;   toolChangeRetractionSpeed,600
;   allowThinWallGapFill,1
;   thinWallAllowedOverlapPercentage,15
;   horizontalSizeCompensation,0
G90
M83
M106 S0
M140 S60
M190 S60
M104 S210 T0
M109 S210 T0
; Jellybox Start Script Begin
M117 Preparing 
; set x homing offset for default bed leveling
M206 X10.0 Y0.0  
; optionally adjust Extruder steps per mm for your filament
; M92 E140 
; home all axes
G28
; slow Z speed down for greater accuracy
M203 Z5
; auto bed leveling procedure
G29
; pick up z speed again for print
M203 Z7
; reset extruder position
G92 E0
M117 Print starting
;Jellybox Printer Start Script End
G1 E-1.1000 F4200
G1 Z0.300 F300
; layer 1, Z = 0.3
T0
; tool H0.300 W0.480
; skirt
G1 X61.134 Y66.151 F7200
G1 E1.1000 F1260
G1 X61.345 Y65.972 E0.0165 F1500
G1 X61.373 Y65.950 E0.0022
G1 X62.295 Y65.255 E0.0692
G1 X62.325 Y65.234 E0.0022
G1 X62.555 Y65.081 E0.0165
G1 X62.585 Y65.062 E0.0022
G1 X63.205 Y64.703 E0.0429
G1 X63.236 Y64.686 E0.0022
G1 X63.483 Y64.561 E0.0165
G1 X63.516 Y64.546 E0.0022
G1 X64.620 Y64.072 E0.0719
G1 X64.665 Y64.055 E0.0029
G1 X65.013 Y63.937 E0.0220
G1 X65.060 Y63.923 E0.0029
G1 X66.270 Y63.620 E0.0747
G1 X66.317 Y63.610 E0.0029
G1 X66.680 Y63.549 E0.0220
G1 X66.727 Y63.543 E0.0029
G1 X67.924 Y63.441 E0.0719
G1 X67.960 Y63.439 E0.0022
G1 X68.236 Y63.432 E0.0165
G1 X68.272 Y63.432 E0.0022
G1 X68.988 Y63.456 E0.0429
G1 X69.024 Y63.459 E0.0022
G1 X69.299 Y63.485 E0.0165
G1 X69.335 Y63.489 E0.0022
G1 X70.508 Y63.672 E0.0711
G1 X70.551 Y63.680 E0.0026
G1 X70.882 Y63.757 E0.0203
G1 X70.924 Y63.768 E0.0027
G1 X71.867 Y64.062 E0.0591
G1 X71.898 Y64.072 E0.0020
G1 X72.135 Y64.161 E0.0152
G1 X72.166 Y64.173 E0.0020
G1 X72.995 Y64.536 E0.0542
G1 X73.030 Y64.552 E0.0023
G1 X73.295 Y64.689 E0.0179
G1 X73.329 Y64.708 E0.0023
G1 X74.157 Y65.207 E0.0579
G1 X74.185 Y65.225 E0.0020
G1 X74.396 Y65.368 E0.0152
G1 X74.423 Y65.387 E0.0020
G1 X75.117 Y65.917 E0.0523
G1 X75.141 Y65.937 E0.0018
G1 X75.320 Y66.089 E0.0141
G1 X75.343 Y66.109 E0.0018
G1 X75.839 Y66.575 E0.0407
G1 X75.861 Y66.598 E0.0019
G1 X76.032 Y66.776 E0.0147
G1 X76.053 Y66.799 E0.0019
G1 X76.666 Y67.514 E0.0564
G1 X76.687 Y67.540 E0.0020
G1 X76.843 Y67.743 E0.0153
G1 X76.862 Y67.770 E0.0020
G1 X77.019 Y68.000 E0.0167
G1 X89.558 Y68.000 E0.7507
G1 X89.568 Y67.962 E0.0023
G1 X89.577 Y67.933 E0.0018
G1 X89.651 Y67.708 E0.0142
G1 X89.662 Y67.679 E0.0018
G1 X90.023 Y66.744 E0.0600
G1 X90.036 Y66.712 E0.0021
G1 X90.148 Y66.467 E0.0162
G1 X90.163 Y66.435 E0.0021
G1 X90.600 Y65.609 E0.0559
G1 X90.615 Y65.582 E0.0018
G1 X90.736 Y65.379 E0.0141
G1 X90.752 Y65.353 E0.0018
G1 X91.296 Y64.539 E0.0586
G1 X91.312 Y64.515 E0.0018
G1 X91.446 Y64.334 E0.0135
G1 X91.464 Y64.311 E0.0018
G1 X91.918 Y63.758 E0.0428
G1 X91.940 Y63.733 E0.0020
G1 X92.111 Y63.546 E0.0152
G1 X92.134 Y63.522 E0.0020
G1 X93.026 Y62.650 E0.0747
G1 X93.058 Y62.620 E0.0026
G1 X93.316 Y62.402 E0.0202
G1 X93.351 Y62.375 E0.0026
G1 X94.380 Y61.629 E0.0761
G1 X94.412 Y61.607 E0.0023
G1 X94.665 Y61.447 E0.0179
G1 X94.699 Y61.427 E0.0023
G1 X95.532 Y60.975 E0.0567
G1 X95.559 Y60.961 E0.0018
G1 X95.770 Y60.860 E0.0140
G1 X95.798 Y60.847 E0.0018
G1 X96.701 Y60.470 E0.0586
G1 X96.729 Y60.460 E0.0018
G1 X96.941 Y60.383 E0.0135
G1 X96.969 Y60.374 E0.0018
G1 X97.654 Y60.164 E0.0429
G1 X97.686 Y60.155 E0.0020
G1 X97.931 Y60.094 E0.0152
G1 X97.963 Y60.087 E0.0020
G1 X99.190 Y59.854 E0.0747
G1 X99.233 Y59.848 E0.0026
G1 X99.569 Y59.809 E0.0202
G1 X99.612 Y59.806 E0.0026
G1 X100.883 Y59.754 E0.0761
G1 X100.922 Y59.754 E0.0023
G1 X101.222 Y59.761 E0.0180
G1 X101.262 Y59.763 E0.0023
G1 X102.205 Y59.848 E0.0567
G1 X102.235 Y59.852 E0.0018
G1 X102.465 Y59.884 E0.0139
G1 X102.495 Y59.889 E0.0018
G1 X103.497 Y60.082 E0.0611
G1 X103.536 Y60.092 E0.0024
G1 X103.837 Y60.171 E0.0186
G1 X103.876 Y60.183 E0.0024
G1 X105.086 Y60.592 E0.0765
G1 X105.127 Y60.607 E0.0026
G1 X105.438 Y60.739 E0.0202
G1 X105.478 Y60.757 E0.0026
G1 X106.627 Y61.345 E0.0772
G1 X106.665 Y61.366 E0.0026
G1 X106.954 Y61.541 E0.0202
G1 X106.990 Y61.566 E0.0026
G1 X108.007 Y62.290 E0.0747
G1 X108.033 Y62.310 E0.0020
G1 X108.231 Y62.468 E0.0152
G1 X108.256 Y62.490 E0.0020
G1 X108.800 Y62.976 E0.0437
G1 X108.824 Y62.999 E0.0020
G1 X109.003 Y63.177 E0.0151
G1 X109.026 Y63.201 E0.0020
G1 X109.859 Y64.130 E0.0747
G1 X109.888 Y64.164 E0.0026
G1 X110.094 Y64.431 E0.0202
G1 X110.120 Y64.467 E0.0026
G1 X110.832 Y65.543 E0.0772
G1 X110.855 Y65.581 E0.0026
G1 X111.020 Y65.875 E0.0202
G1 X111.040 Y65.914 E0.0026
G1 X111.587 Y67.083 E0.0772
G1 X111.604 Y67.123 E0.0026
G1 X111.725 Y67.439 E0.0202
G1 X111.739 Y67.480 E0.0026
G1 X112.109 Y68.716 E0.0772
G1 X112.120 Y68.759 E0.0026
G1 X112.193 Y69.088 E0.0202
G1 X112.201 Y69.132 E0.0026
G1 X112.381 Y70.367 E0.0747
G1 X112.385 Y70.400 E0.0020
G1 X112.407 Y70.652 E0.0152
G1 X112.409 Y70.685 E0.0020
G1 X112.435 Y71.414 E0.0437
G1 X112.435 Y71.447 E0.0020
G1 X112.430 Y71.700 E0.0152
G1 X112.428 Y71.733 E0.0020
G1 X112.337 Y72.936 E0.0722
G1 X112.334 Y72.968 E0.0020
G1 X112.301 Y73.219 E0.0152
G1 X112.295 Y73.252 E0.0020
G1 X112.161 Y73.969 E0.0437
G1 X112.154 Y74.002 E0.0020
G1 X112.093 Y74.247 E0.0152
G1 X112.085 Y74.279 E0.0020
G1 X111.721 Y75.473 E0.0747
G1 X111.707 Y75.515 E0.0026
G1 X111.585 Y75.830 E0.0202
G1 X111.567 Y75.870 E0.0026
G1 X111.015 Y77.036 E0.0772
G1 X110.995 Y77.075 E0.0026
G1 X110.828 Y77.369 E0.0202
G1 X110.805 Y77.406 E0.0026
G1 X109.543 Y79.295 E0.1360
G1 X109.324 Y79.494 E0.0177
G1 X108.377 Y80.000 E0.0643
G1 X109.324 Y80.506 E0.0643
G1 X109.543 Y80.705 E0.0177
G1 X110.782 Y82.558 E0.1335
G1 X110.799 Y82.586 E0.0020
G1 X110.928 Y82.804 E0.0151
G1 X110.944 Y82.833 E0.0020
G1 X111.281 Y83.481 E0.0437
G1 X111.295 Y83.510 E0.0020
G1 X111.399 Y83.741 E0.0152
G1 X111.412 Y83.772 E0.0020
G1 X111.862 Y84.936 E0.0747
G1 X111.877 Y84.977 E0.0026
G1 X111.975 Y85.300 E0.0202
G1 X111.986 Y85.343 E0.0026
G1 X112.261 Y86.560 E0.0747
G1 X112.268 Y86.593 E0.0020
G1 X112.310 Y86.842 E0.0152
G1 X112.314 Y86.875 E0.0020
G1 X112.396 Y87.600 E0.0437
G1 X112.399 Y87.633 E0.0020
G1 X112.413 Y87.886 E0.0151
G1 X112.414 Y87.919 E0.0020
G1 X112.417 Y89.125 E0.0722
G1 X112.416 Y89.158 E0.0020
G1 X112.403 Y89.410 E0.0152
G1 X112.400 Y89.443 E0.0020
G1 X112.322 Y90.169 E0.0437
G1 X112.317 Y90.202 E0.0020
G1 X112.276 Y90.451 E0.0152
G1 X112.270 Y90.484 E0.0020
G1 X112.009 Y91.661 E0.0722
G1 X112.001 Y91.693 E0.0020
G1 X111.933 Y91.937 E0.0152
G1 X111.923 Y91.968 E0.0020
G1 X111.688 Y92.659 E0.0437
G1 X111.677 Y92.690 E0.0020
G1 X111.582 Y92.925 E0.0152
G1 X111.569 Y92.955 E0.0020
G1 X111.058 Y94.048 E0.0722
G1 X111.043 Y94.077 E0.0020
G1 X110.923 Y94.300 E0.0152
G1 X110.907 Y94.329 E0.0020
G1 X110.549 Y94.916 E0.0412
G1 X110.537 Y94.934 E0.0013
G1 X110.444 Y95.075 E0.0101
G1 X110.431 Y95.093 E0.0013
G1 X110.031 Y95.652 E0.0412
G1 X110.011 Y95.678 E0.0020
G1 X109.853 Y95.876 E0.0152
G1 X109.831 Y95.901 E0.0020
G1 X109.026 Y96.799 E0.0722
G1 X109.003 Y96.823 E0.0020
G1 X108.824 Y97.001 E0.0152
G1 X108.800 Y97.024 E0.0020
G1 X108.256 Y97.510 E0.0437
G1 X108.231 Y97.532 E0.0020
G1 X108.033 Y97.690 E0.0152
G1 X108.007 Y97.710 E0.0020
G1 X106.990 Y98.434 E0.0747
G1 X106.954 Y98.459 E0.0026
G1 X106.665 Y98.634 E0.0202
G1 X106.627 Y98.655 E0.0026
G1 X105.478 Y99.243 E0.0772
G1 X105.438 Y99.261 E0.0026
G1 X105.127 Y99.393 E0.0202
G1 X105.086 Y99.408 E0.0026
G1 X103.863 Y99.821 E0.0773
G1 X103.821 Y99.834 E0.0026
G1 X103.494 Y99.918 E0.0202
G1 X103.451 Y99.928 E0.0026
G1 X102.182 Y100.158 E0.0772
G1 X102.138 Y100.164 E0.0026
G1 X101.802 Y100.200 E0.0202
G1 X101.759 Y100.203 E0.0026
G1 X100.469 Y100.245 E0.0772
G1 X100.425 Y100.245 E0.0026
G1 X100.088 Y100.231 E0.0202
G1 X100.044 Y100.228 E0.0026
G1 X98.762 Y100.081 E0.0772
G1 X98.718 Y100.074 E0.0026
G1 X98.387 Y100.011 E0.0202
G1 X98.344 Y100.001 E0.0026
G1 X97.110 Y99.672 E0.0764
G1 X97.072 Y99.660 E0.0024
G1 X96.778 Y99.560 E0.0186
G1 X96.740 Y99.546 E0.0024
G1 X95.798 Y99.153 E0.0611
G1 X95.771 Y99.140 E0.0018
G1 X95.559 Y99.039 E0.0140
G1 X95.532 Y99.025 E0.0018
G1 X94.736 Y98.593 E0.0542
G1 X94.712 Y98.579 E0.0017
G1 X94.528 Y98.468 E0.0129
G1 X94.504 Y98.453 E0.0017
G1 X93.926 Y98.064 E0.0417
G1 X93.902 Y98.047 E0.0018
G1 X93.721 Y97.913 E0.0135
G1 X93.698 Y97.895 E0.0018
G1 X92.942 Y97.272 E0.0586
G1 X92.919 Y97.252 E0.0018
G1 X92.746 Y97.094 E0.0141
G1 X92.724 Y97.073 E0.0018
G1 X92.087 Y96.428 E0.0542
G1 X92.067 Y96.408 E0.0017
G1 X91.924 Y96.249 E0.0128
G1 X91.906 Y96.227 E0.0017
G1 X91.464 Y95.689 E0.0417
G1 X91.446 Y95.666 E0.0018
G1 X91.312 Y95.485 E0.0135
G1 X91.296 Y95.461 E0.0018
G1 X90.752 Y94.647 E0.0586
G1 X90.736 Y94.621 E0.0018
G1 X90.615 Y94.418 E0.0141
G1 X90.600 Y94.391 E0.0018
G1 X90.177 Y93.590 E0.0542
G1 X90.164 Y93.565 E0.0017
G1 X90.073 Y93.371 E0.0128
G1 X90.062 Y93.346 E0.0017
G1 X89.795 Y92.703 E0.0417
G1 X89.785 Y92.676 E0.0018
G1 X89.709 Y92.464 E0.0134
G1 X89.700 Y92.436 E0.0018
G1 X89.567 Y92.000 E0.0273
G1 X77.032 Y92.000 E0.7504
G1 X77.030 Y92.003 E0.0002
G1 X76.893 Y92.193 E0.0140
G1 X76.874 Y92.217 E0.0018
G1 X76.326 Y92.897 E0.0523
G1 X76.304 Y92.923 E0.0020
G1 X76.133 Y93.112 E0.0153
G1 X76.110 Y93.136 E0.0020
G1 X75.410 Y93.832 E0.0591
G1 X75.377 Y93.862 E0.0026
G1 X75.120 Y94.082 E0.0203
G1 X75.085 Y94.109 E0.0026
G1 X74.093 Y94.840 E0.0738
G1 X74.053 Y94.867 E0.0029
G1 X73.740 Y95.061 E0.0220
G1 X73.698 Y95.084 E0.0029
G1 X72.588 Y95.654 E0.0747
G1 X72.545 Y95.675 E0.0029
G1 X72.205 Y95.816 E0.0220
G1 X72.160 Y95.833 E0.0029
G1 X70.973 Y96.218 E0.0747
G1 X70.927 Y96.231 E0.0029
G1 X70.569 Y96.317 E0.0220
G1 X70.522 Y96.326 E0.0029
G1 X69.335 Y96.511 E0.0719
G1 X69.299 Y96.515 E0.0022
G1 X69.024 Y96.541 E0.0165
G1 X68.988 Y96.544 E0.0022
G1 X68.272 Y96.568 E0.0429
G1 X68.236 Y96.568 E0.0022
G1 X67.960 Y96.561 E0.0165
