; G-Code generated by Simplify3D(R) Version 3.0.0
; Nov 16, 2016 at 8:05:03 AM
; Settings Summary
;   processName,Process1
;   applyToModels,g QR c clamp 4.5
;   profileName,Default (modified)
;   profileVersion,2015-10-25 10:06:52
;   baseProfile,Default (modified)
;   printMaterial,PLA Lankeda Green
;   printQuality,Fast
;   printExtruders,
;   extruderName,Primary Extruder
;   extruderToolheadNumber,0
;   extruderDiameter,0.4
;   extruderAutoWidth,1
;   extruderWidth,0.48
;   extrusionMultiplier,0.9
;   extruderUseRetract,1
;   extruderRetractionDistance,1.15
;   extruderExtraRestartDistance,0.07
;   extruderRetractionZLift,0.07
;   extruderRetractionSpeed,9000
;   extruderUseCoasting,0
;   extruderCoastingDistance,0.2
;   extruderUseWipe,0
;   extruderWipeDistance,5
;   primaryExtruder,0
;   layerHeight,0.22
;   topSolidLayers,4
;   bottomSolidLayers,3
;   perimeterOutlines,2
;   printPerimetersInsideOut,1
;   startPointOption,2
;   startPointOriginX,0
;   startPointOriginY,0
;   startPointOriginZ,300
;   sequentialIslands,0
;   spiralVaseMode,0
;   firstLayerHeightPercentage,100
;   firstLayerWidthPercentage,85
;   firstLayerUnderspeed,0.5
;   useRaft,0
;   raftExtruder,0
;   raftLayers,3
;   raftOffset,3
;   raftSeparationDistance,0.14
;   raftInfill,85
;   disableRaftBaseLayers,0
;   useSkirt,1
;   skirtExtruder,0
;   skirtLayers,2
;   skirtOutlines,3
;   skirtOffset,6
;   usePrimePillar,0
;   primePillarExtruder,999
;   primePillarWidth,12
;   primePillarLocation,7
;   primePillarSpeedMultiplier,1
;   useOozeShield,0
;   oozeShieldExtruder,999
;   oozeShieldOffset,2
;   oozeShieldOutlines,1
;   oozeShieldSidewallShape,1
;   oozeShieldSidewallAngle,30
;   oozeShieldSpeedMultiplier,1
;   infillExtruder,0
;   internalInfillPattern,Rectilinear
;   externalInfillPattern,Rectilinear
;   infillPercentage,58
;   outlineOverlapPercentage,25
;   infillExtrusionWidthPercentage,110
;   minInfillLength,4
;   infillLayerInterval,1
;   infillAngles,45,-45
;   overlapInfillAngles,0
;   generateSupport,1
;   supportExtruder,0
;   supportInfillPercentage,25
;   supportExtraInflation,0
;   denseSupportLayers,2
;   denseSupportInfillPercentage,70
;   supportLayerInterval,1
;   supportHorizontalPartOffset,1
;   supportUpperSeparationLayers,1
;   supportLowerSeparationLayers,1
;   supportType,1
;   supportGridSpacing,3
;   maxOverhangAngle,60
;   supportAngles,0
;   temperatureName,Primary Extruder,Bed
;   temperatureNumber,0,0
;   temperatureSetpointCount,1,1
;   temperatureSetpointLayers,1,1
;   temperatureSetpointTemperatures,210,60
;   temperatureStabilizeAtStartup,1,1
;   temperatureHeatedBed,0,1
;   temperatureRelayBetweenLayers,0,0
;   temperatureRelayBetweenLoops,0,0
;   fanLayers,1,2
;   fanSpeeds,0,70
;   blipFanToFullPower,0
;   adjustSpeedForCooling,1
;   minSpeedLayerTime,15
;   minCoolingSpeedSlowdown,50
;   increaseFanForCooling,1
;   minFanLayerTime,45
;   maxCoolingFanSpeed,100
;   increaseFanForBridging,1
;   bridgingFanSpeed,100
;   use5D,1
;   relativeEdistances,0
;   allowEaxisZeroing,1
;   independentExtruderAxes,0
;   includeM10123,0
;   stickySupport,1
;   applyToolheadOffsets,0
;   gcodeXoffset,0
;   gcodeYoffset,0
;   gcodeZoffset,0
;   overrideMachineDefinition,0
;   machineTypeOverride,0
;   strokeXoverride,200
;   strokeYoverride,200
;   strokeZoverride,200
;   originOffsetXoverride,0
;   originOffsetYoverride,0
;   originOffsetZoverride,0
;   homeXdirOverride,-1
;   homeYdirOverride,-1
;   homeZdirOverride,-1
;   flipXoverride,1
;   flipYoverride,-1
;   flipZoverride,1
;   toolheadOffsets,0,0|0,0|0,0|0,0|0,0|0,0
;   overrideFirmwareConfiguration,0
;   firmwareTypeOverride,RepRap (Marlin/Repetier/Sprinter)
;   GPXconfigOverride,r2
;   baudRateOverride,115200
;   overridePrinterModels,0
;   printerModelsOverride
;   startingGcode,G28 ; home all axes,G29 ; level Bed,
;   layerChangeGcode,
;   retractionGcode,
;   toolChangeGcode,
;   endingGcode,M104 S0 ; turn off extruder,M140 S0 ; turn off bed,G28 X; move X to home position,M84 ; disable motors
;   createX3G,0
;   celebration,0
;   celebrationSong,Random Song
;   createMB5G,0
;   postProcessing,
;   defaultSpeed,3000
;   outlineUnderspeed,0.7
;   solidInfillUnderspeed,0.7
;   supportUnderspeed,0.8
;   rapidXYspeed,7200
;   rapidZspeed,360
;   minBridgingArea,50
;   bridgingExtraInflation,0
;   bridgingExtrusionMultiplier,1
;   bridgingSpeedMultiplier,1
;   filamentDiameter,1.75
;   filamentPricePerKg,46
;   filamentDensity,1.25
;   useMinPrintHeight,0
;   minPrintHeight,0
;   useMaxPrintHeight,0
;   maxPrintHeight,0.4
;   useDiaphragm,0
;   diaphragmLayerInterval,20
;   robustSlicing,1
;   mergeAllIntoSolid,0
;   onlyRetractWhenCrossingOutline,1
;   retractBetweenLayers,1
;   useRetractionMinTravel,1
;   retractionMinTravel,1.5
;   retractWhileWiping,0
;   onlyWipeOutlines,1
;   avoidCrossingOutline,0
;   maxMovementDetourFactor,3
;   toolChangeRetractionDistance,12
;   toolChangeExtraRestartDistance,-0.5
;   toolChangeRetractionSpeed,600
;   allowThinWallGapFill,1
;   thinWallAllowedOverlapPercentage,10
;   horizontalSizeCompensation,0
G90
M82
M106 S0
M140 S60
M190 S60
M104 S210 T0
M109 S210 T0
G28 ; home all axes
G29 ; level Bed
G92 E0
G1 E-1.1500 F9000
G1 Z0.290 F360
; layer 1, Z = 0.22
T0
; tool H0.220 W0.408
; skirt
G1 X65.806 Y65.918 F7200
G1 Z0.220 F360
G1 E0.0700 F2700
G92 E0
G1 X68.418 Y64.071 E0.1075 F1500
G1 X68.584 Y63.988 E0.1137
G1 X70.534 Y63.368 E0.1824
G1 X70.717 Y63.340 E0.1886
G1 X100.186 Y63.340 E1.1784
G1 X100.380 Y63.372 E1.1850
G1 X102.440 Y64.070 E1.2580
G1 X102.614 Y64.163 E1.2646
G1 X105.129 Y66.090 E1.3711
G1 X105.305 Y66.304 E1.3803
G1 X106.667 Y69.063 E1.4837
G1 X106.729 Y69.332 E1.4930
G1 X106.729 Y90.668 E2.2096
G1 X106.666 Y90.938 E2.2189
G1 X105.305 Y93.697 E2.3222
G1 X105.129 Y93.910 E2.3315
G1 X102.614 Y95.837 E2.4379
G1 X102.440 Y95.930 E2.4445
G1 X100.380 Y96.628 E2.5176
G1 X100.186 Y96.660 E2.5242
G1 X70.717 Y96.660 E3.5139
G1 X70.534 Y96.632 E3.5202
G1 X68.584 Y96.012 E3.5889
G1 X68.418 Y95.929 E3.5951
G1 X65.806 Y94.082 E3.7025
G1 X65.617 Y93.865 E3.7122
G1 X64.141 Y91.015 E3.8200
G1 X64.073 Y90.735 E3.8297
G1 X64.073 Y69.265 E4.5508
G1 X64.141 Y68.985 E4.5604
G1 X65.617 Y66.135 E4.6682
G1 X65.806 Y65.918 E4.6779
G1 X66.130 Y66.277 F7200
G92 E0
G1 X68.665 Y64.484 E0.1043 F1500
G1 X68.764 Y64.434 E0.1080
G1 X70.644 Y63.837 E0.1742
G1 X70.754 Y63.820 E0.1780
G1 X100.147 Y63.820 E1.1652
G1 X100.263 Y63.839 E1.1691
G1 X102.249 Y64.512 E1.2396
G1 X102.353 Y64.568 E1.2435
G1 X104.793 Y66.437 E1.3468
G1 X104.899 Y66.566 E1.3523
G1 X106.212 Y69.225 E1.4520
G1 X106.249 Y69.387 E1.4575
G1 X106.249 Y90.613 E2.1704
G1 X106.212 Y90.775 E2.1760
G1 X104.899 Y93.435 E2.2756
G1 X104.793 Y93.563 E2.2812
G1 X102.353 Y95.432 E2.3845
G1 X102.249 Y95.488 E2.3884
G1 X100.263 Y96.161 E2.4588
G1 X100.147 Y96.180 E2.4628
G1 X70.754 Y96.180 E3.4500
G1 X70.644 Y96.163 E3.4537
G1 X68.765 Y95.566 E3.5200
G1 X68.665 Y95.516 E3.5237
G1 X66.130 Y93.724 E3.6280
G1 X66.017 Y93.593 E3.6338
G1 X64.594 Y90.845 E3.7377
G1 X64.553 Y90.677 E3.7435
G1 X64.553 Y69.323 E4.4607
G1 X64.594 Y69.155 E4.4665
G1 X66.016 Y66.407 E4.5705
G1 X66.130 Y66.277 E4.5763
G1 X66.454 Y66.635 F7200
G92 E0
G1 X68.912 Y64.897 E0.1011 F1500
G1 X68.945 Y64.881 E0.1023
G1 X70.754 Y64.306 E0.1661
G1 X70.791 Y64.300 E0.1673
G1 X100.108 Y64.300 E1.1520
G1 X100.146 Y64.306 E1.1533
G1 X102.058 Y64.954 E1.2211
G1 X102.092 Y64.973 E1.2224
G1 X104.458 Y66.785 E1.3225
G1 X104.493 Y66.828 E1.3243
G1 X105.757 Y69.388 E1.4202
G1 X105.769 Y69.442 E1.4221
G1 X105.769 Y90.558 E2.1313
G1 X105.757 Y90.612 E2.1332
G1 X104.493 Y93.173 E2.2291
G1 X104.458 Y93.215 E2.2309
G1 X102.092 Y95.027 E2.3310
G1 X102.058 Y95.046 E2.3323
G1 X100.146 Y95.694 E2.4001
G1 X100.108 Y95.700 E2.4014
G1 X70.791 Y95.700 E3.3861
G1 X70.754 Y95.694 E3.3873
G1 X68.945 Y95.119 E3.4510
G1 X68.912 Y95.103 E3.4523
G1 X66.454 Y93.365 E3.5534
G1 X66.416 Y93.321 E3.5553
G1 X65.047 Y90.676 E3.6554
G1 X65.033 Y90.620 E3.6573
G1 X65.033 Y69.380 E4.3707
G1 X65.047 Y69.324 E4.3726
G1 X66.416 Y66.679 E4.4727
G1 X66.454 Y66.635 E4.4746
G92 E0
G1 E-1.1500 F9000
G1 Z0.290 F360
; inner perimeter
G1 X72.105 Y71.372 F7200
G1 Z0.220 F360
G1 E0.0700 F9000
G92 E0
G1 X98.733 Y71.372 E0.8943 F1275
G1 X98.733 Y88.628 E1.4739
G1 X72.105 Y88.628 E2.3682
G1 X72.105 Y71.372 E2.9478
; outer perimeter
G1 X71.697 Y70.976 F7200
G92 E0
G1 X71.714 Y70.964 E0.0007 F1050
G1 X99.132 Y70.964 E0.9216
G1 X99.141 Y70.971 E0.9219
G1 X99.141 Y89.029 E1.5284
G1 X99.132 Y89.036 E1.5288
G1 X71.714 Y89.036 E2.4497
G1 X71.697 Y89.024 E2.4504
G1 X71.697 Y70.976 E3.0566
; inner perimeter
G1 X76.185 Y77.346 F7200
G92 E0
G1 X75.857 Y77.722 E0.0168 F1275
G1 X75.581 Y78.137 E0.0335
G1 X75.364 Y78.584 E0.0502
G1 X75.218 Y79.015 E0.0655
G1 X75.119 Y79.502 E0.0822
G1 X75.086 Y80.000 E0.0989
G1 X75.119 Y80.498 E0.1157
G1 X75.218 Y80.985 E0.1324
G1 X75.364 Y81.416 E0.1477
G1 X75.581 Y81.863 E0.1643
G1 X75.857 Y82.278 E0.1811
G1 X76.185 Y82.654 E0.1979
G1 X76.561 Y82.982 E0.2146
G1 X76.975 Y83.257 E0.2313
G1 X77.384 Y83.459 E0.2466
G1 X77.852 Y83.621 E0.2633
G1 X78.341 Y83.720 E0.2800
G1 X78.819 Y83.752 E0.2961
G1 X93.301 Y83.752 E0.7825
G1 X93.778 Y83.720 E0.7986
G1 X94.265 Y83.621 E0.8152
G1 X94.697 Y83.475 E0.8305
G1 X95.143 Y83.258 E0.8472
G1 X95.559 Y82.982 E0.8640
G1 X95.934 Y82.654 E0.8807
G1 X96.263 Y82.278 E0.8975
G1 X96.538 Y81.863 E0.9142
G1 X96.755 Y81.416 E0.9309
G1 X96.902 Y80.985 E0.9462
G1 X97.000 Y80.498 E0.9629
G1 X97.034 Y80.000 E0.9796
G1 X97.000 Y79.502 E0.9964
G1 X96.901 Y79.013 E1.0132
G1 X96.739 Y78.544 E1.0298
G1 X96.537 Y78.136 E1.0451
G1 X96.263 Y77.722 E1.0618
G1 X95.934 Y77.346 E1.0786
G1 X95.559 Y77.018 E1.0953
G1 X95.143 Y76.742 E1.1121
G1 X94.697 Y76.525 E1.1288
G1 X94.265 Y76.379 E1.1441
G1 X93.778 Y76.280 E1.1607
G1 X93.301 Y76.248 E1.1768
G1 X78.819 Y76.248 E1.6632
G1 X78.341 Y76.280 E1.6793
G1 X77.854 Y76.379 E1.6960
G1 X77.423 Y76.525 E1.7113
G1 X76.976 Y76.742 E1.7279
G1 X76.561 Y77.018 E1.7447
G1 X76.185 Y77.346 E1.7615
; outer perimeter
G1 X76.474 Y77.635 F7200
G92 E0
G1 X76.182 Y77.970 E0.0149 F1050
G1 X75.936 Y78.340 E0.0299
G1 X75.742 Y78.739 E0.0447
G1 X75.613 Y79.122 E0.0583
G1 X75.524 Y79.557 E0.0732
G1 X75.495 Y80.000 E0.0881
G1 X75.524 Y80.443 E0.1031
G1 X75.613 Y80.878 E0.1180
G1 X75.742 Y81.261 E0.1316
G1 X75.936 Y81.660 E0.1464
G1 X76.182 Y82.030 E0.1614
G1 X76.474 Y82.365 E0.1763
G1 X76.809 Y82.657 E0.1912
G1 X77.179 Y82.903 E0.2061
G1 X77.541 Y83.081 E0.2197
G1 X77.960 Y83.226 E0.2346
G1 X78.396 Y83.315 E0.2495
G1 X78.832 Y83.344 E0.2642
G1 X93.287 Y83.344 E0.7497
G1 X93.724 Y83.315 E0.7644
G1 X94.159 Y83.227 E0.7793
G1 X94.541 Y83.097 E0.7929
G1 X94.940 Y82.903 E0.8078
G1 X95.311 Y82.657 E0.8227
G1 X95.645 Y82.365 E0.8376
G1 X95.938 Y82.030 E0.8525
G1 X96.183 Y81.660 E0.8675
G1 X96.377 Y81.261 E0.8824
G1 X96.507 Y80.878 E0.8959
G1 X96.595 Y80.443 E0.9108
G1 X96.625 Y80.000 E0.9258
G1 X96.595 Y79.557 E0.9407
G1 X96.507 Y79.121 E0.9556
G1 X96.362 Y78.702 E0.9705
G1 X96.183 Y78.340 E0.9841
G1 X95.938 Y77.970 E0.9990
G1 X95.645 Y77.635 E1.0139
G1 X95.311 Y77.343 E1.0288
G1 X94.940 Y77.097 E1.0438
G1 X94.541 Y76.903 E1.0587
G1 X94.159 Y76.773 E1.0722
G1 X93.724 Y76.685 E1.0871
G1 X93.287 Y76.656 E1.1018
G1 X78.832 Y76.656 E1.5873
G1 X78.396 Y76.685 E1.6020
G1 X77.961 Y76.773 E1.6169
G1 X77.578 Y76.903 E1.6305
G1 X77.179 Y77.097 E1.6454
G1 X76.809 Y77.343 E1.6603
G1 X76.474 Y77.635 E1.6752
; solid layer
G1 X77.136 Y76.325 F7200
G92 E0
G1 X81.782 Y71.678 E0.2207 F1050
G1 X82.359 Y71.678 E0.2401
G1 X78.000 Y76.037 E0.4471
G1 X78.300 Y75.976 E0.4574
G1 X78.662 Y75.952 E0.4696
G1 X82.936 Y71.678 E0.6726
G1 X83.513 Y71.678 E0.6920
G1 X79.249 Y75.942 E0.8945
G1 X79.826 Y75.942 E0.9139
G1 X84.090 Y71.678 E1.1164
G1 X84.667 Y71.678 E1.1358
G1 X80.403 Y75.942 E1.3383
G1 X80.980 Y75.942 E1.3577
G1 X85.244 Y71.678 E1.5603
G1 X85.821 Y71.678 E1.5796
G1 X81.557 Y75.942 E1.7822
G1 X82.134 Y75.942 E1.8016
G1 X86.398 Y71.678 E2.0041
G1 X86.975 Y71.678 E2.0235
G1 X82.711 Y75.942 E2.2260
G1 X83.288 Y75.942 E2.2454
G1 X87.552 Y71.678 E2.4479
G1 X88.129 Y71.678 E2.4673
G1 X83.865 Y75.942 E2.6698
G1 X84.442 Y75.942 E2.6892
G1 X88.706 Y71.678 E2.8918
G1 X89.283 Y71.678 E2.9111
G1 X85.019 Y75.942 E3.1137
G1 X85.596 Y75.942 E3.1331
G1 X89.860 Y71.678 E3.3356
G1 X90.437 Y71.678 E3.3550
G1 X86.173 Y75.942 E3.5575
G1 X86.750 Y75.942 E3.5769
G1 X91.014 Y71.678 E3.7794
G1 X91.591 Y71.678 E3.7988
G1 X87.327 Y75.942 E4.0013
G1 X87.904 Y75.942 E4.0207
G1 X92.168 Y71.678 E4.2233
G1 X92.745 Y71.678 E4.2426
G1 X88.481 Y75.942 E4.4452
G1 X89.058 Y75.942 E4.4646
G1 X93.322 Y71.678 E4.6671
G1 X93.899 Y71.678 E4.6865
G1 X89.635 Y75.942 E4.8890
G1 X90.212 Y75.942 E4.9084
G1 X94.476 Y71.678 E5.1109
G1 X95.053 Y71.678 E5.1303
G1 X90.789 Y75.942 E5.3328
G1 X91.366 Y75.942 E5.3522
G1 X95.630 Y71.678 E5.5548
G1 X96.207 Y71.678 E5.5741
G1 X91.943 Y75.942 E5.7767
G1 X92.520 Y75.942 E5.7961
G1 X96.784 Y71.678 E5.9986
G1 X97.361 Y71.678 E6.0180
G1 X93.097 Y75.942 E6.2205
G1 X93.311 Y75.942 E6.2277
G1 X93.651 Y75.965 E6.2392
G1 X97.938 Y71.678 E6.4428
G1 X98.427 Y71.678 E6.4592
G1 X98.427 Y71.766 E6.4622
G1 X94.150 Y76.043 E6.6653
G1 X94.345 Y76.083 E6.6720
G1 X94.601 Y76.169 E6.6810
G1 X98.427 Y72.343 E6.8628
G1 X98.427 Y72.920 E6.8822
G1 X95.010 Y76.337 E7.0445
G1 X95.295 Y76.476 E7.0551
G1 X95.387 Y76.537 E7.0588
G1 X98.427 Y73.497 E7.2032
G1 X98.427 Y74.074 E7.2226
G1 X95.734 Y76.767 E7.3505
G1 X95.745 Y76.774 E7.3509
G1 X96.043 Y77.035 E7.3642
G1 X98.427 Y74.651 E7.4774
G1 X98.427 Y75.228 E7.4968
G1 X96.326 Y77.329 E7.5966
G1 X96.507 Y77.535 E7.6058
G1 X96.582 Y77.650 E7.6104
G1 X98.427 Y75.805 E7.6980
G1 X98.427 Y76.382 E7.7174
G1 X96.811 Y77.998 E7.7941
G1 X97.001 Y78.385 E7.8086
G1 X98.427 Y76.959 E7.8763
G1 X98.427 Y77.536 E7.8957
G1 X97.154 Y78.809 E7.9561
G1 X97.197 Y78.932 E7.9605
G1 X97.266 Y79.274 E7.9722
G1 X98.427 Y78.113 E8.0273
G1 X98.427 Y78.690 E8.0467
G1 X97.326 Y79.791 E8.0990
G1 X97.340 Y80.000 E8.1060
G1 X97.315 Y80.379 E8.1188
G1 X98.427 Y79.267 E8.1716
G1 X98.427 Y79.844 E8.1910
G1 X97.193 Y81.078 E8.2496
G1 X98.027 Y88.322 F7200
G92 E0
G1 X98.427 Y87.922 E0.0190 F1050
G1 X98.427 Y87.345 E0.0384
G1 X97.450 Y88.322 E0.0848
G1 X96.873 Y88.322 E0.1041
G1 X98.427 Y86.768 E0.1779
G1 X98.427 Y86.191 E0.1973
G1 X96.296 Y88.322 E0.2985
G1 X95.719 Y88.322 E0.3179
G1 X98.427 Y85.614 E0.4465
G1 X98.427 Y85.037 E0.4659
G1 X95.142 Y88.322 E0.6219
G1 X94.565 Y88.322 E0.6413
G1 X98.427 Y84.460 E0.8247
G1 X98.427 Y83.883 E0.8441
G1 X93.988 Y88.322 E1.0549
G1 X93.411 Y88.322 E1.0743
G1 X98.427 Y83.306 E1.3125
G1 X98.427 Y82.729 E1.3319
G1 X92.834 Y88.322 E1.5975
G1 X92.257 Y88.322 E1.6169
G1 X98.427 Y82.152 E1.9100
G1 X98.427 Y81.575 E1.9293
G1 X91.680 Y88.322 E2.2498
G1 X91.103 Y88.322 E2.2692
G1 X98.427 Y80.998 E2.6170
G1 X98.427 Y80.421 E2.6364
G1 X96.749 Y82.099 E2.7161
G1 X96.507 Y82.465 E2.7308
G1 X96.151 Y82.871 E2.7490
G1 X95.745 Y83.226 E2.7671
G1 X95.380 Y83.468 E2.7818
G1 X90.526 Y88.322 E3.0123
G1 X89.949 Y88.322 E3.0317
G1 X94.358 Y83.913 E3.2411
G1 X94.345 Y83.917 E3.2416
G1 X93.819 Y84.024 E3.2596
G1 X93.659 Y84.035 E3.2650
G1 X89.372 Y88.322 E3.4687
G1 X88.795 Y88.322 E3.4880
G1 X93.059 Y84.058 E3.6906
G1 X92.482 Y84.058 E3.7099
G1 X88.218 Y88.322 E3.9125
G1 X87.641 Y88.322 E3.9319
G1 X91.905 Y84.058 E4.1344
G1 X91.328 Y84.058 E4.1538
G1 X87.064 Y88.322 E4.3563
G1 X86.487 Y88.322 E4.3757
G1 X90.751 Y84.058 E4.5782
G1 X90.174 Y84.058 E4.5976
G1 X85.910 Y88.322 E4.8001
G1 X85.333 Y88.322 E4.8195
G1 X89.597 Y84.058 E5.0221
G1 X89.020 Y84.058 E5.0414
G1 X84.756 Y88.322 E5.2440
G1 X84.179 Y88.322 E5.2634
G1 X88.443 Y84.058 E5.4659
G1 X87.866 Y84.058 E5.4853
G1 X83.602 Y88.322 E5.6878
G1 X83.025 Y88.322 E5.7072
G1 X87.289 Y84.058 E5.9097
G1 X86.712 Y84.058 E5.9291
G1 X82.448 Y88.322 E6.1316
G1 X81.871 Y88.322 E6.1510
G1 X86.135 Y84.058 E6.3536
G1 X85.558 Y84.058 E6.3729
G1 X81.294 Y88.322 E6.5755
G1 X80.717 Y88.322 E6.5948
G1 X84.981 Y84.058 E6.7974
G1 X84.404 Y84.058 E6.8168
G1 X80.140 Y88.322 E7.0193
G1 X79.563 Y88.322 E7.0387
