; G-Code generated by Simplify3D(R) Version 3.1.0
; Apr 6, 2017 at 3:04:36 PM
; Settings Summary
;   processName,Process1
;   applyToModels,x carriage 1.1.1 green,ear,ear(2),ear(3),ear(4)
;   profileName,PETG 0.3 he.20 bt50 (modified)
;   profileVersion,2017-03-22 16:30:49
;   baseProfile,Default (modified)
;   printMaterial,
;   printQuality,
;   printExtruders,
;   extruderName,Primary Extruder
;   extruderToolheadNumber,0
;   extruderDiameter,0.4
;   extruderAutoWidth,0
;   extruderWidth,0.46
;   extrusionMultiplier,1
;   extruderUseRetract,1
;   extruderRetractionDistance,1.4
;   extruderExtraRestartDistance,-0.1
;   extruderRetractionZLift,0
;   extruderRetractionSpeed,4200
;   extruderUseCoasting,1
;   extruderCoastingDistance,0.2
;   extruderUseWipe,1
;   extruderWipeDistance,0.2
;   primaryExtruder,0
;   layerHeight,0.3
;   topSolidLayers,3
;   bottomSolidLayers,2
;   perimeterOutlines,2
;   printPerimetersInsideOut,1
;   startPointOption,2
;   startPointOriginX,80
;   startPointOriginY,0
;   startPointOriginZ,5
;   sequentialIslands,0
;   spiralVaseMode,0
;   firstLayerHeightPercentage,100
;   firstLayerWidthPercentage,140
;   firstLayerUnderspeed,0.3
;   useRaft,0
;   raftExtruder,0
;   raftLayers,3
;   raftOffset,3
;   raftSeparationDistance,0.14
;   raftInfill,85
;   disableRaftBaseLayers,0
;   useSkirt,1
;   skirtExtruder,0
;   skirtLayers,1
;   skirtOutlines,2
;   skirtOffset,3
;   usePrimePillar,0
;   primePillarExtruder,999
;   primePillarWidth,12
;   primePillarLocation,7
;   primePillarSpeedMultiplier,1
;   useOozeShield,0
;   oozeShieldExtruder,999
;   oozeShieldOffset,2
;   oozeShieldOutlines,1
;   oozeShieldSidewallShape,1
;   oozeShieldSidewallAngle,30
;   oozeShieldSpeedMultiplier,1
;   infillExtruder,0
;   internalInfillPattern,Rectilinear
;   externalInfillPattern,Rectilinear
;   infillPercentage,22
;   outlineOverlapPercentage,30
;   infillExtrusionWidthPercentage,150
;   minInfillLength,2
;   infillLayerInterval,1
;   infillAngles,45,-45
;   overlapInfillAngles,0
;   generateSupport,0
;   supportExtruder,0
;   supportInfillPercentage,33
;   supportExtraInflation,0.5
;   denseSupportLayers,0
;   denseSupportInfillPercentage,70
;   supportLayerInterval,1
;   supportHorizontalPartOffset,0.8
;   supportUpperSeparationLayers,1
;   supportLowerSeparationLayers,1
;   supportType,0
;   supportGridSpacing,1.5
;   maxOverhangAngle,55
;   supportAngles,90
;   temperatureName,Primary Extruder,bed
;   temperatureNumber,0,0
;   temperatureSetpointCount,2,2
;   temperatureSetpointLayers,1,2,1,2
;   temperatureSetpointTemperatures,240,235,65,60
;   temperatureStabilizeAtStartup,1,1
;   temperatureHeatedBed,0,1
;   temperatureRelayBetweenLayers,0,0
;   temperatureRelayBetweenLoops,0,0
;   fanLayers,1,4
;   fanSpeeds,0,20
;   blipFanToFullPower,1
;   adjustSpeedForCooling,0
;   minSpeedLayerTime,15
;   minCoolingSpeedSlowdown,65
;   increaseFanForCooling,1
;   minFanLayerTime,15
;   maxCoolingFanSpeed,60
;   increaseFanForBridging,1
;   bridgingFanSpeed,100
;   use5D,1
;   relativeEdistances,0
;   allowEaxisZeroing,1
;   independentExtruderAxes,0
;   includeM10123,0
;   stickySupport,1
;   applyToolheadOffsets,0
;   gcodeXoffset,0
;   gcodeYoffset,0
;   gcodeZoffset,0
;   overrideMachineDefinition,1
;   machineTypeOverride,0
;   strokeXoverride,170
;   strokeYoverride,160
;   strokeZoverride,145
;   originOffsetXoverride,0
;   originOffsetYoverride,0
;   originOffsetZoverride,0
;   homeXdirOverride,-1
;   homeYdirOverride,-1
;   homeZdirOverride,-1
;   flipXoverride,1
;   flipYoverride,-1
;   flipZoverride,1
;   toolheadOffsets,0,0|0,0|0,0|0,0|0,0|0,0
;   overrideFirmwareConfiguration,1
;   firmwareTypeOverride,RepRap (Marlin/Repetier/Sprinter)
;   GPXconfigOverride,r2
;   baudRateOverride,250000
;   overridePrinterModels,0
;   printerModelsOverride
;   startingGcode,;---------------------------------------,; ; ; Jellybox Start Script Begin ; ; ;,;_______________________________________,; M92 E140            ; optionally adjust steps per mm for your filament,M117 Preparing        ; write Preparing,M206 X10.0 Y0.0       ; set x homing offset for default bed leveling,G21                   ; metric values,G90                   ; absolute positioning,M107                  ; start with the fan off,M82                   ; set extruder to absolute mode,G28                   ; home all axes,M203 Z4               ; slow Z speed down for greater accuracy when probing,G29                   ; auto bed leveling procedure,M203 Z7               ; pick up z speed again for printing,G92 E0                ; reset the extruder position,G1 F1500 E15          ; extrude 15mm of feed stock,G92 E0                ; reset the extruder position again,M117 Print starting   ; write Print starting,;---------------------------------------------,; ; ; Jellybox Printer Start Script End ; ; ;,;_____________________________________________
;   layerChangeGcode,
;   retractionGcode,
;   toolChangeGcode,
;   endingGcode,; ; ;  Jellybox End Script Begin ; ; ;,; _________________________________,M117 Finishing Up  ; write Finishing Up,M107               ; start with the fan off,M104 S0            ; extruder heater off,M140 S0            ; bed heater off (if you have it),G91                ; relative positioning,G1 E-1 F300        ; retract the filament a bit before lifting the nozzle to release some of the pressure,G1 Z+0.5 E-5 X-20 Y-20 F9000 ; move Z up a bit and retract filament even more,G90                ; absolute positioning,G28 X              ; home x so the head is out of the way,G1 Y100            ; move Y forward so the print is more accessible,M84                ; steppers off,M107               ; fan off,M117 Print finished ; write Print finished,; ---------------------------------------,; ; ;  Jellybox End Script End ; ; ;,; _______________________________________
;   exportFileFormat,gcode
;   celebration,0
;   celebrationSong,Random Song
;   postProcessing,|{REPLACE "; layer" "M117 Layer"},|{REPLACE ", Z = " " "Z="}
;   defaultSpeed,3000
;   outlineUnderspeed,0.6
;   solidInfillUnderspeed,0.65
;   supportUnderspeed,0.9
;   rapidXYspeed,7800
;   rapidZspeed,420
;   minBridgingArea,50
;   bridgingExtraInflation,0.3
;   bridgingExtrusionMultiplier,1
;   bridgingSpeedMultiplier,1
;   filamentDiameter,1.75
;   filamentPricePerKg,30
;   filamentDensity,1.38
;   useMinPrintHeight,0
;   minPrintHeight,30
;   useMaxPrintHeight,0
;   maxPrintHeight,40
;   useDiaphragm,0
;   diaphragmLayerInterval,20
;   robustSlicing,1
;   mergeAllIntoSolid,0
;   onlyRetractWhenCrossingOutline,0
;   retractBetweenLayers,1
;   useRetractionMinTravel,1
;   retractionMinTravel,1
;   retractWhileWiping,1
;   onlyWipeOutlines,0
;   avoidCrossingOutline,1
;   maxMovementDetourFactor,2.5
;   toolChangeRetractionDistance,1.3
;   toolChangeExtraRestartDistance,0
;   toolChangeRetractionSpeed,600
;   allowThinWallGapFill,1
;   thinWallAllowedOverlapPercentage,15
;   horizontalSizeCompensation,0
G90
M82
M106 S0
M140 S65
M190 S65
M104 S240 T0
M109 S240 T0
;---------------------------------------
; ; ; Jellybox Start Script Begin ; ; ;
;_______________________________________
; M92 E140            ; optionally adjust steps per mm for your filament
M117 Preparing        ; write Preparing
M206 X10.0 Y0.0       ; set x homing offset for default bed leveling
G21                   ; metric values
G90                   ; absolute positioning
M107                  ; start with the fan off
M82                   ; set extruder to absolute mode
G28                   ; home all axes
M203 Z4               ; slow Z speed down for greater accuracy when probing
G29                   ; auto bed leveling procedure
M203 Z7               ; pick up z speed again for printing
G92 E0                ; reset the extruder position
G1 F1500 E15          ; extrude 15mm of feed stock
G92 E0                ; reset the extruder position again
M117 Print starting   ; write Print starting
;---------------------------------------------
; ; ; Jellybox Printer Start Script End ; ; ;
;_____________________________________________
G92 E0
G1 E-1.4000 F4200
G1 Z0.300 F420
M117 Layer 1 0.3
T0
; tool H0.300 W0.644
; skirt
G1 X31.068 Y31.516 F7800
G1 E-0.1000 F1260
G92 E0
G1 X32.600 Y30.026 E0.1717 F900
G1 X32.621 Y30.008 E0.1739
G1 X32.823 Y29.839 E0.1950
G1 X32.845 Y29.823 E0.1972
G1 X34.628 Y28.566 E0.3724
G1 X34.649 Y28.552 E0.3745
G1 X34.864 Y28.424 E0.3946
G1 X34.887 Y28.411 E0.3966
G1 X36.859 Y27.424 E0.5738
G1 X36.882 Y27.413 E0.5758
G1 X37.111 Y27.319 E0.5957
G1 X37.135 Y27.310 E0.5978
G1 X39.231 Y26.624 E0.7749
G1 X39.256 Y26.617 E0.7770
G1 X39.499 Y26.557 E0.7971
G1 X39.524 Y26.552 E0.7992
G1 X41.675 Y26.190 E0.9743
G1 X41.702 Y26.187 E0.9765
G1 X41.964 Y26.164 E0.9977
G1 X41.991 Y26.162 E0.9999
G1 X44.129 Y26.143 E1.1716
G1 X44.158 Y26.144 E1.1739
G1 X44.443 Y26.165 E1.1969
G1 X44.472 Y26.169 E1.1993
G1 X46.525 Y26.504 E1.3663
G1 X46.556 Y26.510 E1.3689
G1 X46.861 Y26.590 E1.3942
G1 X46.892 Y26.600 E1.3968
G1 X48.789 Y27.292 E1.5590
G1 X48.822 Y27.306 E1.5619
G1 X49.141 Y27.462 E1.5904
G1 X49.172 Y27.480 E1.5933
G1 X50.836 Y28.526 E1.7512
G1 X50.869 Y28.549 E1.7544
G1 X51.175 Y28.796 E1.7860
G1 X51.205 Y28.824 E1.7893
G1 X52.553 Y30.200 E1.9440
G1 X52.582 Y30.234 E1.9475
G1 X52.838 Y30.573 E1.9817
G1 X52.862 Y30.609 E1.9852
G1 X53.811 Y32.263 E2.1384
G1 X53.831 Y32.303 E2.1420
G1 X53.997 Y32.708 E2.1771
G1 X54.011 Y32.750 E2.1807
G1 X54.501 Y34.593 E2.3338
G1 X54.510 Y34.636 E2.3374
G1 X54.566 Y35.057 E2.3715
G1 X54.569 Y35.101 E2.3750
G1 X54.571 Y35.340 E2.3943
G1 X54.950 Y35.472 E2.4265
G1 X55.152 Y35.647 E2.4480
G1 X56.602 Y38.481 E2.7037
G1 X57.515 Y40.103 E2.8532
G1 X58.446 Y41.576 E2.9931
G1 X59.109 Y42.513 E3.0853
G1 X59.538 Y43.064 E3.1415
G1 X60.485 Y44.131 E3.2560
G1 X60.876 Y44.512 E3.2999
G1 X61.308 Y44.888 E3.3459
G1 X61.719 Y45.204 E3.3875
G1 X62.122 Y45.471 E3.4264
G1 X62.516 Y45.693 E3.4626
G1 X62.917 Y45.877 E3.4982
G1 X63.325 Y46.020 E3.5328
G1 X63.725 Y46.120 E3.5660
G1 X64.130 Y46.184 E3.5989
G1 X64.539 Y46.210 E3.6318
G1 X64.967 Y46.200 E3.6662
G1 X65.456 Y46.149 E3.7057
G1 X65.970 Y46.056 E3.7476
G1 X66.490 Y45.928 E3.7907
G1 X67.388 Y45.641 E3.8664
G1 X68.603 Y45.156 E3.9715
G1 X73.497 Y42.900 E4.4043
G1 X74.637 Y42.301 E4.5078
G1 X75.656 Y41.654 E4.6048
G1 X76.320 Y41.130 E4.6727
G1 X76.652 Y40.815 E4.7095
G1 X76.908 Y40.529 E4.7402
G1 X77.320 Y39.950 E4.7973
G1 X77.393 Y39.830 E4.8086
G1 X77.582 Y39.448 E4.8428
G1 X77.738 Y39.046 E4.8775
G1 X77.859 Y38.621 E4.9130
G1 X77.947 Y38.178 E4.9493
G1 X78.005 Y37.698 E4.9881
G1 X78.032 Y37.180 E5.0297
G1 X78.027 Y36.607 E5.0758
G1 X77.991 Y36.062 E5.1197
G1 X77.795 Y34.650 E5.2342
G1 X77.655 Y33.965 E5.2903
G1 X77.373 Y32.853 E5.3825
G1 X76.858 Y31.187 E5.5225
G1 X76.217 Y29.440 E5.6720
G1 X75.005 Y26.497 E5.9277
G1 X75.003 Y26.230 E5.9491
G1 X75.216 Y25.688 E5.9959
G1 X75.182 Y25.657 E5.9995
G1 X75.152 Y25.625 E6.0030
G1 X74.879 Y25.301 E6.0371
G1 X74.853 Y25.265 E6.0406
G1 X73.821 Y23.662 E6.1938
G1 X73.799 Y23.622 E6.1975
G1 X73.611 Y23.225 E6.2327
G1 X73.595 Y23.183 E6.2364
G1 X73.013 Y21.366 E6.3896
G1 X73.002 Y21.324 E6.3931
G1 X72.925 Y20.907 E6.4271
G1 X72.920 Y20.864 E6.4307
G1 X72.811 Y18.941 E6.5854
G1 X72.811 Y18.900 E6.5886
G1 X72.835 Y18.508 E6.6202
G1 X72.840 Y18.468 E6.6235
G1 X73.188 Y16.533 E6.7813
G1 X73.197 Y16.497 E6.7843
G1 X73.296 Y16.157 E6.8127
G1 X73.308 Y16.123 E6.8157
G1 X74.075 Y14.255 E6.9778
G1 X74.089 Y14.226 E6.9804
G1 X74.235 Y13.947 E7.0057
G1 X74.252 Y13.919 E7.0083
G1 X75.388 Y12.177 E7.1754
G1 X75.405 Y12.153 E7.1777
G1 X75.581 Y11.928 E7.2007
G1 X75.600 Y11.906 E7.2031
G1 X77.055 Y10.340 E7.3747
G1 X77.074 Y10.321 E7.3769
G1 X77.268 Y10.142 E7.3981
G1 X77.289 Y10.125 E7.4003
G1 X79.006 Y8.780 E7.5755
G1 X79.027 Y8.765 E7.5775
G1 X79.235 Y8.626 E7.5976
G1 X79.257 Y8.612 E7.5997
G1 X81.176 Y7.526 E7.7768
G1 X81.199 Y7.514 E7.7789
G1 X81.423 Y7.408 E7.7988
G1 X81.446 Y7.398 E7.8009
G1 X83.505 Y6.607 E7.9780
G1 X83.529 Y6.599 E7.9801
G1 X83.769 Y6.527 E8.0002
G1 X83.794 Y6.520 E8.0022
G1 X85.923 Y6.050 E8.1774
G1 X85.950 Y6.045 E8.1796
G1 X86.211 Y6.009 E8.2008
G1 X86.238 Y6.006 E8.2030
G1 X88.372 Y5.879 E8.3746
G1 X88.401 Y5.878 E8.3770
G1 X88.687 Y5.885 E8.4000
G1 X88.716 Y5.887 E8.4023
G1 X90.783 Y6.118 E8.5694
G1 X90.815 Y6.123 E8.5720
G1 X91.123 Y6.187 E8.5973
G1 X91.155 Y6.195 E8.5999
G1 X93.084 Y6.790 E8.7621
G1 X93.119 Y6.803 E8.7650
G1 X93.444 Y6.942 E8.7934
G1 X93.477 Y6.958 E8.7964
G1 X95.192 Y7.919 E8.9543
G1 X95.226 Y7.941 E8.9575
G1 X95.544 Y8.172 E8.9891
G1 X95.575 Y8.198 E8.9923
G1 X96.991 Y9.505 E9.1471
G1 X97.021 Y9.537 E9.1506
G1 X97.294 Y9.862 E9.1848
G1 X97.320 Y9.897 E9.1883
G1 X98.352 Y11.501 E9.3414
G1 X98.373 Y11.541 E9.3450
G1 X98.560 Y11.936 E9.3801
G1 X98.576 Y11.978 E9.3838
G1 X99.159 Y13.793 E9.5369
G1 X99.170 Y13.836 E9.5404
G1 X99.247 Y14.254 E9.5746
G1 X99.252 Y14.297 E9.5781
G1 X99.275 Y14.690 E9.6097
G1 X99.834 Y14.896 E9.6576
G1 X100.035 Y15.083 E9.6796
G1 X127.573 Y74.831 E14.9640
G1 X127.605 Y74.958 E14.9745
G1 X127.673 Y76.238 E15.0775
G1 X127.655 Y76.368 E15.0880
G1 X127.323 Y77.348 E15.1711
G1 X127.258 Y77.628 E15.1942
G1 X127.211 Y78.026 E15.2264
G1 X127.215 Y78.390 E15.2556
G1 X127.290 Y78.905 E15.2974
G1 X127.399 Y79.286 E15.3293
G1 X127.516 Y79.573 E15.3542
G1 X127.653 Y79.829 E15.3775
G1 X127.918 Y80.209 E15.4147
G1 X128.291 Y80.606 E15.4585
G1 X128.701 Y80.919 E15.4999
G1 X129.086 Y81.128 E15.5350
G1 X130.024 Y81.505 E15.6163
G1 X130.135 Y81.576 E15.6268
G1 X131.061 Y82.458 E15.7296
G1 X131.138 Y82.564 E15.7401
G1 X138.626 Y98.812 E17.1771
G1 X138.632 Y98.825 E17.1782
G1 X138.682 Y98.946 E17.1888
G1 X138.687 Y98.959 E17.1899
G1 X139.067 Y99.990 E17.2782
G1 X139.076 Y100.016 E17.2803
G1 X139.147 Y100.269 E17.3015
G1 X139.153 Y100.295 E17.3036
G1 X139.381 Y101.438 E17.3972
G1 X139.385 Y101.465 E17.3994
G1 X139.416 Y101.726 E17.4205
G1 X139.418 Y101.753 E17.4227
G1 X139.463 Y102.917 E17.5163
G1 X139.463 Y102.944 E17.5185
G1 X139.453 Y103.207 E17.5396
G1 X139.451 Y103.234 E17.5417
G1 X139.314 Y104.391 E17.6353
G1 X139.310 Y104.418 E17.6375
G1 X139.258 Y104.675 E17.6586
G1 X139.252 Y104.702 E17.6608
G1 X138.936 Y105.823 E17.7544
G1 X138.927 Y105.849 E17.7566
G1 X138.836 Y106.096 E17.7777
G1 X138.826 Y106.121 E17.7798
G1 X138.338 Y107.179 E17.8734
G1 X138.326 Y107.203 E17.8756
G1 X138.197 Y107.432 E17.8967
G1 X138.183 Y107.455 E17.8989
G1 X137.536 Y108.424 E17.9925
G1 X137.520 Y108.446 E17.9947
G1 X137.404 Y108.593 E18.0097
G1 X138.241 Y109.879 E18.1329
G1 X138.263 Y109.918 E18.1365
G1 X138.452 Y110.312 E18.1716
G1 X138.468 Y110.354 E18.1753
G1 X139.061 Y112.166 E18.3284
G1 X139.072 Y112.208 E18.3319
G1 X139.152 Y112.626 E18.3661
G1 X139.157 Y112.669 E18.3696
G1 X139.277 Y114.592 E18.5244
G1 X139.277 Y114.633 E18.5276
G1 X139.256 Y115.025 E18.5592
G1 X139.251 Y115.066 E18.5624
G1 X138.913 Y117.002 E18.7203
G1 X138.905 Y117.038 E18.7233
G1 X138.808 Y117.378 E18.7517
G1 X138.796 Y117.413 E18.7546
G1 X138.039 Y119.285 E18.9168
G1 X138.026 Y119.314 E18.9194
G1 X137.881 Y119.594 E18.9447
G1 X137.865 Y119.622 E18.9473
G1 X136.738 Y121.370 E19.1144
G1 X136.721 Y121.394 E19.1167
G1 X136.547 Y121.620 E19.1397
G1 X136.528 Y121.643 E19.1421
G1 X135.082 Y123.217 E19.3137
G1 X135.063 Y123.236 E19.3159
G1 X134.870 Y123.416 E19.3371
G1 X134.849 Y123.433 E19.3393
G1 X133.140 Y124.788 E19.5144
G1 X133.119 Y124.803 E19.5165
G1 X132.912 Y124.943 E19.5366
G1 X132.890 Y124.957 E19.5387
G1 X130.977 Y126.054 E19.7158
G1 X130.954 Y126.066 E19.7179
G1 X130.731 Y126.173 E19.7378
G1 X130.707 Y126.183 E19.7398
G1 X128.653 Y126.986 E19.9170
G1 X128.629 Y126.994 E19.9191
G1 X128.389 Y127.068 E19.9392
G1 X128.364 Y127.074 E19.9412
G1 X126.238 Y127.556 E20.1164
G1 X126.211 Y127.561 E20.1186
G1 X125.950 Y127.599 E20.1398
G1 X125.923 Y127.602 E20.1420
G1 X123.790 Y127.742 E20.3136
G1 X123.761 Y127.742 E20.3160
G1 X123.475 Y127.737 E20.3389
G1 X123.446 Y127.735 E20.3413
G1 X121.378 Y127.516 E20.5083
G1 X121.346 Y127.511 E20.5109
G1 X121.037 Y127.449 E20.5362
