; G-Code generated by Simplify3D(R) Version 3.1.0
; Mar 30, 2017 at 12:27:01 AM
; Settings Summary
;   processName,Process1
;   applyToModels,z-probe-offset-snake
;   profileName,PETG 0.3 he.20 bt50 (modified)
;   profileVersion,2017-02-27 23:31:17
;   baseProfile,Default (modified)
;   printMaterial,
;   printQuality,
;   printExtruders,
;   extruderName,Primary Extruder
;   extruderToolheadNumber,0
;   extruderDiameter,0.4
;   extruderAutoWidth,0
;   extruderWidth,0.4
;   extrusionMultiplier,1
;   extruderUseRetract,1
;   extruderRetractionDistance,1.4
;   extruderExtraRestartDistance,-0.1
;   extruderRetractionZLift,0.1
;   extruderRetractionSpeed,4200
;   extruderUseCoasting,1
;   extruderCoastingDistance,0.2
;   extruderUseWipe,1
;   extruderWipeDistance,0.2
;   primaryExtruder,0
;   layerHeight,0.3
;   topSolidLayers,3
;   bottomSolidLayers,2
;   perimeterOutlines,2
;   printPerimetersInsideOut,1
;   startPointOption,2
;   startPointOriginX,80
;   startPointOriginY,0
;   startPointOriginZ,5
;   sequentialIslands,0
;   spiralVaseMode,0
;   firstLayerHeightPercentage,100
;   firstLayerWidthPercentage,100
;   firstLayerUnderspeed,0.35
;   useRaft,0
;   raftExtruder,0
;   raftLayers,3
;   raftOffset,3
;   raftSeparationDistance,0.14
;   raftInfill,85
;   disableRaftBaseLayers,0
;   useSkirt,0
;   skirtExtruder,0
;   skirtLayers,1
;   skirtOutlines,2
;   skirtOffset,5
;   usePrimePillar,0
;   primePillarExtruder,999
;   primePillarWidth,12
;   primePillarLocation,7
;   primePillarSpeedMultiplier,1
;   useOozeShield,0
;   oozeShieldExtruder,999
;   oozeShieldOffset,2
;   oozeShieldOutlines,1
;   oozeShieldSidewallShape,1
;   oozeShieldSidewallAngle,30
;   oozeShieldSpeedMultiplier,1
;   infillExtruder,0
;   internalInfillPattern,Rectilinear
;   externalInfillPattern,Rectilinear
;   infillPercentage,22
;   outlineOverlapPercentage,30
;   infillExtrusionWidthPercentage,150
;   minInfillLength,2
;   infillLayerInterval,1
;   infillAngles,45,-45
;   overlapInfillAngles,0
;   generateSupport,0
;   supportExtruder,0
;   supportInfillPercentage,33
;   supportExtraInflation,0.5
;   denseSupportLayers,0
;   denseSupportInfillPercentage,70
;   supportLayerInterval,1
;   supportHorizontalPartOffset,0.8
;   supportUpperSeparationLayers,1
;   supportLowerSeparationLayers,1
;   supportType,0
;   supportGridSpacing,1.5
;   maxOverhangAngle,55
;   supportAngles,90
;   temperatureName,Primary Extruder,bed
;   temperatureNumber,0,0
;   temperatureSetpointCount,2,2
;   temperatureSetpointLayers,1,2,1,2
;   temperatureSetpointTemperatures,240,235,65,60
;   temperatureStabilizeAtStartup,1,1
;   temperatureHeatedBed,0,1
;   temperatureRelayBetweenLayers,0,0
;   temperatureRelayBetweenLoops,0,0
;   fanLayers,1,4
;   fanSpeeds,0,20
;   blipFanToFullPower,1
;   adjustSpeedForCooling,0
;   minSpeedLayerTime,15
;   minCoolingSpeedSlowdown,65
;   increaseFanForCooling,1
;   minFanLayerTime,15
;   maxCoolingFanSpeed,60
;   increaseFanForBridging,1
;   bridgingFanSpeed,100
;   use5D,1
;   relativeEdistances,0
;   allowEaxisZeroing,1
;   independentExtruderAxes,0
;   includeM10123,0
;   stickySupport,1
;   applyToolheadOffsets,0
;   gcodeXoffset,0
;   gcodeYoffset,0
;   gcodeZoffset,0
;   overrideMachineDefinition,1
;   machineTypeOverride,0
;   strokeXoverride,170
;   strokeYoverride,160
;   strokeZoverride,145
;   originOffsetXoverride,0
;   originOffsetYoverride,0
;   originOffsetZoverride,0
;   homeXdirOverride,-1
;   homeYdirOverride,-1
;   homeZdirOverride,-1
;   flipXoverride,1
;   flipYoverride,-1
;   flipZoverride,1
;   toolheadOffsets,0,0|0,0|0,0|0,0|0,0|0,0
;   overrideFirmwareConfiguration,1
;   firmwareTypeOverride,RepRap (Marlin/Repetier/Sprinter)
;   GPXconfigOverride,r2
;   baudRateOverride,250000
;   overridePrinterModels,0
;   printerModelsOverride
;   startingGcode,;---------------------------------------,; ; ; Jellybox Start Script Begin ; ; ;,;_______________________________________,M117 Preparing        ; write Preparing,; M92 E140            ; optionally adjust E steps/mm,M207 S1.5 F600 Z0     ; optionally adjust retract settings,M208 S-0.00 F600      ; optionally adjust unretract = recover settings,M206 X10.0 Y0.0       ; set x homing offset for default bed leveling,G21                   ; metric values,G90                   ; absolute positioning,M107                  ; start with the fan off,M82                   ; set extruder to absolute mode,G28                   ; home all axes,M203 Z4               ; slow Z speed down for greater accuracy when probing,G29                   ; auto bed leveling procedure,M203 Z7               ; pick up z speed again for printing,G92 E0                ; reset the extruder position,G1 F1500 E15          ; extrude 15mm of feed stock,G92 E0                ; reset the extruder position again,M117 Print starting   ; write Print starting,;---------------------------------------------,; ; ; Jellybox Printer Start Script End ; ; ;,;_____________________________________________
;   layerChangeGcode,
;   retractionGcode,
;   toolChangeGcode,
;   endingGcode,; ---------------------------------,; ; ;  Jellybox End Script Begin ; ; ;,; _________________________________,M117 Finishing Up ; write Finishing Up,M107                  ; sfan off,M104 S0            ; extruder heater off,M140 S0            ; bed heater off (if you have it),G91                ; relative positioning,G1 E-1 F300        ; retract the filament a bit before lifting the nozzle to release some of the pressure,G1 Z+0.5 E-5 X-20 Y-20 F9000 ; move Z up a bit and retract filament even more,G90                ; absolute positioning,G28 X              ; home x so the head is out of the way,G1 Y100            ; move Y forward so the print is more accessible,M84                ; steppers off,M117 Print finished ; write Print finisheds,; ---------------------------------------,; ; ;  Jellybox End Script End ; ; ;,; _______________________________________
;   exportFileFormat,gcode
;   celebration,0
;   celebrationSong,Random Song
;   postProcessing,|{REPLACE "; layer" "M117 Layer"},|{REPLACE ", Z = " " "Z="}
;   defaultSpeed,3000
;   outlineUnderspeed,0.6
;   solidInfillUnderspeed,0.6
;   supportUnderspeed,0.9
;   rapidXYspeed,7200
;   rapidZspeed,420
;   minBridgingArea,50
;   bridgingExtraInflation,0.3
;   bridgingExtrusionMultiplier,1
;   bridgingSpeedMultiplier,1
;   filamentDiameter,1.75
;   filamentPricePerKg,30
;   filamentDensity,1.38
;   useMinPrintHeight,0
;   minPrintHeight,30
;   useMaxPrintHeight,0
;   maxPrintHeight,40
;   useDiaphragm,0
;   diaphragmLayerInterval,20
;   robustSlicing,1
;   mergeAllIntoSolid,0
;   onlyRetractWhenCrossingOutline,0
;   retractBetweenLayers,1
;   useRetractionMinTravel,1
;   retractionMinTravel,1
;   retractWhileWiping,1
;   onlyWipeOutlines,0
;   avoidCrossingOutline,1
;   maxMovementDetourFactor,2.5
;   toolChangeRetractionDistance,1.3
;   toolChangeExtraRestartDistance,0
;   toolChangeRetractionSpeed,600
;   allowThinWallGapFill,1
;   thinWallAllowedOverlapPercentage,15
;   horizontalSizeCompensation,0
G90
M82
M106 S0
M140 S65
M190 S65
M104 S240 T0
M109 S240 T0
;---------------------------------------
; ; ; Jellybox Start Script Begin ; ; ;
;_______________________________________
M117 Preparing        ; write Preparing
; M92 E140            ; optionally adjust E steps/mm
M207 S1.5 F600 Z0     ; optionally adjust retract settings
M208 S-0.00 F600      ; optionally adjust unretract = recover settings
M206 X10.0 Y0.0       ; set x homing offset for default bed leveling
G21                   ; metric values
G90                   ; absolute positioning
M107                  ; start with the fan off
M82                   ; set extruder to absolute mode
G28                   ; home all axes
M203 Z4               ; slow Z speed down for greater accuracy when probing
G29                   ; auto bed leveling procedure
M203 Z7               ; pick up z speed again for printing
G92 E0                ; reset the extruder position
G1 F1500 E15          ; extrude 15mm of feed stock
G92 E0                ; reset the extruder position again
M117 Print starting   ; write Print starting
;---------------------------------------------
; ; ; Jellybox Printer Start Script End ; ; ;
;_____________________________________________
G92 E0
G1 E-1.4000 F4200
G1 Z0.400 F420
M117 Layer 1 0.3
T0
; tool H0.300 W0.400
; inner perimeter
; outer perimeter
G1 X34.750 Y49.975 F7200
G1 Z0.300 F420
G1 E-0.1000 F1260
G92 E0
G1 X40.250 Y49.975 E0.2744 F630
G1 X40.250 Y69.975 E1.2722
G1 X44.750 Y69.975 E1.4967
G1 X44.750 Y49.975 E2.4945
G1 X50.250 Y49.975 E2.7689
G1 X50.250 Y69.975 E3.7667
G1 X54.750 Y69.975 E3.9912
G1 X54.750 Y49.975 E4.9890
G1 X60.250 Y49.975 E5.2634
G1 X60.250 Y69.975 E6.2612
G1 X64.750 Y69.975 E6.4857
G1 X64.750 Y49.975 E7.4835
G1 X70.250 Y49.975 E7.7579
G1 X70.250 Y69.975 E8.7557
G1 X74.750 Y69.975 E8.9802
G1 X74.750 Y49.975 E9.9780
G1 X80.250 Y49.975 E10.2524
G1 X80.250 Y69.975 E11.2502
G1 X84.750 Y69.975 E11.4747
G1 X84.750 Y49.975 E12.4726
G1 X90.250 Y49.975 E12.7469
G1 X90.250 Y69.975 E13.7448
G1 X94.750 Y69.975 E13.9693
G1 X94.750 Y49.975 E14.9671
G1 X100.250 Y49.975 E15.2415
G1 X100.250 Y69.975 E16.2393
G1 X105.200 Y69.975 E16.4862
G1 X105.200 Y50.425 E17.4616
G1 X109.800 Y50.425 E17.6911
G1 X109.800 Y70.425 E18.6889
G1 X115.200 Y70.425 E18.9583
G1 X115.200 Y50.425 E19.9561
G1 X119.800 Y50.425 E20.1856
G1 X119.800 Y70.425 E21.1834
G1 X125.200 Y70.425 E21.4528
G1 X125.200 Y50.425 E22.4506
G1 X129.800 Y50.425 E22.6801
G1 X129.800 Y70.425 E23.6779
G1 X135.200 Y70.425 E23.9473
G1 X135.200 Y50.425 E24.9451
G1 X135.250 Y50.425 E24.9476
G1 X135.250 Y70.475 E25.9479
G1 X129.750 Y70.475 E26.2223
G1 X129.750 Y50.475 E27.2201
G1 X125.250 Y50.475 E27.4446
G1 X125.250 Y70.475 E28.4424
G1 X119.750 Y70.475 E28.7168
G1 X119.750 Y50.475 E29.7146
G1 X115.250 Y50.475 E29.9391
G1 X115.250 Y70.475 E30.9369
G1 X109.750 Y70.475 E31.2113
G1 X109.750 Y50.475 E32.2091
G1 X105.250 Y50.475 E32.4336
G1 X105.250 Y70.025 E33.4090
G1 X100.200 Y70.025 E33.6609
G1 X100.200 Y50.025 E34.6587
G1 X94.800 Y50.025 E34.9281
G1 X94.800 Y70.025 E35.9259
G1 X90.200 Y70.025 E36.1554
G1 X90.200 Y50.025 E37.1532
G1 X84.800 Y50.025 E37.4226
G1 X84.800 Y70.025 E38.4204
G1 X80.200 Y70.025 E38.6499
G1 X80.200 Y50.025 E39.6477
G1 X74.800 Y50.025 E39.9171
G1 X74.800 Y70.025 E40.9149
G1 X70.200 Y70.025 E41.1444
G1 X70.200 Y50.025 E42.1422
G1 X64.800 Y50.025 E42.4117
G1 X64.800 Y70.025 E43.4095
G1 X60.200 Y70.025 E43.6390
G1 X60.200 Y50.025 E44.6368
G1 X54.800 Y50.025 E44.9062
G1 X54.800 Y70.025 E45.9040
G1 X50.200 Y70.025 E46.1335
G1 X50.200 Y50.025 E47.1313
G1 X44.800 Y50.025 E47.4007
G1 X44.800 Y70.025 E48.3985
G1 X40.200 Y70.025 E48.6280
G1 X40.200 Y50.025 E49.6258
G1 X34.800 Y50.025 E49.8952
G1 X34.800 Y110.025 E52.8886
G1 X34.750 Y110.025 E52.8911
G1 X34.750 Y50.175 E55.8770
G1 X34.750 Y49.975 F630
G92 E0
G1 E-1.4000 F4200
G1 X35.750 Y49.975 F3000
M117 Layer end
; ---------------------------------
; ; ;  Jellybox End Script Begin ; ; ;
; _________________________________
M117 Finishing Up ; write Finishing Up
M107                  ; sfan off
M104 S0            ; extruder heater off
M140 S0            ; bed heater off (if you have it)
G91                ; relative positioning
G1 E-1 F300        ; retract the filament a bit before lifting the nozzle to release some of the pressure
G1 Z+0.5 E-5 X-20 Y-20 F9000 ; move Z up a bit and retract filament even more
G90                ; absolute positioning
G28 X              ; home x so the head is out of the way
G1 Y100            ; move Y forward so the print is more accessible
M84                ; steppers off
M117 Print finished ; write Print finisheds
; ---------------------------------------
; ; ;  Jellybox End Script End ; ; ;
; _______________________________________
; Build Summary
;   Build time: 0 hours 1 minute
;   Filament length: 55.8 mm (0.06 m)
;   Plastic volume: 134.16 mm^3 (0.13 cc)
;   Plastic weight: 0.19 g (0.00 lb)
;   Material cost: 0.01
