; G-Code generated by Simplify3D(R) Version 3.0.0
; Nov 16, 2016 at 8:06:01 AM
; Settings Summary
;   processName,Process1
;   applyToModels,zx coupler modeled 1.5 - slightly bigger base
;   profileName,Default (modified)
;   profileVersion,2015-10-25 10:06:52
;   baseProfile,Default (modified)
;   printMaterial,PLA Lankeda Green
;   printQuality,Fast
;   printExtruders,
;   extruderName,Primary Extruder
;   extruderToolheadNumber,0
;   extruderDiameter,0.4
;   extruderAutoWidth,1
;   extruderWidth,0.48
;   extrusionMultiplier,0.9
;   extruderUseRetract,1
;   extruderRetractionDistance,1.15
;   extruderExtraRestartDistance,0.07
;   extruderRetractionZLift,0.07
;   extruderRetractionSpeed,9000
;   extruderUseCoasting,0
;   extruderCoastingDistance,0.2
;   extruderUseWipe,0
;   extruderWipeDistance,5
;   primaryExtruder,0
;   layerHeight,0.22
;   topSolidLayers,4
;   bottomSolidLayers,3
;   perimeterOutlines,2
;   printPerimetersInsideOut,1
;   startPointOption,2
;   startPointOriginX,0
;   startPointOriginY,0
;   startPointOriginZ,300
;   sequentialIslands,0
;   spiralVaseMode,0
;   firstLayerHeightPercentage,100
;   firstLayerWidthPercentage,85
;   firstLayerUnderspeed,0.5
;   useRaft,0
;   raftExtruder,0
;   raftLayers,3
;   raftOffset,3
;   raftSeparationDistance,0.14
;   raftInfill,85
;   disableRaftBaseLayers,0
;   useSkirt,1
;   skirtExtruder,0
;   skirtLayers,2
;   skirtOutlines,3
;   skirtOffset,6
;   usePrimePillar,0
;   primePillarExtruder,999
;   primePillarWidth,12
;   primePillarLocation,7
;   primePillarSpeedMultiplier,1
;   useOozeShield,0
;   oozeShieldExtruder,999
;   oozeShieldOffset,2
;   oozeShieldOutlines,1
;   oozeShieldSidewallShape,1
;   oozeShieldSidewallAngle,30
;   oozeShieldSpeedMultiplier,1
;   infillExtruder,0
;   internalInfillPattern,Rectilinear
;   externalInfillPattern,Rectilinear
;   infillPercentage,58
;   outlineOverlapPercentage,25
;   infillExtrusionWidthPercentage,110
;   minInfillLength,4
;   infillLayerInterval,1
;   infillAngles,45,-45
;   overlapInfillAngles,0
;   generateSupport,1
;   supportExtruder,0
;   supportInfillPercentage,25
;   supportExtraInflation,0
;   denseSupportLayers,2
;   denseSupportInfillPercentage,70
;   supportLayerInterval,1
;   supportHorizontalPartOffset,1
;   supportUpperSeparationLayers,1
;   supportLowerSeparationLayers,1
;   supportType,1
;   supportGridSpacing,3
;   maxOverhangAngle,60
;   supportAngles,0
;   temperatureName,Primary Extruder,Bed
;   temperatureNumber,0,0
;   temperatureSetpointCount,1,1
;   temperatureSetpointLayers,1,1
;   temperatureSetpointTemperatures,210,60
;   temperatureStabilizeAtStartup,1,1
;   temperatureHeatedBed,0,1
;   temperatureRelayBetweenLayers,0,0
;   temperatureRelayBetweenLoops,0,0
;   fanLayers,1,2
;   fanSpeeds,0,70
;   blipFanToFullPower,0
;   adjustSpeedForCooling,1
;   minSpeedLayerTime,15
;   minCoolingSpeedSlowdown,50
;   increaseFanForCooling,1
;   minFanLayerTime,45
;   maxCoolingFanSpeed,100
;   increaseFanForBridging,1
;   bridgingFanSpeed,100
;   use5D,1
;   relativeEdistances,0
;   allowEaxisZeroing,1
;   independentExtruderAxes,0
;   includeM10123,0
;   stickySupport,1
;   applyToolheadOffsets,0
;   gcodeXoffset,0
;   gcodeYoffset,0
;   gcodeZoffset,0
;   overrideMachineDefinition,0
;   machineTypeOverride,0
;   strokeXoverride,200
;   strokeYoverride,200
;   strokeZoverride,200
;   originOffsetXoverride,0
;   originOffsetYoverride,0
;   originOffsetZoverride,0
;   homeXdirOverride,-1
;   homeYdirOverride,-1
;   homeZdirOverride,-1
;   flipXoverride,1
;   flipYoverride,-1
;   flipZoverride,1
;   toolheadOffsets,0,0|0,0|0,0|0,0|0,0|0,0
;   overrideFirmwareConfiguration,0
;   firmwareTypeOverride,RepRap (Marlin/Repetier/Sprinter)
;   GPXconfigOverride,r2
;   baudRateOverride,115200
;   overridePrinterModels,0
;   printerModelsOverride
;   startingGcode,G28 ; home all axes,G29 ; level Bed,
;   layerChangeGcode,
;   retractionGcode,
;   toolChangeGcode,
;   endingGcode,M104 S0 ; turn off extruder,M140 S0 ; turn off bed,G28 X; move X to home position,M84 ; disable motors
;   createX3G,0
;   celebration,0
;   celebrationSong,Random Song
;   createMB5G,0
;   postProcessing,
;   defaultSpeed,3000
;   outlineUnderspeed,0.7
;   solidInfillUnderspeed,0.7
;   supportUnderspeed,0.8
;   rapidXYspeed,7200
;   rapidZspeed,360
;   minBridgingArea,50
;   bridgingExtraInflation,0
;   bridgingExtrusionMultiplier,1
;   bridgingSpeedMultiplier,1
;   filamentDiameter,1.75
;   filamentPricePerKg,46
;   filamentDensity,1.25
;   useMinPrintHeight,0
;   minPrintHeight,0
;   useMaxPrintHeight,0
;   maxPrintHeight,0.4
;   useDiaphragm,0
;   diaphragmLayerInterval,20
;   robustSlicing,1
;   mergeAllIntoSolid,0
;   onlyRetractWhenCrossingOutline,1
;   retractBetweenLayers,1
;   useRetractionMinTravel,1
;   retractionMinTravel,1.5
;   retractWhileWiping,0
;   onlyWipeOutlines,1
;   avoidCrossingOutline,0
;   maxMovementDetourFactor,3
;   toolChangeRetractionDistance,12
;   toolChangeExtraRestartDistance,-0.5
;   toolChangeRetractionSpeed,600
;   allowThinWallGapFill,1
;   thinWallAllowedOverlapPercentage,10
;   horizontalSizeCompensation,0
G90
M82
M106 S0
M140 S60
M190 S60
M104 S210 T0
M109 S210 T0
G28 ; home all axes
G29 ; level Bed
G92 E0
G1 E-1.1500 F9000
G1 Z0.290 F360
; layer 1, Z = 0.22
T0
; tool H0.220 W0.408
; skirt
G1 X70.082 Y67.724 F7200
G1 Z0.220 F360
G1 E0.0700 F2700
G92 E0
G1 X70.097 Y67.708 E0.0007 F1500
G1 X70.270 Y67.535 E0.0089
G1 X70.286 Y67.519 E0.0097
G1 X70.912 Y66.935 E0.0384
G1 X70.927 Y66.921 E0.0392
G1 X71.103 Y66.769 E0.0469
G1 X71.119 Y66.756 E0.0477
G1 X72.058 Y65.996 E0.0882
G1 X72.074 Y65.984 E0.0889
G1 X72.247 Y65.852 E0.0962
G1 X72.263 Y65.841 E0.0969
G1 X72.885 Y65.402 E0.1224
G1 X72.904 Y65.389 E0.1232
G1 X73.107 Y65.257 E0.1313
G1 X73.125 Y65.245 E0.1321
G1 X74.482 Y64.431 E0.1852
G1 X74.511 Y64.414 E0.1863
G1 X74.840 Y64.241 E0.1988
G1 X74.870 Y64.226 E0.1999
G1 X75.865 Y63.772 E0.2367
G1 X75.881 Y63.765 E0.2372
G1 X76.051 Y63.693 E0.2434
G1 X76.066 Y63.687 E0.2440
G1 X76.863 Y63.375 E0.2728
G1 X76.880 Y63.369 E0.2734
G1 X77.068 Y63.302 E0.2801
G1 X77.085 Y63.296 E0.2807
G1 X78.384 Y62.877 E0.3265
G1 X78.401 Y62.872 E0.3271
G1 X78.593 Y62.816 E0.3338
G1 X78.610 Y62.811 E0.3344
G1 X79.498 Y62.583 E0.3652
G1 X79.518 Y62.578 E0.3659
G1 X79.738 Y62.530 E0.3735
G1 X79.758 Y62.526 E0.3741
G1 X81.516 Y62.199 E0.4342
G1 X81.540 Y62.195 E0.4350
G1 X81.799 Y62.158 E0.4438
G1 X81.823 Y62.155 E0.4446
G1 X83.212 Y62.010 E0.4915
G1 X83.237 Y62.008 E0.4924
G1 X83.504 Y61.991 E0.5014
G1 X83.529 Y61.989 E0.5022
G1 X85.375 Y61.947 E0.5642
G1 X85.397 Y61.947 E0.5649
G1 X85.634 Y61.950 E0.5729
G1 X85.656 Y61.951 E0.5737
G1 X86.661 Y62.001 E0.6074
G1 X86.681 Y62.002 E0.6081
G1 X86.908 Y62.021 E0.6158
G1 X86.929 Y62.023 E0.6165
G1 X88.741 Y62.239 E0.6778
G1 X88.764 Y62.242 E0.6786
G1 X89.018 Y62.282 E0.6872
G1 X89.040 Y62.286 E0.6879
G1 X90.193 Y62.515 E0.7274
G1 X90.208 Y62.518 E0.7279
G1 X90.368 Y62.554 E0.7334
G1 X90.383 Y62.557 E0.7339
G1 X91.303 Y62.788 E0.7658
G1 X91.318 Y62.792 E0.7663
G1 X91.487 Y62.839 E0.7722
G1 X91.502 Y62.844 E0.7727
G1 X92.482 Y63.146 E0.8072
G1 X92.499 Y63.151 E0.8078
G1 X92.691 Y63.217 E0.8146
G1 X92.708 Y63.223 E0.8152
G1 X93.846 Y63.651 E0.8561
G1 X93.865 Y63.659 E0.8567
G1 X94.067 Y63.742 E0.8641
G1 X94.085 Y63.750 E0.8647
G1 X95.100 Y64.211 E0.9022
G1 X95.127 Y64.225 E0.9032
G1 X95.425 Y64.378 E0.9144
G1 X95.451 Y64.393 E0.9155
G1 X96.513 Y65.012 E0.9567
G1 X96.536 Y65.026 E0.9576
G1 X96.782 Y65.184 E0.9675
G1 X96.804 Y65.199 E0.9684
G1 X98.132 Y66.141 E1.0230
G1 X98.156 Y66.159 E1.0240
G1 X98.414 Y66.361 E1.0351
G1 X98.437 Y66.380 E1.0361
G1 X99.313 Y67.143 E1.0751
G1 X99.327 Y67.155 E1.0757
G1 X99.480 Y67.297 E1.0827
G1 X99.494 Y67.310 E1.0833
G1 X100.083 Y67.892 E1.1112
G1 X100.095 Y67.904 E1.1117
G1 X100.223 Y68.037 E1.1179
G1 X100.234 Y68.050 E1.1185
G1 X100.762 Y68.633 E1.1449
G1 X100.776 Y68.648 E1.1456
G1 X100.920 Y68.819 E1.1531
G1 X100.933 Y68.835 E1.1538
G1 X101.741 Y69.860 E1.1976
G1 X101.757 Y69.880 E1.1985
G1 X101.918 Y70.103 E1.2077
G1 X101.932 Y70.124 E1.2086
G1 X102.651 Y71.210 E1.2523
G1 X102.661 Y71.226 E1.2530
G1 X102.772 Y71.405 E1.2600
G1 X102.781 Y71.422 E1.2607
G1 X103.147 Y72.060 E1.2854
G1 X103.155 Y72.075 E1.2860
G1 X103.240 Y72.232 E1.2920
G1 X103.248 Y72.247 E1.2925
G1 X103.825 Y73.393 E1.3356
G1 X103.833 Y73.411 E1.3363
G1 X103.926 Y73.611 E1.3437
G1 X103.934 Y73.629 E1.3443
G1 X104.456 Y74.865 E1.3894
G1 X104.465 Y74.888 E1.3902
G1 X104.558 Y75.135 E1.3991
G1 X104.566 Y75.158 E1.3999
G1 X105.165 Y76.969 E1.4640
G1 X105.170 Y76.985 E1.4646
G1 X105.223 Y77.162 E1.4708
G1 X105.228 Y77.178 E1.4713
G1 X105.422 Y77.895 E1.4963
G1 X105.425 Y77.909 E1.4968
G1 X105.463 Y78.064 E1.5021
G1 X105.466 Y78.078 E1.5026
G1 X105.878 Y79.958 E1.5672
G1 X105.882 Y79.976 E1.5679
G1 X105.918 Y80.172 E1.5745
G1 X105.921 Y80.189 E1.5751
G1 X106.153 Y81.670 E1.6255
G1 X106.156 Y81.685 E1.6260
G1 X106.178 Y81.858 E1.6318
G1 X106.180 Y81.874 E1.6324
G1 X106.348 Y83.505 E1.6874
G1 X106.349 Y83.524 E1.6881
G1 X106.364 Y83.732 E1.6951
G1 X106.365 Y83.751 E1.6957
G1 X106.430 Y85.389 E1.7508
G1 X106.430 Y85.406 E1.7514
G1 X106.432 Y85.592 E1.7576
G1 X106.432 Y85.609 E1.7582
G1 X106.417 Y86.524 E1.7889
G1 X106.416 Y86.545 E1.7896
G1 X106.405 Y86.767 E1.7971
G1 X106.403 Y86.788 E1.7978
G1 X106.266 Y88.415 E1.8526
G1 X106.263 Y88.438 E1.8534
G1 X106.231 Y88.700 E1.8623
G1 X106.227 Y88.723 E1.8631
G1 X106.078 Y89.621 E1.8936
G1 X106.075 Y89.640 E1.8943
G1 X106.035 Y89.841 E1.9012
G1 X106.031 Y89.859 E1.9018
G1 X105.834 Y90.714 E1.9312
G1 X105.829 Y90.734 E1.9320
G1 X105.769 Y90.959 E1.9398
G1 X105.763 Y90.979 E1.9405
G1 X105.503 Y91.832 E1.9704
G1 X105.495 Y91.854 E1.9712
G1 X105.408 Y92.103 E1.9801
G1 X105.400 Y92.125 E1.9809
G1 X105.054 Y93.000 E2.0124
G1 X105.041 Y93.030 E2.0135
G1 X104.890 Y93.358 E2.0257
G1 X104.876 Y93.387 E2.0268
G1 X103.848 Y95.334 E2.1007
G1 X103.677 Y95.534 E2.1095
G1 X101.347 Y97.300 E2.2077
G1 X101.108 Y97.409 E2.2166
G1 X98.299 Y98.014 E2.3130
G1 X98.236 Y98.024 E2.3152
G1 X97.540 Y98.098 E2.3387
G1 X97.477 Y98.101 E2.3408
G1 X72.528 Y98.101 E3.1788
G1 X72.465 Y98.098 E3.1809
G1 X71.777 Y98.026 E3.2041
G1 X71.715 Y98.016 E3.2062
G1 X68.832 Y97.403 E3.3052
G1 X68.583 Y97.287 E3.3145
G1 X66.178 Y95.402 E3.4171
G1 X66.006 Y95.188 E3.4263
G1 X64.937 Y92.977 E3.5088
G1 X64.922 Y92.944 E3.5100
G1 X64.772 Y92.580 E3.5232
G1 X64.759 Y92.546 E3.5244
G1 X64.328 Y91.292 E3.5690
G1 X64.320 Y91.267 E3.5699
G1 X64.238 Y90.988 E3.5796
G1 X64.231 Y90.963 E3.5805
G1 X64.033 Y90.166 E3.6081
G1 X64.028 Y90.143 E3.6089
G1 X63.975 Y89.889 E3.6176
G1 X63.971 Y89.865 E3.6184
G1 X63.747 Y88.518 E3.6643
G1 X63.744 Y88.497 E3.6650
G1 X63.715 Y88.274 E3.6725
G1 X63.713 Y88.254 E3.6732
G1 X63.637 Y87.473 E3.6996
G1 X63.636 Y87.455 E3.7002
G1 X63.623 Y87.264 E3.7066
G1 X63.622 Y87.247 E3.7072
G1 X63.570 Y85.890 E3.7528
G1 X63.570 Y85.875 E3.7533
G1 X63.568 Y85.707 E3.7589
G1 X63.568 Y85.692 E3.7594
G1 X63.578 Y84.916 E3.7855
G1 X63.578 Y84.899 E3.7861
G1 X63.586 Y84.711 E3.7924
G1 X63.587 Y84.694 E3.7930
G1 X63.726 Y82.696 E3.8602
G1 X63.728 Y82.678 E3.8608
G1 X63.748 Y82.480 E3.8675
G1 X63.750 Y82.462 E3.8681
G1 X63.928 Y81.095 E3.9144
G1 X63.930 Y81.081 E3.9149
G1 X63.954 Y80.928 E3.9201
G1 X63.956 Y80.915 E3.9206
G1 X64.195 Y79.580 E3.9661
G1 X64.198 Y79.563 E3.9667
G1 X64.237 Y79.377 E3.9731
G1 X64.240 Y79.360 E3.9737
G1 X64.684 Y77.501 E4.0378
G1 X64.688 Y77.486 E4.0383
G1 X64.730 Y77.327 E4.0439
G1 X64.734 Y77.312 E4.0444
G1 X64.945 Y76.593 E4.0695
G1 X64.950 Y76.576 E4.0702
G1 X65.011 Y76.388 E4.0768
G1 X65.017 Y76.371 E4.0774
G1 X65.661 Y74.577 E4.1414
G1 X65.669 Y74.554 E4.1422
G1 X65.770 Y74.306 E4.1512
G1 X65.779 Y74.284 E4.1520
G1 X66.333 Y73.062 E4.1971
G1 X66.342 Y73.044 E4.1978
G1 X66.443 Y72.839 E4.2054
G1 X66.453 Y72.821 E4.2061
G1 X67.062 Y71.691 E4.2493
G1 X67.071 Y71.675 E4.2499
G1 X67.169 Y71.506 E4.2564
G1 X67.178 Y71.490 E4.2570
G1 X67.569 Y70.859 E4.2820
G1 X67.579 Y70.843 E4.2826
G1 X67.695 Y70.669 E4.2896
G1 X67.705 Y70.653 E4.2903
G1 X68.440 Y69.618 E4.3329
G1 X68.451 Y69.603 E4.3335
G1 X68.577 Y69.437 E4.3405
G1 X68.589 Y69.422 E4.3412
G1 X69.055 Y68.847 E4.3660
G1 X69.067 Y68.832 E4.3667
G1 X69.209 Y68.668 E4.3740
G1 X69.222 Y68.654 E4.3746
G1 X70.082 Y67.724 E4.4171
G1 X70.432 Y68.053 F7200
G92 E0
G1 X70.441 Y68.043 E0.0004 F1500
G1 X70.607 Y67.876 E0.0084
G1 X70.616 Y67.867 E0.0088
G1 X71.236 Y67.289 E0.0373
G1 X71.245 Y67.281 E0.0377
G1 X71.414 Y67.134 E0.0452
G1 X71.424 Y67.126 E0.0456
G1 X72.357 Y66.371 E0.0859
G1 X72.366 Y66.364 E0.0863
G1 X72.533 Y66.238 E0.0934
G1 X72.543 Y66.231 E0.0938
G1 X73.158 Y65.797 E0.1191
G1 X73.169 Y65.789 E0.1195
G1 X73.365 Y65.662 E0.1273
G1 X73.376 Y65.655 E0.1278
G1 X74.723 Y64.846 E0.1806
G1 X74.741 Y64.836 E0.1812
G1 X75.057 Y64.669 E0.1932
G1 X75.075 Y64.660 E0.1939
G1 X76.062 Y64.210 E0.2303
G1 X76.071 Y64.206 E0.2307
G1 X76.235 Y64.136 E0.2367
G1 X76.244 Y64.132 E0.2370
G1 X77.035 Y63.823 E0.2655
G1 X77.045 Y63.820 E0.2659
G1 X77.226 Y63.755 E0.2723
G1 X77.236 Y63.752 E0.2727
G1 X78.528 Y63.335 E0.3183
G1 X78.538 Y63.332 E0.3186
G1 X78.723 Y63.278 E0.3251
G1 X78.733 Y63.275 E0.3255
G1 X79.614 Y63.049 E0.3560
G1 X79.626 Y63.046 E0.3564
G1 X79.837 Y62.999 E0.3637
G1 X79.849 Y62.997 E0.3641
G1 X81.599 Y62.672 E0.4239
G1 X81.613 Y62.670 E0.4243
G1 X81.864 Y62.633 E0.4328
G1 X81.878 Y62.632 E0.4333
G1 X83.257 Y62.487 E0.4799
G1 X83.272 Y62.486 E0.4804
G1 X83.530 Y62.470 E0.4891
G1 X83.544 Y62.469 E0.4896
G1 X85.381 Y62.427 E0.5513
G1 X85.394 Y62.427 E0.5517
G1 X85.624 Y62.430 E0.5594
G1 X85.637 Y62.431 E0.5599
G1 X86.633 Y62.480 E0.5934
G1 X86.645 Y62.481 E0.5938
G1 X86.864 Y62.499 E0.6011
G1 X86.876 Y62.500 E0.6016
G1 X88.680 Y62.715 E0.6626
G1 X88.694 Y62.717 E0.6630
G1 X88.938 Y62.755 E0.6713
G1 X88.952 Y62.758 E0.6718
G1 X90.097 Y62.985 E0.7110
G1 X90.105 Y62.987 E0.7113
G1 X90.260 Y63.022 E0.7166
G1 X90.269 Y63.024 E0.7169
G1 X91.183 Y63.253 E0.7486
G1 X91.192 Y63.255 E0.7489
G1 X91.354 Y63.301 E0.7546
G1 X91.364 Y63.303 E0.7549
G1 X92.337 Y63.603 E0.7891
G1 X92.348 Y63.607 E0.7895
G1 X92.532 Y63.670 E0.7960
G1 X92.542 Y63.673 E0.7964
G1 X93.673 Y64.099 E0.8370
G1 X93.684 Y64.103 E0.8374
G1 X93.879 Y64.184 E0.8445
G1 X93.890 Y64.189 E0.8449
G1 X94.896 Y64.646 E0.8819
G1 X94.912 Y64.654 E0.8826
G1 X95.199 Y64.802 E0.8934
G1 X95.215 Y64.811 E0.8940
G1 X96.267 Y65.424 E0.9349
G1 X96.280 Y65.432 E0.9354
G1 X96.517 Y65.585 E0.9449
G1 X96.531 Y65.594 E0.9455
G1 X97.850 Y66.529 E0.9998
G1 X97.864 Y66.540 E1.0004
G1 X98.113 Y66.735 E1.0110
G1 X98.127 Y66.747 E1.0116
G1 X98.995 Y67.502 E1.0503
G1 X99.004 Y67.510 E1.0506
G1 X99.151 Y67.646 E1.0574
G1 X99.159 Y67.654 E1.0578
G1 X99.743 Y68.231 E1.0853
G1 X99.750 Y68.238 E1.0857
G1 X99.874 Y68.367 E1.0917
G1 X99.881 Y68.374 E1.0920
G1 X100.404 Y68.952 E1.1182
G1 X100.412 Y68.961 E1.1186
G1 X100.551 Y69.126 E1.1258
G1 X100.559 Y69.136 E1.1263
G1 X101.361 Y70.153 E1.1698
G1 X101.371 Y70.165 E1.1703
G1 X101.526 Y70.380 E1.1792
G1 X101.535 Y70.393 E1.1797
G1 X102.248 Y71.471 E1.2231
G1 X102.254 Y71.481 E1.2235
G1 X102.361 Y71.654 E1.2303
G1 X102.367 Y71.664 E1.2307
G1 X102.729 Y72.296 E1.2552
G1 X102.734 Y72.305 E1.2555
G1 X102.816 Y72.457 E1.2613
G1 X102.820 Y72.465 E1.2617
G1 X103.394 Y73.605 E1.3045
G1 X103.399 Y73.616 E1.3049
G1 X103.488 Y73.808 E1.3120
G1 X103.493 Y73.819 E1.3124
G1 X104.012 Y75.048 E1.3572
G1 X104.017 Y75.061 E1.3577
G1 X104.107 Y75.299 E1.3663
G1 X104.112 Y75.313 E1.3668
G1 X104.709 Y77.117 E1.4306
G1 X104.712 Y77.127 E1.4309
G1 X104.763 Y77.297 E1.4369
G1 X104.765 Y77.306 E1.4372
G1 X104.958 Y78.018 E1.4620
G1 X104.960 Y78.026 E1.4623
G1 X104.996 Y78.175 E1.4674
G1 X104.998 Y78.183 E1.4677
G1 X105.408 Y80.058 E1.5321
G1 X105.411 Y80.068 E1.5325
G1 X105.446 Y80.257 E1.5389
G1 X105.448 Y80.267 E1.5393
G1 X105.679 Y81.741 E1.5894
G1 X105.680 Y81.750 E1.5897
G1 X105.701 Y81.917 E1.5953
G1 X105.703 Y81.926 E1.5957
G1 X105.870 Y83.550 E1.6505
G1 X105.871 Y83.562 E1.6509
G1 X105.885 Y83.762 E1.6576
G1 X105.886 Y83.773 E1.6580
