;FLAVOR:Marlin
;TIME:5071
;Filament used: 6.61265m
;Layer height: 0.3
;Generated with Cura_SteamEngine 3.2.1
M82 ;absolute extrusion mode
;---------------------------------------
; ; ; Jellybox Start Script Begin ; ; ;
;_______________________________________
; M92 E140 ;optionally adjust steps per mm for your filament

;              Print Settings Summary
; (leave these alone: this is only a list of the slicing settings)
; (overwriting these values will NOT change your printer's behavior)
;             sliced for :  {machine_name}
;        nozzle diameter :  {machine_nozzle_size}
;      filament diameter :  {material_diameter}
;           layer height :  {layer_height}
;       1st layer height :  {layer_height_0}
;             line width :  {line_width}  
;  outer wall wipe dist. :  {wall_0_wipe_dist}
;      infill line width :  {infill_line_width}
;         wall thickness :  {wall_thickness}
;          top thickness :  {top_thickness}
;       bottom thickness :  {bottom_thickness}
;         infill density :  {infill_sparse_density}
;         infill pattern :  {infill_pattern}
;      print temperature :  {material_print_temperature}
;  1st layer print temp. :  {material_print_temperature_layer_0}
; heated bed temperature :  {material_bed_temperature}
;    1st layer bed temp. :  {material_bed_temperature_layer_0}
;      regular fan speed :  {cool_fan_speed_min}
;          max fan speed :  {cool_fan_speed_max}
;     retraction amount  :  {retraction_amount}
;   retr. retract speed  :  {retraction_retract_speed}
;     retr. prime speed  :  {retraction_prime_speed}
;   build plate adhesion :  {adhesion_type}
;                support ?  {support_enable}
;             spiralized ?  {magic_spiralize}

G21               ;metric values
G90               ;absolute positioning
M82               ;set extruder to absolute mode
M107              ;start with the fan off
M117 Preparing    ;write Preparing
M140 S45          ;set bed temperature and move on
M109 S180         ;wait for the extruder to reach 180C
G28               ;home all axes
M203 Z4           ;slow Z speed down for greater accuracy when probing
G29               ;auto bed leveling procedure
;M500              ;optionally save the mesh
M203 Z7           ;pick up z speed again for printing
G28 X             ;home x to get as far from the plate as possible
M420 S1           ;(re) enable bed leveling turned off by the G28
G0 Y0 F5000       ;position Y in front
G0 Z15 F3000      ;position Z
M190 S65              ;wait for the bed to reach desired temperature
M109 S235             ;wait for the extruder to reach desired temperature
M300 S440 P100    ;play a tone
G4 P200           ;pause
M300 S440 P100    ;play a tone
G4 P200           ;pause
M300 S440 P800    ;play a tone
M0
M420 S1           ;(re) enable bed leveling to make iron-sure
M117 Print starting   ;write Print starting
;================ ;PRINT:LINE start
G90               ;absolute positioning
G92 E0            ;reset the extruder position
M420 S1           ;(re) enable bed leveling to make iron-sure
G0 Z0             ;get Z down
M83               ;relative extrusion mode
G1 E22 F500       ;extrude __mm of feed stock
G1 E18 F400       ;extrude __mm of feed stock
G1 E10 F400       ;extrude __mm of feed stock
G4 S2             ;pause for ooze
M400              ;make sure all is finished
M420 S1           ;(re) enable bed leveling to make iron-sure
G0 F500 X3 Y0 Z0.6;get to the start of the LINE
G1 E2 F300        ;extrude __mm of feed stock
G1 F1000 X104 E10  ;print a thick LINE extruding __mm along the way
M82               ;absolute extrusion mode
G92 E0            ;reset the extruder position
;---------------------------------------------
; ; ; Jellybox Printer Start Script End ; ; ;
;_____________________________________________

M83 ;relative extrusion mode
;LAYER_COUNT:78
;LAYER:0
M107
G0 F3600 X68.935 Y45.706 Z0.3
;TYPE:SKIRT
G1 F1200 X69.384 Y45.074 E0.03868
G1 X70.061 Y44.258 E0.0529
G1 X70.503 Y43.788 E0.03219
G1 X70.962 Y43.404 E0.02986
G1 X71.464 Y43.031 E0.0312
G1 X72.004 Y42.679 E0.03216
G1 X72.48 Y42.441 E0.02655
G1 X73.49 Y41.999 E0.055
G1 X74.332 Y41.714 E0.04435
G1 X74.905 Y41.573 E0.02944
G1 X75.575 Y41.454 E0.03395
G1 X76.613 Y41.339 E0.0521
G1 X77.438 Y41.313 E0.04118
G1 X79.518 Y41.414 E0.10389
G1 X80.196 Y41.492 E0.03405
G1 X81.791 Y41.782 E0.08088
G1 X82.256 Y41.888 E0.02379
G1 X83.657 Y42.278 E0.07255
G1 X84.193 Y42.46 E0.02824
G1 X85.816 Y43.109 E0.08721
G1 X86.187 Y43.274 E0.02026
G1 X89.681 Y44.999 E0.1944
G1 X94.599 Y47.147 E0.26774
G1 X99.635 Y49.017 E0.26801
G1 X104.768 Y50.597 E0.26794
G1 X110.098 Y51.914 E0.27391
G1 X112.716 Y52.5 E0.13384
G1 X113.136 Y52.612 E0.02169
G1 X113.745 Y52.803 E0.03184
G1 X113.984 Y52.885 E0.01261
G1 X114.843 Y53.201 E0.04566
G1 X115.379 Y53.433 E0.02914
G1 X117.638 Y54.566 E0.12608
G1 X118.378 Y55.018 E0.04326
G1 X119.65 Y55.949 E0.07864
G1 X120.168 Y56.382 E0.03368
G1 X120.642 Y56.834 E0.03268
G1 X121.08 Y57.307 E0.03216
G1 X121.328 Y57.636 E0.02055
G1 X122.13 Y58.794 E0.07028
G1 X122.463 Y59.346 E0.03216
G1 X122.8 Y60.148 E0.0434
G1 X123.006 Y60.782 E0.03326
G1 X123.167 Y61.406 E0.03215
G1 X123.24 Y61.924 E0.0261
G1 X123.295 Y62.536 E0.03066
G1 X123.313 Y63.18 E0.03214
G1 X123.241 Y63.878 E0.03501
G1 X122.662 Y67.259 E0.17113
G1 X121.938 Y72.632 E0.27048
G1 X121.522 Y77.971 E0.26717
G1 X121.41 Y83.336 E0.26772
G1 X121.601 Y88.702 E0.26788
G1 X122.098 Y94.084 E0.26965
G1 X122.375 Y96.179 E0.10543
G1 X122.42 Y96.822 E0.03216
G1 X122.385 Y97.466 E0.03218
G1 X122.27 Y98.1 E0.03215
G1 X122.128 Y98.578 E0.02488
G1 X119.99 Y104.689 E0.323
G1 X119.74 Y105.283 E0.03215
G1 X119.418 Y105.842 E0.03218
G1 X119.03 Y106.356 E0.03213
G1 X118.527 Y106.867 E0.03577
G1 X115.797 Y109.282 E0.18184
G1 X111.922 Y113.014 E0.2684
G1 X108.238 Y116.988 E0.27035
G1 X106.553 Y118.967 E0.12967
G1 X103.232 Y123.224 E0.26937
G1 X100.167 Y127.642 E0.26826
G1 X97.201 Y132.489 E0.2835
G1 X96.902 Y132.927 E0.02646
G1 X96.399 Y133.587 E0.0414
G1 X95.977 Y134.075 E0.03219
G1 X95.649 Y134.381 E0.02238
G1 X94.677 Y135.215 E0.0639
G1 X94.163 Y135.604 E0.03216
G1 X93.672 Y135.892 E0.0284
G1 X92.711 Y136.387 E0.05393
G1 X92.121 Y136.646 E0.03215
G1 X91.746 Y136.767 E0.01966
G1 X90.937 Y136.996 E0.04195
G1 X89.998 Y137.171 E0.04765
G1 X88.944 Y137.268 E0.05281
G1 X88.299 Y137.287 E0.03219
G1 X87.907 Y137.26 E0.0196
G1 X87.049 Y137.167 E0.04306
G1 X86.27 Y137.022 E0.03953
G1 X83.264 Y136.221 E0.1552
G1 X77.935 Y135.01 E0.27264
G1 X75.321 Y134.533 E0.13257
G1 X70.936 Y133.852 E0.22139
G1 X70.292 Y133.71 E0.0329
G1 X68.417 Y133.169 E0.09736
G1 X67.733 Y132.918 E0.03635
G1 X65.981 Y132.133 E0.09578
G1 X65.496 Y131.885 E0.02718
G1 X62.464 Y130.125 E0.17491
G1 X57.688 Y127.607 E0.26936
G1 X52.484 Y125.238 E0.28526
G1 X52.072 Y125.028 E0.02307
G1 X50.905 Y124.366 E0.06694
G1 X50.365 Y124.014 E0.03216
G1 X49.848 Y123.573 E0.0339
G1 X48.945 Y122.696 E0.0628
G1 X48.511 Y122.219 E0.03217
G1 X48.121 Y121.662 E0.03392
G1 X47.465 Y120.58 E0.06313
G1 X47.166 Y120.009 E0.03216
G1 X46.936 Y119.392 E0.03285
G1 X46.575 Y118.201 E0.06209
G1 X46.426 Y117.574 E0.03215
G1 X46.356 Y116.914 E0.03311
G1 X46.303 Y115.668 E0.06222
G1 X46.345 Y114.748 E0.04595
G1 X46.766 Y111.641 E0.15643
G1 X47.253 Y106.266 E0.26926
G1 X47.434 Y100.918 E0.26697
G1 X47.31 Y95.549 E0.26793
G1 X46.885 Y90.199 E0.26775
G1 X46.154 Y84.855 E0.2691
G1 X45.521 Y81.314 E0.17946
G1 X45.447 Y80.673 E0.03219
G1 X45.453 Y80.029 E0.03213
G1 X45.539 Y79.39 E0.03217
G1 X45.733 Y78.679 E0.03677
G1 X47.874 Y72.57 E0.32295
G1 X48.124 Y71.976 E0.03215
G1 X48.446 Y71.418 E0.03214
G1 X48.835 Y70.903 E0.0322
G1 X49.234 Y70.488 E0.02872
G1 X51.653 Y68.231 E0.16506
G1 X55.438 Y64.37 E0.26975
G1 X58.973 Y60.33 E0.26782
G1 X62.266 Y56.104 E0.26729
G1 X65.309 Y51.709 E0.2667
G1 X68.66 Y46.161 E0.32336
G0 F1140 X68.935 Y45.706
G1 F2400 E-1.6
G1 F300 Z0.45
G0 F3600 X69.201 Y97.1 Z0.45
;TYPE:SUPPORT
G1 F300 Z0.3
G1 F1800 E1.50182
G1 F1200 X69.385 Y97.122 E0.00925
G1 X69.54 Y97.176 E0.00819
G1 X69.682 Y97.261 E0.00826
G1 X69.802 Y97.378 E0.00836
G1 X69.9 Y97.516 E0.00844
G1 X69.96 Y97.656 E0.0076
G1 X69.992 Y97.869 E0.01075
G1 X69.988 Y97.987 E0.00589
G1 X69.953 Y98.148 E0.00822
G1 X69.879 Y98.306 E0.0087
G1 X69.785 Y98.429 E0.00772
G1 X69.653 Y98.546 E0.0088
G1 X69.522 Y98.617 E0.00743
G1 X69.317 Y98.678 E0.01067
G1 X69.183 Y98.686 E0.0067
G1 X69.019 Y98.665 E0.00825
G1 X68.827 Y98.589 E0.0103
G1 X68.714 Y98.519 E0.00663
G1 X68.603 Y98.415 E0.00759
G1 X68.502 Y98.267 E0.00894
G1 X68.442 Y98.123 E0.00778
G1 X68.412 Y97.96 E0.00827
G1 X68.415 Y97.801 E0.00793
G1 X68.452 Y97.629 E0.00878
G1 X68.521 Y97.485 E0.00797
G1 X68.631 Y97.342 E0.009
G1 X68.737 Y97.25 E0.007
G1 X68.862 Y97.18 E0.00715
G0 F1140 X68.902 Y97.158
G0 X69.054 Y97.111
G0 X69.201 Y97.1
G0 F3600 X68.546 Y98
G1 F1800 E0.01756
G1 F1200 X69.857 Y98 E0.06541
G1 F2400 E-1.6
G1 F300 Z0.45
G0 F3600 X78.409 Y47.111 Z0.45
;TYPE:WALL-INNER
G1 F300 Z0.3
G1 F1800 E1.47527
G1 F1200 X78.898 Y47.154 E0.02449
G1 X79.417 Y47.22 E0.0261
G1 X79.938 Y47.304 E0.02633
G1 X80.986 Y47.532 E0.05351
G1 X82.012 Y47.829 E0.05329
G1 X82.514 Y48.003 E0.02651
G1 X83.008 Y48.195 E0.02644
G1 X83.459 Y48.392 E0.02455
G1 X83.93 Y48.622 E0.02615
G1 X84.336 Y48.843 E0.02306
G1 X84.73 Y49.087 E0.02312
G1 X85.083 Y49.333 E0.02147
G1 X85.436 Y49.615 E0.02254
G1 X85.725 Y49.884 E0.0197
G1 X85.985 Y50.166 E0.01914
G1 X86.209 Y50.457 E0.01832
G1 X86.396 Y50.757 E0.01764
G1 X86.545 Y51.064 E0.01702
G1 X86.653 Y51.366 E0.016
G1 X86.728 Y51.692 E0.01669
G1 X86.767 Y52.039 E0.01742
G1 X86.768 Y52.38 E0.01701
G1 X86.728 Y52.751 E0.01862
G1 X86.647 Y53.142 E0.01992
G1 X86.524 Y53.545 E0.02102
G1 X86.359 Y53.962 E0.02237
G1 X86.132 Y54.429 E0.02591
G1 X85.879 Y54.871 E0.02541
G1 X85.563 Y55.357 E0.02892
G1 X85.205 Y55.849 E0.03036
G1 X84.801 Y56.354 E0.03226
G1 X84.343 Y56.88 E0.0348
G1 X83.827 Y57.43 E0.03763
G1 X83.272 Y57.984 E0.03912
G1 X82.674 Y58.547 E0.04098
G1 X82.022 Y59.128 E0.04357
G1 X81.58 Y59.503 E0.02892
G1 X73.656 Y56.728 E0.41887
G1 X73.538 Y56.037 E0.03497
G1 X73.394 Y55.057 E0.04942
G1 X73.289 Y54.166 E0.04476
G1 X73.218 Y53.32 E0.04236
G1 X73.181 Y52.534 E0.03926
G1 X73.179 Y51.852 E0.03403
G1 X73.212 Y51.181 E0.03352
G1 X73.277 Y50.59 E0.02966
G1 X73.371 Y50.063 E0.02671
G1 X73.495 Y49.595 E0.02415
G1 X73.644 Y49.183 E0.02186
G1 X73.819 Y48.821 E0.02006
G1 X74.015 Y48.507 E0.01847
G1 X74.246 Y48.22 E0.01838
G1 X74.477 Y47.996 E0.01605
G1 X74.754 Y47.783 E0.01743
G1 X75.045 Y47.609 E0.01692
G1 X75.392 Y47.45 E0.01904
G1 X75.727 Y47.333 E0.0177
G1 X76.117 Y47.234 E0.02007
G1 X76.53 Y47.159 E0.02094
G1 X76.976 Y47.111 E0.02238
G1 X77.421 Y47.088 E0.02223
G1 X77.877 Y47.088 E0.02275
G0 F1140 X77.889 Y47.088
G0 X78.409 Y47.111
G0 F3600 X78.427 Y46.711
;TYPE:WALL-OUTER
G1 F1800 E0.02654
G1 F1200 X78.948 Y46.757 E0.02609
G1 X79.475 Y46.824 E0.0265
G1 X80.012 Y46.911 E0.02714
G1 X81.078 Y47.143 E0.05443
G1 X82.139 Y47.45 E0.0551
G1 X82.659 Y47.63 E0.02745
G1 X83.153 Y47.822 E0.02644
G1 X83.635 Y48.033 E0.02625
G1 X84.106 Y48.263 E0.02615
G1 X84.537 Y48.498 E0.02449
G1 X84.959 Y48.759 E0.02476
G1 X85.333 Y49.02 E0.02275
G1 X85.686 Y49.302 E0.02254
G1 X86.016 Y49.608 E0.02245
G1 X86.287 Y49.903 E0.01999
G1 X86.539 Y50.23 E0.0206
G1 X86.747 Y50.564 E0.01963
G1 X86.914 Y50.907 E0.01903
G1 X87.038 Y51.255 E0.01843
G1 X87.124 Y51.627 E0.01905
G1 X87.167 Y52.011 E0.01928
G1 X87.168 Y52.404 E0.01961
G1 X87.124 Y52.813 E0.02052
G1 X87.035 Y53.243 E0.02191
G1 X86.904 Y53.672 E0.02238
G1 X86.724 Y54.127 E0.02441
G1 X86.491 Y54.606 E0.02657
G1 X86.219 Y55.082 E0.02735
G1 X85.895 Y55.58 E0.02964
G1 X85.517 Y56.099 E0.03203
G1 X85.103 Y56.617 E0.03308
G1 X84.635 Y57.154 E0.03554
G1 X84.119 Y57.704 E0.03763
G1 X83.555 Y58.267 E0.03976
G1 X82.94 Y58.846 E0.04214
G1 X82.281 Y59.433 E0.04403
G1 X81.664 Y59.957 E0.04039
G1 X73.302 Y57.028 E0.44203
G1 X73.142 Y56.095 E0.04723
G1 X72.998 Y55.115 E0.04942
G1 X72.89 Y54.199 E0.04602
G1 X72.819 Y53.353 E0.04236
G1 X72.781 Y52.553 E0.03996
G1 X72.779 Y51.832 E0.03597
G1 X72.812 Y51.161 E0.03352
G1 X72.88 Y50.535 E0.03141
G1 X72.98 Y49.976 E0.02833
G1 X73.11 Y49.484 E0.02539
G1 X73.275 Y49.028 E0.02419
G1 X73.47 Y48.623 E0.02243
G1 X73.689 Y48.274 E0.02056
G1 X73.945 Y47.956 E0.02037
G1 X74.219 Y47.689 E0.01909
G1 X74.525 Y47.455 E0.01922
G1 X74.866 Y47.251 E0.01982
G1 X75.232 Y47.083 E0.02009
G1 X75.62 Y46.947 E0.02051
G1 X76.034 Y46.842 E0.02131
G1 X76.472 Y46.763 E0.0222
G1 X76.933 Y46.713 E0.02313
G1 X77.419 Y46.688 E0.02428
G1 X77.895 Y46.688 E0.02375
G0 F1140 X77.907 Y46.688
G0 X78.427 Y46.711
G0 F3600 X78.948 Y46.757
G0 X79.024 Y46.766
G0 X78.856 Y47.582
;TYPE:SKIN
G1 F1800 E0.02654
G1 F1200 X79.355 Y47.646 E0.03012
G1 X79.85 Y47.725 E0.03001
G1 X80.878 Y47.949 E0.06299
G1 X81.892 Y48.242 E0.06319
G1 X82.374 Y48.409 E0.03054
G1 X82.836 Y48.589 E0.02968
G1 X83.27 Y48.779 E0.02836
G1 X83.733 Y49.005 E0.03084
G1 X84.119 Y49.215 E0.02631
G1 X84.504 Y49.453 E0.0271
G1 X84.814 Y49.669 E0.02262
G1 X85.167 Y49.951 E0.02705
G1 X85.414 Y50.182 E0.02025
G1 X85.665 Y50.454 E0.02216
G1 X85.848 Y50.691 E0.01793
G1 X86.019 Y50.966 E0.01939
G1 X86.15 Y51.234 E0.01786
G1 X86.24 Y51.487 E0.01608
G1 X86.302 Y51.757 E0.01659
G1 X86.337 Y52.07 E0.01886
G1 X86.338 Y52.354 E0.017
G1 X86.302 Y52.687 E0.02005
G1 X86.228 Y53.041 E0.02165
G1 X86.122 Y53.392 E0.02195
G1 X85.961 Y53.796 E0.02604
G1 X85.758 Y54.216 E0.02793
G1 X85.512 Y54.646 E0.02966
G1 X85.21 Y55.11 E0.03314
G1 X84.863 Y55.587 E0.03531
G1 X84.471 Y56.079 E0.03766
G1 X84.029 Y56.586 E0.04027
G1 X83.524 Y57.125 E0.04422
G1 X82.977 Y57.671 E0.04627
G1 X82.384 Y58.229 E0.04875
G1 X81.74 Y58.803 E0.05165
G1 X81.49 Y59.016 E0.01966
G1 X74.037 Y56.406 E0.47277
G1 X73.962 Y55.964 E0.02684
G1 X73.819 Y54.995 E0.05864
G1 X73.716 Y54.116 E0.05298
G1 X73.648 Y53.3 E0.04902
G1 X73.611 Y52.514 E0.04711
G1 X73.609 Y51.873 E0.03838
G1 X73.64 Y51.228 E0.03866
G1 X73.705 Y50.637 E0.0356
G1 X73.792 Y50.148 E0.02974
G1 X73.903 Y49.731 E0.02583
G1 X74.041 Y49.349 E0.02432
G1 X74.194 Y49.033 E0.02102
G1 X74.37 Y48.751 E0.0199
G1 X74.563 Y48.512 E0.01839
G1 X74.758 Y48.322 E0.0163
G1 X74.989 Y48.144 E0.01746
G1 X75.256 Y47.985 E0.0186
G1 X75.554 Y47.848 E0.01964
G1 X75.845 Y47.747 E0.01844
G1 X76.213 Y47.653 E0.02274
G1 X76.586 Y47.586 E0.02269
G1 X77.008 Y47.541 E0.02541
G1 X77.443 Y47.518 E0.02608
G1 X77.87 Y47.518 E0.02556
G1 X78.39 Y47.541 E0.03116
G1 X78.414 Y47.544 E0.00145
G0 F1140 X78.856 Y47.582
G1 F2400 E-1.6
G1 F300 Z0.45
G0 F3600 X85.909 Y51.289 Z0.45
;TYPE:SKIN
G1 F300 Z0.3
G1 F1800 E1.5018
G1 F1200 X84.115 Y49.495 E0.15189
G1 X84.045 Y49.425
G1 F2400 E-1.6
G1 F300 Z0.45
G0 F3600 X82.759 Y48.817 Z0.45
G1 F300 Z0.3
G1 F1800 E1.47527
G1 F1200 X86.097 Y52.156 E0.28266
G1 X86.167 Y52.226
G0 F3600 X86.037 Y52.775
G1 F1200 X81.699 Y48.436 E0.36733
G1 X81.629 Y48.366
G0 F3600 X80.75 Y48.167
G1 F1200 X85.894 Y53.31 E0.43548
G1 X85.964 Y53.38
G0 F3600 X85.696 Y53.791
G1 F1200 X79.881 Y47.977 E0.49229
G1 X79.811 Y47.907
G0 F3600 X79.079 Y47.853
G1 F1200 X85.467 Y54.241 E0.54085
G1 X85.537 Y54.311
G0 F3600 X85.212 Y54.665
G1 F1200 X78.325 Y47.778 E0.5831
G1 X78.255 Y47.708
G0 F3600 X77.626 Y47.757
G1 F1200 X84.94 Y55.072 E0.61929
G1 X85.01 Y55.142
G0 F3600 X84.653 Y55.464
G1 F1200 X76.975 Y47.786 E0.65007
G1 X76.905 Y47.716
G0 F3600 X76.377 Y47.866
G1 F1200 X84.352 Y55.842 E0.67526
G1 X84.422 Y55.912
G0 F3600 X84.039 Y56.207
G1 F1200 X75.836 Y48.004 E0.69452
G1 X75.766 Y47.934
G0 F3600 X75.356 Y48.203
G1 F1200 X83.718 Y56.565 E0.70798
G1 X83.788 Y56.635
G0 F3600 X83.39 Y56.916
G1 F1200 X74.95 Y48.476 E0.71459
G1 X74.88 Y48.406
G0 F3600 X74.618 Y48.823
G1 F1200 X83.051 Y57.255 E0.71395
G1 X83.121 Y57.325
G0 F3600 X82.708 Y57.591
G1 F1200 X74.357 Y49.241 E0.70701
G1 X74.287 Y49.171
G0 F3600 X74.16 Y49.723
G1 F1200 X82.358 Y57.921 E0.6941
G1 X82.428 Y57.991
G0 F3600 X82.003 Y58.245
G1 F1200 X74.014 Y50.256 E0.6764
G1 X73.944 Y50.186
G0 F3600 X73.923 Y50.843
G1 F1200 X81.644 Y58.564 E0.65371
G1 X81.714 Y58.634
G0 F3600 X80.984 Y58.583
G1 F1200 X73.867 Y51.466 E0.60257
