;FLAVOR:Marlin
;TIME:2459
;Filament used: 1.95843m
;Layer height: 0.2
;Generated with Cura_SteamEngine 3.3.1
M82 ;absolute extrusion mode
;---------------------------------------


G21               ;metric values
G90               ;absolute positioning
M82               ;set extruder to absolute mode
M107              ;start with the fan off
M117 Preparing    ;write Preparing
M140 S65          ;set bed temperature and move on
M109 S230         ;wait for the extruder to reach 180C
G28               ;home all axes
M203 Z4           ;slow Z speed down for greater accuracy when probing
G29               ;auto bed leveling procedure
M203 Z7           ;pick up z speed again for printing
G28 X             ;home x to get as far from the plate as possible
M420 S1           ;(re) enable bed leveling turned off by the G28
G0 Y0 F5000       ;position Y in front
G0 Z15 F3000      ;position Z
M190 S65              ;wait for the bed to reach desired temperature
M109 S235             ;wait for the extruder to reach desired temperature
M300 S440 P100    ;play a tone
G4 P200           ;pause
M300 S440 P100    ;play a tone
G4 P200           ;pause
M300 S440 P800    ;play a tone
M0
M420 S1           ;(re) enable bed leveling to make iron-sure
M117 Print starting   ;write Print starting
G90               ;absolute positioning
G92 E0            ;reset the extruder position
M420 S1           ;(re) enable bed leveling to make iron-sure
G0 Z0             ;get Z down
M83               ;relative extrusion mode
G1 E22 F500       ;extrude __mm of feed stock
G1 E18 F400       ;extrude __mm of feed stock
G1 E10 F400       ;extrude __mm of feed stock
G4 S2             ;pause for ooze
M400              ;make sure all is finished
M420 S1           ;(re) enable bed leveling to make iron-sure
G0 F500 X3 Y0 Z0.6;get to the start of the LINE
G1 E2 F300        ;extrude __mm of feed stock
G1 F1000 X104 E10  ;print a thick LINE extruding __mm along the way
M82               ;absolute extrusion mode
G92 E0            ;reset the extruder position
M83 ;relative extrusion mode
G1 F2400 E-1.6
;LAYER_COUNT:117
;LAYER:0
M107
G0 F3600 X51.321 Y25.009 Z0.3
;TYPE:SKIRT
G1 F1800 E1.55842
G1 F1200 X51.65 Y24.455 E0.03215
G1 X52.045 Y23.945 E0.03218
G1 X52.5 Y23.489 E0.03214
G1 X53.008 Y23.092 E0.03217
G1 X53.561 Y22.761 E0.03215
G1 X54.151 Y22.501 E0.03217
G1 X54.769 Y22.316 E0.03218
G1 X55.405 Y22.209 E0.03218
G1 X55.841 Y22.182 E0.02179
G1 X58.127 Y22.135 E0.11407
G1 X58.535 Y22.143 E0.02036
G1 X65.502 Y22.547 E0.34817
G1 X70.853 Y22.52 E0.26697
G1 X76.215 Y22.188 E0.26802
G1 X80.916 Y21.663 E0.23599
G1 X81.396 Y21.632 E0.024
G1 X85.517 Y21.554 E0.20563
G1 X86.161 Y21.582 E0.03216
G1 X87.103 Y21.771 E0.04793
G1 X89.802 Y22.577 E0.14053
G1 X95.072 Y23.906 E0.27115
G1 X97.681 Y24.449 E0.13295
G1 X100.285 Y24.912 E0.13195
G1 X105.619 Y25.63 E0.26851
G1 X110.998 Y26.047 E0.26916
G1 X113.419 Y26.145 E0.12088
G1 X114.06 Y26.211 E0.03215
G1 X114.688 Y26.356 E0.03216
G1 X115.294 Y26.577 E0.03218
G1 X116.078 Y27.004 E0.04454
G1 X116.273 Y27.133 E0.01166
G1 X116.788 Y27.521 E0.03217
G1 X117.25 Y27.97 E0.03214
G1 X117.654 Y28.473 E0.03219
G1 X117.992 Y29.022 E0.03216
G1 X118.259 Y29.609 E0.03217
G1 X118.452 Y30.224 E0.03216
G1 X118.568 Y30.858 E0.03216
G1 X118.603 Y31.363 E0.02525
G1 X118.782 Y40.046 E0.43329
G1 X118.755 Y40.69 E0.03216
G1 X118.649 Y41.326 E0.03217
G1 X118.465 Y41.944 E0.03217
G1 X118.206 Y42.534 E0.03215
G1 X117.876 Y43.088 E0.03217
G1 X117.48 Y43.596 E0.03213
G1 X117.024 Y44.052 E0.03217
G1 X116.515 Y44.448 E0.03217
G1 X115.672 Y44.915 E0.04808
G1 X109.338 Y47.694 E0.34508
G1 X104.589 Y50.13 E0.26628
G1 X99.96 Y52.849 E0.26783
G1 X95.507 Y55.814 E0.2669
G1 X91.209 Y59.04 E0.26811
G1 X87.108 Y62.499 E0.26766
G1 X83.194 Y66.197 E0.26864
G1 X81.37 Y68.073 E0.13054
G1 X77.727 Y72.154 E0.27292
G1 X74.731 Y75.691 E0.23126
G1 X74.285 Y76.156 E0.03214
G1 X73.52 Y76.739 E0.04799
G1 X72.914 Y77.118 E0.03566
G1 X72.172 Y77.503 E0.04171
G1 X71.356 Y77.846 E0.04416
G1 X70.661 Y78.082 E0.03662
G1 X69.861 Y78.292 E0.04126
G1 X69.186 Y78.422 E0.03429
G1 X67.922 Y78.58 E0.06355
G1 X67.037 Y78.614 E0.04419
G1 X65.673 Y78.551 E0.06812
G1 X64.767 Y78.429 E0.04561
G1 X63.665 Y78.18 E0.05637
G1 X62.815 Y77.91 E0.04449
G1 X61.985 Y77.565 E0.04484
G1 X61.29 Y77.213 E0.03887
G1 X60.531 Y76.754 E0.04425
G1 X59.901 Y76.306 E0.03857
G1 X59.078 Y75.623 E0.05336
G1 X58.603 Y75.175 E0.03258
G1 X58.105 Y74.643 E0.03636
G1 X57.796 Y74.281 E0.02375
G1 X57.128 Y73.422 E0.05429
G1 X56.774 Y72.906 E0.03122
G1 X56.031 Y71.668 E0.07203
G1 X55.793 Y71.224 E0.02513
G1 X55.131 Y69.831 E0.07695
G1 X54.952 Y69.405 E0.02305
G1 X54.378 Y67.855 E0.08246
G1 X54.26 Y67.497 E0.01881
G1 X53.598 Y65.214 E0.11859
G1 X53.512 Y64.876 E0.0174
G1 X52.922 Y62.175 E0.13793
G1 X52.868 Y61.893 E0.01432
G1 X52.415 Y59.086 E0.14185
G1 X52.379 Y58.819 E0.01344
G1 X51.72 Y52.75 E0.30456
G1 X51.702 Y52.543 E0.01037
G1 X51.399 Y48.103 E0.22203
G1 X51.391 Y47.956 E0.00734
G1 X50.977 Y37.57 E0.51857
G1 X50.974 Y37.48 E0.00449
G1 X50.749 Y27.498 E0.49813
G1 X50.775 Y26.854 E0.03216
G1 X50.88 Y26.218 E0.03216
G1 X51.063 Y25.6 E0.03216
G1 X51.215 Y25.252 E0.01895
G0 F1140 X51.321 Y25.009
G1 F2400 E-1.6
G1 F300 Z0.45
G0 F3600 X81.994 Y32.163 Z0.45
;TYPE:WALL-INNER
G1 F300 Z0.3
G1 F1800 E1.57165
G1 F1200 X82.293 Y32.277 E0.01596
G1 X82.602 Y32.346 E0.0158
G1 X82.914 Y32.362 E0.01559
G1 X83.229 Y32.334 E0.01578
G1 X83.541 Y32.251 E0.01611
G1 X83.83 Y32.122 E0.01579
G1 X84.096 Y31.949 E0.01583
G1 X84.331 Y31.737 E0.01579
G1 X84.53 Y31.49 E0.01582
G1 X84.686 Y31.213 E0.01586
G1 X84.798 Y30.918 E0.01574
G1 X84.86 Y30.609 E0.01572
G1 X84.874 Y30.297 E0.01558
G1 X84.841 Y29.984 E0.0157
G1 X84.757 Y29.679 E0.01578
G1 X84.629 Y29.395 E0.01554
G1 X84.459 Y29.135 E0.0155
G1 X84.25 Y28.902 E0.01562
G1 X84.007 Y28.706 E0.01558
G1 X83.737 Y28.55 E0.01556
G1 X83.446 Y28.439 E0.01554
G1 X83.143 Y28.372 E0.01548
G1 X82.834 Y28.355 E0.01544
G1 X82.523 Y28.386 E0.01559
G1 X82.225 Y28.465 E0.01538
G1 X81.94 Y28.586 E0.01545
G1 X81.676 Y28.754 E0.01561
G1 X81.44 Y28.96 E0.01563
G1 X81.24 Y29.203 E0.0157
G1 X81.082 Y29.471 E0.01552
G1 X80.967 Y29.76 E0.01552
G1 X80.896 Y30.062 E0.01548
G1 X80.873 Y30.376 E0.01571
G1 X80.9 Y30.692 E0.01582
G1 X80.978 Y31 E0.01585
G1 X81.103 Y31.289 E0.01571
G1 X81.269 Y31.554 E0.0156
G1 X81.475 Y31.792 E0.0157
G1 X81.717 Y31.996 E0.01579
G1 X81.778 Y32.033 E0.00356
G0 F1140 X81.994 Y32.163
G1 F2400 E-1.6
G1 F300 Z0.45
G0 F3600 X85.12 Y32.496 Z0.45
G1 F300 Z0.3
G1 F1800 E1.57105
G1 F1200 X112.822 Y31.926 E1.38235
G1 X112.981 Y39.58 E0.38194
G1 X86.825 Y40.119 E1.30521
G1 X85.105 Y40.212 E0.08594
G1 X83.465 Y40.345 E0.08209
G1 X81.911 Y40.518 E0.07801
G1 X80.257 Y40.768 E0.08346
G1 X79.251 Y40.957 E0.05107
G1 X78.612 Y41.096 E0.03263
G1 X77.971 Y41.252 E0.03291
G1 X77.362 Y41.413 E0.03143
G1 X76.151 Y41.788 E0.06325
G1 X75.457 Y42.038 E0.0368
G1 X74.912 Y42.253 E0.02923
G1 X73.778 Y42.773 E0.06224
G1 X73.194 Y43.085 E0.03303
G1 X72.626 Y43.419 E0.03287
G1 X72.114 Y43.755 E0.03055
G1 X71.578 Y44.146 E0.0331
G1 X71.062 Y44.569 E0.03329
G1 X70.569 Y45.023 E0.03344
G1 X70.14 Y45.471 E0.03095
G1 X69.707 Y45.978 E0.03326
G1 X69.266 Y46.587 E0.03751
G1 X68.874 Y47.224 E0.03732
G1 X68.551 Y47.851 E0.03519
G1 X68.255 Y48.553 E0.03801
G1 X68.017 Y49.274 E0.03788
G1 X67.835 Y50.006 E0.03763
G1 X67.71 Y50.747 E0.03749
G1 X67.633 Y51.466 E0.03608
G1 X67.605 Y52.107 E0.03201
G1 X67.614 Y52.801 E0.03463
G1 X67.639 Y53.223 E0.02109
G1 X67.679 Y53.668 E0.02229
G1 X67.739 Y54.143 E0.02389
G1 X67.822 Y54.644 E0.02534
G1 X67.925 Y55.146 E0.02557
G1 X68.065 Y55.722 E0.02957
G1 X68.406 Y56.843 E0.05846
G1 X68.844 Y57.988 E0.06116
G1 X69.288 Y58.983 E0.05436
G1 X69.689 Y59.808 E0.04576
G1 X70.536 Y61.484 E0.09369
G1 X71.166 Y62.825 E0.07392
G1 X71.506 Y63.69 E0.04637
G1 X71.784 Y64.597 E0.04733
G1 X71.897 Y65.081 E0.0248
G1 X71.991 Y65.605 E0.02656
G1 X72.057 Y66.12 E0.0259
G1 X72.092 Y66.635 E0.02575
G1 X72.103 Y67.136 E0.025
G1 X72.087 Y67.647 E0.02551
G1 X72.056 Y68.077 E0.02151
G1 X71.994 Y68.551 E0.02385
G1 X71.921 Y68.972 E0.02132
G1 X71.823 Y69.401 E0.02195
G1 X71.724 Y69.758 E0.01848
G1 X71.594 Y70.141 E0.02018
G1 X71.402 Y70.591 E0.02441
G1 X71.169 Y71.017 E0.02422
G1 X70.858 Y71.435 E0.02599
G1 X70.518 Y71.773 E0.02392
G1 X70.128 Y72.053 E0.02395
G1 X69.649 Y72.304 E0.02698
G1 X69.165 Y72.487 E0.02582
G1 X68.704 Y72.623 E0.02398
G1 X68.182 Y72.729 E0.02657
G1 X67.815 Y72.781 E0.01849
G1 X67.463 Y72.817 E0.01765
G1 X67.03 Y72.837 E0.02163
G1 X66.628 Y72.833 E0.02006
G1 X66.223 Y72.805 E0.02025
G1 X65.811 Y72.749 E0.02074
G1 X65.39 Y72.662 E0.02145
G1 X65.01 Y72.552 E0.01974
G1 X64.622 Y72.409 E0.02063
G1 X64.264 Y72.245 E0.01965
G1 X63.891 Y72.037 E0.02131
G1 X63.553 Y71.815 E0.02017
G1 X63.205 Y71.549 E0.02185
G1 X62.87 Y71.252 E0.02234
G1 X62.597 Y70.983 E0.01912
G1 X62.275 Y70.621 E0.02417
G1 X61.848 Y70.073 E0.03466
G1 X61.454 Y69.483 E0.0354
G1 X61.067 Y68.82 E0.0383
G1 X60.738 Y68.174 E0.03617
G1 X60.439 Y67.522 E0.03579
G1 X60.162 Y66.837 E0.03686
G1 X59.904 Y66.129 E0.03759
G1 X59.661 Y65.393 E0.03867
G1 X59.33 Y64.252 E0.05927
G1 X59.016 Y63.009 E0.06396
G1 X58.733 Y61.706 E0.06652
G1 X58.473 Y60.313 E0.0707
G1 X58.217 Y58.712 E0.08089
G1 X58.003 Y57.166 E0.07787
G1 X57.81 Y55.536 E0.08189
G1 X57.637 Y53.849 E0.08461
G1 X57.506 Y52.391 E0.07303
G1 X57.392 Y50.899 E0.07465
G1 X57.202 Y48.016 E0.14415
G1 X57.058 Y45.283 E0.13654
G1 X56.944 Y42.641 E0.13193
G1 X56.849 Y39.931 E0.13529
G1 X56.778 Y37.551 E0.11879
G1 X56.552 Y27.959 E0.47868
G1 X58.047 Y27.928 E0.0746
G1 X58.354 Y28.358 E0.02636
G1 X58.751 Y28.858 E0.03185
G1 X58.532 Y28.879 E0.01098
G1 X58.228 Y28.957 E0.01566
G1 X57.943 Y29.082 E0.01553
G1 X57.682 Y29.247 E0.01541
G1 X57.447 Y29.453 E0.01559
G1 X57.247 Y29.693 E0.01559
G1 X57.086 Y29.961 E0.0156
G1 X56.97 Y30.253 E0.01568
G1 X56.901 Y30.557 E0.01555
G1 X56.878 Y30.868 E0.01556
G1 X56.905 Y31.184 E0.01582
G1 X56.981 Y31.49 E0.01573
G1 X57.105 Y31.782 E0.01583
G1 X57.272 Y32.048 E0.01567
G1 X57.478 Y32.287 E0.01574
G1 X57.725 Y32.493 E0.01605
G1 X58 Y32.654 E0.0159
G1 X58.293 Y32.771 E0.01574
G1 X58.603 Y32.84 E0.01584
G1 X58.92 Y32.859 E0.01584
G1 X59.241 Y32.825 E0.0161
G1 X59.545 Y32.743 E0.01571
G1 X59.832 Y32.616 E0.01566
G1 X60.1 Y32.443 E0.01591
G1 X60.337 Y32.229 E0.01593
G1 X60.537 Y31.98 E0.01593
G1 X60.691 Y31.703 E0.01581
G1 X60.8 Y31.411 E0.01555
G1 X60.864 Y31.105 E0.0156
G1 X60.874 Y30.905 E0.00999
G1 X61.232 Y31.185 E0.02267
G1 X61.43 Y31.325 E0.0121
G1 X62.279 Y31.871 E0.05036
G1 X63.162 Y32.353 E0.05019
G1 X63.385 Y32.462 E0.01238
G1 X64.302 Y32.863 E0.04993
G1 X64.53 Y32.951 E0.01219
G1 X65.254 Y33.203 E0.03825
G1 X65.489 Y33.278 E0.01231
G1 X66.456 Y33.535 E0.04992
G1 X66.702 Y33.588 E0.01255
G1 X67.578 Y33.746 E0.04441
G1 X67.869 Y33.786 E0.01465
G1 X68.783 Y33.875 E0.04582
G1 X68.959 Y33.886 E0.0088
G1 X69.893 Y33.903 E0.04661
G1 X70.257 Y33.892 E0.01817
G1 X71.139 Y33.833 E0.0441
G1 X72.028 Y33.713 E0.04475
G1 X72.91 Y33.532 E0.04492
G1 X73.305 Y33.432 E0.02033
G1 X74.173 Y33.174 E0.04518
G1 X74.954 Y32.883 E0.04158
G1 X75.711 Y32.55 E0.04126
G1 X75.902 Y32.458 E0.01058
G1 X76.804 Y31.974 E0.05107
G1 X77.514 Y31.532 E0.04173
G1 X78.346 Y30.934 E0.05112
G1 X78.838 Y30.538 E0.03151
G1 X79.131 Y30.286 E0.01928
G1 X79.589 Y29.866 E0.031
G1 X80.263 Y29.177 E0.04809
G1 X80.594 Y28.798 E0.0251
G1 X81.124 Y28.149 E0.0418
G1 X81.649 Y27.424 E0.04466
G1 X85.015 Y27.352 E0.16797
G1 X85.115 Y32.232 E0.24352
G0 F1140 X85.12 Y32.496
G1 F2400 E-1.6
G1 F300 Z0.45
G0 F3600 X67.948 Y61.817 Z0.45
G1 F300 Z0.3
G1 F1800 E1.57165
G1 F1200 X67.975 Y61.359 E0.02289
G1 X67.915 Y61.001 E0.01811
G1 X67.8 Y60.701 E0.01603
G1 X67.475 Y60.036 E0.03693
G1 X67.159 Y59.358 E0.03732
G1 X66.851 Y58.643 E0.03884
G1 X66.563 Y57.908 E0.03938
G1 X66.294 Y57.129 E0.04112
G1 X66.043 Y56.281 E0.04412
G1 X65.849 Y55.48 E0.04112
G1 X65.694 Y54.644 E0.04242
G1 X65.58 Y53.764 E0.04427
G1 X65.518 Y52.868 E0.04481
G1 X65.51 Y51.952 E0.0457
G1 X65.562 Y51.038 E0.04567
G1 X65.682 Y50.1 E0.04718
G1 X65.873 Y49.155 E0.0481
G1 X66.009 Y48.643 E0.02643
G1 X66.158 Y48.167 E0.02488
G1 X66.552 Y47.144 E0.05469
G1 X66.906 Y46.4 E0.04111
G1 X67.309 Y45.673 E0.04147
G1 X67.767 Y44.96 E0.04228
G1 X68.242 Y44.314 E0.04
G1 X68.794 Y43.659 E0.04273
G1 X69.287 Y43.14 E0.03571
G1 X69.854 Y42.6 E0.03906
G1 X70.009 Y42.441 E0.01108
G1 X70.157 Y42.237 E0.01257
G1 X70.273 Y42.016 E0.01245
G1 X70.359 Y41.781 E0.01248
G1 X70.411 Y41.536 E0.0125
G1 X70.429 Y41.288 E0.01241
G1 X70.413 Y41.036 E0.0126
G1 X70.358 Y40.779 E0.01311
G1 X70.222 Y40.441 E0.01818
G1 X70.072 Y40.206 E0.01391
G1 X69.897 Y40.005 E0.0133
G1 X69.693 Y39.831 E0.01338
G1 X69.451 Y39.68 E0.01423
G1 X69.064 Y39.536 E0.0206
G1 X68.855 Y39.497 E0.01061
G1 X68.613 Y39.485 E0.01209
G1 X60.736 Y39.646 E0.39307
G1 X60.453 Y39.677 E0.0142
G1 X60.153 Y39.763 E0.01557
G1 X59.873 Y39.9 E0.01555
G1 X59.621 Y40.082 E0.01551
G1 X59.414 Y40.293 E0.01475
G1 X59.229 Y40.56 E0.01621
G1 X59.094 Y40.86 E0.01641
G1 X59.016 Y41.181 E0.01648
G1 X59 Y41.483 E0.01509
G1 X59.077 Y43.509 E0.10115
G1 X59.167 Y45.499 E0.09938
G1 X59.27 Y47.439 E0.09692
G1 X59.385 Y49.328 E0.09442
G1 X59.516 Y51.165 E0.09188
G1 X59.642 Y52.684 E0.07604
G1 X59.78 Y54.157 E0.07381
G1 X59.933 Y55.583 E0.07155
G1 X60.101 Y56.957 E0.06906
G1 X60.283 Y58.276 E0.06643
G1 X60.481 Y59.539 E0.06378
G1 X60.694 Y60.742 E0.06095
G1 X60.928 Y61.899 E0.05889
G1 X60.994 Y62.132 E0.01208
G1 X61.104 Y62.375 E0.01331
G1 X61.249 Y62.596 E0.01319
G1 X61.429 Y62.8 E0.01357
G1 X61.696 Y63.013 E0.01704
G1 X61.931 Y63.142 E0.01337
G1 X62.178 Y63.236 E0.01319
G1 X62.438 Y63.29 E0.01325
G1 X62.676 Y63.306 E0.0119
G1 X66.324 Y63.272 E0.18201
G1 X66.539 Y63.24 E0.01084
G1 X66.746 Y63.185 E0.01069
G1 X66.945 Y63.105 E0.0107
G1 X67.136 Y63 E0.01087
G1 X67.335 Y62.854 E0.01231
G1 X67.516 Y62.679 E0.01256
G1 X67.671 Y62.481 E0.01255
G1 X67.806 Y62.245 E0.01356
G1 X67.865 Y62.069 E0.00926
G0 F1140 X67.948 Y61.817
G0 F3600 X67.552 Y61.741
;TYPE:WALL-OUTER
G1 F1800 E0.01322
G1 F1200 X67.573 Y61.381 E0.01799
G1 X67.527 Y61.107 E0.01386
G1 X67.433 Y60.861 E0.01314
G1 X67.112 Y60.205 E0.03644
G1 X66.796 Y59.527 E0.03732
G1 X66.484 Y58.801 E0.03942
G1 X66.185 Y58.039 E0.04084
G1 X65.911 Y57.246 E0.04186
G1 X65.659 Y56.394 E0.04433
G1 X65.46 Y55.574 E0.0421
G1 X65.297 Y54.698 E0.04445
G1 X65.183 Y53.815 E0.04442
G1 X65.118 Y52.883 E0.04661
G1 X65.11 Y51.955 E0.0463
G1 X65.165 Y50.987 E0.04837
G1 X65.286 Y50.037 E0.04778
G1 X65.486 Y49.052 E0.05014
G1 X65.622 Y48.54 E0.02643
G1 X65.785 Y48.023 E0.02704
G1 X66.185 Y46.985 E0.0555
G1 X66.552 Y46.213 E0.04265
G1 X66.966 Y45.466 E0.04261
G1 X67.43 Y44.744 E0.04282
G1 X67.932 Y44.061 E0.04229
G1 X68.488 Y43.401 E0.04305
G1 X69.011 Y42.85 E0.0379
G1 X69.573 Y42.316 E0.03868
G1 X69.702 Y42.183 E0.00924
G1 X69.816 Y42.025 E0.00972
G1 X69.907 Y41.853 E0.00971
G1 X69.974 Y41.67 E0.00972
G1 X70.014 Y41.48 E0.00969
G1 X70.028 Y41.286 E0.0097
G1 X70.016 Y41.091 E0.00975
G1 X69.974 Y40.897 E0.0099
G1 X69.865 Y40.625 E0.01462
G1 X69.751 Y40.447 E0.01055
G1 X69.614 Y40.29 E0.0104
G1 X69.456 Y40.154 E0.0104
G1 X69.274 Y40.041 E0.01069
G1 X68.957 Y39.923 E0.01688
G1 X68.808 Y39.895 E0.00756
G1 X68.607 Y39.885 E0.01004
G1 X60.762 Y40.046 E0.39147
G1 X60.53 Y40.071 E0.01164
G1 X60.297 Y40.138 E0.0121
G1 X60.079 Y40.244 E0.01209
G1 X59.883 Y40.386 E0.01208
G1 X59.723 Y40.549 E0.0114
G1 X59.579 Y40.757 E0.01262
G1 X59.474 Y40.991 E0.0128
G1 X59.413 Y41.24 E0.01279
G1 X59.4 Y41.486 E0.01229
G1 X59.477 Y43.492 E0.10015
G1 X59.567 Y45.479 E0.09923
G1 X59.669 Y47.416 E0.09677
G1 X59.784 Y49.302 E0.09427
G1 X59.915 Y51.134 E0.09163
G1 X60.04 Y52.649 E0.07584
G1 X60.178 Y54.117 E0.07356
G1 X60.33 Y55.537 E0.07125
G1 X60.498 Y56.905 E0.06876
G1 X60.679 Y58.218 E0.06613
G1 X60.876 Y59.473 E0.06338
G1 X61.087 Y60.668 E0.06054
G1 X61.317 Y61.804 E0.05783
G1 X61.371 Y61.994 E0.00985
G1 X61.456 Y62.182 E0.01029
G1 X61.568 Y62.353 E0.0102
G1 X61.706 Y62.509 E0.01039
G1 X61.919 Y62.679 E0.0136
G1 X62.099 Y62.778 E0.01025
