;FLAVOR:Marlin
;TIME:3272
;Filament used: 4.14166m
;Layer height: 0.3
;Generated with Cura_SteamEngine 3.3.1
M82 ;absolute extrusion mode
;;---------------------------------------
; ; ; Jellybox Start Script Begin ; ; ;
;_______________________________________
; M92 E140 ;optionally adjust steps per mm for your filament

;              Print Settings Summary
; (leave these alone: this is only a list of the slicing settings)
; (overwriting these values will NOT change your printer's behavior)
;             sliced for :  IMADE3D JellyBOX 2
;        nozzle diameter :  0.4
;      filament diameter :  1.75
;           layer height :  0.3
;       1st layer height :  0.3
;             line width :  0.4  
;  outer wall wipe dist. :  0.5
;      infill line width :  0.6
;         wall thickness :  0.8
;          top thickness :  0.8
;       bottom thickness :  0.8
;         infill density :  70
;         infill pattern :  cubic
;      print temperature :  230.0
;  1st layer print temp. :  235.0
; heated bed temperature :  65.0
;    1st layer bed temp. :  70.0
;      regular fan speed :  45
;          max fan speed :  80.0
;     retraction amount  :  1.6
;   retr. retract speed  :  40.0
;     retr. prime speed  :  30.0
;   build plate adhesion :  skirt
;                support ?  False
;             spiralized ?  False

G21               ;metric values
G90               ;absolute positioning
M82               ;set extruder to absolute mode
M107              ;start with the fan off
M117 Preparing    ;write Preparing
M190 S45          ;wait for the bed to reach bed leveling temperature
M109 S180         ;wait for the extruder to reach 180C
G28               ;home all axes
M203 Z4           ;slow Z speed down for greater accuracy when probing
G29               ;auto bed leveling procedure
;M500              ;optionally save the mesh
M203 Z7           ;pick up z speed again for printing
G28 X             ;home x to get as far from the plate as possible
M420 S1           ;(re) enable bed leveling turned off by the G28
G0 Y0 F5000       ;position Y in front
G0 Z15 F3000      ;position Z
M190 S70.0              ;wait for the bed to reach desired temperature
M109 S235.0             ;wait for the extruder to reach desired temperature
M300 S440 P300    ;play a tone
G4 P200           ;pause
M0 Click to start print
M420 S1           ;(re) enable bed leveling to make iron-sure
M117 Print starting   ;write Print starting
;================ ;PRINT:LINE start
G90               ;absolute positioning
G92 E0            ;reset the extruder position
M420 S1           ;(re) enable bed leveling to make iron-sure
G0 Z0             ;get Z down
M83               ;relative extrusion mode
G1 E22 F500       ;extrude __mm of feed stock
G1 E18 F400       ;extrude __mm of feed stock
G1 E10 F400       ;extrude __mm of feed stock
G4 S2             ;pause for ooze
M400              ;make sure all is finished
M420 S1           ;(re) enable bed leveling to make iron-sure
G0 F500 X3 Y0 Z0.6;get to the start of the LINE
G1 E2 F300        ;extrude __mm of feed stock
G1 F1000 X104 E10  ;print a thick LINE extruding __mm along the way
M82               ;absolute extrusion mode
G92 E0            ;reset the extruder position
;---------------------------------------------
; ; ; Jellybox Printer Start Script End ; ; ;
;_____________________________________________

G92 E0
G1 F2400 E-1.6
;LAYER_COUNT:280
;LAYER:0
M107
G0 F3600 X66.739 Y68.449 Z0.3
;TYPE:SKIRT
G1 F1800 E-0.06236
G1 F1200 X67.377 Y67.892 E-0.02222
G1 X68.138 Y67.331 E0.02259
G1 X68.939 Y66.846 E0.06697
G1 X69.73 Y66.459 E0.1087
G1 X70.625 Y66.119 E0.15408
G1 X72.816 Y65.511 E0.26185
G1 X73.554 Y65.363 E0.29752
G1 X75.817 Y65.077 E0.40563
G1 X76.188 Y65.044 E0.42329
G1 X79.592 Y64.86 E0.58486
G1 X79.865 Y64.852 E0.5978
G1 X99.663 Y64.821 E1.53614
G1 X99.921 Y64.827 E1.54837
G1 X104.563 Y65.05 E1.76864
G1 X105.096 Y65.103 E1.79403
G1 X107.8 Y65.515 E1.92366
G1 X108.484 Y65.667 E1.95687
G1 X109.351 Y65.922 E1.9997
G1 X110.045 Y66.181 E2.03481
G1 X111.31 Y66.759 E2.10073
G1 X111.879 Y67.063 E2.13131
G1 X112.346 Y67.388 E2.15827
G1 X112.877 Y67.802 E2.19019
G1 X113.36 Y68.229 E2.22074
G1 X113.648 Y68.542 E2.2409
G1 X114.024 Y68.986 E2.26848
G1 X114.41 Y69.503 E2.29906
G1 X114.728 Y70.064 E2.32962
G1 X114.861 Y70.359 E2.34496
G1 X115.154 Y71.067 E2.38127
G1 X115.363 Y71.676 E2.41179
G1 X115.495 Y72.307 E2.44234
G1 X115.548 Y72.95 E2.47292
G1 X115.521 Y73.594 E2.50347
G1 X115.415 Y74.23 E2.53403
G1 X115.22 Y74.875 E2.56597
G1 X114.499 Y76.805 E2.66362
G1 X114.237 Y77.394 E2.69417
G1 X113.903 Y77.945 E2.72471
G1 X113.504 Y78.452 E2.75529
G1 X113.045 Y78.904 E2.78582
G1 X112.534 Y79.297 E2.81637
G1 X111.765 Y79.726 E2.85811
G1 X110.731 Y80.192 E2.91186
G1 X110.128 Y80.42 E2.94241
G1 X109.815 Y80.506 E2.9578
G1 X108.466 Y80.832 E3.02358
G1 X107.767 Y80.951 E3.05718
G1 X104.276 Y81.303 E3.22348
G1 X103.891 Y81.327 E3.24176
G1 X98.636 Y81.465 E3.49091
G1 X98.494 Y81.467 E3.49764
G1 X78.434 Y81.446 E4.4484
G1 X78.246 Y81.442 E4.45731
G1 X75.372 Y81.335 E4.59362
G1 X75.048 Y81.313 E4.60902
G1 X72.424 Y81.051 E4.734
G1 X71.891 Y80.97 E4.75955
G1 X70.625 Y80.709 E4.82082
G1 X69.773 Y80.456 E4.86294
G1 X68.727 Y80.045 E4.91621
G1 X68.143 Y79.772 E4.94676
G1 X67.619 Y79.445 E4.97604
G1 X67.209 Y79.154 E4.99986
G1 X66.708 Y78.749 E5.0304
G1 X66.26 Y78.286 E5.06093
G1 X65.859 Y77.747 E5.09277
G1 X65.421 Y77.073 E5.13087
G1 X65.104 Y76.512 E5.16141
G1 X64.858 Y75.916 E5.19197
G1 X64.689 Y75.294 E5.22252
G1 X64.614 Y74.828 E5.24489
G1 X64.533 Y74.116 E5.27885
G1 X64.5 Y73.472 E5.30942
G1 X64.547 Y72.829 E5.33997
G1 X64.696 Y72.113 E5.37464
G1 X64.896 Y71.406 E5.40946
G1 X65.11 Y70.797 E5.44005
G1 X65.397 Y70.22 E5.4706
G1 X65.755 Y69.681 E5.50126
G1 X66.318 Y68.938 E5.54545
G1 X66.567 Y68.649 E5.56353
G0 F1080 X66.739 Y68.449
G1 F2400 E3.96353
G1 F300 Z0.45
G0 F3600 X71.938 Y72.292 Z0.45
;TYPE:WALL-INNER
G1 F300 Z0.3
G1 F1800 E5.51373
G1 F1200 X71.938 Y72.454 E5.5214
G1 X71.938 Y72.502 E5.52368
G1 X71.938 Y74.491 E5.61795
G1 X71.938 Y74.572 E5.62179
G1 X71.938 Y74.66 E5.62596
G1 X71.651 Y74.572 E5.63074
G1 X71.575 Y74.544 E5.63413
G1 X71.413 Y74.484 E5.64232
G1 X71.121 Y74.344 E5.65767
G1 X70.982 Y74.257 E5.66544
G1 X70.884 Y74.18 E5.67135
G1 X70.824 Y74.116 E5.67551
G1 X70.772 Y74.043 E5.67975
G1 X70.734 Y73.971 E5.68361
G1 X70.696 Y73.853 E5.68949
G1 X70.682 Y73.727 E5.6955
G1 X70.687 Y73.588 E5.70209
G1 X70.706 Y73.486 E5.70701
G1 X70.791 Y73.259 E5.71849
G1 X70.873 Y73.118 E5.72623
G1 X70.984 Y72.968 E5.73507
G1 X71.133 Y72.808 E5.74543
G1 X71.326 Y72.641 E5.75753
G1 X71.549 Y72.481 E5.77054
G1 X71.588 Y72.454 E5.77234
G1 X71.862 Y72.292 E5.77754
G1 X71.938 Y72.256 E5.78035
G1 X71.938 Y72.292
G1 F2400 E4.18035
G1 F300 Z0.45
G0 F3600 X73.673 Y71.647 Z0.45
G1 F300 Z0.3
G1 F1800 E5.71798
G1 F1200 X74.219 Y71.531 E5.74444
G1 X74.928 Y71.413 E5.7785
G1 X75.5 Y71.338 E5.80585
G1 X76.152 Y71.264 E5.83695
G1 X77.065 Y71.184 E5.88039
G1 X78.538 Y71.099 E5.95032
G1 X80.144 Y71.044 E6.02648
G1 X80.771 Y71.029 E6.0562
G1 X82.503 Y71.008 E6.1383
G1 X84.323 Y71.003 E6.22456
G1 X88.206 Y71.016 E6.4086
G1 X91.784 Y71.016 E6.57818
G1 X95.739 Y70.998 E6.76563
G1 X98.341 Y71.004 E6.88895
G1 X99.995 Y71.026 E6.96735
G1 X101.041 Y71.052 E7.01695
G1 X102.053 Y71.091 E7.06495
G1 X102.994 Y71.139 E7.1096
G1 X103.903 Y71.205 E7.1528
G1 X104.72 Y71.284 E7.1917
G1 X105.491 Y71.381 E7.22853
G1 X105.871 Y71.437 E7.24674
G1 X106.494 Y71.553 E7.27677
G1 X106.878 Y71.647 E7.29551
G1 X107.103 Y71.702 E7.30649
G1 X107.725 Y71.9 E7.33742
G1 X108.072 Y72.046 E7.35527
G1 X107.725 Y72.046
G1 X107.104 Y72.046 E7.37397
G1 X106.872 Y72.046 E7.3842
G1 X73.675 Y72.046 E8.95759
G1 X73.628 Y72.046 E8.95982
G1 X72.984 Y72.046 E8.99034
G1 X72.662 Y72.046 E9.0056
G1 X72.393 Y72.047 E9.01835
G1 X72.661 Y71.944
G1 X72.984 Y71.833 E9.01842
G1 X73.628 Y71.656 E9.04248
G1 X73.673 Y71.647 E9.04463
G1 F2400 E7.44463
G1 F300 Z0.45
G0 F3600 X72.338 Y72.447 Z0.45
G1 F300 Z0.3
G1 F1800 E8.98227
G1 F1200 X72.338 Y74.917 E9.09933
G1 X72.338 Y74.918 E9.09938
G1 X72.338 Y75.17 E9.11133
G1 X72.092 Y75.112 E9.11861
G1 X71.881 Y75.061 E9.1289
G1 X71.534 Y74.955 E9.14609
G1 X71.253 Y74.851 E9.1603
G1 X70.93 Y74.696 E9.17728
G1 X70.753 Y74.586 E9.18715
G1 X70.617 Y74.478 E9.19538
G1 X70.515 Y74.372 E9.20236
G1 X70.43 Y74.252 E9.20933
G1 X70.365 Y74.126 E9.21605
G1 X70.323 Y74.014 E9.22172
G1 X70.302 Y73.921 E9.22623
G1 X70.281 Y73.739 E9.23492
G1 X70.288 Y73.546 E9.24407
G1 X70.32 Y73.376 E9.25227
G1 X70.429 Y73.085 E9.267
G1 X70.534 Y72.905 E9.27687
G1 X70.675 Y72.713 E9.28816
G1 X70.856 Y72.519 E9.30074
G1 X71.079 Y72.326 E9.31472
G1 X71.37 Y72.118 E9.33167
G1 X71.671 Y71.94 E9.34824
G1 X72.2 Y71.693 E9.37592
G1 X72.531 Y71.566 E9.39272
G1 X72.874 Y71.448 E9.40991
G1 X73.524 Y71.269 E9.44186
G1 X74.153 Y71.136 E9.47234
G1 X74.867 Y71.017 E9.50664
G1 X75.448 Y70.941 E9.53441
G1 X76.112 Y70.866 E9.56608
G1 X77.04 Y70.785 E9.61024
G1 X78.524 Y70.699 E9.68069
G1 X80.13 Y70.644 E9.75685
G1 X80.761 Y70.629 E9.78677
G1 X82.498 Y70.608 E9.8691
G1 X84.323 Y70.603 E9.9556
G1 X88.207 Y70.616 E10.13968
G1 X91.783 Y70.616 E10.30917
G1 X95.738 Y70.598 E10.49662
G1 X98.346 Y70.604 E10.62023
G1 X100.005 Y70.626 E10.69886
G1 X101.056 Y70.652 E10.74869
G1 X102.068 Y70.691 E10.79669
G1 X103.023 Y70.74 E10.84202
G1 X103.932 Y70.806 E10.88521
G1 X104.77 Y70.887 E10.92511
G1 X105.549 Y70.985 E10.96233
G1 X105.929 Y71.041 E10.98053
G1 X106.589 Y71.164 E11.01235
G1 X107.206 Y71.315 E11.04246
G1 X107.858 Y71.523 E11.07489
G1 X108.114 Y71.624 E11.08794
G1 X108.453 Y71.782 E11.10566
G1 X108.838 Y71.992 E11.12645
G1 X108.931 Y72.058 E11.13185
G1 X109.085 Y72.168 E11.14082
G1 X109.297 Y72.353 E11.15416
G1 X109.387 Y72.446 E11.16029
G1 X109.297 Y72.446
G1 X109.086 Y72.446
G1 X108.896 Y72.446 E11.16799
G1 X72.338 Y72.447 E12.90069
G1 F2400 E11.30069
G1 F300 Z0.45
G0 F3600 X91.376 Y75.672 Z0.45
G1 F300 Z0.3
G1 F1800 E12.83832
G1 F1200 X86.157 Y75.682 E13.08568
G1 X91.376 Y75.657 E13.09032
G1 X95.732 Y75.636 E13.29678
G1 X98.609 Y75.622 E13.43314
G1 X99.914 Y75.615 E13.49499
G1 X101.971 Y75.604 E13.59248
G1 X99.914 Y75.651 E13.59687
G1 X98.609 Y75.667 E13.60318
G1 X95.732 Y75.678 E13.61805
G1 X91.376 Y75.672 E13.63276
G1 F2400 E12.03276
G1 F300 Z0.45
G0 F3600 X72.738 Y75.347 Z0.45
;TYPE:WALL-OUTER
G1 F300 Z0.3
G1 F1800 E13.5704
G1 F1200 X73.132 Y75.346 E13.58907
G1 X73.135 Y75.346 E13.58921
G1 X107.213 Y75.181 E15.20438
G1 X107.479 Y75.18 E15.21699
G1 X107.776 Y75.178 E15.23107
G1 X108.227 Y75.175 E15.25244
G1 X108.723 Y75.172 E15.27595
G1 X108.825 Y75.171 E15.28078
G1 X108.723 Y75.213
G1 X108.228 Y75.364 E15.28912
G1 X107.777 Y75.474 E15.30323
G1 X107.48 Y75.537 E15.31533
G1 X107.218 Y75.58 E15.32724
G1 X106.65 Y75.676 E15.35454
G1 X105.696 Y75.789 E15.40007
G1 X104.752 Y75.868 E15.44497
G1 X104.114 Y75.91 E15.47527
G1 X103.048 Y75.965 E15.52586
G1 X101.917 Y76.007 E15.57951
G1 X99.923 Y76.051 E15.67404
G1 X98.614 Y76.067 E15.73608
G1 X95.733 Y76.078 E15.87263
G1 X91.376 Y76.072 E16.07913
G1 X84.302 Y76.085 E16.41441
G1 X80.304 Y76.076 E16.6039
G1 X77.935 Y76.038 E16.71619
G1 X76.28 Y75.98 E16.79468
G1 X74.936 Y75.903 E16.85849
G1 X74.29 Y75.849 E16.88921
G1 X73.684 Y75.786 E16.91809
G1 X73.136 Y75.716 E16.94427
G1 X73.134 Y75.716 E16.94436
G1 X72.691 Y75.646 E16.96244
G1 X72.634 Y75.636 E16.96518
G1 X72.632 Y75.636 E16.96527
G1 X72.175 Y75.545 E16.98736
G1 X71.764 Y75.444 E17.00742
G1 X71.417 Y75.338 E17.02461
G1 X71.093 Y75.218 E17.04099
G1 X70.739 Y75.048 E17.0596
G1 X70.523 Y74.914 E17.07165
G1 X70.35 Y74.777 E17.08211
G1 X70.202 Y74.623 E17.09223
G1 X70.089 Y74.463 E17.10152
G1 X69.997 Y74.285 E17.11101
G1 X69.939 Y74.13 E17.11886
G1 X69.908 Y73.995 E17.12542
G1 X69.88 Y73.75 E17.13711
G1 X69.889 Y73.502 E17.14887
G1 X69.934 Y73.266 E17.16026
G1 X70.066 Y72.914 E17.17808
G1 X70.197 Y72.688 E17.19046
G1 X70.366 Y72.458 E17.20398
G1 X70.579 Y72.23 E17.21877
G1 X70.834 Y72.009 E17.23477
G1 X71.145 Y71.787 E17.25288
G1 X71.489 Y71.584 E17.27181
G1 X72.038 Y71.327 E17.30054
G1 X72.4 Y71.188 E17.31892
G1 X72.759 Y71.064 E17.33692
G1 X73.42 Y70.882 E17.36941
G1 X74.087 Y70.741 E17.40172
G1 X74.806 Y70.621 E17.43627
G1 X75.404 Y70.543 E17.46485
G1 X76.068 Y70.469 E17.49652
G1 X77.015 Y70.386 E17.54158
G1 X78.51 Y70.299 E17.61255
G1 X80.116 Y70.244 E17.68871
G1 X80.752 Y70.229 E17.71887
G1 X82.493 Y70.208 E17.80139
G1 X84.323 Y70.203 E17.88812
G1 X88.208 Y70.216 E18.07226
G1 X91.782 Y70.216 E18.24165
G1 X95.737 Y70.198 E18.4291
G1 X98.351 Y70.204 E18.55299
G1 X100.015 Y70.226 E18.63187
G1 X101.071 Y70.252 E18.68193
G1 X102.083 Y70.291 E18.72993
G1 X103.052 Y70.341 E18.77592
G1 X103.961 Y70.407 E18.81912
G1 X104.82 Y70.49 E18.86002
G1 X105.607 Y70.589 E18.89761
G1 X105.987 Y70.645 E18.91582
G1 X106.684 Y70.775 E18.94942
G1 X107.309 Y70.928 E18.97992
G1 X107.991 Y71.146 E19.01385
G1 X108.278 Y71.259 E19.02847
G1 X108.622 Y71.419 E19.04645
G1 X108.909 Y71.571 E19.06185
G1 X109.054 Y71.655 E19.06979
G1 X109.33 Y71.851 E19.08583
G1 X109.57 Y72.061 E19.10095
G1 X109.679 Y72.172 E19.10832
G1 X109.781 Y72.291 E19.11575
G1 X109.863 Y72.4 E19.12221
G1 X109.921 Y72.497 E19.12757
G1 X110.013 Y72.652 E19.13611
G1 X110.092 Y72.846 E19.14604
G1 X110.014 Y72.846
G1 X109.833 Y72.846 E19.15271
G1 X72.738 Y72.847 E20.91085
G1 X72.738 Y75.344 E21.0292
G1 X72.738 Y75.347
G0 F3600 X73.132 Y75.346
G0 X73.135 Y75.346
G0 X73.238 Y75.346
G1 F2400 E19.4292
G1 F300 Z0.45
G0 F3600 X71.508 Y74.053 Z0.45
;TYPE:SKIN
G1 F300 Z0.3
G1 F1800 E20.96684
G1 F1200 X71.336 Y73.971 E20.97767
G1 X71.174 Y73.861 E20.98881
G1 X71.137 Y73.814 E20.99221
G1 X71.119 Y73.766 E20.99513
G1 X71.113 Y73.709 E20.99839
G1 X71.124 Y73.598 E21.00473
G1 X71.181 Y73.444 E21.01407
G1 X71.232 Y73.356 E21.01986
G1 X71.321 Y73.237 E21.02831
G1 X71.427 Y73.122 E21.0372
G1 X71.508 Y73.052 E21.04329
G1 X71.508 Y74.02 E21.09835
G0 F1080 X71.508 Y74.053
G1 F2400 E19.49835
G1 F300 Z0.45
G0 F3600 X77.041 Y71.617 Z0.45
G1 F300 Z0.3
G1 F1800 E21.03786
G1 F1200 X78.563 Y71.529 E21.12457
G1 X80.159 Y71.474 E21.2154
G1 X80.782 Y71.459 E21.25084
G1 X82.508 Y71.438 E21.34901
G1 X84.323 Y71.433 E21.45224
G1 X88.204 Y71.446 E21.67297
G1 X91.784 Y71.446 E21.87659
G1 X95.74 Y71.428 E22.10158
G1 X98.335 Y71.434 E22.24918
G1 X99.984 Y71.456 E22.34297
G1 X101.024 Y71.482 E22.40214
G1 X102.031 Y71.521 E22.45945
G1 X103.032 Y71.572 E22.51646
G1 X103.637 Y71.616 E22.55096
G1 X77.261 Y71.617 E24.05109
G0 F1080 X77.041 Y71.617
G0 F3600 X77.05 Y71.393
G1 F1800 E24.0636
G1 F1200 X76.803 Y71.429 E24.06588
G1 X76.676 Y71.585 E24.07308
G0 F3600 X76.93 Y71.839
G1 F1200 X77.213 Y71.839 E24.07502
G1 X77.496 Y71.839 E24.07697
G1 X77.778 Y71.839 E24.07891
G1 X78.061 Y71.839 E24.08085
G1 X78.344 Y71.839 E24.0828
G1 X78.627 Y71.839 E24.08474
G1 X78.91 Y71.839 E24.08669
G1 X79.193 Y71.839 E24.08863
G1 X79.475 Y71.839 E24.09057
G1 X79.758 Y71.839 E24.09251
G1 X80.041 Y71.839 E24.09446
G1 X80.324 Y71.839 E24.0964
G1 X80.607 Y71.839 E24.09835
G1 X80.89 Y71.839 E24.10029
G1 X81.173 Y71.839 E24.10224
G1 X81.455 Y71.839 E24.10418
G1 X81.738 Y71.839 E24.10612
G1 X82.021 Y71.839 E24.10807
G1 X82.304 Y71.839 E24.11001
G1 X82.587 Y71.839 E24.11196
G1 X82.87 Y71.839 E24.1139
G1 X83.152 Y71.839 E24.11584
G1 X83.435 Y71.839 E24.11778
G1 X83.718 Y71.839 E24.11973
G1 X84.001 Y71.839 E24.12167
G1 X84.284 Y71.839 E24.12362
G1 X84.567 Y71.839 E24.12556
G1 X84.849 Y71.839 E24.1275
G1 X85.132 Y71.839 E24.12945
G1 X85.415 Y71.839 E24.13139
G1 X85.698 Y71.839 E24.13334
G1 X85.981 Y71.839 E24.13528
G1 X86.264 Y71.839 E24.13723
G1 X86.547 Y71.839 E24.13917
G1 X86.829 Y71.839 E24.14111
G1 X87.112 Y71.839 E24.14305
G1 X87.395 Y71.839 E24.145
G1 X87.678 Y71.839 E24.14694
G1 X87.961 Y71.839 E24.14889
G1 X88.244 Y71.839 E24.15083
G1 X88.526 Y71.839 E24.15277
G1 X88.809 Y71.839 E24.15472
G1 X89.092 Y71.839 E24.15666
G1 X89.375 Y71.839 E24.15861
G1 X89.658 Y71.839 E24.16055
G1 X89.941 Y71.839 E24.1625
G1 X90.223 Y71.839 E24.16443
G1 X90.506 Y71.838 E24.16638
G1 X90.788 Y71.838 E24.16835
G1 X91.071 Y71.838 E24.17033
