;FLAVOR:Marlin
;TIME:3265
;Filament used: 3.92204m
;Layer height: 0.3
;Generated with Cura_SteamEngine 3.3.1
M82 ;absolute extrusion mode
;;---------------------------------------
; ; ; Jellybox Start Script Begin ; ; ;
;_______________________________________
; M92 E140 ;optionally adjust steps per mm for your filament

;              Print Settings Summary
; (leave these alone: this is only a list of the slicing settings)
; (overwriting these values will NOT change your printer's behavior)
;             sliced for :  IMADE3D JellyBOX 2
;        nozzle diameter :  0.4
;      filament diameter :  1.75
;           layer height :  0.3
;       1st layer height :  0.3
;             line width :  0.4  
;  outer wall wipe dist. :  0.5
;      infill line width :  0.6
;         wall thickness :  0.8
;          top thickness :  0.8
;       bottom thickness :  0.8
;         infill density :  70
;         infill pattern :  cubic
;      print temperature :  210
;  1st layer print temp. :  214.0
; heated bed temperature :  55
;    1st layer bed temp. :  59.0
;      regular fan speed :  55
;          max fan speed :  100
;     retraction amount  :  1.3
;   retr. retract speed  :  70
;     retr. prime speed  :  40
;   build plate adhesion :  skirt
;                support ?  False
;             spiralized ?  False

G21               ;metric values
G90               ;absolute positioning
M82               ;set extruder to absolute mode
M107              ;start with the fan off
M117 Preparing    ;write Preparing
M190 S45          ;wait for the bed to reach bed leveling temperature
M109 S180         ;wait for the extruder to reach 180C
G28               ;home all axes
M203 Z4           ;slow Z speed down for greater accuracy when probing
G29               ;auto bed leveling procedure
;M500              ;optionally save the mesh
M203 Z7           ;pick up z speed again for printing
G28 X             ;home x to get as far from the plate as possible
M420 S1           ;(re) enable bed leveling turned off by the G28
G0 Y0 F5000       ;position Y in front
G0 Z15 F3000      ;position Z
M190 S59.0              ;wait for the bed to reach desired temperature
M109 S214.0             ;wait for the extruder to reach desired temperature
M300 S440 P300    ;play a tone
G4 P200           ;pause
M0 Click to start print
M420 S1           ;(re) enable bed leveling to make iron-sure
M117 Print starting   ;write Print starting
;================ ;PRINT:LINE start
G90               ;absolute positioning
G92 E0            ;reset the extruder position
M420 S1           ;(re) enable bed leveling to make iron-sure
G0 Z0             ;get Z down
M83               ;relative extrusion mode
G1 E22 F500       ;extrude __mm of feed stock
G1 E18 F400       ;extrude __mm of feed stock
G1 E10 F400       ;extrude __mm of feed stock
G4 S2             ;pause for ooze
M400              ;make sure all is finished
M420 S1           ;(re) enable bed leveling to make iron-sure
G0 F500 X3 Y0 Z0.6;get to the start of the LINE
G1 E2 F300        ;extrude __mm of feed stock
G1 F1000 X104 E10  ;print a thick LINE extruding __mm along the way
M82               ;absolute extrusion mode
G92 E0            ;reset the extruder position
;---------------------------------------------
; ; ; Jellybox Printer Start Script End ; ; ;
;_____________________________________________

G92 E0
G1 F4200 E-1.3
;LAYER_COUNT:280
;LAYER:0
M107
G0 F3600 X66.739 Y68.449 Z0.3
;TYPE:SKIRT
G1 F2400 E-0.06236
G1 F1200 X67.377 Y67.892 E-0.02433
G1 X68.138 Y67.331 E0.01812
G1 X68.939 Y66.846 E0.06016
G1 X69.73 Y66.459 E0.0997
G1 X70.625 Y66.119 E0.14269
G1 X72.816 Y65.511 E0.24479
G1 X73.554 Y65.363 E0.27858
G1 X75.817 Y65.077 E0.381
G1 X76.188 Y65.044 E0.39773
G1 X79.592 Y64.86 E0.55079
G1 X79.865 Y64.852 E0.56306
G1 X99.663 Y64.821 E1.45201
G1 X99.921 Y64.827 E1.4636
G1 X104.563 Y65.05 E1.67227
G1 X105.096 Y65.103 E1.69632
G1 X107.8 Y65.515 E1.81914
G1 X108.484 Y65.667 E1.8506
G1 X109.351 Y65.922 E1.89117
G1 X110.045 Y66.181 E1.92444
G1 X111.31 Y66.759 E1.98688
G1 X111.879 Y67.063 E2.01585
G1 X112.346 Y67.388 E2.0414
G1 X112.877 Y67.802 E2.07163
G1 X113.36 Y68.229 E2.10058
G1 X113.648 Y68.542 E2.11968
G1 X114.024 Y68.986 E2.1458
G1 X114.41 Y69.503 E2.17477
G1 X114.728 Y70.064 E2.20373
G1 X114.861 Y70.359 E2.21825
G1 X115.154 Y71.067 E2.25266
G1 X115.363 Y71.676 E2.28157
G1 X115.495 Y72.307 E2.31052
G1 X115.548 Y72.95 E2.33949
G1 X115.521 Y73.594 E2.36843
G1 X115.415 Y74.23 E2.39738
G1 X115.22 Y74.875 E2.42763
G1 X114.499 Y76.805 E2.52014
G1 X114.237 Y77.394 E2.54909
G1 X113.903 Y77.945 E2.57802
G1 X113.504 Y78.452 E2.60699
G1 X113.045 Y78.904 E2.63591
G1 X112.534 Y79.297 E2.66486
G1 X111.765 Y79.726 E2.7044
G1 X110.731 Y80.192 E2.75532
G1 X110.128 Y80.42 E2.78427
G1 X109.815 Y80.506 E2.79884
G1 X108.466 Y80.832 E2.86116
G1 X107.767 Y80.951 E2.893
G1 X104.276 Y81.303 E3.05054
G1 X103.891 Y81.327 E3.06786
G1 X98.636 Y81.465 E3.3039
G1 X98.494 Y81.467 E3.31028
G1 X78.434 Y81.446 E4.21099
G1 X78.246 Y81.442 E4.21944
G1 X75.372 Y81.335 E4.34857
G1 X75.048 Y81.313 E4.36315
G1 X72.424 Y81.051 E4.48156
G1 X71.891 Y80.97 E4.50577
G1 X70.625 Y80.709 E4.56381
G1 X69.773 Y80.456 E4.60371
G1 X68.727 Y80.045 E4.65418
G1 X68.143 Y79.772 E4.68312
G1 X67.619 Y79.445 E4.71086
G1 X67.209 Y79.154 E4.73343
G1 X66.708 Y78.749 E4.76236
G1 X66.26 Y78.286 E4.79129
G1 X65.859 Y77.747 E4.82145
G1 X65.421 Y77.073 E4.85754
G1 X65.104 Y76.512 E4.88648
G1 X64.858 Y75.916 E4.91543
G1 X64.689 Y75.294 E4.94437
G1 X64.614 Y74.828 E4.96556
G1 X64.533 Y74.116 E4.99774
G1 X64.5 Y73.472 E5.02669
G1 X64.547 Y72.829 E5.05564
G1 X64.696 Y72.113 E5.08848
G1 X64.896 Y71.406 E5.12147
G1 X65.11 Y70.797 E5.15045
G1 X65.397 Y70.22 E5.17939
G1 X65.755 Y69.681 E5.20844
G1 X66.318 Y68.938 E5.2503
G1 X66.567 Y68.649 E5.26743
G0 F1080 X66.739 Y68.449
G1 F4200 E3.96743
G1 F300 Z0.45
G0 F3600 X71.938 Y72.292 Z0.45
;TYPE:WALL-INNER
G1 F300 Z0.3
G1 F2400 E5.21696
G1 F1200 X71.938 Y72.454 E5.22424
G1 X71.938 Y72.502 E5.22639
G1 X71.938 Y74.491 E5.3157
G1 X71.938 Y74.572 E5.31934
G1 X71.938 Y74.66 E5.32329
G1 X71.651 Y74.572 E5.32782
G1 X71.575 Y74.544 E5.33104
G1 X71.413 Y74.484 E5.33879
G1 X71.121 Y74.344 E5.35333
G1 X70.982 Y74.257 E5.3607
G1 X70.884 Y74.18 E5.36629
G1 X70.824 Y74.116 E5.37023
G1 X70.772 Y74.043 E5.37425
G1 X70.734 Y73.971 E5.37791
G1 X70.696 Y73.853 E5.38348
G1 X70.682 Y73.727 E5.38917
G1 X70.687 Y73.588 E5.39541
G1 X70.706 Y73.486 E5.40007
G1 X70.791 Y73.259 E5.41096
G1 X70.873 Y73.118 E5.41828
G1 X70.984 Y72.968 E5.42666
G1 X71.133 Y72.808 E5.43648
G1 X71.326 Y72.641 E5.44794
G1 X71.549 Y72.481 E5.46026
G1 X71.588 Y72.454 E5.46197
G1 X71.862 Y72.292 E5.4669
G1 X71.938 Y72.256 E5.46955
G1 X71.938 Y72.292
G1 F4200 E4.16955
G1 F300 Z0.45
G0 F3600 X73.673 Y71.647 Z0.45
G1 F300 Z0.3
G1 F2400 E5.40719
G1 F1200 X74.219 Y71.531 E5.43225
G1 X74.928 Y71.413 E5.46453
G1 X75.5 Y71.338 E5.49043
G1 X76.152 Y71.264 E5.51989
G1 X77.065 Y71.184 E5.56104
G1 X78.538 Y71.099 E5.62729
G1 X80.144 Y71.044 E5.69945
G1 X80.771 Y71.029 E5.72761
G1 X82.503 Y71.008 E5.80538
G1 X84.323 Y71.003 E5.8871
G1 X88.206 Y71.016 E6.06146
G1 X91.784 Y71.016 E6.22211
G1 X95.739 Y70.998 E6.3997
G1 X98.341 Y71.004 E6.51653
G1 X99.995 Y71.026 E6.5908
G1 X101.041 Y71.052 E6.63779
G1 X102.053 Y71.091 E6.68326
G1 X102.994 Y71.139 E6.72557
G1 X103.903 Y71.205 E6.76649
G1 X104.72 Y71.284 E6.80334
G1 X105.491 Y71.381 E6.83824
G1 X105.871 Y71.437 E6.85548
G1 X106.494 Y71.553 E6.88394
G1 X106.878 Y71.647 E6.90169
G1 X107.103 Y71.702 E6.91209
G1 X107.725 Y71.9 E6.9414
G1 X108.072 Y72.046 E6.9583
G1 X107.725 Y72.046
G1 X107.104 Y72.046 E6.97602
G1 X106.872 Y72.046 E6.98571
G1 X73.675 Y72.046 E8.47629
G1 X73.628 Y72.046 E8.4784
G1 X72.984 Y72.046 E8.50732
G1 X72.662 Y72.046 E8.52178
G1 X72.393 Y72.047 E8.53386
G1 X72.661 Y71.944
G1 X72.984 Y71.833 E8.53392
G1 X73.628 Y71.656 E8.55672
G1 X73.673 Y71.647 E8.55875
G1 F4200 E7.25875
G1 F300 Z0.45
G0 F3600 X72.338 Y72.447 Z0.45
G1 F300 Z0.3
G1 F2400 E8.49639
G1 F1200 X72.338 Y74.917 E8.60729
G1 X72.338 Y74.918 E8.60734
G1 X72.338 Y75.17 E8.61865
G1 X72.092 Y75.112 E8.62555
G1 X71.881 Y75.061 E8.6353
G1 X71.534 Y74.955 E8.65159
G1 X71.253 Y74.851 E8.66505
G1 X70.93 Y74.696 E8.68113
G1 X70.753 Y74.586 E8.69049
G1 X70.617 Y74.478 E8.69829
G1 X70.515 Y74.372 E8.70489
G1 X70.43 Y74.252 E8.7115
G1 X70.365 Y74.126 E8.71786
G1 X70.323 Y74.014 E8.72323
G1 X70.302 Y73.921 E8.72751
G1 X70.281 Y73.739 E8.73574
G1 X70.288 Y73.546 E8.74441
G1 X70.32 Y73.376 E8.75218
G1 X70.429 Y73.085 E8.76613
G1 X70.534 Y72.905 E8.77549
G1 X70.675 Y72.713 E8.78618
G1 X70.856 Y72.519 E8.7981
G1 X71.079 Y72.326 E8.81134
G1 X71.37 Y72.118 E8.8274
G1 X71.671 Y71.94 E8.8431
G1 X72.2 Y71.693 E8.86932
G1 X72.531 Y71.566 E8.88524
G1 X72.874 Y71.448 E8.90152
G1 X73.524 Y71.269 E8.93179
G1 X74.153 Y71.136 E8.96066
G1 X74.867 Y71.017 E8.99316
G1 X75.448 Y70.941 E9.01947
G1 X76.112 Y70.866 E9.04948
G1 X77.04 Y70.785 E9.0913
G1 X78.524 Y70.699 E9.15805
G1 X80.13 Y70.644 E9.2302
G1 X80.761 Y70.629 E9.25854
G1 X82.498 Y70.608 E9.33654
G1 X84.323 Y70.603 E9.41849
G1 X88.207 Y70.616 E9.59288
G1 X91.783 Y70.616 E9.75345
G1 X95.738 Y70.598 E9.93104
G1 X98.346 Y70.604 E10.04814
G1 X100.005 Y70.626 E10.12264
G1 X101.056 Y70.652 E10.16984
G1 X102.068 Y70.691 E10.21532
G1 X103.023 Y70.74 E10.25825
G1 X103.932 Y70.806 E10.29918
G1 X104.77 Y70.887 E10.33698
G1 X105.549 Y70.985 E10.37223
G1 X105.929 Y71.041 E10.38948
G1 X106.589 Y71.164 E10.41962
G1 X107.206 Y71.315 E10.44815
G1 X107.858 Y71.523 E10.47888
G1 X108.114 Y71.624 E10.49123
G1 X108.453 Y71.782 E10.50803
G1 X108.838 Y71.992 E10.52772
G1 X108.931 Y72.058 E10.53284
G1 X109.085 Y72.168 E10.54134
G1 X109.297 Y72.353 E10.55397
G1 X109.387 Y72.446 E10.55978
G1 X109.297 Y72.446
G1 X109.086 Y72.446
G1 X108.896 Y72.446 E10.56708
G1 X72.338 Y72.447 E12.20857
G1 F4200 E10.90857
G1 F300 Z0.45
G0 F3600 X91.376 Y75.672 Z0.45
G1 F300 Z0.3
G1 F2400 E12.14621
G1 F1200 X86.157 Y75.682 E12.38055
G1 X91.376 Y75.657 E12.38494
G1 X95.732 Y75.636 E12.58054
G1 X98.609 Y75.622 E12.70972
G1 X99.914 Y75.615 E12.76832
G1 X101.971 Y75.604 E12.86068
G1 X99.914 Y75.651 E12.86484
G1 X98.609 Y75.667 E12.87081
G1 X95.732 Y75.678 E12.8849
G1 X91.376 Y75.672 E12.89883
G1 F4200 E11.59883
G1 F300 Z0.45
G0 F3600 X72.738 Y75.347 Z0.45
;TYPE:WALL-OUTER
G1 F300 Z0.3
G1 F2400 E12.83647
G1 F1200 X73.132 Y75.346 E12.85416
G1 X73.135 Y75.346 E12.8543
G1 X107.213 Y75.181 E14.38446
G1 X107.479 Y75.18 E14.3964
G1 X107.776 Y75.178 E14.40974
G1 X108.227 Y75.175 E14.42999
G1 X108.723 Y75.172 E14.45226
G1 X108.825 Y75.171 E14.45684
G1 X108.723 Y75.213
G1 X108.228 Y75.364 E14.46474
G1 X107.777 Y75.474 E14.47811
G1 X107.48 Y75.537 E14.48957
G1 X107.218 Y75.58 E14.50085
G1 X106.65 Y75.676 E14.52671
G1 X105.696 Y75.789 E14.56985
G1 X104.752 Y75.868 E14.61238
G1 X104.114 Y75.91 E14.64109
G1 X103.048 Y75.965 E14.68902
G1 X101.917 Y76.007 E14.73984
G1 X99.923 Y76.051 E14.82939
G1 X98.614 Y76.067 E14.88817
G1 X95.733 Y76.078 E15.01753
G1 X91.376 Y76.072 E15.21317
G1 X84.302 Y76.085 E15.5308
G1 X80.304 Y76.076 E15.71032
G1 X77.935 Y76.038 E15.8167
G1 X76.28 Y75.98 E15.89106
G1 X74.936 Y75.903 E15.9515
G1 X74.29 Y75.849 E15.98061
G1 X73.684 Y75.786 E16.00797
G1 X73.136 Y75.716 E16.03277
G1 X73.134 Y75.716 E16.03286
G1 X72.691 Y75.646 E16.04998
G1 X72.634 Y75.636 E16.05258
G1 X72.632 Y75.636 E16.05267
G1 X72.175 Y75.545 E16.07359
G1 X71.764 Y75.444 E16.0926
G1 X71.417 Y75.338 E16.10889
G1 X71.093 Y75.218 E16.1244
G1 X70.739 Y75.048 E16.14204
G1 X70.523 Y74.914 E16.15345
G1 X70.35 Y74.777 E16.16336
G1 X70.202 Y74.623 E16.17295
G1 X70.089 Y74.463 E16.18174
G1 X69.997 Y74.285 E16.19074
G1 X69.939 Y74.13 E16.19817
G1 X69.908 Y73.995 E16.20439
G1 X69.88 Y73.75 E16.21546
G1 X69.889 Y73.502 E16.22661
G1 X69.934 Y73.266 E16.23739
G1 X70.066 Y72.914 E16.25427
G1 X70.197 Y72.688 E16.266
G1 X70.366 Y72.458 E16.27882
G1 X70.579 Y72.23 E16.29283
G1 X70.834 Y72.009 E16.30798
G1 X71.145 Y71.787 E16.32514
G1 X71.489 Y71.584 E16.34307
G1 X72.038 Y71.327 E16.37029
G1 X72.4 Y71.188 E16.3877
G1 X72.759 Y71.064 E16.40475
G1 X73.42 Y70.882 E16.43554
G1 X74.087 Y70.741 E16.46615
G1 X74.806 Y70.621 E16.49888
G1 X75.404 Y70.543 E16.52596
G1 X76.068 Y70.469 E16.55596
G1 X77.015 Y70.386 E16.59864
G1 X78.51 Y70.299 E16.66588
G1 X80.116 Y70.244 E16.73804
G1 X80.752 Y70.229 E16.7666
G1 X82.493 Y70.208 E16.84478
G1 X84.323 Y70.203 E16.92695
G1 X88.208 Y70.216 E17.10139
G1 X91.782 Y70.216 E17.26187
G1 X95.737 Y70.198 E17.43945
G1 X98.351 Y70.204 E17.55683
G1 X100.015 Y70.226 E17.63155
G1 X101.071 Y70.252 E17.67898
G1 X102.083 Y70.291 E17.72445
G1 X103.052 Y70.341 E17.76802
G1 X103.961 Y70.407 E17.80894
G1 X104.82 Y70.49 E17.84769
G1 X105.607 Y70.589 E17.88331
G1 X105.987 Y70.645 E17.90055
G1 X106.684 Y70.775 E17.93239
G1 X107.309 Y70.928 E17.96128
G1 X107.991 Y71.146 E17.99343
G1 X108.278 Y71.259 E18.00728
G1 X108.622 Y71.419 E18.02432
G1 X108.909 Y71.571 E18.0389
G1 X109.054 Y71.655 E18.04642
G1 X109.33 Y71.851 E18.06162
G1 X109.57 Y72.061 E18.07594
G1 X109.679 Y72.172 E18.08293
G1 X109.781 Y72.291 E18.08996
G1 X109.863 Y72.4 E18.09609
G1 X109.921 Y72.497 E18.10116
G1 X110.013 Y72.652 E18.10926
G1 X110.092 Y72.846 E18.11866
G1 X110.014 Y72.846
G1 X109.833 Y72.846 E18.12498
G1 X72.738 Y72.847 E19.79059
G1 X72.738 Y75.344 E19.90271
G1 X72.738 Y75.347
G0 F3600 X73.132 Y75.346
G0 X73.135 Y75.346
G0 X73.238 Y75.346
G1 F4200 E18.60271
G1 F300 Z0.45
G0 F3600 X71.508 Y74.053 Z0.45
;TYPE:SKIN
G1 F300 Z0.3
G1 F2400 E19.84034
G1 F1200 X71.336 Y73.971 E19.85061
G1 X71.174 Y73.861 E19.86116
G1 X71.137 Y73.814 E19.86438
G1 X71.119 Y73.766 E19.86715
G1 X71.113 Y73.709 E19.87024
G1 X71.124 Y73.598 E19.87625
G1 X71.181 Y73.444 E19.88509
G1 X71.232 Y73.356 E19.89057
G1 X71.321 Y73.237 E19.89858
G1 X71.427 Y73.122 E19.90701
G1 X71.508 Y73.052 E19.91278
G1 X71.508 Y74.02 E19.96493
G0 F1080 X71.508 Y74.053
G1 F4200 E18.66493
G1 F300 Z0.45
G0 F3600 X77.041 Y71.617 Z0.45
G1 F300 Z0.3
G1 F2400 E19.90435
G1 F1200 X78.563 Y71.529 E19.98649
G1 X80.159 Y71.474 E20.07254
G1 X80.782 Y71.459 E20.10612
G1 X82.508 Y71.438 E20.19912
G1 X84.323 Y71.433 E20.29692
G1 X88.204 Y71.446 E20.50603
G1 X91.784 Y71.446 E20.69893
G1 X95.74 Y71.428 E20.91209
G1 X98.335 Y71.434 E21.05191
G1 X99.984 Y71.456 E21.14077
G1 X101.024 Y71.482 E21.19682
G1 X102.031 Y71.521 E21.25112
G1 X103.032 Y71.572 E21.30512
G1 X103.637 Y71.616 E21.33781
G1 X77.261 Y71.617 E22.75899
G0 F1080 X77.041 Y71.617
G0 F3600 X77.05 Y71.393
G1 F2400 E22.77084
G1 F1200 X76.803 Y71.429 E22.773
G1 X76.676 Y71.585 E22.77982
G0 F3600 X76.93 Y71.839
G1 F1200 X77.213 Y71.839 E22.78166
G1 X77.496 Y71.839 E22.7835
G1 X77.778 Y71.839 E22.78534
G1 X78.061 Y71.839 E22.78718
G1 X78.344 Y71.839 E22.78902
G1 X78.627 Y71.839 E22.79087
G1 X78.91 Y71.839 E22.79271
G1 X79.193 Y71.839 E22.79455
G1 X79.475 Y71.839 E22.79639
G1 X79.758 Y71.839 E22.79823
G1 X80.041 Y71.839 E22.80007
G1 X80.324 Y71.839 E22.80191
G1 X80.607 Y71.839 E22.80376
G1 X80.89 Y71.839 E22.8056
G1 X81.173 Y71.839 E22.80744
G1 X81.455 Y71.839 E22.80928
G1 X81.738 Y71.839 E22.81112
G1 X82.021 Y71.839 E22.81296
G1 X82.304 Y71.839 E22.8148
G1 X82.587 Y71.839 E22.81665
G1 X82.87 Y71.839 E22.81849
G1 X83.152 Y71.839 E22.82033
G1 X83.435 Y71.839 E22.82217
G1 X83.718 Y71.839 E22.82401
G1 X84.001 Y71.839 E22.82585
G1 X84.284 Y71.839 E22.8277
G1 X84.567 Y71.839 E22.82954
G1 X84.849 Y71.839 E22.83137
G1 X85.132 Y71.839 E22.83322
G1 X85.415 Y71.839 E22.83506
G1 X85.698 Y71.839 E22.8369
G1 X85.981 Y71.839 E22.83874
G1 X86.264 Y71.839 E22.84059
G1 X86.547 Y71.839 E22.84243
G1 X86.829 Y71.839 E22.84427
G1 X87.112 Y71.839 E22.84611
G1 X87.395 Y71.839 E22.84795
G1 X87.678 Y71.839 E22.84979
G1 X87.961 Y71.839 E22.85164
G1 X88.244 Y71.839 E22.85348
G1 X88.526 Y71.839 E22.85531
G1 X88.809 Y71.839 E22.85716
G1 X89.092 Y71.839 E22.859
G1 X89.375 Y71.839 E22.86084
G1 X89.658 Y71.839 E22.86268
G1 X89.941 Y71.839 E22.86453
G1 X90.223 Y71.839 E22.86636
G1 X90.506 Y71.838 E22.86821
G1 X90.788 Y71.838 E22.87007
G1 X91.071 Y71.838 E22.87195
G1 X91.354 Y71.838 E22.87382
