;FLAVOR:Marlin
;TIME:1333
;Filament used: 1.12127m
;Layer height: 0.2
;Generated with Cura_SteamEngine 3.3.1
M82 ;absolute extrusion mode
;---------------------------------------
; ; ; Jellybox Start Script Begin ; ; ;
;_______________________________________
; start gcode last modified Nov 30, 2018

;              Print Settings Summary
; (leave these alone: this is only a list of the slicing settings)
; (overwriting these values will NOT change your printer's behavior)
;             sliced for :  IMADE3D JellyBOX
;        nozzle diameter :  0.4
;      filament diameter :  1.75
;           layer height :  0.2
;       1st layer height :  0.3
;             line width :  0.4  
;  outer wall wipe dist. :  0.6
;      infill line width :  0.6
;         wall thickness :  0.8
;          top thickness :  0.8
;       bottom thickness :  0.6
;         infill density :  70
;         infill pattern :  cubic
;      print temperature :  230
;  1st layer print temp. :  235
; heated bed temperature :  60
;    1st layer bed temp. :  65
;      regular fan speed :  45
;          max fan speed :  80
;     retraction amount  :  1.6
;   retr. retract speed  :  40
;     retr. prime speed  :  30
;   build plate adhesion :  skirt
;                support ?  True
;             spiralized ?  False

G21               ;metric values
G90               ;absolute positioning
M82               ;set extruder to absolute mode
M107              ;start with the fan off
M117 Preparing    ;write Preparing
M190 S45          ;wait for the bed to reach 45C
M109 S180         ;wait for the extruder to reach 180C
G28               ;home all axes
M203 Z4           ;slow Z speed down for greater accuracy when probing
G29               ;auto bed leveling procedure
;M500              ;optionally save the mesh
M203 Z7           ;pick up z speed again for printing
G28 X             ;home x to get as far from the plate as possible
M420 S1           ;(re) enable bed leveling turned off by the G28
G0 Y0 F5000       ;position Y in front
G0 Z15 F3000      ;position Z
M190 S65              ;wait for the bed to reach desired temperature
M109 S235             ;wait for the extruder to reach desired temperature
M300 S440 P300    ;play a tone
// M0 Ready! Click to start ; optionally, stop and wait for user to continue
M420 S1           ;(re) enable bed leveling to make iron-sure
M117 Print starting   ;write Print starting
;================ ;PRINT:LINE start
G90               ;absolute positioning
G92 E0            ;reset the extruder position
M420 S1           ;(re) enable bed leveling to make iron-sure
G0 Z0             ;get Z down
M83               ;relative extrusion mode
M420 S1           ;(re) enable bed leveling to make iron-sure
G1 E22 F300       ;extrude __mm of feed stock
G1 E18 F250       ;extrude __mm of feed stock
G1 E10 F250       ;extrude __mm of feed stock
G4 S2             ;pause for ooze
M400              ;make sure all is finished
M420 S1           ;(re) enable bed leveling to make iron-sure
G0 F500 X3 Y0 Z0.6;get to the start of the LINE
G1 E2 F300        ;extrude __mm of feed stock
G1 F1000 X104 E10  ;print a thick LINE extruding __mm along the way
M82               ;absolute extrusion mode
G92 E0            ;reset the extruder position
;---------------------------------------------
; ; ; Jellybox Printer Start Script End ; ; ;
;_____________________________________________

M83 ;relative extrusion mode
G1 F2400 E-1.6
;LAYER_COUNT:70
;LAYER:0
M107
G0 F3600 X53.618 Y73.819 Z0.3
;TYPE:SKIRT
G1 F1800 E1.55842
G1 F1200 X54.179 Y73.501 E0.03217
G1 X54.775 Y73.254 E0.03219
G1 X55.396 Y73.083 E0.03213
G1 X56.009 Y72.993 E0.03091
G1 X62.96 Y72.385 E0.34811
G1 X68.263 Y71.616 E0.26734
G1 X73.554 Y70.54 E0.26937
G1 X76.066 Y69.918 E0.12911
G1 X82.533 Y67.988 E0.3367
G1 X83.161 Y67.842 E0.03217
G1 X84.021 Y67.771 E0.04305
G1 X88.293 Y67.772 E0.21313
G1 X88.702 Y67.788 E0.02042
G1 X95.868 Y68.355 E0.35863
G1 X101.2 Y68.434 E0.26604
G1 X106.565 Y68.21 E0.26789
G1 X111.258 Y67.794 E0.23505
G1 X111.797 Y67.775 E0.02691
G1 X113.743 Y67.805 E0.0971
G1 X114.386 Y67.854 E0.03217
G1 X115.018 Y67.984 E0.03219
G1 X115.628 Y68.19 E0.03212
G1 X116.209 Y68.47 E0.03218
G1 X116.75 Y68.82 E0.03215
G1 X117.244 Y69.234 E0.03216
G1 X117.683 Y69.706 E0.03216
G1 X118.061 Y70.229 E0.03219
G1 X118.37 Y70.794 E0.03213
G1 X118.607 Y71.394 E0.03218
G1 X118.769 Y72.018 E0.03216
G1 X118.851 Y72.657 E0.03214
G1 X118.863 Y73.005 E0.01737
G1 X118.862 Y79.295 E0.31381
G1 X118.822 Y79.938 E0.03214
G1 X118.703 Y80.572 E0.03218
G1 X118.506 Y81.186 E0.03217
G1 X118.234 Y81.77 E0.03214
G1 X117.893 Y82.317 E0.03216
G1 X117.486 Y82.817 E0.03216
G1 X117.021 Y83.264 E0.03218
G1 X116.504 Y83.649 E0.03216
G1 X115.943 Y83.967 E0.03217
G1 X115.172 Y84.27 E0.04133
G1 X90.333 Y91.807 E1.29502
G1 X89.706 Y91.956 E0.03215
G1 X88.823 Y92.031 E0.04421
G1 X56.464 Y92.033 E1.6144
G1 X55.821 Y91.993 E0.03214
G1 X55.187 Y91.874 E0.03218
G1 X54.573 Y91.677 E0.03217
G1 X53.989 Y91.406 E0.03212
G1 X53.442 Y91.065 E0.03216
G1 X52.941 Y90.658 E0.0322
G1 X52.495 Y90.193 E0.03214
G1 X52.11 Y89.676 E0.03216
G1 X51.792 Y89.115 E0.03217
G1 X51.545 Y88.52 E0.03214
G1 X51.374 Y87.898 E0.03218
G1 X51.282 Y87.26 E0.03216
G1 X51.264 Y86.834 E0.02127
G1 X51.262 Y78.174 E0.43205
G1 X51.302 Y77.531 E0.03214
G1 X51.421 Y76.897 E0.03218
G1 X51.618 Y76.283 E0.03217
G1 X51.889 Y75.698 E0.03217
G1 X52.23 Y75.151 E0.03216
G1 X52.636 Y74.651 E0.03213
G1 X53.102 Y74.205 E0.03218
G1 X53.406 Y73.977 E0.01896
G0 F1140 X53.618 Y73.819
G1 F2400 E-1.6
G1 F300 Z0.45
G0 F3600 X84.619 Y78.707 Z0.45
;TYPE:WALL-INNER
G1 F300 Z0.3
G1 F1800 E1.57165
G1 F1200 X84.617 Y73.561 E0.25674
G1 X87.986 Y73.562 E0.16808
G1 X88.14 Y73.779 E0.01328
G1 X88.524 Y74.277 E0.03137
G1 X88.946 Y74.782 E0.03283
G1 X89.407 Y75.285 E0.03404
G1 X89.959 Y75.835 E0.03888
G1 X90.56 Y76.37 E0.04014
G1 X90.858 Y76.616 E0.01928
G1 X91.358 Y77.004 E0.03157
G1 X92.04 Y77.476 E0.04138
G1 X92.372 Y77.686 E0.0196
G1 X92.926 Y78.014 E0.03212
G1 X93.84 Y78.48 E0.05118
G1 X94.609 Y78.811 E0.04177
G1 X95.579 Y79.157 E0.05138
G1 X96.451 Y79.397 E0.04512
G1 X96.847 Y79.487 E0.02026
G1 X97.538 Y79.619 E0.0351
G1 X97.935 Y79.672 E0.01998
G1 X98.628 Y79.752 E0.0348
G1 X99.509 Y79.793 E0.044
G1 X99.869 Y79.796 E0.01796
G1 X100.423 Y79.782 E0.02765
G1 X100.973 Y79.746 E0.0275
G1 X101.512 Y79.69 E0.02704
G1 X102.044 Y79.616 E0.0268
G1 X102.56 Y79.522 E0.02617
G1 X103.066 Y79.413 E0.02582
G1 X103.67 Y79.258 E0.03111
G1 X104.268 Y79.078 E0.03116
G1 X104.857 Y78.872 E0.03113
G1 X105.436 Y78.642 E0.03108
G1 X106.004 Y78.388 E0.03104
G1 X106.557 Y78.11 E0.03088
G1 X106.907 Y77.923 E0.0198
G1 X107.444 Y77.606 E0.03111
G1 X107.966 Y77.264 E0.03113
G1 X108.47 Y76.901 E0.03099
G1 X108.828 Y76.617 E0.0228
G1 X108.842 Y76.809 E0.0096
G1 X108.911 Y77.114 E0.0156
G1 X109.028 Y77.406 E0.01569
G1 X109.188 Y77.677 E0.0157
G1 X109.392 Y77.924 E0.01598
G1 X109.636 Y78.134 E0.01606
G1 X109.906 Y78.298 E0.01576
G1 X110.194 Y78.419 E0.01558
G1 X110.501 Y78.497 E0.0158
G1 X110.821 Y78.523 E0.01602
G1 X111.141 Y78.497 E0.01602
G1 X111.447 Y78.42 E0.01574
G1 X111.735 Y78.299 E0.01558
G1 X112.009 Y78.133 E0.01598
G1 X112.25 Y77.922 E0.01598
G1 X112.453 Y77.679 E0.0158
G1 X112.615 Y77.406 E0.01584
G1 X112.732 Y77.115 E0.01565
G1 X112.802 Y76.805 E0.01586
G1 X112.822 Y76.491 E0.0157
G1 X112.793 Y76.178 E0.01568
G1 X112.716 Y75.875 E0.0156
G1 X112.595 Y75.589 E0.01549
G1 X112.428 Y75.321 E0.01575
G1 X112.223 Y75.087 E0.01552
G1 X111.986 Y74.886 E0.0155
G1 X111.719 Y74.725 E0.01556
G1 X111.432 Y74.608 E0.01546
G1 X111.129 Y74.537 E0.01553
G1 X110.905 Y74.52 E0.01121
G1 X111.031 Y74.364 E0.01
G1 X111.386 Y73.883 E0.02983
G1 X111.597 Y73.577 E0.01854
G1 X113.088 Y73.575 E0.07439
G1 X113.073 Y78.858 E0.26357
G1 X88.7 Y86.252 E1.2707
G1 X57.055 Y86.262 E1.57878
G1 X57.053 Y78.714 E0.37657
G1 X84.354 Y78.707 E1.36205
G0 F1140 X84.619 Y78.707
G1 F2400 E-1.6
G1 F300 Z0.45
G0 F3600 X88.011 Y78.138 Z0.45
G1 F300 Z0.3
G1 F1800 E1.57165
G1 F1200 X88.25 Y77.926 E0.01594
G1 X88.45 Y77.685 E0.01562
G1 X88.612 Y77.416 E0.01567
G1 X88.729 Y77.124 E0.01569
G1 X88.802 Y76.815 E0.01584
G1 X88.822 Y76.499 E0.0158
G1 X88.792 Y76.186 E0.01569
G1 X88.715 Y75.883 E0.0156
G1 X88.593 Y75.598 E0.01547
G1 X88.43 Y75.332 E0.01556
G1 X88.225 Y75.094 E0.01567
G1 X87.983 Y74.891 E0.01576
G1 X87.717 Y74.734 E0.01541
G1 X87.433 Y74.616 E0.01534
G1 X87.129 Y74.544 E0.01559
G1 X86.82 Y74.519 E0.01547
G1 X86.51 Y74.544 E0.01552
G1 X86.207 Y74.617 E0.01555
G1 X85.925 Y74.734 E0.01523
G1 X85.657 Y74.891 E0.0155
G1 X85.415 Y75.096 E0.01582
G1 X85.211 Y75.332 E0.01556
G1 X85.046 Y75.597 E0.01557
G1 X84.924 Y75.884 E0.01556
G1 X84.846 Y76.189 E0.01571
G1 X84.819 Y76.503 E0.01572
G1 X84.841 Y76.815 E0.0156
G1 X84.91 Y77.123 E0.01575
G1 X85.027 Y77.416 E0.01574
G1 X85.189 Y77.687 E0.01575
G1 X85.394 Y77.931 E0.0159
G1 X85.634 Y78.14 E0.01588
G1 X85.904 Y78.305 E0.01579
G1 X86.195 Y78.43 E0.0158
G1 X86.507 Y78.504 E0.016
G1 X86.822 Y78.528 E0.01576
G1 X87.136 Y78.503 E0.01572
G1 X87.445 Y78.429 E0.01585
G1 X87.738 Y78.306 E0.01585
G1 X87.796 Y78.27 E0.00341
G0 F1140 X88.011 Y78.138
G0 F3600 X87.772 Y77.816
;TYPE:WALL-OUTER
G1 F1800 E0.01262
G1 F1200 X87.962 Y77.647 E0.01269
G1 X88.123 Y77.453 E0.01258
G1 X88.253 Y77.237 E0.01258
G1 X88.347 Y77.003 E0.01258
G1 X88.405 Y76.756 E0.01266
G1 X88.421 Y76.505 E0.01255
G1 X88.397 Y76.255 E0.01253
G1 X88.335 Y76.012 E0.01251
G1 X88.237 Y75.782 E0.01247
G1 X88.106 Y75.569 E0.01248
G1 X87.943 Y75.38 E0.01245
G1 X87.751 Y75.219 E0.0125
G1 X87.538 Y75.093 E0.01235
G1 X87.309 Y74.998 E0.01237
G1 X87.066 Y74.94 E0.01246
G1 X86.82 Y74.92 E0.01231
G1 X86.573 Y74.94 E0.01236
G1 X86.332 Y74.998 E0.01237
G1 X86.104 Y75.093 E0.01232
G1 X85.889 Y75.219 E0.01243
G1 X85.697 Y75.381 E0.01253
G1 X85.534 Y75.57 E0.01245
G1 X85.402 Y75.782 E0.01246
G1 X85.304 Y76.012 E0.01247
G1 X85.242 Y76.256 E0.01256
G1 X85.22 Y76.506 E0.01252
G1 X85.238 Y76.757 E0.01255
G1 X85.293 Y77.004 E0.01262
G1 X85.387 Y77.238 E0.01258
G1 X85.516 Y77.455 E0.01259
G1 X85.68 Y77.65 E0.01271
G1 X85.871 Y77.816 E0.01262
G1 X86.088 Y77.949 E0.0127
G1 X86.321 Y78.049 E0.01265
G1 X86.569 Y78.108 E0.01272
G1 X86.821 Y78.127 E0.01261
G1 X87.073 Y78.107 E0.01261
G1 X87.32 Y78.048 E0.01267
G1 X87.555 Y77.949 E0.01272
G1 X87.599 Y77.922 E0.00258
G0 F1140 X87.772 Y77.816
G0 F3600 X87.962 Y77.647
G0 X88.123 Y77.453
G0 X88.171 Y77.373
G1 F2400 E-1.6
G1 F300 Z0.45
G0 F3600 X84.219 Y78.307 Z0.45
G1 F300 Z0.3
G1 F1800 E1.56855
G1 F1200 X84.217 Y73.161 E0.25674
G1 X88.192 Y73.162 E0.19831
G1 X88.462 Y73.541 E0.02322
G1 X88.836 Y74.027 E0.0306
G1 X89.247 Y74.518 E0.03195
G1 X89.696 Y75.008 E0.03316
G1 X90.233 Y75.544 E0.03785
G1 X90.82 Y76.066 E0.03919
G1 X91.108 Y76.304 E0.01864
G1 X91.594 Y76.681 E0.03069
G1 X92.261 Y77.142 E0.04045
G1 X92.581 Y77.345 E0.01891
G1 X93.119 Y77.663 E0.03118
G1 X94.01 Y78.118 E0.04991
G1 X94.755 Y78.439 E0.04047
G1 X95.699 Y78.775 E0.04999
G1 X96.548 Y79.009 E0.04394
G1 X96.929 Y79.095 E0.01949
G1 X97.602 Y79.224 E0.03419
G1 X97.984 Y79.275 E0.01923
G1 X98.66 Y79.353 E0.03395
G1 X99.52 Y79.393 E0.04295
G1 X99.866 Y79.396 E0.01726
G1 X100.405 Y79.382 E0.0269
G1 X100.939 Y79.347 E0.0267
G1 X101.464 Y79.293 E0.02633
G1 X101.981 Y79.221 E0.02604
G1 X102.482 Y79.13 E0.0254
G1 X102.974 Y79.024 E0.02511
G1 X103.563 Y78.873 E0.03034
G1 X104.144 Y78.698 E0.03027
G1 X104.717 Y78.497 E0.03029
G1 X105.28 Y78.273 E0.03023
G1 X105.833 Y78.026 E0.03022
G1 X106.373 Y77.755 E0.03014
G1 X106.711 Y77.574 E0.01913
G1 X107.233 Y77.266 E0.03024
G1 X107.739 Y76.934 E0.03019
G1 X108.229 Y76.582 E0.0301
G1 X108.693 Y76.214 E0.02955
G1 X109.132 Y75.834 E0.02897
G1 X109.55 Y75.438 E0.02873
G1 X109.943 Y75.031 E0.02823
G1 X110.341 Y74.583 E0.0299
G1 X110.714 Y74.12 E0.02966
G1 X111.06 Y73.651 E0.02908
G1 X111.387 Y73.177 E0.02873
G1 X113.489 Y73.174 E0.10487
G1 X113.472 Y79.155 E0.29839
G1 X88.76 Y86.652 E1.28837
G1 X56.655 Y86.662 E1.60173
G1 X56.653 Y78.314 E0.41648
G1 X83.954 Y78.307 E1.36205
G0 F1140 X84.219 Y78.307
G0 F3600 X84.219 Y77.707
G1 F2400 E-1.6
G1 F300 Z0.45
G0 F3600 X111.771 Y77.809 Z0.45
G1 F300 Z0.3
G1 F1800 E1.57165
G1 F1200 X111.963 Y77.641 E0.01273
G1 X112.126 Y77.447 E0.01264
G1 X112.255 Y77.229 E0.01264
G1 X112.349 Y76.995 E0.01258
G1 X112.405 Y76.748 E0.01264
G1 X112.421 Y76.497 E0.01255
G1 X112.398 Y76.246 E0.01257
G1 X112.336 Y76.003 E0.01251
G1 X112.239 Y75.774 E0.01241
G1 X112.106 Y75.56 E0.01257
G1 X111.942 Y75.373 E0.01241
G1 X111.752 Y75.212 E0.01242
G1 X111.539 Y75.084 E0.0124
G1 X111.31 Y74.99 E0.01235
G1 X111.068 Y74.934 E0.01239
G1 X110.82 Y74.915 E0.01241
G1 X110.574 Y74.934 E0.01231
G1 X110.331 Y74.99 E0.01244
G1 X110.101 Y75.084 E0.0124
G1 X109.888 Y75.213 E0.01242
G1 X109.699 Y75.374 E0.01239
G1 X109.536 Y75.563 E0.01245
G1 X109.403 Y75.774 E0.01244
G1 X109.304 Y76.003 E0.01245
G1 X109.242 Y76.248 E0.01261
G1 X109.22 Y76.499 E0.01257
G1 X109.239 Y76.75 E0.01256
G1 X109.294 Y76.995 E0.01253
G1 X109.388 Y77.229 E0.01258
G1 X109.516 Y77.446 E0.01257
G1 X109.679 Y77.643 E0.01276
G1 X109.872 Y77.809 E0.0127
G1 X110.089 Y77.941 E0.01267
G1 X110.321 Y78.039 E0.01256
G1 X110.567 Y78.101 E0.01266
G1 X110.821 Y78.122 E0.01272
G1 X111.075 Y78.101 E0.01272
G1 X111.32 Y78.039 E0.01261
G1 X111.553 Y77.942 E0.01259
G1 X111.598 Y77.914 E0.00264
G0 F1140 X111.771 Y77.809
G0 F3600 X111.963 Y77.641
G0 X112.126 Y77.447
G0 X112.172 Y77.368
G0 X112.645 Y78.119
;TYPE:SKIN
G1 F1800 E0.01013
G1 F1200 X112.643 Y78.539 E0.02514
G1 X88.638 Y85.822 E1.50182
G1 X57.485 Y85.832 E1.86508
G1 X57.483 Y79.144 E0.4004
G1 X85.049 Y79.137 E1.65033
G1 X85.048 Y78.188 E0.05681
G1 X85.086 Y78.233 E0.00353
G1 X85.379 Y78.488 E0.02325
G1 X85.706 Y78.688 E0.02295
G1 X86.06 Y78.84 E0.02306
G1 X86.44 Y78.93 E0.02338
G1 X86.822 Y78.96 E0.02294
G1 X87.203 Y78.929 E0.02289
G1 X87.579 Y78.839 E0.02315
G1 X87.935 Y78.689 E0.02313
G1 X88.269 Y78.484 E0.02346
G1 X88.56 Y78.225 E0.02332
G1 X88.802 Y77.935 E0.02261
G1 X88.999 Y77.608 E0.02286
G1 X89.14 Y77.255 E0.02276
G1 X89.229 Y76.879 E0.02313
G1 X89.254 Y76.492 E0.02322
G1 X89.217 Y76.112 E0.02286
G1 X89.123 Y75.745 E0.02268
G1 X89.016 Y75.494 E0.01634
G1 X89.664 Y76.148 E0.05512
G1 X90.28 Y76.697 E0.0494
G1 X90.589 Y76.952 E0.02399
G1 X91.104 Y77.351 E0.039
G1 X91.803 Y77.835 E0.0509
G1 X92.148 Y78.053 E0.02443
G1 X92.719 Y78.391 E0.03972
G1 X93.657 Y78.869 E0.06303
G1 X94.452 Y79.211 E0.05181
G1 X95.45 Y79.567 E0.06344
G1 X96.346 Y79.814 E0.05564
G1 X96.759 Y79.908 E0.02536
G1 X97.469 Y80.043 E0.04327
G1 X97.882 Y80.098 E0.02494
G1 X98.593 Y80.18 E0.04285
G1 X99.498 Y80.223 E0.05424
G1 X99.873 Y80.226 E0.02245
G1 X100.442 Y80.212 E0.03408
G1 X101.009 Y80.174 E0.03402
G1 X101.564 Y80.117 E0.0334
G1 X102.113 Y80.041 E0.03318
G1 X102.644 Y79.944 E0.03232
G1 X103.165 Y79.832 E0.0319
G1 X103.786 Y79.673 E0.03838
G1 X104.401 Y79.487 E0.03847
G1 X105.007 Y79.275 E0.03844
G1 X105.603 Y79.038 E0.0384
G1 X106.189 Y78.777 E0.03841
G1 X106.755 Y78.492 E0.03794
G1 X107.118 Y78.298 E0.02464
G1 X107.672 Y77.971 E0.03851
G1 X108.209 Y77.619 E0.03844
G1 X108.551 Y77.373 E0.02522
G1 X108.641 Y77.597 E0.01445
G1 X108.835 Y77.925 E0.02281
G1 X109.084 Y78.226 E0.02339
G1 X109.382 Y78.483 E0.02356
G1 X109.71 Y78.682 E0.02297
G1 X110.057 Y78.828 E0.02254
G1 X110.43 Y78.923 E0.02304
G1 X110.821 Y78.955 E0.02349
G1 X111.212 Y78.923 E0.02349
G1 X111.583 Y78.829 E0.02291
G1 X111.931 Y78.684 E0.02257
G1 X112.265 Y78.481 E0.0234
G1 X112.495 Y78.279 E0.01833
G0 F1140 X112.558 Y78.223
G0 X112.645 Y78.119
G1 F2400 E-1.6
G1 F300 Z0.45
G0 F3600 X88.143 Y74.486 Z0.45
G1 F300 Z0.3
G1 F1800 E1.5716
G1 F1200 X87.91 Y74.349 E0.01618
G1 X87.566 Y74.205 E0.02233
G1 X87.196 Y74.118 E0.02276
G1 X86.82 Y74.087 E0.02259
G1 X86.442 Y74.118 E0.02271
G1 X86.073 Y74.207 E0.02272
G1 X85.733 Y74.349 E0.02206
G1 X85.408 Y74.538 E0.02251
G1 X85.112 Y74.789 E0.02323
G1 X85.048 Y74.863 E0.00586
G1 X85.047 Y73.991 E0.05221
G1 X87.764 Y73.992 E0.16266
G1 X88.051 Y74.367 E0.02827
G0 F1140 X88.143 Y74.486
G1 F2400 E-1.6
G1 F300 Z0.45
G0 F3600 X109.738 Y79.191 Z0.45
G1 F300 Z0.3
