;FLAVOR:Marlin
;TIME:1565
;Filament used: 1.73284m
;Layer height: 0.3
;Generated with Cura_SteamEngine 3.3.1
M82 ;absolute extrusion mode
;---------------------------------------


G21               ;metric values
G90               ;absolute positioning
M82               ;set extruder to absolute mode
M107              ;start with the fan off
M117 Preparing    ;write Preparing
M140 S45          ;set bed temperature and move on
M109 S180         ;wait for the extruder to reach 180C
G28               ;home all axes
M203 Z4           ;slow Z speed down for greater accuracy when probing
G29               ;auto bed leveling procedure
M203 Z7           ;pick up z speed again for printing
G28 X             ;home x to get as far from the plate as possible
M420 S1           ;(re) enable bed leveling turned off by the G28
G0 Y0 F5000       ;position Y in front
G0 Z15 F3000      ;position Z
M190 S65              ;wait for the bed to reach desired temperature
M109 S235.0             ;wait for the extruder to reach desired temperature
M300 S440 P100    ;play a tone
G4 P200           ;pause
M300 S440 P100    ;play a tone
G4 P200           ;pause
M300 S440 P800    ;play a tone
M0
M420 S1           ;(re) enable bed leveling to make iron-sure
M117 Print starting   ;write Print starting
G90               ;absolute positioning
G92 E0            ;reset the extruder position
G0 Z0             ;get Z down
M83               ;relative extrusion mode
G1 E22 F500       ;extrude __mm of feed stock
G1 E18 F400       ;extrude __mm of feed stock
G1 E10 F400       ;extrude __mm of feed stock
G4 S2             ;pause for ooze
M400              ;make sure all is finished
M420 S1           ;(re) enable bed leveling to make iron-sure
G0 F500 X3 Y0 Z0.6;get to the start of the LINE
G1 E2 F300        ;extrude __mm of feed stock
G1 F1000 X104 E10  ;print a thick LINE extruding __mm along the way
M82               ;absolute extrusion mode
G92 E0            ;reset the extruder position
M83 ;relative extrusion mode
G1 F2400 E-2
;LAYER_COUNT:33
;LAYER:0
M107
G0 F3600 X57.946 Y60.88 Z0.3
;TYPE:SKIRT
G1 F1800 E1.93764
G1 F1200 X58.297 Y60.609 E0.02212
G1 X58.501 Y60.465 E0.01246
G1 X59.05 Y60.126 E0.03219
G1 X59.636 Y59.858 E0.03215
G1 X60.251 Y59.665 E0.03216
G1 X60.886 Y59.549 E0.0322
G1 X61.411 Y59.514 E0.02625
G1 X69.991 Y59.368 E0.42812
G1 X75.303 Y58.93 E0.26592
G1 X80.618 Y58.188 E0.26774
G1 X85.921 Y57.137 E0.26971
G1 X89.049 Y56.373 E0.16064
G1 X89.683 Y56.259 E0.03214
G1 X90.295 Y56.224 E0.03058
G1 X104.884 Y56.258 E0.72785
G1 X105.527 Y56.299 E0.03214
G1 X106.161 Y56.42 E0.0322
G1 X106.774 Y56.618 E0.03214
G1 X107.358 Y56.891 E0.03216
G1 X107.904 Y57.234 E0.03217
G1 X108.404 Y57.641 E0.03216
G1 X108.849 Y58.108 E0.03218
G1 X109.125 Y58.466 E0.02255
G1 X109.272 Y58.675 E0.01275
G1 X109.61 Y59.225 E0.03221
G1 X109.877 Y59.812 E0.03217
G1 X110.069 Y60.427 E0.03214
G1 X110.185 Y61.075 E0.03284
G1 X110.391 Y62.875 E0.09039
G1 X111.201 Y68.242 E0.27079
G1 X112.296 Y73.478 E0.26688
G1 X113.759 Y78.915 E0.2809
G1 X113.888 Y79.547 E0.03218
G1 X113.938 Y80.278 E0.03655
G1 X113.905 Y94.849 E0.72695
G1 X113.864 Y95.492 E0.03214
G1 X113.743 Y96.125 E0.03215
G1 X113.545 Y96.739 E0.03219
G1 X113.272 Y97.323 E0.03216
G1 X112.929 Y97.869 E0.03217
G1 X112.522 Y98.369 E0.03216
G1 X112.034 Y98.832 E0.03356
G1 X111.842 Y98.992 E0.01247
G1 X111.322 Y99.373 E0.03216
G1 X110.759 Y99.687 E0.03216
G1 X110.161 Y99.929 E0.03218
G1 X109.539 Y100.095 E0.03212
G1 X108.591 Y100.196 E0.04756
G1 X105.12 Y100.248 E0.17319
G1 X99.723 Y100.547 E0.26967
G1 X94.388 Y101.144 E0.26783
G1 X89.056 Y102.05 E0.26983
G1 X86.493 Y102.598 E0.13076
G1 X82.99 Y103.468 E0.18007
G1 X82.447 Y103.609 E0.02799
G1 X81.814 Y103.732 E0.03217
G1 X81.114 Y103.776 E0.03499
G1 X66.515 Y103.702 E0.72836
G1 X65.871 Y103.659 E0.0322
G1 X65.238 Y103.536 E0.03217
G1 X64.626 Y103.336 E0.03212
G1 X64.042 Y103.062 E0.03218
G1 X63.497 Y102.718 E0.03215
G1 X62.999 Y102.309 E0.03215
G1 X62.555 Y101.841 E0.03218
G1 X62.172 Y101.322 E0.03218
G1 X61.978 Y100.995 E0.01897
G1 X61.007 Y99.218 E0.10103
G1 X57.581 Y93.121 E0.34891
G1 X57.3 Y92.541 E0.03215
G1 X57.094 Y91.93 E0.03217
G1 X56.965 Y91.298 E0.03218
G1 X56.921 Y90.838 E0.02305
G1 X56.679 Y86.093 E0.23704
G1 X56.085 Y79.936 E0.3086
G1 X56.061 Y79.424 E0.02557
G1 X56.096 Y64.845 E0.72735
G1 X56.138 Y64.201 E0.0322
G1 X56.258 Y63.568 E0.03214
G1 X56.457 Y62.954 E0.0322
G1 X56.729 Y62.37 E0.03214
G1 X57.072 Y61.824 E0.03217
G1 X57.48 Y61.325 E0.03216
G1 X57.755 Y61.063 E0.01895
G0 F1140 X57.946 Y60.88
G1 F2400 E-2
G1 F300 Z0.45
G0 F3600 X93.817 Y65.521 Z0.45
;TYPE:WALL-INNER
G1 F300 Z0.3
G1 F1800 E1.95086
G1 F1200 X101.317 Y65.541 E0.37418
G1 X101.327 Y62.04 E0.17467
G1 X104.427 Y62.048 E0.15466
G1 X104.414 Y67.463 E0.27016
G1 X104.527 Y68.163 E0.03538
G1 X104.577 Y68.635 E0.02368
G1 X104.601 Y69.068 E0.02164
G1 X104.604 Y69.484 E0.02075
G1 X104.596 Y69.766 E0.01407
G1 X104.572 Y70.138 E0.0186
G1 X104.529 Y70.524 E0.01938
G1 X104.473 Y70.864 E0.01719
G1 X104.38 Y71.304 E0.02244
G1 X104.269 Y71.717 E0.02134
G1 X104.142 Y72.1 E0.02013
G1 X103.905 Y72.681 E0.03131
G1 X103.719 Y73.062 E0.02115
G1 X103.529 Y73.395 E0.01913
G1 X103.209 Y73.883 E0.02911
G1 X102.972 Y74.198 E0.01967
G1 X102.735 Y74.475 E0.01819
G1 X102.314 Y74.905 E0.03002
G1 X102.046 Y75.146 E0.01798
G1 X101.737 Y75.388 E0.01958
G1 X101.433 Y75.599 E0.01846
G1 X100.934 Y75.895 E0.02895
G1 X100.611 Y76.056 E0.01801
G1 X100.244 Y76.209 E0.01984
G1 X100.077 Y76.272 E0.0089
G1 X99.719 Y76.388 E0.01877
G1 X99.357 Y76.481 E0.01865
G1 X98.966 Y76.557 E0.01987
G1 X98.777 Y76.587 E0.00955
G1 X98.409 Y76.628 E0.01847
G1 X98.03 Y76.65 E0.01894
G1 X97.663 Y76.651 E0.01831
G1 X97.258 Y76.632 E0.02023
G1 X96.886 Y76.598 E0.01864
G1 X96.505 Y76.546 E0.01918
G1 X96.119 Y76.473 E0.0196
G1 X95.705 Y76.377 E0.0212
G1 X95.299 Y76.263 E0.02104
G1 X94.91 Y76.136 E0.02042
G1 X94.515 Y75.989 E0.02103
G1 X94.118 Y75.821 E0.02151
G1 X93.723 Y75.639 E0.0217
G1 X93.157 Y75.347 E0.03177
G1 X92.594 Y75.018 E0.03253
G1 X91.867 Y74.533 E0.0436
G1 X91.346 Y74.139 E0.03259
G1 X90.838 Y73.718 E0.03292
G1 X90.512 Y73.432 E0.02164
G1 X90.034 Y72.98 E0.03282
G1 X89.429 Y72.347 E0.04368
G1 X88.995 Y71.847 E0.03303
G1 X88.587 Y71.335 E0.03266
G1 X88.324 Y70.982 E0.02196
G1 X87.935 Y70.43 E0.03369
G1 X87.591 Y69.896 E0.03169
G1 X87.139 Y69.119 E0.04485
G1 X86.831 Y68.527 E0.03329
G1 X86.608 Y68.055 E0.02604
G1 X86.4 Y67.584 E0.02569
G1 X86.209 Y67.109 E0.02554
G1 X85.955 Y66.411 E0.03706
G1 X85.796 Y65.914 E0.02603
G1 X85.68 Y65.503 E0.02131
G1 X90.717 Y65.514 E0.2513
G1 X90.727 Y62.015 E0.17457
G1 X93.827 Y62.022 E0.15466
G1 X93.817 Y65.256 E0.16135
G0 F1140 X93.817 Y65.521
G1 F2400 E-2
G1 F300 Z0.45
G0 F3600 X96.742 Y68.177 Z0.45
G1 F300 Z0.3
G1 F1800 E1.95086
G1 F1200 X96.37 Y68.359 E0.02066
G1 X96.038 Y68.601 E0.0205
G1 X95.753 Y68.9 E0.02061
G1 X95.527 Y69.246 E0.02062
G1 X95.366 Y69.625 E0.02054
G1 X95.275 Y70.029 E0.02066
G1 X95.257 Y70.439 E0.02047
G1 X95.313 Y70.85 E0.02069
G1 X95.444 Y71.243 E0.02067
G1 X95.639 Y71.604 E0.02047
G1 X95.896 Y71.926 E0.02055
G1 X96.208 Y72.198 E0.02065
G1 X96.563 Y72.407 E0.02055
G1 X96.951 Y72.553 E0.02068
G1 X97.356 Y72.624 E0.02051
G1 X97.77 Y72.624 E0.02065
G1 X98.175 Y72.548 E0.02056
G1 X98.56 Y72.404 E0.02051
G1 X98.916 Y72.19 E0.02072
G1 X99.227 Y71.916 E0.02068
G1 X99.482 Y71.593 E0.02053
G1 X99.676 Y71.23 E0.02053
G1 X99.803 Y70.837 E0.02061
G1 X99.857 Y70.427 E0.02063
G1 X99.837 Y70.015 E0.02058
G1 X99.745 Y69.615 E0.02048
G1 X99.581 Y69.234 E0.02069
G1 X99.352 Y68.889 E0.02066
G1 X99.066 Y68.593 E0.02053
G1 X98.732 Y68.352 E0.02055
G1 X98.36 Y68.174 E0.02057
G1 X97.961 Y68.065 E0.02064
G1 X97.549 Y68.028 E0.02064
G1 X97.139 Y68.068 E0.02055
G1 X96.953 Y68.119 E0.00962
G0 F1140 X96.742 Y68.177
G0 F3600 X96.884 Y68.553
;TYPE:WALL-OUTER
G1 F1800 E0.01093
G1 F1200 X96.577 Y68.703 E0.01705
G1 X96.303 Y68.903 E0.01692
G1 X96.068 Y69.15 E0.01701
G1 X95.881 Y69.435 E0.01701
G1 X95.748 Y69.748 E0.01697
G1 X95.673 Y70.082 E0.01708
G1 X95.658 Y70.421 E0.01693
G1 X95.704 Y70.759 E0.01702
G1 X95.812 Y71.083 E0.01704
G1 X95.974 Y71.382 E0.01697
G1 X96.186 Y71.648 E0.01697
G1 X96.443 Y71.872 E0.01701
G1 X96.736 Y72.045 E0.01698
G1 X97.057 Y72.165 E0.0171
G1 X97.391 Y72.224 E0.01692
G1 X97.733 Y72.224 E0.01706
G1 X98.067 Y72.161 E0.01696
G1 X98.386 Y72.042 E0.01699
G1 X98.679 Y71.866 E0.01705
G1 X98.935 Y71.64 E0.01704
G1 X99.146 Y71.373 E0.01698
G1 X99.306 Y71.073 E0.01696
G1 X99.411 Y70.748 E0.01704
G1 X99.456 Y70.41 E0.01701
G1 X99.439 Y70.07 E0.01698
G1 X99.363 Y69.74 E0.01689
G1 X99.228 Y69.425 E0.0171
G1 X99.039 Y69.141 E0.01702
G1 X98.803 Y68.896 E0.01697
G1 X98.527 Y68.697 E0.01698
G1 X98.22 Y68.55 E0.01698
G1 X97.89 Y68.46 E0.01707
G1 X97.551 Y68.43 E0.01698
G1 X97.212 Y68.463 E0.01699
G1 X97.058 Y68.506 E0.00798
G0 F1140 X96.884 Y68.553
G0 F3600 X96.577 Y68.703
G0 X96.368 Y68.855
G1 F2400 E-2
G1 F300 Z0.45
G0 F3600 X94.218 Y65.122 Z0.45
G1 F300 Z0.3
G1 F1800 E1.94667
G1 F1200 X100.918 Y65.14 E0.33427
G1 X100.928 Y61.715 E0.17087
G1 X100.981 Y61.639 E0.00462
G1 X104.774 Y61.649 E0.18923
G1 X104.828 Y61.724 E0.00461
G1 X104.814 Y67.431 E0.28472
G1 X104.924 Y68.111 E0.03437
G1 X104.975 Y68.593 E0.02418
G1 X105.001 Y69.065 E0.02358
G1 X105.004 Y69.495 E0.02145
G1 X104.996 Y69.777 E0.01407
G1 X104.97 Y70.182 E0.02025
G1 X104.926 Y70.577 E0.01983
G1 X104.868 Y70.929 E0.0178
G1 X104.769 Y71.398 E0.02391
G1 X104.654 Y71.826 E0.02211
G1 X104.513 Y72.249 E0.02225
G1 X104.265 Y72.856 E0.03271
G1 X104.075 Y73.246 E0.02164
G1 X103.868 Y73.607 E0.02076
G1 X103.534 Y74.118 E0.03046
G1 X103.29 Y74.442 E0.02024
G1 X103.028 Y74.748 E0.0201
G1 X102.592 Y75.193 E0.03108
G1 X102.301 Y75.454 E0.0195
G1 X101.975 Y75.71 E0.02068
G1 X101.654 Y75.933 E0.0195
G1 X101.127 Y76.246 E0.03058
G1 X100.776 Y76.42 E0.01955
G1 X100.395 Y76.579 E0.0206
G1 X100.209 Y76.649 E0.00991
G1 X99.835 Y76.771 E0.01963
G1 X99.433 Y76.874 E0.0207
G1 X99.042 Y76.95 E0.01987
G1 X98.837 Y76.982 E0.01035
G1 X98.441 Y77.027 E0.01988
G1 X98.036 Y77.05 E0.02024
G1 X97.644 Y77.051 E0.01956
G1 X97.238 Y77.031 E0.02028
G1 X96.837 Y76.995 E0.02009
G1 X96.439 Y76.94 E0.02004
G1 X96.029 Y76.863 E0.02081
G1 X95.615 Y76.767 E0.0212
G1 X95.186 Y76.647 E0.02222
G1 X94.77 Y76.511 E0.02184
G1 X94.36 Y76.358 E0.02183
G1 X93.962 Y76.19 E0.02155
G1 X93.555 Y76.002 E0.02237
G1 X92.958 Y75.694 E0.03351
G1 X92.376 Y75.353 E0.03365
G1 X91.645 Y74.866 E0.04382
G1 X91.097 Y74.452 E0.03426
G1 X90.574 Y74.019 E0.03387
G1 X90.248 Y73.733 E0.02164
G1 X89.759 Y73.271 E0.03356
G1 X89.131 Y72.613 E0.04538
G1 X88.685 Y72.1 E0.03391
G1 X88.266 Y71.574 E0.03355
G1 X88.003 Y71.221 E0.02196
G1 X87.608 Y70.661 E0.03419
G1 X87.245 Y70.097 E0.03346
G1 X86.787 Y69.309 E0.04547
G1 X86.476 Y68.712 E0.03358
G1 X86.246 Y68.226 E0.02682
G1 X86.034 Y67.745 E0.02622
G1 X85.833 Y67.246 E0.02684
G1 X85.579 Y66.548 E0.03706
G1 X85.415 Y66.036 E0.02682
G1 X85.271 Y65.525 E0.02649
G1 X85.169 Y65.102 E0.02171
G1 X90.318 Y65.113 E0.25689
G1 X90.328 Y61.69 E0.17077
G1 X90.381 Y61.614 E0.00462
G1 X94.174 Y61.623 E0.18923
G1 X94.228 Y61.698 E0.00461
G1 X94.218 Y64.857 E0.1576
G0 F1140 X94.218 Y65.122
G0 F3600 X94.818 Y65.123
G1 F2400 E-2
G1 F300 Z0.45
G0 F3600 X93.385 Y65.949 Z0.45
;TYPE:SKIN
G1 F300 Z0.3
G1 F1800 E1.95086
G1 F1200 X101.745 Y65.973 E0.5005
G1 X101.755 Y62.472 E0.2096
G1 X103.996 Y62.476 E0.13416
G1 X103.984 Y67.497 E0.3006
G1 X104.099 Y68.208 E0.04312
G1 X104.147 Y68.659 E0.02715
G1 X104.171 Y69.092 E0.02596
G1 X104.174 Y69.471 E0.02269
G1 X104.144 Y70.091 E0.03716
G1 X104.101 Y70.477 E0.02325
G1 X104.052 Y70.775 E0.01808
G1 X103.962 Y71.203 E0.02618
G1 X103.858 Y71.589 E0.02393
G1 X103.74 Y71.946 E0.02251
G1 X103.518 Y72.492 E0.03529
G1 X103.334 Y72.87 E0.02517
G1 X103.163 Y73.167 E0.02052
G1 X102.856 Y73.637 E0.03361
G1 X102.639 Y73.926 E0.02164
G1 X102.422 Y74.18 E0.02
G1 X102.026 Y74.585 E0.03391
G1 X101.763 Y74.821 E0.02116
G1 X101.485 Y75.04 E0.02119
G1 X101.207 Y75.233 E0.02026
G1 X100.731 Y75.516 E0.03315
G1 X100.433 Y75.664 E0.01992
G1 X99.937 Y75.865 E0.03204
G1 X99.604 Y75.973 E0.02096
G1 X99.257 Y76.062 E0.02145
G1 X98.908 Y76.131 E0.0213
G1 X98.721 Y76.16 E0.01133
G1 X98.376 Y76.198 E0.02078
G1 X98.005 Y76.22 E0.02225
G1 X97.681 Y76.221 E0.0194
G1 X97.278 Y76.202 E0.02415
G1 X96.938 Y76.171 E0.02044
G1 X96.578 Y76.122 E0.02175
G1 X96.199 Y76.05 E0.0231
G1 X95.823 Y75.962 E0.02312
G1 X95.415 Y75.848 E0.02536
G1 X95.05 Y75.729 E0.02298
G1 X94.678 Y75.591 E0.02375
G1 X94.292 Y75.427 E0.02511
G1 X93.903 Y75.248 E0.02564
G1 X93.365 Y74.97 E0.03626
G1 X92.811 Y74.646 E0.03842
G1 X92.116 Y74.182 E0.05003
G1 X91.614 Y73.802 E0.03769
G1 X91.113 Y73.387 E0.03895
G1 X90.796 Y73.109 E0.02524
G1 X90.337 Y72.675 E0.03782
G1 X89.748 Y72.058 E0.05107
G1 X89.32 Y71.565 E0.03909
G1 X88.923 Y71.067 E0.03813
G1 X88.668 Y70.725 E0.02554
G1 X88.292 Y70.191 E0.0391
G1 X87.958 Y69.671 E0.037
G1 X87.505 Y68.893 E0.0539
G1 X87.216 Y68.336 E0.03757
G1 X86.997 Y67.872 E0.03072
G1 X86.796 Y67.416 E0.02983
G1 X86.608 Y66.948 E0.03019
G1 X86.359 Y66.264 E0.04358
G1 X86.254 Y65.935 E0.02068
G1 X91.145 Y65.944 E0.29282
G1 X91.155 Y62.446 E0.20942
G1 X93.395 Y62.451 E0.13411
G1 X93.385 Y65.729 E0.19625
G0 F1140 X93.385 Y65.949
G1 F2400 E-2
G1 F300 Z0.45
G0 F3600 X96.147 Y67.989 Z0.45
G1 F300 Z0.3
G1 F1800 E1.95081
G1 F1200 X95.754 Y68.276 E0.02913
G1 X95.415 Y68.631 E0.02939
G1 X95.146 Y69.042 E0.02941
G1 X94.955 Y69.492 E0.02927
G1 X94.847 Y69.971 E0.0294
G1 X94.825 Y70.458 E0.02919
G1 X94.892 Y70.948 E0.02961
G1 X95.048 Y71.415 E0.02948
G1 X95.279 Y71.842 E0.02906
G1 X95.584 Y72.225 E0.02931
G1 X95.956 Y72.548 E0.02949
G1 X96.376 Y72.796 E0.0292
G1 X96.837 Y72.97 E0.0295
G1 X97.319 Y73.054 E0.02929
G1 X97.811 Y73.054 E0.02946
G1 X98.291 Y72.963 E0.02925
G1 X98.747 Y72.793 E0.02914
G1 X99.171 Y72.538 E0.02962
G1 X99.541 Y72.213 E0.02948
G1 X99.843 Y71.83 E0.0292
G1 X100.074 Y71.399 E0.02928
G1 X100.224 Y70.932 E0.02937
G1 X100.289 Y70.445 E0.02941
G1 X100.265 Y69.956 E0.02931
G1 X100.156 Y69.481 E0.02918
G1 X99.961 Y69.028 E0.02953
G1 X99.689 Y68.618 E0.02946
G1 X99.348 Y68.266 E0.02934
G1 X98.952 Y67.98 E0.02924
G1 X98.511 Y67.77 E0.02924
G1 X98.038 Y67.64 E0.02937
G1 X97.547 Y67.596 E0.02951
G1 X97.061 Y67.644 E0.02924
G1 X96.589 Y67.773 E0.02929
G1 X96.345 Y67.893 E0.01628
G0 F1140 X96.147 Y67.989
G1 F2400 E-2
G1 F300 Z0.45
G0 F3600 X92.515 Y74.186 Z0.45
G1 F300 Z0.3
G1 F1800 E1.95081
G1 F1200 X88.647 Y70.319 E0.32745
G1 X88.577 Y70.249
G1 F2400 E-2
G1 F300 Z0.45
G0 F3600 X87.587 Y68.58 Z0.45
G1 F300 Z0.3
G1 F1800 E1.93764
G1 F1200 X94.11 Y75.103 E0.55228
G1 X94.18 Y75.173
G0 F3600 X95.25 Y75.564
G1 F1200 X86.982 Y67.296 E0.70002
G1 X86.912 Y67.226
G0 F3600 X87.198 Y66.155
G1 F1200 X97 Y75.957 E0.8299
G1 X97.07 Y76.027
G0 F3600 X97.724 Y76.002
G1 F1200 X87.879 Y66.156 E0.83358
G1 X87.809 Y66.086
G0 F3600 X88.558 Y66.157
G1 F1200 X98.378 Y75.977 E0.83142
G1 X98.448 Y76.047
G0 F3600 X98.975 Y75.895
G1 F1200 X95.664 Y72.584 E0.28033
G1 X95.594 Y72.514
G0 F3600 X95.304 Y72.224
G1 F1200 X89.238 Y66.159 E0.51354
G1 X89.168 Y66.089
G0 F3600 X89.918 Y66.159
G1 F1200 X94.665 Y70.906 E0.40191
G1 X94.735 Y70.976
G0 F3600 X94.618 Y70.181
G1 F1200 X90.598 Y66.161 E0.34036
G1 X90.528 Y66.091
G0 F3600 X91.278 Y66.161
G1 F1200 X94.708 Y69.592 E0.29045
G1 X94.778 Y69.662
G0 F3600 X94.887 Y69.092
G1 F1200 X91.363 Y65.567 E0.29841
G1 X91.293 Y65.497
G0 F3600 X91.364 Y64.89
G1 F1200 X95.134 Y68.66 E0.31919
G1 X95.204 Y68.73
G0 F3600 X95.441 Y68.288
G1 F1200 X93.319 Y66.166 E0.17966
G1 X93.249 Y66.096
G0 F3600 X93.165 Y66.012
G1 F1200 X91.366 Y64.213 E0.15231
G1 X91.296 Y64.143
G0 F3600 X91.368 Y63.536
G1 F1200 X93.167 Y65.335 E0.15231
G1 X93.237 Y65.405
G0 F3600 X93.169 Y64.659
G1 F1200 X91.37 Y62.859 E0.15236
G1 X91.3 Y62.789
G0 F3600 X91.855 Y62.666
G1 F1200 X93.171 Y63.982 E0.11142
G1 X93.241 Y64.052
G0 F3600 X93.174 Y63.305
G1 F1200 X92.535 Y62.667 E0.05406
G1 F2400 E-2
G1 F300 Z0.45
G0 F3600 X94 Y66.168 Z0.45
G1 F300 Z0.3
G1 F1800 E1.93764
G1 F1200 X95.802 Y67.97 E0.15257
G1 X95.872 Y68.04
