;FLAVOR:Marlin
;TIME:3125
;Filament used: 3.45906m
;Layer height: 0.3
;Generated with Cura_SteamEngine 3.3.1
M82 ;absolute extrusion mode
;---------------------------------------


G21               ;metric values
G90               ;absolute positioning
M82               ;set extruder to absolute mode
M107              ;start with the fan off
M117 Preparing    ;write Preparing
M140 S45          ;set bed temperature and move on
M109 S180         ;wait for the extruder to reach 180C
G28               ;home all axes
M203 Z4           ;slow Z speed down for greater accuracy when probing
G29               ;auto bed leveling procedure
M203 Z7           ;pick up z speed again for printing
G28 X             ;home x to get as far from the plate as possible
M420 S1           ;(re) enable bed leveling turned off by the G28
G0 Y0 F5000       ;position Y in front
G0 Z15 F3000      ;position Z
M190 S65              ;wait for the bed to reach desired temperature
M109 S235.0             ;wait for the extruder to reach desired temperature
M300 S440 P100    ;play a tone
G4 P200           ;pause
M300 S440 P100    ;play a tone
G4 P200           ;pause
M300 S440 P800    ;play a tone
M0
M420 S1           ;(re) enable bed leveling to make iron-sure
M117 Print starting   ;write Print starting
G90               ;absolute positioning
G92 E0            ;reset the extruder position
G0 Z0             ;get Z down
M83               ;relative extrusion mode
G1 E22 F500       ;extrude __mm of feed stock
G1 E18 F400       ;extrude __mm of feed stock
G1 E10 F400       ;extrude __mm of feed stock
G4 S2             ;pause for ooze
M400              ;make sure all is finished
M420 S1           ;(re) enable bed leveling to make iron-sure
G0 F500 X3 Y0 Z0.6;get to the start of the LINE
G1 E2 F300        ;extrude __mm of feed stock
G1 F1000 X104 E10  ;print a thick LINE extruding __mm along the way
M82               ;absolute extrusion mode
G92 E0            ;reset the extruder position
M83 ;relative extrusion mode
G1 F2400 E-2
;LAYER_COUNT:33
;LAYER:0
M107
G0 F3600 X20.325 Y32.989 Z0.3
;TYPE:SKIRT
G1 F1800 E1.93764
G1 F1200 X20.874 Y32.65 E0.03219
G1 X21.46 Y32.381 E0.03217
G1 X22.074 Y32.187 E0.03213
G1 X22.709 Y32.071 E0.0322
G1 X23.325 Y32.034 E0.03079
G1 X26.357 Y32.032 E0.15127
G1 X31.791 Y31.892 E0.27119
G1 X37.123 Y31.453 E0.26691
G1 X42.444 Y30.709 E0.26805
G1 X47.762 Y29.657 E0.27046
G1 X51.044 Y28.88 E0.16827
G1 X51.679 Y28.77 E0.03215
G1 X52.255 Y28.74 E0.02878
G1 X66.714 Y28.78 E0.72137
G1 X67.358 Y28.822 E0.0322
G1 X67.991 Y28.943 E0.03215
G1 X68.604 Y29.141 E0.03214
G1 X69.188 Y29.414 E0.03216
G1 X69.734 Y29.757 E0.03217
G1 X70.233 Y30.165 E0.03216
G1 X70.678 Y30.631 E0.03215
G1 X70.963 Y31.002 E0.02334
G1 X71.109 Y31.211 E0.01272
G1 X71.445 Y31.761 E0.03215
G1 X71.71 Y32.349 E0.03218
G1 X71.9 Y32.965 E0.03216
G1 X72.012 Y33.597 E0.03202
G1 X72.218 Y35.397 E0.09039
G1 X73.028 Y40.764 E0.27079
G1 X74.123 Y46 E0.26688
G1 X75.586 Y51.437 E0.2809
G1 X75.715 Y52.069 E0.03218
G1 X75.765 Y52.8 E0.03655
G1 X75.731 Y67.379 E0.72735
G1 X75.69 Y68.022 E0.03214
G1 X75.064 Y72.951 E0.24788
G1 X74.671 Y78.305 E0.26783
G1 X74.582 Y83.654 E0.2669
G1 X74.795 Y89.018 E0.26782
G1 X75.298 Y94.303 E0.26486
G1 X75.321 Y94.81 E0.02532
G1 X75.282 Y109.391 E0.72745
G1 X75.24 Y110.034 E0.03215
G1 X75.119 Y110.667 E0.03215
G1 X74.921 Y111.281 E0.03219
G1 X74.648 Y111.865 E0.03216
G1 X74.305 Y112.411 E0.03217
G1 X73.897 Y112.91 E0.03216
G1 X73.431 Y113.355 E0.03215
G1 X73.087 Y113.621 E0.02169
G1 X72.885 Y113.764 E0.01235
G1 X72.336 Y114.103 E0.03219
G1 X71.75 Y114.372 E0.03217
G1 X71.136 Y114.566 E0.03213
G1 X70.501 Y114.683 E0.03221
G1 X70.011 Y114.718 E0.02451
G1 X63.774 Y114.875 E0.31126
G1 X58.423 Y115.322 E0.26789
G1 X53.126 Y116.068 E0.26688
G1 X47.835 Y117.122 E0.26916
G1 X44.372 Y117.982 E0.17802
G1 X43.829 Y118.123 E0.02799
G1 X43.196 Y118.246 E0.03217
G1 X42.496 Y118.29 E0.03499
G1 X27.897 Y118.216 E0.72836
G1 X27.253 Y118.173 E0.0322
G1 X26.62 Y118.05 E0.03217
G1 X26.008 Y117.85 E0.03212
G1 X25.424 Y117.576 E0.03218
G1 X24.879 Y117.232 E0.03215
G1 X24.381 Y116.823 E0.03215
G1 X23.937 Y116.355 E0.03218
G1 X23.554 Y115.836 E0.03218
G1 X23.383 Y115.551 E0.01658
G1 X18.956 Y107.623 E0.45302
G1 X18.677 Y107.042 E0.03216
G1 X18.472 Y106.431 E0.03215
G1 X18.345 Y105.799 E0.03216
G1 X18.303 Y105.352 E0.0224
G1 X18.061 Y100.607 E0.23704
G1 X17.467 Y94.45 E0.3086
G1 X17.443 Y93.937 E0.02562
G1 X17.479 Y79.341 E0.7282
G1 X17.53 Y78.625 E0.03581
G1 X17.831 Y76.495 E0.10732
G1 X18.378 Y71.135 E0.2688
G1 X18.62 Y65.774 E0.26773
G1 X18.559 Y60.406 E0.26783
G1 X18.191 Y55.012 E0.26973
G1 X17.912 Y52.386 E0.13175
G1 X17.883 Y51.783 E0.03012
G1 X17.944 Y45.939 E0.29157
G1 X17.923 Y37.392 E0.42641
G1 X17.961 Y36.748 E0.03219
G1 X18.079 Y36.114 E0.03217
G1 X18.274 Y35.5 E0.03214
G1 X18.544 Y34.914 E0.03219
G1 X18.884 Y34.367 E0.03213
G1 X19.29 Y33.865 E0.03221
G1 X19.754 Y33.418 E0.03214
G1 X20.109 Y33.142 E0.02243
G0 F1140 X20.12 Y33.134
G0 X20.325 Y32.989
G1 F2400 E-2
G1 F300 Z0.45
G0 F3600 X27.205 Y40.933 Z0.45
;TYPE:WALL-INNER
G1 F300 Z0.3
G1 F1800 E1.95086
G1 F1200 X23.704 Y40.925 E0.17467
G1 X23.712 Y37.825 E0.15466
G1 X26.395 Y37.832 E0.13386
G1 X27.483 Y38.024 E0.05512
G1 X28.233 Y38.18 E0.03822
G1 X28.963 Y38.351 E0.03741
G1 X29.696 Y38.546 E0.03784
G1 X30.418 Y38.756 E0.03751
G1 X31.132 Y38.981 E0.03735
G1 X31.842 Y39.224 E0.03744
G1 X32.565 Y39.49 E0.03843
G1 X33.258 Y39.761 E0.03712
G1 X34.206 Y40.156 E0.05124
G1 X35.142 Y40.576 E0.05118
G1 X36.058 Y41.013 E0.05063
G1 X37.277 Y41.629 E0.06814
G1 X38.535 Y42.313 E0.07144
G1 X39.785 Y43.031 E0.07192
G1 X41.001 Y43.767 E0.07091
G1 X42.855 Y44.946 E0.10961
G1 X44.018 Y45.718 E0.06964
G1 X45.147 Y46.489 E0.06821
G1 X46.252 Y47.261 E0.06725
G1 X51.139 Y50.739 E0.29925
G1 X52.625 Y51.759 E0.08992
G1 X53.347 Y52.239 E0.04325
G1 X53.984 Y52.647 E0.03774
G1 X54.61 Y53.033 E0.03669
G1 X55.226 Y53.394 E0.03562
G1 X55.834 Y53.732 E0.03471
G1 X56.408 Y54.028 E0.03222
G1 X56.972 Y54.298 E0.0312
G1 X57.524 Y54.537 E0.03001
G1 X58.062 Y54.742 E0.02872
G1 X58.539 Y54.902 E0.0251
G1 X59.006 Y55.035 E0.02423
G1 X59.262 Y55.1 E0.01318
G1 X59.727 Y55.196 E0.02369
G1 X60.333 Y55.279 E0.03052
G1 X60.934 Y55.315 E0.03004
G1 X61.35 Y55.313 E0.02075
G1 X61.768 Y55.285 E0.0209
G1 X62.372 Y55.207 E0.03038
G1 X62.965 Y55.08 E0.03026
G1 X63.542 Y54.913 E0.02997
G1 X64.104 Y54.709 E0.02983
G1 X64.651 Y54.475 E0.02968
G1 X65.293 Y54.165 E0.03557
G1 X65.911 Y53.824 E0.03521
G1 X66.889 Y53.229 E0.05711
G1 X69.975 Y53.237 E0.15396
G1 X69.967 Y56.337 E0.15466
G1 X66.468 Y56.327 E0.17457
G1 X66.448 Y63.827 E0.37418
G1 X69.949 Y63.837 E0.17467
G1 X69.942 Y66.937 E0.15466
G1 X67.45 Y66.932 E0.12433
G1 X66.887 Y66.816 E0.02868
G1 X66.234 Y66.665 E0.03344
G1 X65.687 Y66.522 E0.02821
G1 X65.147 Y66.366 E0.02804
G1 X64.041 Y66.004 E0.05806
G1 X62.948 Y65.598 E0.05817
G1 X61.862 Y65.146 E0.05869
G1 X60.903 Y64.714 E0.05248
G1 X59.962 Y64.258 E0.05217
G1 X59.015 Y63.771 E0.05313
G1 X58.091 Y63.273 E0.05237
G1 X57.091 Y62.71 E0.05725
G1 X56.18 Y62.179 E0.05261
G1 X55.291 Y61.645 E0.05174
G1 X53.836 Y60.74 E0.08549
G1 X51.949 Y59.534 E0.11173
G1 X47.635 Y56.756 E0.25599
G1 X46.476 Y56.027 E0.06831
G1 X44.716 Y54.959 E0.10271
G1 X43.201 Y54.092 E0.08709
G1 X42.151 Y53.524 E0.05956
G1 X41.08 Y52.978 E0.05998
G1 X39.988 Y52.46 E0.0603
G1 X38.881 Y51.98 E0.0602
G1 X37.762 Y51.544 E0.05992
G1 X36.966 Y51.269 E0.04202
G1 X36.389 Y51.088 E0.03017
G1 X35.804 Y50.92 E0.03037
G1 X34.866 Y50.688 E0.04821
G1 X34.261 Y50.565 E0.0308
G1 X33.459 Y50.439 E0.0405
G1 X32.928 Y50.374 E0.02669
G1 X32.392 Y50.328 E0.02684
G1 X31.854 Y50.303 E0.02687
G1 X31.314 Y50.3 E0.02694
G1 X30.774 Y50.319 E0.02696
G1 X30.229 Y50.361 E0.02727
G1 X29.416 Y50.466 E0.0409
G1 X28.881 Y50.567 E0.02716
G1 X28.361 Y50.691 E0.02667
G1 X27.849 Y50.835 E0.02653
G1 X27.342 Y51.002 E0.02663
G1 X26.582 Y51.294 E0.04062
G1 X26.056 Y51.531 E0.02878
G1 X23.679 Y51.525 E0.11859
G1 X23.686 Y48.425 E0.15466
G1 X27.185 Y48.433 E0.17457
G1 X27.205 Y41.198 E0.36096
G0 F1140 X27.205 Y40.933
G1 F2400 E-2
G1 F300 Z0.45
G0 F3600 X30.785 Y42.334 Z0.45
G1 F300 Z0.3
G1 F1800 E1.95086
G1 F1200 X30.417 Y42.564 E0.02165
G1 X30.093 Y42.849 E0.02153
G1 X29.825 Y43.177 E0.02113
G1 X29.664 Y43.439 E0.01534
G1 X29.602 Y43.563 E0.00692
G1 X29.485 Y43.847 E0.01532
G1 X29.38 Y44.259 E0.02121
G1 X29.344 Y44.689 E0.02153
G1 X29.378 Y45.118 E0.02147
G1 X29.48 Y45.537 E0.02151
G1 X29.651 Y45.933 E0.02152
G1 X29.879 Y46.291 E0.02118
G1 X30.082 Y46.526 E0.01549
G1 X30.179 Y46.622 E0.00681
G1 X30.413 Y46.821 E0.01533
G1 X30.773 Y47.047 E0.02121
G1 X31.169 Y47.215 E0.02146
G1 X31.589 Y47.316 E0.02155
G1 X32.019 Y47.346 E0.0215
G1 X32.448 Y47.307 E0.02149
G1 X32.859 Y47.2 E0.02119
G1 X33.159 Y47.075 E0.01621
G1 X33.509 Y46.868 E0.02029
G1 X33.625 Y46.782 E0.0072
G1 X33.857 Y46.581 E0.01531
G1 X34.135 Y46.259 E0.02122
G1 X34.362 Y45.893 E0.02149
G1 X34.525 Y45.49 E0.02169
G1 X34.617 Y45.076 E0.02116
G1 X34.642 Y44.773 E0.01517
G1 X34.643 Y44.633 E0.00698
G1 X34.619 Y44.325 E0.01541
G1 X34.528 Y43.912 E0.0211
G1 X34.367 Y43.512 E0.02151
G1 X34.145 Y43.144 E0.02144
G1 X33.866 Y42.815 E0.02152
G1 X33.535 Y42.535 E0.02163
G1 X33.163 Y42.315 E0.02156
G1 X32.769 Y42.161 E0.0211
G1 X32.472 Y42.09 E0.01523
G1 X32.333 Y42.068 E0.00702
G1 X32.026 Y42.046 E0.01536
G1 X31.602 Y42.074 E0.0212
G1 X31.185 Y42.172 E0.02137
G1 X31.019 Y42.239 E0.00893
G0 F1140 X30.785 Y42.334
G1 F2400 E-2
G1 F300 Z0.45
G0 F3600 X60.448 Y57.707 Z0.45
G1 F300 Z0.3
G1 F1800 E1.95026
G1 F1200 X60.081 Y57.936 E0.02158
G1 X59.756 Y58.22 E0.02153
G1 X59.489 Y58.547 E0.02106
G1 X59.326 Y58.811 E0.01548
G1 X59.263 Y58.938 E0.00707
G1 X59.148 Y59.22 E0.01519
G1 X59.043 Y59.631 E0.02116
G1 X59.007 Y60.061 E0.02153
G1 X59.041 Y60.49 E0.02147
G1 X59.143 Y60.909 E0.02151
G1 X59.314 Y61.305 E0.02152
G1 X59.542 Y61.663 E0.02118
G1 X59.745 Y61.898 E0.01549
G1 X59.843 Y61.994 E0.00684
G1 X60.076 Y62.192 E0.01525
G1 X60.436 Y62.419 E0.02123
G1 X60.832 Y62.586 E0.02144
G1 X61.251 Y62.688 E0.02151
G1 X61.682 Y62.718 E0.02155
G1 X62.111 Y62.678 E0.0215
G1 X62.528 Y62.571 E0.02148
G1 X62.915 Y62.398 E0.02115
G1 X63.19 Y62.228 E0.01613
G1 X63.517 Y61.957 E0.02119
G1 X63.799 Y61.631 E0.0215
G1 X64.025 Y61.263 E0.02155
G1 X64.188 Y60.863 E0.02155
G1 X64.28 Y60.448 E0.02121
G1 X64.305 Y60.145 E0.01517
G1 X64.306 Y60.005 E0.00698
G1 X64.282 Y59.697 E0.01541
G1 X64.191 Y59.284 E0.0211
G1 X64.03 Y58.884 E0.02151
G1 X63.808 Y58.516 E0.02144
G1 X63.529 Y58.187 E0.02152
G1 X63.198 Y57.907 E0.02163
G1 X62.826 Y57.687 E0.02156
G1 X62.433 Y57.533 E0.02106
G1 X62.131 Y57.46 E0.0155
G1 X61.99 Y57.44 E0.0071
G1 X61.689 Y57.418 E0.01506
G1 X61.265 Y57.446 E0.0212
G1 X60.847 Y57.544 E0.02142
G1 X60.682 Y57.612 E0.0089
G0 F1140 X60.448 Y57.707
G0 F3600 X60.631 Y58.064
;TYPE:WALL-OUTER
G1 F1800 E0.01262
G1 F1200 X60.32 Y58.258 E0.01829
G1 X60.045 Y58.499 E0.01824
G1 X59.815 Y58.78 E0.01812
G1 X59.676 Y59.005 E0.01319
G1 X59.628 Y59.102 E0.0054
G1 X59.529 Y59.345 E0.01309
G1 X59.439 Y59.698 E0.01817
G1 X59.408 Y60.062 E0.01823
G1 X59.437 Y60.426 E0.01822
G1 X59.524 Y60.781 E0.01824
G1 X59.669 Y61.117 E0.01826
G1 X59.864 Y61.424 E0.01814
G1 X60.037 Y61.624 E0.01319
G1 X60.113 Y61.699 E0.00533
G1 X60.313 Y61.869 E0.0131
G1 X60.621 Y62.063 E0.01816
G1 X60.958 Y62.205 E0.01824
G1 X61.313 Y62.291 E0.01822
G1 X61.678 Y62.317 E0.01826
G1 X62.042 Y62.283 E0.01824
G1 X62.396 Y62.192 E0.01824
G1 X62.728 Y62.044 E0.01813
G1 X62.956 Y61.903 E0.01337
G1 X63.236 Y61.67 E0.01817
G1 X63.475 Y61.394 E0.01821
G1 X63.667 Y61.082 E0.01828
G1 X63.805 Y60.743 E0.01826
G1 X63.884 Y60.388 E0.01814
G1 X63.905 Y60.127 E0.01306
G1 X63.906 Y60.019 E0.00539
G1 X63.885 Y59.756 E0.01316
G1 X63.807 Y59.402 E0.01808
G1 X63.671 Y59.063 E0.01822
G1 X63.482 Y58.75 E0.01824
G1 X63.245 Y58.471 E0.01826
G1 X62.965 Y58.234 E0.0183
G1 X62.65 Y58.048 E0.01825
G1 X62.312 Y57.915 E0.01812
G1 X62.056 Y57.853 E0.01314
G1 X61.948 Y57.838 E0.00544
G1 X61.688 Y57.819 E0.01301
G1 X61.324 Y57.843 E0.0182
G1 X60.969 Y57.926 E0.01819
G1 X60.829 Y57.984 E0.00756
G0 F1140 X60.631 Y58.064
G0 F3600 X60.32 Y58.258
G0 X60.144 Y58.412
G1 F2400 E-2
G1 F300 Z0.45
G0 F3600 X30.968 Y42.692 Z0.45
G1 F300 Z0.3
G1 F1800 E1.94831
G1 F1200 X30.657 Y42.886 E0.01829
G1 X30.382 Y43.128 E0.01828
G1 X30.152 Y43.409 E0.01812
G1 X30.014 Y43.634 E0.01317
G1 X29.966 Y43.729 E0.00531
G1 X29.866 Y43.973 E0.01316
G1 X29.776 Y44.326 E0.01817
G1 X29.745 Y44.69 E0.01823
G1 X29.774 Y45.054 E0.01822
G1 X29.861 Y45.409 E0.01824
G1 X30.006 Y45.745 E0.01826
G1 X30.201 Y46.052 E0.01814
G1 X30.374 Y46.252 E0.01319
G1 X30.45 Y46.327 E0.00533
G1 X30.65 Y46.498 E0.01313
G1 X30.958 Y46.691 E0.01813
G1 X31.295 Y46.834 E0.01826
G1 X31.65 Y46.919 E0.01821
G1 X32.015 Y46.945 E0.01826
G1 X32.379 Y46.912 E0.01823
G1 X32.731 Y46.82 E0.01815
G1 X32.979 Y46.717 E0.0134
G1 X33.287 Y46.534 E0.01787
G1 X33.375 Y46.469 E0.00546
G1 X33.574 Y46.297 E0.01312
G1 X33.812 Y46.022 E0.01814
G1 X34.004 Y45.711 E0.01823
G1 X34.142 Y45.371 E0.01831
G1 X34.221 Y45.016 E0.01814
G1 X34.242 Y44.755 E0.01306
G1 X34.243 Y44.647 E0.00539
G1 X34.222 Y44.384 E0.01316
G1 X34.144 Y44.03 E0.01808
G1 X34.008 Y43.691 E0.01822
G1 X33.819 Y43.378 E0.01824
G1 X33.582 Y43.099 E0.01826
G1 X33.302 Y42.862 E0.0183
G1 X32.987 Y42.676 E0.01825
G1 X32.649 Y42.544 E0.0181
G1 X32.394 Y42.483 E0.01308
G1 X32.287 Y42.466 E0.00541
G1 X32.025 Y42.447 E0.01311
G1 X31.661 Y42.471 E0.0182
G1 X31.307 Y42.554 E0.01814
G1 X31.166 Y42.612 E0.00761
G0 F1140 X30.968 Y42.692
G0 F3600 X30.657 Y42.886
G0 X30.482 Y43.04
G1 F2400 E-2
G1 F300 Z0.45
G0 F3600 X26.804 Y41.332 Z0.45
G1 F300 Z0.3
G1 F1800 E1.94831
G1 F1200 X23.379 Y41.324 E0.17087
G1 X23.303 Y41.271 E0.00462
G1 X23.313 Y37.478 E0.18923
G1 X23.388 Y37.424 E0.00461
G1 X26.43 Y37.432 E0.15177
G1 X27.565 Y37.632 E0.0575
G1 X28.315 Y37.789 E0.03823
G1 X29.065 Y37.965 E0.03843
G1 X29.798 Y38.159 E0.03783
G1 X30.53 Y38.372 E0.03803
G1 X31.262 Y38.603 E0.03829
G1 X31.98 Y38.849 E0.03787
G1 X32.703 Y39.114 E0.03842
G1 X33.412 Y39.392 E0.03799
G1 X34.37 Y39.791 E0.05177
G1 X35.306 Y40.211 E0.05118
G1 X36.238 Y40.656 E0.05153
G1 X37.457 Y41.272 E0.06814
G1 X38.734 Y41.966 E0.07251
G1 X39.984 Y42.684 E0.07192
G1 X41.216 Y43.429 E0.07183
G1 X43.07 Y44.608 E0.10961
G1 X44.239 Y45.385 E0.07003
G1 X45.376 Y46.161 E0.06868
G1 X46.484 Y46.935 E0.06743
G1 X51.368 Y50.411 E0.29908
G1 X52.849 Y51.428 E0.08963
G1 X53.565 Y51.904 E0.04289
G1 X54.197 Y52.308 E0.03742
G1 X54.816 Y52.69 E0.03629
G1 X55.424 Y53.047 E0.03518
G1 X56.023 Y53.379 E0.03417
G1 X56.586 Y53.67 E0.03162
G1 X57.138 Y53.934 E0.03053
G1 X57.675 Y54.166 E0.02918
G1 X58.197 Y54.365 E0.02787
G1 X58.658 Y54.52 E0.02426
G1 X59.11 Y54.649 E0.02345
G1 X59.352 Y54.71 E0.01245
G1 X59.795 Y54.802 E0.02257
G1 X60.372 Y54.881 E0.02906
G1 X60.945 Y54.915 E0.02864
G1 X61.336 Y54.913 E0.01951
G1 X61.729 Y54.887 E0.01965
G1 X62.304 Y54.812 E0.02893
G1 X62.867 Y54.692 E0.02872
G1 X63.418 Y54.532 E0.02863
G1 X63.957 Y54.337 E0.0286
G1 X64.485 Y54.111 E0.02865
G1 X65.109 Y53.809 E0.03459
G1 X65.711 Y53.478 E0.03427
G1 X66.777 Y52.829 E0.06226
G1 X70.3 Y52.838 E0.17576
G1 X70.376 Y52.891 E0.00462
G1 X70.366 Y56.684 E0.18923
G1 X70.291 Y56.738 E0.00461
G1 X66.867 Y56.728 E0.17082
G1 X66.849 Y63.428 E0.33427
G1 X70.274 Y63.438 E0.17087
G1 X70.35 Y63.491 E0.00462
G1 X70.341 Y67.284 E0.18923
G1 X70.264 Y67.338 E0.00469
G1 X67.409 Y67.332 E0.14244
G1 X66.795 Y67.206 E0.03127
G1 X66.144 Y67.055 E0.03334
G1 X65.586 Y66.909 E0.02878
G1 X65.029 Y66.748 E0.02893
G1 X63.904 Y66.38 E0.05905
G1 X62.804 Y65.971 E0.05855
G1 X61.698 Y65.511 E0.05976
G1 X60.739 Y65.079 E0.05248
G1 X59.779 Y64.614 E0.05322
G1 X58.832 Y64.127 E0.05313
G1 X57.895 Y63.622 E0.0531
G1 X56.895 Y63.059 E0.05725
G1 X55.979 Y62.525 E0.0529
G1 X55.085 Y61.988 E0.05203
G1 X53.625 Y61.08 E0.08578
G1 X51.734 Y59.871 E0.11198
G1 X47.42 Y57.093 E0.25599
G1 X46.266 Y56.367 E0.06802
G1 X44.513 Y55.304 E0.10228
G1 X43.006 Y54.442 E0.08662
G1 X41.965 Y53.878 E0.05907
G1 X40.903 Y53.337 E0.05946
G1 X39.823 Y52.824 E0.05965
