;FLAVOR:Marlin
;TIME:2966
;Filament used: 2.60586m
;Layer height: 0.3
;Generated with Cura_SteamEngine 3.3.1
M82 ;absolute extrusion mode
;;---------------------------------------


G21               ;metric values
G90               ;absolute positioning
M82               ;set extruder to absolute mode
M107              ;start with the fan off
M117 Preparing    ;write Preparing
M190 S45          ;wait for the bed to reach bed leveling temperature
M109 S180         ;wait for the extruder to reach 180C
G28               ;home all axes
M203 Z4           ;slow Z speed down for greater accuracy when probing
G29               ;auto bed leveling procedure
M203 Z7           ;pick up z speed again for printing
G28 X             ;home x to get as far from the plate as possible
M420 S1           ;(re) enable bed leveling turned off by the G28
G0 Y0 F5000       ;position Y in front
G0 Z15 F3000      ;position Z
M190 S70.0              ;wait for the bed to reach desired temperature
M109 S235.0             ;wait for the extruder to reach desired temperature
M300 S440 P300    ;play a tone
G4 P200           ;pause
M420 S1           ;(re) enable bed leveling to make iron-sure
M117 Print starting   ;write Print starting
G90               ;absolute positioning
G92 E0            ;reset the extruder position
M420 S1           ;(re) enable bed leveling to make iron-sure
G0 Z0             ;get Z down
M83               ;relative extrusion mode
G1 E22 F500       ;extrude __mm of feed stock
G1 E18 F400       ;extrude __mm of feed stock
G1 E10 F400       ;extrude __mm of feed stock
G4 S2             ;pause for ooze
M400              ;make sure all is finished
M420 S1           ;(re) enable bed leveling to make iron-sure
G0 F500 X3 Y0 Z0.6;get to the start of the LINE
G1 E2 F300        ;extrude __mm of feed stock
G1 F1000 X104 E10  ;print a thick LINE extruding __mm along the way
M82               ;absolute extrusion mode
G92 E0            ;reset the extruder position
G92 E0
G1 F2400 E-1.6
;LAYER_COUNT:30
;LAYER:0
M107
G0 F3600 X74.035 Y43.228 Z0.3
;TYPE:SKIRT
G1 F1800 E-0.06236
G1 F1200 X74.376 Y42.678 E-0.02362
G1 X74.782 Y42.174 E0.01513
G1 X75.248 Y41.725 E0.05387
G1 X75.765 Y41.336 E0.0926
G1 X76.326 Y41.014 E0.13133
G1 X76.923 Y40.763 E0.1701
G1 X77.546 Y40.588 E0.20884
G1 X78.186 Y40.491 E0.24759
G1 X78.686 Y40.471 E0.27755
G1 X86.421 Y40.526 E0.74064
G1 X96.327 Y40.526 E1.3337
G1 X101.296 Y40.472 E1.6312
G1 X101.942 Y40.505 E1.66993
G1 X102.58 Y40.618 E1.70872
G1 X103.198 Y40.808 E1.74743
G1 X103.789 Y41.073 E1.7862
G1 X104.342 Y41.408 E1.82491
G1 X104.85 Y41.809 E1.86366
G1 X105.304 Y42.27 E1.90239
G1 X105.698 Y42.784 E1.94117
G1 X105.946 Y43.189 E1.9696
G1 X109.495 Y49.648 E2.41081
G1 X112.35 Y54.13 E2.72896
G1 X115.602 Y58.644 E3.06203
G1 X115.943 Y59.184 E3.10027
G1 X119.494 Y65.648 E3.5418
G1 X122.356 Y70.138 E3.86058
G1 X125.601 Y74.644 E4.19302
G1 X125.946 Y75.191 E4.23173
G1 X126.221 Y75.777 E4.27049
G1 X126.422 Y76.392 E4.30922
G1 X126.545 Y77.027 E4.34795
G1 X126.589 Y77.705 E4.38862
G1 X126.59 Y87.296 E4.96282
G1 X126.55 Y87.942 E5.00157
G1 X126.431 Y88.578 E5.0403
G1 X126.234 Y89.195 E5.07908
G1 X125.963 Y89.783 E5.11784
G1 X125.63 Y90.321 E5.15572
G1 X121.42 Y96.279 E5.59248
G1 X118.637 Y100.812 E5.91093
G1 X115.965 Y105.78 E6.24864
G1 X115.629 Y106.322 E6.28682
G1 X111.427 Y112.268 E6.72272
G1 X108.637 Y116.813 E7.04199
G1 X105.975 Y121.762 E7.37842
G1 X105.634 Y122.312 E7.41717
G1 X105.227 Y122.816 E7.45595
G1 X104.762 Y123.265 E7.49465
G1 X104.245 Y123.654 E7.53338
G1 X103.684 Y123.977 E7.57214
G1 X103.087 Y124.227 E7.61089
G1 X102.464 Y124.402 E7.64963
G1 X101.824 Y124.499 E7.68838
G1 X101.315 Y124.52 E7.71888
G1 X96.405 Y124.478 E8.01285
G1 X91.016 Y124.541 E8.3355
G1 X90.909 Y124.541 E8.3419
G1 X83.573 Y124.477 E8.78111
G1 X78.705 Y124.531 E9.07257
G1 X78.058 Y124.498 E9.11135
G1 X77.421 Y124.386 E9.15008
G1 X76.802 Y124.196 E9.18884
G1 X76.212 Y123.931 E9.22756
G1 X75.658 Y123.595 E9.26635
G1 X75.151 Y123.194 E9.30505
G1 X74.696 Y122.733 E9.34383
G1 X74.302 Y122.22 E9.38256
G1 X74.054 Y121.814 E9.41104
G1 X70.505 Y115.353 E9.85236
G1 X67.65 Y110.874 E10.17035
G1 X64.398 Y106.359 E10.50347
G1 X64.057 Y105.819 E10.54171
G1 X60.505 Y99.353 E10.98338
G1 X57.644 Y94.865 E11.30202
G1 X54.4 Y90.36 E11.63438
G1 X54.055 Y89.813 E11.67309
G1 X53.78 Y89.227 E11.71185
G1 X53.579 Y88.612 E11.75058
G1 X53.456 Y87.976 E11.78936
G1 X53.412 Y87.299 E11.82998
G1 X53.411 Y77.706 E12.4043
G1 X53.451 Y77.06 E12.44305
G1 X53.57 Y76.424 E12.48178
G1 X53.767 Y75.807 E12.52056
G1 X54.038 Y75.219 E12.55932
G1 X54.414 Y74.622 E12.60156
G1 X57.051 Y70.998 E12.86988
G1 X59.99 Y66.501 E13.19151
G1 X62.684 Y61.823 E13.51469
G1 X64.005 Y59.283 E13.68609
G1 X64.375 Y58.676 E13.72865
G1 X68.571 Y52.741 E14.1638
G1 X71.365 Y48.19 E14.48351
G1 X73.931 Y43.421 E14.80773
G0 F1080 X74.035 Y43.228
G1 F2400 E13.20773
G1 F300 Z0.45
G0 F3600 X80.64 Y54.341 Z0.45
;TYPE:WALL-INNER
G1 F300 Z0.3
G1 F1800 E14.75854
G1 F1200 X80.64 Y54.581 E14.77291
G1 X80.4 Y54.581 E14.7822
G1 X79.361 Y54.581 E14.8444
G1 X79.361 Y46.422 E15.33287
G1 X80.639 Y46.422 E15.40938
G1 X80.64 Y54.121 E15.87031
G0 F1080 X80.64 Y54.341
G0 F3600 X81.12 Y54.821
;TYPE:WALL-OUTER
G1 F1800 E15.88348
G1 F1200 X81.12 Y55.061 E15.89785
G1 X80.88 Y55.061 E15.90714
G1 X78.881 Y55.061 E16.02682
G1 X78.881 Y45.942 E16.57275
G1 X81.119 Y45.942 E16.70674
G1 X81.12 Y54.601 E17.22514
G0 F1080 X81.12 Y54.821
G0 F3600 X81.12 Y55.061
G0 X80.88 Y55.061
G0 X80.76 Y55.061
G0 X80.122 Y54.063
;TYPE:SKIN
G1 F1800 E17.23831
G1 F1200 X79.879 Y54.063 E17.25577
G1 X79.879 Y46.94 E17.7675
G1 X80.121 Y46.94 E17.78488
G1 X80.122 Y53.879 E18.28339
G0 F1080 X80.122 Y54.063
G1 F2400 E16.68339
G1 F300 Z0.45
G0 F3600 X90.64 Y70.341 Z0.45
;TYPE:WALL-INNER
G1 F300 Z0.3
G1 F1800 E18.23425
G1 F1200 X90.64 Y70.581 E18.24862
G1 X90.4 Y70.581 E18.25791
G1 X89.361 Y70.581 E18.32012
G1 X89.361 Y62.422 E18.80858
G1 X90.639 Y62.422 E18.88509
G1 X90.64 Y70.121 E19.34602
G0 F1080 X90.64 Y70.341
G0 F3600 X91.12 Y70.821
;TYPE:WALL-OUTER
G1 F1800 E19.35919
G1 F1200 X91.12 Y71.061 E19.37356
G1 X90.88 Y71.061 E19.38285
G1 X88.881 Y71.061 E19.50253
G1 X88.881 Y61.942 E20.04847
G1 X91.119 Y61.942 E20.18245
G1 X91.12 Y70.601 E20.70085
G0 F1080 X91.12 Y70.821
G0 F3600 X91.12 Y71.061
G0 X90.88 Y71.061
G0 X90.76 Y71.061
G0 X90.122 Y70.063
;TYPE:SKIN
G1 F1800 E20.71402
G1 F1200 X89.879 Y70.063 E20.73148
G1 X89.879 Y62.94 E21.24321
G1 X90.121 Y62.94 E21.2606
G1 X90.122 Y69.879 E21.75911
G0 F1080 X90.122 Y70.063
G1 F2400 E20.15911
G1 F300 Z0.45
G0 F3600 X80.64 Y70.341 Z0.45
;TYPE:WALL-INNER
G1 F300 Z0.3
G1 F1800 E21.70996
G1 F1200 X80.64 Y70.581 E21.72433
G1 X80.4 Y70.581 E21.73363
G1 X79.361 Y70.581 E21.79583
G1 X79.361 Y62.422 E22.28429
G1 X80.639 Y62.422 E22.36081
G1 X80.64 Y70.121 E22.82173
G0 F1080 X80.64 Y70.341
G0 F3600 X81.12 Y70.821
;TYPE:WALL-OUTER
G1 F1800 E22.8349
G1 F1200 X81.12 Y71.061 E22.84927
G1 X80.88 Y71.061 E22.85857
G1 X78.881 Y71.061 E22.97824
G1 X78.881 Y61.942 E23.52418
G1 X81.119 Y61.942 E23.65817
G1 X81.12 Y70.601 E24.17656
G0 F1080 X81.12 Y70.821
G0 F3600 X81.12 Y71.061
G0 X80.88 Y71.061
G0 X80.76 Y71.061
G0 X80.122 Y70.063
;TYPE:SKIN
G1 F1800 E24.18974
G1 F1200 X79.879 Y70.063 E24.20719
G1 X79.879 Y62.94 E24.71892
G1 X80.121 Y62.94 E24.73631
G1 X80.122 Y69.879 E25.23482
G0 F1080 X80.122 Y70.063
G1 F2400 E23.63482
G1 F300 Z0.45
G0 F3600 X70.64 Y70.341 Z0.45
;TYPE:WALL-INNER
G1 F300 Z0.3
G1 F1800 E25.18568
G1 F1200 X70.64 Y70.581 E25.20004
G1 X70.4 Y70.581 E25.20934
G1 X69.361 Y70.581 E25.27154
G1 X69.361 Y62.422 E25.76001
G1 X70.639 Y62.422 E25.83652
G1 X70.64 Y70.121 E26.29744
G0 F1080 X70.64 Y70.341
G0 F3600 X71.12 Y70.821
;TYPE:WALL-OUTER
G1 F1800 E26.31062
G1 F1200 X71.12 Y71.061 E26.32498
G1 X70.88 Y71.061 E26.33428
G1 X68.881 Y71.061 E26.45395
G1 X68.881 Y61.942 E26.99989
G1 X71.119 Y61.942 E27.13388
G1 X71.12 Y70.601 E27.65228
G0 F1080 X71.12 Y70.821
G0 F3600 X71.12 Y71.061
G0 X70.88 Y71.061
G0 X70.76 Y71.061
G0 X70.122 Y70.063
;TYPE:SKIN
G1 F1800 E27.66545
G1 F1200 X69.879 Y70.063 E27.68291
G1 X69.879 Y62.94 E28.19464
G1 X70.121 Y62.94 E28.21202
G1 X70.122 Y69.879 E28.71053
G0 F1080 X70.122 Y70.063
G1 F2400 E27.11053
G1 F300 Z0.45
G0 F3600 X90.64 Y86.341 Z0.45
;TYPE:WALL-INNER
G1 F300 Z0.3
G1 F1800 E28.66139
G1 F1200 X90.64 Y86.581 E28.67576
G1 X90.4 Y86.581 E28.68505
G1 X89.361 Y86.581 E28.74725
G1 X89.361 Y78.422 E29.23572
G1 X90.639 Y78.422 E29.31223
G1 X90.64 Y86.121 E29.77316
G0 F1080 X90.64 Y86.341
G0 F3600 X91.12 Y86.821
;TYPE:WALL-OUTER
G1 F1800 E29.78633
G1 F1200 X91.12 Y87.061 E29.8007
G1 X90.88 Y87.061 E29.80999
G1 X88.881 Y87.061 E29.92967
G1 X88.881 Y77.942 E30.47561
G1 X91.119 Y77.942 E30.60959
G1 X91.12 Y86.601 E31.12799
G0 F1080 X91.12 Y86.821
G0 F3600 X91.12 Y87.061
G0 X90.88 Y87.061
G0 X90.76 Y87.061
G0 X90.122 Y86.063
;TYPE:SKIN
G1 F1800 E31.14116
G1 F1200 X89.879 Y86.063 E31.15862
G1 X89.879 Y78.94 E31.67035
G1 X90.121 Y78.94 E31.68773
G1 X90.122 Y85.879 E32.18625
G0 F1080 X90.122 Y86.063
G1 F2400 E30.58625
G1 F300 Z0.45
G0 F3600 X80.64 Y86.341 Z0.45
;TYPE:WALL-INNER
G1 F300 Z0.3
G1 F1800 E32.1371
G1 F1200 X80.64 Y86.581 E32.15147
G1 X80.4 Y86.581 E32.16076
G1 X79.361 Y86.581 E32.22297
G1 X79.361 Y78.422 E32.71143
G1 X80.639 Y78.422 E32.78794
G1 X80.64 Y86.121 E33.24887
G0 F1080 X80.64 Y86.341
G0 F3600 X81.12 Y86.821
;TYPE:WALL-OUTER
G1 F1800 E33.26204
G1 F1200 X81.12 Y87.061 E33.27641
G1 X80.88 Y87.061 E33.2857
G1 X78.881 Y87.061 E33.40538
G1 X78.881 Y77.942 E33.95132
G1 X81.119 Y77.942 E34.0853
G1 X81.12 Y86.601 E34.6037
G0 F1080 X81.12 Y86.821
G0 F3600 X81.12 Y87.061
G0 X80.88 Y87.061
G0 X80.76 Y87.061
G0 X80.122 Y86.063
;TYPE:SKIN
G1 F1800 E34.61687
G1 F1200 X79.879 Y86.063 E34.63433
G1 X79.879 Y78.94 E35.14606
G1 X80.121 Y78.94 E35.16345
G1 X80.122 Y85.879 E35.66196
G0 F1080 X80.122 Y86.063
G1 F2400 E34.06196
G1 F300 Z0.45
G0 F3600 X70.64 Y86.341 Z0.45
;TYPE:WALL-INNER
G1 F300 Z0.3
G1 F1800 E35.61281
G1 F1200 X70.64 Y86.581 E35.62718
G1 X70.4 Y86.581 E35.63648
G1 X69.361 Y86.581 E35.69868
G1 X69.361 Y78.422 E36.18715
G1 X70.639 Y78.422 E36.26366
G1 X70.64 Y86.121 E36.72458
G0 F1080 X70.64 Y86.341
G0 F3600 X71.12 Y86.821
;TYPE:WALL-OUTER
G1 F1800 E36.73775
G1 F1200 X71.12 Y87.061 E36.75212
G1 X70.88 Y87.061 E36.76142
G1 X68.881 Y87.061 E36.88109
G1 X68.881 Y77.942 E37.42703
G1 X71.119 Y77.942 E37.56102
G1 X71.12 Y86.601 E38.07942
G0 F1080 X71.12 Y86.821
G0 F3600 X71.12 Y87.061
G0 X70.88 Y87.061
G0 X70.76 Y87.061
G0 X70.122 Y86.063
;TYPE:SKIN
G1 F1800 E38.09259
G1 F1200 X69.879 Y86.063 E38.11004
G1 X69.879 Y78.94 E38.62177
G1 X70.121 Y78.94 E38.63916
G1 X70.122 Y85.879 E39.13767
G0 F1080 X70.122 Y86.063
G1 F2400 E37.53767
G1 F300 Z0.45
G0 F3600 X60.64 Y86.341 Z0.45
;TYPE:WALL-INNER
G1 F300 Z0.3
G1 F1800 E39.08853
G1 F1200 X60.64 Y86.581 E39.1029
G1 X60.4 Y86.581 E39.11219
G1 X59.361 Y86.581 E39.17439
G1 X59.361 Y78.422 E39.66286
G1 X60.639 Y78.422 E39.73937
G1 X60.64 Y86.121 E40.20029
G0 F1080 X60.64 Y86.341
G0 F3600 X61.12 Y86.821
;TYPE:WALL-OUTER
G1 F1800 E40.21347
G1 F1200 X61.12 Y87.061 E40.22783
G1 X60.88 Y87.061 E40.23713
G1 X58.881 Y87.061 E40.35681
G1 X58.881 Y77.942 E40.90274
G1 X61.119 Y77.942 E41.03673
G1 X61.12 Y86.601 E41.55513
G0 F1080 X61.12 Y86.821
G0 F3600 X61.12 Y87.061
G0 X60.88 Y87.061
G0 X60.76 Y87.061
G0 X60.122 Y86.063
;TYPE:SKIN
G1 F1800 E41.5683
G1 F1200 X59.879 Y86.063 E41.58576
G1 X59.879 Y78.94 E42.09749
G1 X60.121 Y78.94 E42.11487
G1 X60.122 Y85.879 E42.61338
G0 F1080 X60.122 Y86.063
G1 F2400 E41.01338
G1 F300 Z0.45
G0 F3600 X70.64 Y102.341 Z0.45
;TYPE:WALL-INNER
G1 F300 Z0.3
G1 F1800 E42.56424
G1 F1200 X70.64 Y102.581 E42.57861
G1 X70.4 Y102.581 E42.5879
G1 X69.361 Y102.581 E42.65011
G1 X69.361 Y94.422 E43.13857
G1 X70.639 Y94.422 E43.21508
G1 X70.64 Y102.121 E43.67601
G0 F1080 X70.64 Y102.341
G0 F3600 X71.12 Y102.821
;TYPE:WALL-OUTER
G1 F1800 E43.68918
G1 F1200 X71.12 Y103.061 E43.70355
G1 X70.88 Y103.061 E43.71284
G1 X68.881 Y103.061 E43.83252
G1 X68.881 Y93.942 E44.37846
G1 X71.119 Y93.942 E44.51244
G1 X71.12 Y102.601 E45.03084
G0 F1080 X71.12 Y102.821
G0 F3600 X71.12 Y103.061
G0 X70.88 Y103.061
G0 X70.76 Y103.061
G0 X70.122 Y102.063
;TYPE:SKIN
G1 F1800 E45.04401
G1 F1200 X69.879 Y102.063 E45.06147
G1 X69.879 Y94.94 E45.5732
G1 X70.121 Y94.94 E45.59059
G1 X70.122 Y101.879 E46.0891
G0 F1080 X70.122 Y102.063
G1 F2400 E44.4891
G1 F300 Z0.45
G0 F3600 X80.64 Y102.341 Z0.45
;TYPE:WALL-INNER
G1 F300 Z0.3
G1 F1800 E46.03995
G1 F1200 X80.64 Y102.581 E46.05432
G1 X80.4 Y102.581 E46.06362
G1 X79.361 Y102.581 E46.12582
G1 X79.361 Y94.422 E46.61428
G1 X80.639 Y94.422 E46.69079
G1 X80.64 Y102.121 E47.15172
G0 F1080 X80.64 Y102.341
G0 F3600 X81.12 Y102.821
;TYPE:WALL-OUTER
G1 F1800 E47.16489
G1 F1200 X81.12 Y103.061 E47.17926
G1 X80.88 Y103.061 E47.18855
G1 X78.881 Y103.061 E47.30823
G1 X78.881 Y93.942 E47.85417
G1 X81.119 Y93.942 E47.98815
G1 X81.12 Y102.601 E48.50655
G0 F1080 X81.12 Y102.821
G0 F3600 X81.12 Y103.061
G0 X80.88 Y103.061
G0 X80.76 Y103.061
G0 X80.122 Y102.063
;TYPE:SKIN
G1 F1800 E48.51972
G1 F1200 X79.879 Y102.063 E48.53718
G1 X79.879 Y94.94 E49.04891
G1 X80.121 Y94.94 E49.0663
G1 X80.122 Y101.879 E49.56481
G0 F1080 X80.122 Y102.063
G1 F2400 E47.96481
G1 F300 Z0.45
G0 F3600 X80.64 Y118.341 Z0.45
;TYPE:WALL-INNER
G1 F300 Z0.3
G1 F1800 E49.51566
G1 F1200 X80.64 Y118.581 E49.53003
G1 X80.4 Y118.581 E49.53933
G1 X79.361 Y118.581 E49.60153
G1 X79.361 Y110.422 E50.09
G1 X80.639 Y110.422 E50.16651
G1 X80.64 Y118.121 E50.62743
G0 F1080 X80.64 Y118.341
G0 F3600 X81.12 Y118.821
;TYPE:WALL-OUTER
G1 F1800 E50.6406
G1 F1200 X81.12 Y119.061 E50.65497
G1 X80.88 Y119.061 E50.66427
G1 X78.881 Y119.061 E50.78394
G1 X78.881 Y109.942 E51.32988
G1 X81.119 Y109.942 E51.46387
G1 X81.12 Y118.601 E51.98227
G0 F1080 X81.12 Y118.821
G0 F3600 X81.12 Y119.061
G0 X80.88 Y119.061
G0 X80.76 Y119.061
G0 X80.122 Y118.063
;TYPE:SKIN
G1 F1800 E51.99544
G1 F1200 X79.879 Y118.063 E52.0129
G1 X79.879 Y110.94 E52.52462
G1 X80.121 Y110.94 E52.54201
G1 X80.122 Y117.879 E53.04052
G0 F1080 X80.122 Y118.063
G1 F2400 E51.44052
G1 F300 Z0.45
G0 F3600 X90.64 Y118.341 Z0.45
;TYPE:WALL-INNER
G1 F300 Z0.3
G1 F1800 E52.99138
G1 F1200 X90.64 Y118.581 E53.00575
G1 X90.4 Y118.581 E53.01504
G1 X89.361 Y118.581 E53.07724
G1 X89.361 Y110.422 E53.56571
G1 X90.639 Y110.422 E53.64222
G1 X90.64 Y118.121 E54.10315
G0 F1080 X90.64 Y118.341
G0 F3600 X91.12 Y118.821
;TYPE:WALL-OUTER
G1 F1800 E54.11632
G1 F1200 X91.12 Y119.061 E54.13069
G1 X90.88 Y119.061 E54.13998
G1 X88.881 Y119.061 E54.25966
G1 X88.881 Y109.942 E54.80559
G1 X91.119 Y109.942 E54.93958
G1 X91.12 Y118.601 E55.45798
G0 F1080 X91.12 Y118.821
G0 F3600 X91.12 Y119.061
G0 X90.88 Y119.061
G0 X90.76 Y119.061
G0 X90.122 Y118.063
;TYPE:SKIN
G1 F1800 E55.47115
G1 F1200 X89.879 Y118.063 E55.48861
G1 X89.879 Y110.94 E56.00034
G1 X90.121 Y110.94 E56.01772
G1 X90.122 Y117.879 E56.51623
G0 F1080 X90.122 Y118.063
G1 F2400 E54.91623
G1 F300 Z0.45
G0 F3600 X100.64 Y118.341 Z0.45
;TYPE:WALL-INNER
G1 F300 Z0.3
G1 F1800 E56.46709
G1 F1200 X100.64 Y118.581 E56.48146
G1 X100.4 Y118.581 E56.49075
G1 X99.361 Y118.581 E56.55296
G1 X99.361 Y110.422 E57.04142
G1 X100.639 Y110.422 E57.11793
G1 X100.64 Y118.121 E57.57886
G0 F1080 X100.64 Y118.341
G0 F3600 X101.12 Y118.821
;TYPE:WALL-OUTER
G1 F1800 E57.59203
G1 F1200 X101.12 Y119.061 E57.6064
G1 X100.88 Y119.061 E57.61569
G1 X98.881 Y119.061 E57.73537
G1 X98.881 Y109.942 E58.28131
G1 X101.119 Y109.942 E58.41529
G1 X101.12 Y118.601 E58.93369
G0 F1080 X101.12 Y118.821
G0 F3600 X101.12 Y119.061
G0 X100.88 Y119.061
G0 X100.76 Y119.061
G0 X100.122 Y118.063
;TYPE:SKIN
G1 F1800 E58.94686
G1 F1200 X99.879 Y118.063 E58.96432
G1 X99.879 Y110.94 E59.47605
G1 X100.121 Y110.94 E59.49344
G1 X100.122 Y117.879 E59.99195
G0 F1080 X100.122 Y118.063
G1 F2400 E58.39195
G1 F300 Z0.45
G0 F3600 X90.64 Y102.341 Z0.45
;TYPE:WALL-INNER
G1 F300 Z0.3
G1 F1800 E59.9428
G1 F1200 X90.64 Y102.581 E59.95717
G1 X90.4 Y102.581 E59.96647
G1 X89.361 Y102.581 E60.02867
G1 X89.361 Y94.422 E60.51713
G1 X90.639 Y94.422 E60.59365
